( Sample-ski-top-cutout.nc                                                     )
( Generated by MonkeyCAM v4.0.3 at 2016-03-15 22:16:40 New Zealand Daylight Time
(                                                                              )
( This GCode program is provided on an "AS IS" BASIS WITHOUT WARRANTIES OR     )
( CONDITIONS OF ANY KIND, either express or implied. You should inspect this   )
( program very carefully to confirm you understand its operation. YOU ARE      )
( RESPONSIBLE FOR ENSURING THIS PROGRAM WILL NOT DAMAGE YOUR MACHINE OR        )
( MATERIALS.                                                                   )
(                                                                              )
( See http://www.github.com/mikemag/MonkeyCAM for License and documentation.   )
(                                                                              )
( * Rapid height: 0.6000" [1.5240cm]                                           )
( * Tool: T1, Quarter Inch Upcut Spiral, diameter 0.2469" [0.6273cm]           )
( * Height baseline [Z=0.0] is the top of the table.                           )
( * XY origin is the left side of the table, Y is center of the part.          )
( * Requires G54 to be the part work coordinate offsets [WCO]. [0, 0] is the   )
(   center of the nose, with the board extending to positive X. The cutter may )
(   move to negative values of X.                                              )
( * Requires G55 to be the machine WCO, with Z above the rapid height.         )
( * Units are inches                                                           )
( * Center of the board in G54:                                                )
(     X=36.0236 Y=0.0000 Z=0.0000                                              )
( * Cutter bounding box in G54:                                                )
(     X0.0000 Y-2.7770 Z-0.0100 to X69.6115 Y2.7770 Z0.6000                    )

G90 G20 G17 G40 G49
G43 H1 T1
G00 G54 X0 Y0 Z0.6000

G00 X0.6640 Y-0.0020 Z0.6000
M03
G04 P5
G01 X0.6640 Y-0.0020 Z0.2050 F80
G01 X0.6648 Y-0.0512 Z0.2050
G01 X0.6650 Y-0.0554 Z0.2050
G01 X0.6674 Y-0.1028 Z0.2050
G01 X0.6677 Y-0.1073 Z0.2050
G01 X0.6720 Y-0.1560 Z0.2050
G01 X0.6725 Y-0.1605 Z0.2050
G01 X0.6784 Y-0.2075 Z0.2050
G01 X0.6790 Y-0.2119 Z0.2050
G01 X0.6865 Y-0.2583 Z0.2050
G01 X0.6874 Y-0.2629 Z0.2050
G01 X0.6965 Y-0.3085 Z0.2050
G01 X0.6975 Y-0.3131 Z0.2050
G01 X0.7085 Y-0.3589 Z0.2050
G01 X0.7097 Y-0.3635 Z0.2050
G01 X0.7223 Y-0.4083 Z0.2050
G01 X0.7238 Y-0.4130 Z0.2050
G01 X0.7381 Y-0.4572 Z0.2050
G01 X0.7397 Y-0.4617 Z0.2050
G01 X0.7562 Y-0.5064 Z0.2050
G01 X0.7579 Y-0.5109 Z0.2050
G01 X0.7759 Y-0.5544 Z0.2050
G01 X0.7780 Y-0.5590 Z0.2050
G01 X0.7979 Y-0.6020 Z0.2050
G01 X0.8001 Y-0.6066 Z0.2050
G01 X0.8220 Y-0.6492 Z0.2050
G01 X0.8242 Y-0.6534 Z0.2050
G01 X0.8489 Y-0.6972 Z0.2050
G01 X0.8515 Y-0.7016 Z0.2050
G01 X0.8774 Y-0.7433 Z0.2050
G01 X0.8801 Y-0.7475 Z0.2050
G01 X0.9091 Y-0.7904 Z0.2050
G01 X0.9119 Y-0.7944 Z0.2050
G01 X0.9431 Y-0.8367 Z0.2050
G01 X0.9462 Y-0.8407 Z0.2050
G01 X0.9803 Y-0.8833 Z0.2050
G01 X0.9833 Y-0.8870 Z0.2050
G01 X1.0192 Y-0.9284 Z0.2050
G01 X1.0226 Y-0.9321 Z0.2050
G01 X1.0626 Y-0.9747 Z0.2050
G01 X1.0659 Y-0.9780 Z0.2050
G01 X1.1088 Y-1.0203 Z0.2050
G01 X1.1122 Y-1.0236 Z0.2050
G01 X1.1578 Y-1.0652 Z0.2050
G01 X1.1612 Y-1.0683 Z0.2050
G01 X1.2110 Y-1.1104 Z0.2050
G01 X1.2145 Y-1.1133 Z0.2050
G01 X1.2676 Y-1.1550 Z0.2050
G01 X1.2712 Y-1.1577 Z0.2050
G01 X1.3263 Y-1.1979 Z0.2050
G01 X1.3299 Y-1.2004 Z0.2050
G01 X1.3920 Y-1.2424 Z0.2050
G01 X1.3955 Y-1.2447 Z0.2050
G01 X1.4590 Y-1.2846 Z0.2050
G01 X1.4625 Y-1.2868 Z0.2050
G01 X1.5318 Y-1.3271 Z0.2050
G01 X1.5352 Y-1.3290 Z0.2050
G01 X1.6082 Y-1.3684 Z0.2050
G01 X1.6117 Y-1.3702 Z0.2050
G01 X1.6894 Y-1.4090 Z0.2050
G01 X1.6928 Y-1.4106 Z0.2050
G01 X1.7745 Y-1.4483 Z0.2050
G01 X1.7778 Y-1.4498 Z0.2050
G01 X1.8640 Y-1.4865 Z0.2050
G01 X1.8672 Y-1.4879 Z0.2050
G01 X1.9590 Y-1.5239 Z0.2050
G01 X1.9623 Y-1.5251 Z0.2050
G01 X2.0575 Y-1.5595 Z0.2050
G01 X2.0607 Y-1.5606 Z0.2050
G01 X2.1614 Y-1.5939 Z0.2050
G01 X2.1645 Y-1.5948 Z0.2050
G01 X2.2692 Y-1.6264 Z0.2050
G01 X2.2721 Y-1.6273 Z0.2050
G01 X2.3833 Y-1.6578 Z0.2050
G01 X2.3863 Y-1.6586 Z0.2050
G01 X2.5033 Y-1.6876 Z0.2050
G01 X2.5060 Y-1.6883 Z0.2050
G01 X2.6259 Y-1.7151 Z0.2050
G01 X2.6294 Y-1.7158 Z0.2050
G01 X2.7203 Y-1.7334 Z0.2050
G01 X2.7217 Y-1.7337 Z0.2050
G01 X2.8094 Y-1.7496 Z0.2050
G01 X2.8106 Y-1.7498 Z0.2050
G01 X2.8950 Y-1.7643 Z0.2050
G01 X2.8963 Y-1.7645 Z0.2050
G01 X2.9775 Y-1.7775 Z0.2050
G01 X2.9786 Y-1.7777 Z0.2050
G01 X3.0566 Y-1.7894 Z0.2050
G01 X3.0578 Y-1.7896 Z0.2050
G01 X3.1328 Y-1.8002 Z0.2050
G01 X3.1337 Y-1.8003 Z0.2050
G01 X3.2056 Y-1.8099 Z0.2050
G01 X3.2064 Y-1.8100 Z0.2050
G01 X3.2754 Y-1.8188 Z0.2050
G01 X3.2761 Y-1.8188 Z0.2050
G01 X3.3422 Y-1.8268 Z0.2050
G01 X3.3428 Y-1.8269 Z0.2050
G01 X3.4061 Y-1.8343 Z0.2050
G01 X3.4667 Y-1.8412 Z0.2050
G01 X3.5246 Y-1.8478 Z0.2050
G01 X3.5790 Y-1.8541 Z0.2050
G01 X3.6316 Y-1.8604 Z0.2050
G01 X3.6794 Y-1.8665 Z0.2050
G01 X3.7270 Y-1.8730 Z0.2050
G01 X3.7690 Y-1.8794 Z0.2050
G01 X3.8092 Y-1.8863 Z0.2050
G01 X3.8475 Y-1.8938 Z0.2050
G01 X3.8814 Y-1.9014 Z0.2050
G01 X3.9124 Y-1.9096 Z0.2050
G01 X3.9412 Y-1.9185 Z0.2050
G01 X3.9675 Y-1.9280 Z0.2050
G01 X3.9905 Y-1.9379 Z0.2050
G01 X4.0112 Y-1.9483 Z0.2050
G01 X4.0295 Y-1.9593 Z0.2050
G01 X4.0457 Y-1.9709 Z0.2050
G01 X4.0604 Y-1.9833 Z0.2050
G01 X4.0742 Y-1.9971 Z0.2050
G01 X4.0869 Y-2.0122 Z0.2050
G01 X4.0990 Y-2.0294 Z0.2050
G01 X4.1105 Y-2.0488 Z0.2050
G01 X4.1217 Y-2.0712 Z0.2050
G01 X4.1325 Y-2.0971 Z0.2050
G01 X4.1424 Y-2.1255 Z0.2050
G01 X4.1518 Y-2.1581 Z0.2050
G01 X4.1606 Y-2.1948 Z0.2050
G01 X4.1685 Y-2.2347 Z0.2050
G01 X4.1755 Y-2.2772 Z0.2050
G01 X4.1819 Y-2.3257 Z0.2050
G01 X4.1872 Y-2.3761 Z0.2050
G01 X4.1921 Y-2.4336 Z0.2050
G01 X4.1960 Y-2.4922 Z0.2050
G01 X4.1994 Y-2.5573 Z0.2050
G01 X4.2020 Y-2.6256 Z0.2050
G01 X4.2028 Y-2.6570 Z0.2050
G01 X4.2030 Y-2.6605 Z0.2050
G01 X4.2032 Y-2.6639 Z0.2050
G01 X4.2036 Y-2.6674 Z0.2050
G01 X4.2040 Y-2.6709 Z0.2050
G01 X4.2046 Y-2.6744 Z0.2050
G01 X4.2052 Y-2.6778 Z0.2050
G01 X4.2059 Y-2.6812 Z0.2050
G01 X4.2068 Y-2.6846 Z0.2050
G01 X4.2077 Y-2.6880 Z0.2050
G01 X4.2087 Y-2.6914 Z0.2050
G01 X4.2098 Y-2.6947 Z0.2050
G01 X4.2111 Y-2.6979 Z0.2050
G01 X4.2124 Y-2.7012 Z0.2050
G01 X4.2138 Y-2.7044 Z0.2050
G01 X4.2153 Y-2.7076 Z0.2050
G01 X4.2168 Y-2.7107 Z0.2050
G01 X4.2185 Y-2.7138 Z0.2050
G01 X4.2202 Y-2.7168 Z0.2050
G01 X4.2221 Y-2.7198 Z0.2050
G01 X4.2240 Y-2.7227 Z0.2050
G01 X4.2260 Y-2.7256 Z0.2050
G01 X4.2281 Y-2.7284 Z0.2050
G01 X4.2303 Y-2.7312 Z0.2050
G01 X4.2325 Y-2.7339 Z0.2050
G01 X4.2348 Y-2.7365 Z0.2050
G01 X4.2372 Y-2.7390 Z0.2050
G01 X4.2397 Y-2.7416 Z0.2050
G01 X4.2422 Y-2.7440 Z0.2050
G01 X4.2448 Y-2.7463 Z0.2050
G01 X4.2475 Y-2.7486 Z0.2050
G01 X4.2502 Y-2.7508 Z0.2050
G01 X4.2530 Y-2.7529 Z0.2050
G01 X4.2558 Y-2.7550 Z0.2050
G01 X4.2587 Y-2.7569 Z0.2050
G01 X4.2617 Y-2.7588 Z0.2050
G01 X4.2647 Y-2.7605 Z0.2050
G01 X4.2677 Y-2.7623 Z0.2050
G01 X4.2709 Y-2.7639 Z0.2050
G01 X4.2740 Y-2.7654 Z0.2050
G01 X4.2772 Y-2.7668 Z0.2050
G01 X4.2804 Y-2.7682 Z0.2050
G01 X4.2837 Y-2.7694 Z0.2050
G01 X4.2870 Y-2.7706 Z0.2050
G01 X4.2903 Y-2.7717 Z0.2050
G01 X4.2937 Y-2.7726 Z0.2050
G01 X4.2971 Y-2.7735 Z0.2050
G01 X4.3005 Y-2.7743 Z0.2050
G01 X4.3040 Y-2.7750 Z0.2050
G01 X4.3074 Y-2.7755 Z0.2050
G01 X4.3109 Y-2.7761 Z0.2050
G01 X4.3144 Y-2.7764 Z0.2050
G01 X4.3179 Y-2.7767 Z0.2050
G01 X4.3213 Y-2.7769 Z0.2050
G01 X4.3248 Y-2.7770 Z0.2050
G01 X4.3283 Y-2.7770 Z0.2050
G01 X4.3314 Y-2.7770 Z0.2050
G01 X4.3371 Y-2.7770 Z0.2050
G01 X4.3403 Y-2.7769 Z0.2050
G01 X4.9737 Y-2.7516 Z0.2050
G01 X5.6071 Y-2.7269 Z0.2050
G01 X6.2404 Y-2.7026 Z0.2050
G01 X6.8738 Y-2.6787 Z0.2050
G01 X7.5072 Y-2.6553 Z0.2050
G01 X8.1407 Y-2.6324 Z0.2050
G01 X8.7740 Y-2.6099 Z0.2050
G01 X9.4075 Y-2.5879 Z0.2050
G01 X10.0410 Y-2.5663 Z0.2050
G01 X10.6744 Y-2.5451 Z0.2050
G01 X11.3079 Y-2.5245 Z0.2050
G01 X11.9377 Y-2.5044 Z0.2050
G01 X11.9412 Y-2.5043 Z0.2050
G01 X12.5748 Y-2.4845 Z0.2050
G01 X13.2085 Y-2.4653 Z0.2050
G01 X13.8420 Y-2.4464 Z0.2050
G01 X14.4756 Y-2.4280 Z0.2050
G01 X15.1092 Y-2.4100 Z0.2050
G01 X15.7428 Y-2.3925 Z0.2050
G01 X16.3763 Y-2.3755 Z0.2050
G01 X17.0099 Y-2.3589 Z0.2050
G01 X17.6436 Y-2.3427 Z0.2050
G01 X18.1102 Y-2.3312 Z0.2050
G01 X18.2772 Y-2.3271 Z0.2050
G01 X18.8976 Y-2.3122 Z0.2050
G01 X18.9108 Y-2.3118 Z0.2050
G01 X19.5445 Y-2.2970 Z0.2050
G01 X19.6850 Y-2.2938 Z0.2050
G01 X20.1782 Y-2.2827 Z0.2050
G01 X20.4724 Y-2.2762 Z0.2050
G01 X20.8119 Y-2.2688 Z0.2050
G01 X21.4455 Y-2.2554 Z0.2050
G01 X22.0792 Y-2.2425 Z0.2050
G01 X22.7129 Y-2.2300 Z0.2050
G01 X23.3466 Y-2.2179 Z0.2050
G01 X23.9764 Y-2.2064 Z0.2050
G01 X23.9802 Y-2.2064 Z0.2050
G01 X24.6141 Y-2.1952 Z0.2050
G01 X25.2478 Y-2.1845 Z0.2050
G01 X25.8816 Y-2.1743 Z0.2050
G01 X26.5153 Y-2.1645 Z0.2050
G01 X27.1490 Y-2.1551 Z0.2050
G01 X27.7828 Y-2.1463 Z0.2050
G01 X28.4166 Y-2.1379 Z0.2050
G01 X29.0504 Y-2.1299 Z0.2050
G01 X29.6842 Y-2.1224 Z0.2050
G01 X30.3179 Y-2.1153 Z0.2050
G01 X30.9518 Y-2.1087 Z0.2050
G01 X31.5856 Y-2.1025 Z0.2050
G01 X32.2193 Y-2.0968 Z0.2050
G01 X32.8531 Y-2.0916 Z0.2050
G01 X33.4870 Y-2.0868 Z0.2050
G01 X34.1207 Y-2.0824 Z0.2050
G01 X34.7546 Y-2.0785 Z0.2050
G01 X35.3884 Y-2.0751 Z0.2050
G01 X36.0222 Y-2.0721 Z0.2050
G01 X36.6560 Y-2.0696 Z0.2050
G01 X37.2899 Y-2.0675 Z0.2050
G01 X37.9237 Y-2.0659 Z0.2050
G01 X38.5575 Y-2.0647 Z0.2050
G01 X39.1914 Y-2.0640 Z0.2050
G01 X39.8251 Y-2.0637 Z0.2050
G01 X40.4588 Y-2.0639 Z0.2050
G01 X41.0927 Y-2.0646 Z0.2050
G01 X41.7265 Y-2.0657 Z0.2050
G01 X42.3603 Y-2.0672 Z0.2050
G01 X42.9941 Y-2.0692 Z0.2050
G01 X43.6279 Y-2.0717 Z0.2050
G01 X44.2618 Y-2.0746 Z0.2050
G01 X44.8956 Y-2.0780 Z0.2050
G01 X45.5294 Y-2.0818 Z0.2050
G01 X46.1633 Y-2.0861 Z0.2050
G01 X46.7970 Y-2.0908 Z0.2050
G01 X47.4308 Y-2.0960 Z0.2050
G01 X48.0646 Y-2.1016 Z0.2050
G01 X48.6985 Y-2.1077 Z0.2050
G01 X49.3322 Y-2.1143 Z0.2050
G01 X49.8031 Y-2.1195 Z0.2050
G01 X49.9660 Y-2.1213 Z0.2050
G01 X50.5905 Y-2.1286 Z0.2050
G01 X50.5998 Y-2.1287 Z0.2050
G01 X51.2336 Y-2.1366 Z0.2050
G01 X51.3779 Y-2.1385 Z0.2050
G01 X51.8673 Y-2.1450 Z0.2050
G01 X52.1653 Y-2.1491 Z0.2050
G01 X52.5011 Y-2.1538 Z0.2050
G01 X53.1349 Y-2.1631 Z0.2050
G01 X53.7687 Y-2.1728 Z0.2050
G01 X54.4024 Y-2.1830 Z0.2050
G01 X55.0361 Y-2.1936 Z0.2050
G01 X55.6699 Y-2.2047 Z0.2050
G01 X56.3037 Y-2.2162 Z0.2050
G01 X56.3072 Y-2.2162 Z0.2050
G01 X56.9372 Y-2.2281 Z0.2050
G01 X57.5710 Y-2.2406 Z0.2050
G01 X58.2047 Y-2.2535 Z0.2050
G01 X58.8384 Y-2.2668 Z0.2050
G01 X59.4720 Y-2.2807 Z0.2050
G01 X60.1057 Y-2.2949 Z0.2050
G01 X60.7393 Y-2.3096 Z0.2050
G01 X61.3730 Y-2.3248 Z0.2050
G01 X62.0066 Y-2.3404 Z0.2050
G01 X62.6403 Y-2.3565 Z0.2050
G01 X63.2739 Y-2.3730 Z0.2050
G01 X63.9075 Y-2.3900 Z0.2050
G01 X64.5411 Y-2.4074 Z0.2050
G01 X65.1746 Y-2.4253 Z0.2050
G01 X65.8082 Y-2.4437 Z0.2050
G01 X66.4418 Y-2.4624 Z0.2050
G01 X67.0754 Y-2.4817 Z0.2050
G01 X67.7090 Y-2.5014 Z0.2050
G01 X67.7119 Y-2.5014 Z0.2050
G01 X67.7170 Y-2.5015 Z0.2050
G01 X67.7194 Y-2.5015 Z0.2050
G01 X67.7391 Y-2.5012 Z0.2050
G01 X67.7426 Y-2.5011 Z0.2050
G01 X67.7462 Y-2.5009 Z0.2050
G01 X67.7497 Y-2.5007 Z0.2050
G01 X67.7533 Y-2.5003 Z0.2050
G01 X67.7568 Y-2.4998 Z0.2050
G01 X67.7603 Y-2.4992 Z0.2050
G01 X67.7638 Y-2.4985 Z0.2050
G01 X67.7672 Y-2.4976 Z0.2050
G01 X67.7707 Y-2.4967 Z0.2050
G01 X67.7741 Y-2.4957 Z0.2050
G01 X67.7775 Y-2.4946 Z0.2050
G01 X67.7808 Y-2.4935 Z0.2050
G01 X67.7841 Y-2.4922 Z0.2050
G01 X67.7874 Y-2.4907 Z0.2050
G01 X67.7906 Y-2.4893 Z0.2050
G01 X67.7938 Y-2.4877 Z0.2050
G01 X67.7970 Y-2.4861 Z0.2050
G01 X67.8001 Y-2.4843 Z0.2050
G01 X67.8031 Y-2.4824 Z0.2050
G01 X67.8061 Y-2.4805 Z0.2050
G01 X67.8090 Y-2.4785 Z0.2050
G01 X67.8119 Y-2.4764 Z0.2050
G01 X67.8147 Y-2.4742 Z0.2050
G01 X67.8174 Y-2.4720 Z0.2050
G01 X67.8201 Y-2.4696 Z0.2050
G01 X67.8227 Y-2.4672 Z0.2050
G01 X67.8253 Y-2.4647 Z0.2050
G01 X67.8277 Y-2.4622 Z0.2050
G01 X67.8301 Y-2.4595 Z0.2050
G01 X67.8324 Y-2.4568 Z0.2050
G01 X67.8347 Y-2.4540 Z0.2050
G01 X67.8368 Y-2.4512 Z0.2050
G01 X67.8389 Y-2.4483 Z0.2050
G01 X67.8409 Y-2.4454 Z0.2050
G01 X67.8428 Y-2.4424 Z0.2050
G01 X67.8446 Y-2.4393 Z0.2050
G01 X67.8464 Y-2.4362 Z0.2050
G01 X67.8480 Y-2.4331 Z0.2050
G01 X67.8496 Y-2.4298 Z0.2050
G01 X67.8510 Y-2.4266 Z0.2050
G01 X67.8524 Y-2.4233 Z0.2050
G01 X67.8536 Y-2.4200 Z0.2050
G01 X67.8548 Y-2.4166 Z0.2050
G01 X67.8559 Y-2.4133 Z0.2050
G01 X67.8568 Y-2.4098 Z0.2050
G01 X67.8577 Y-2.4064 Z0.2050
G01 X67.8585 Y-2.4029 Z0.2050
G01 X67.8592 Y-2.3994 Z0.2050
G01 X67.8597 Y-2.3959 Z0.2050
G01 X67.8602 Y-2.3924 Z0.2050
G01 X67.8622 Y-2.3758 Z0.2050
G01 X67.8715 Y-2.3154 Z0.2050
G01 X67.8821 Y-2.2616 Z0.2050
G01 X67.8943 Y-2.2112 Z0.2050
G01 X67.9077 Y-2.1657 Z0.2050
G01 X67.9216 Y-2.1260 Z0.2050
G01 X67.9372 Y-2.0887 Z0.2050
G01 X67.9532 Y-2.0563 Z0.2050
G01 X67.9702 Y-2.0268 Z0.2050
G01 X67.9880 Y-2.0004 Z0.2050
G01 X68.0064 Y-1.9768 Z0.2050
G01 X68.0261 Y-1.9548 Z0.2050
G01 X68.0462 Y-1.9354 Z0.2050
G01 X68.0682 Y-1.9166 Z0.2050
G01 X68.0915 Y-1.8992 Z0.2050
G01 X68.1160 Y-1.8829 Z0.2050
G01 X68.1425 Y-1.8672 Z0.2050
G01 X68.1705 Y-1.8522 Z0.2050
G01 X68.2004 Y-1.8374 Z0.2050
G01 X68.2333 Y-1.8224 Z0.2050
G01 X68.2646 Y-1.8090 Z0.2050
G01 X68.3010 Y-1.7940 Z0.2050
G01 X68.3370 Y-1.7796 Z0.2050
G01 X68.3751 Y-1.7644 Z0.2050
G01 X68.4145 Y-1.7485 Z0.2050
G01 X68.4154 Y-1.7482 Z0.2050
G01 X68.4552 Y-1.7318 Z0.2050
G01 X68.4566 Y-1.7312 Z0.2050
G01 X68.4971 Y-1.7140 Z0.2050
G01 X68.4992 Y-1.7131 Z0.2050
G01 X68.5404 Y-1.6947 Z0.2050
G01 X68.5427 Y-1.6936 Z0.2050
G01 X68.5847 Y-1.6738 Z0.2050
G01 X68.5875 Y-1.6724 Z0.2050
G01 X68.6300 Y-1.6510 Z0.2050
G01 X68.6331 Y-1.6494 Z0.2050
G01 X68.6762 Y-1.6261 Z0.2050
G01 X68.6796 Y-1.6242 Z0.2050
G01 X68.7233 Y-1.5989 Z0.2050
G01 X68.7268 Y-1.5967 Z0.2050
G01 X68.7710 Y-1.5690 Z0.2050
G01 X68.7747 Y-1.5666 Z0.2050
G01 X68.8193 Y-1.5364 Z0.2050
G01 X68.8229 Y-1.5338 Z0.2050
G01 X68.8680 Y-1.5009 Z0.2050
G01 X68.8719 Y-1.4979 Z0.2050
G01 X68.9173 Y-1.4618 Z0.2050
G01 X68.9209 Y-1.4588 Z0.2050
G01 X68.9667 Y-1.4196 Z0.2050
G01 X68.9703 Y-1.4163 Z0.2050
G01 X69.0164 Y-1.3735 Z0.2050
G01 X69.0199 Y-1.3702 Z0.2050
G01 X69.0662 Y-1.3237 Z0.2050
G01 X69.0696 Y-1.3203 Z0.2050
G01 X69.1161 Y-1.2698 Z0.2050
G01 X69.1192 Y-1.2663 Z0.2050
G01 X69.1660 Y-1.2116 Z0.2050
G01 X69.1689 Y-1.2081 Z0.2050
G01 X69.2158 Y-1.1490 Z0.2050
G01 X69.2185 Y-1.1455 Z0.2050
G01 X69.2655 Y-1.0818 Z0.2050
G01 X69.2679 Y-1.0784 Z0.2050
G01 X69.3151 Y-1.0098 Z0.2050
G01 X69.3173 Y-1.0063 Z0.2050
G01 X69.3644 Y-0.9325 Z0.2050
G01 X69.3664 Y-0.9293 Z0.2050
G01 X69.4136 Y-0.8502 Z0.2050
G01 X69.4166 Y-0.8448 Z0.2050
G01 X69.4359 Y-0.8084 Z0.2050
G01 X69.4378 Y-0.8048 Z0.2050
G01 X69.4558 Y-0.7679 Z0.2050
G01 X69.4575 Y-0.7642 Z0.2050
G01 X69.4746 Y-0.7261 Z0.2050
G01 X69.4761 Y-0.7225 Z0.2050
G01 X69.4919 Y-0.6842 Z0.2050
G01 X69.4933 Y-0.6805 Z0.2050
G01 X69.5083 Y-0.6405 Z0.2050
G01 X69.5096 Y-0.6370 Z0.2050
G01 X69.5238 Y-0.5953 Z0.2050
G01 X69.5250 Y-0.5916 Z0.2050
G01 X69.5379 Y-0.5494 Z0.2050
G01 X69.5388 Y-0.5461 Z0.2050
G01 X69.5503 Y-0.5042 Z0.2050
G01 X69.5512 Y-0.5007 Z0.2050
G01 X69.5621 Y-0.4562 Z0.2050
G01 X69.5629 Y-0.4530 Z0.2050
G01 X69.5722 Y-0.4097 Z0.2050
G01 X69.5729 Y-0.4063 Z0.2050
G01 X69.5817 Y-0.3589 Z0.2050
G01 X69.5823 Y-0.3558 Z0.2050
G01 X69.5895 Y-0.3105 Z0.2050
G01 X69.5900 Y-0.3072 Z0.2050
G01 X69.5962 Y-0.2601 Z0.2050
G01 X69.5966 Y-0.2571 Z0.2050
G01 X69.6016 Y-0.2104 Z0.2050
G01 X69.6020 Y-0.2072 Z0.2050
G01 X69.6061 Y-0.1570 Z0.2050
G01 X69.6062 Y-0.1542 Z0.2050
G01 X69.6090 Y-0.1067 Z0.2050
G01 X69.6092 Y-0.1038 Z0.2050
G01 X69.6109 Y-0.0540 Z0.2050
G01 X69.6110 Y-0.0511 Z0.2050
G01 X69.6115 Y-0.0013 Z0.2050
G01 X69.6115 Y0.0013 Z0.2050
G01 X69.6110 Y0.0511 Z0.2050
G01 X69.6109 Y0.0540 Z0.2050
G01 X69.6092 Y0.1038 Z0.2050
G01 X69.6090 Y0.1067 Z0.2050
G01 X69.6062 Y0.1542 Z0.2050
G01 X69.6061 Y0.1570 Z0.2050
G01 X69.6020 Y0.2072 Z0.2050
G01 X69.6016 Y0.2104 Z0.2050
G01 X69.5966 Y0.2571 Z0.2050
G01 X69.5962 Y0.2601 Z0.2050
G01 X69.5900 Y0.3072 Z0.2050
G01 X69.5895 Y0.3105 Z0.2050
G01 X69.5823 Y0.3558 Z0.2050
G01 X69.5817 Y0.3589 Z0.2050
G01 X69.5729 Y0.4063 Z0.2050
G01 X69.5722 Y0.4097 Z0.2050
G01 X69.5629 Y0.4530 Z0.2050
G01 X69.5622 Y0.4562 Z0.2050
G01 X69.5514 Y0.5001 Z0.2050
G01 X69.5505 Y0.5037 Z0.2050
G01 X69.5388 Y0.5461 Z0.2050
G01 X69.5379 Y0.5494 Z0.2050
G01 X69.5250 Y0.5916 Z0.2050
G01 X69.5238 Y0.5953 Z0.2050
G01 X69.5096 Y0.6370 Z0.2050
G01 X69.5083 Y0.6405 Z0.2050
G01 X69.4933 Y0.6805 Z0.2050
G01 X69.4919 Y0.6842 Z0.2050
G01 X69.4761 Y0.7225 Z0.2050
G01 X69.4746 Y0.7261 Z0.2050
G01 X69.4575 Y0.7642 Z0.2050
G01 X69.4558 Y0.7679 Z0.2050
G01 X69.4378 Y0.8047 Z0.2050
G01 X69.4360 Y0.8083 Z0.2050
G01 X69.4166 Y0.8448 Z0.2050
G01 X69.4136 Y0.8502 Z0.2050
G01 X69.3664 Y0.9293 Z0.2050
G01 X69.3644 Y0.9325 Z0.2050
G01 X69.3173 Y1.0063 Z0.2050
G01 X69.3151 Y1.0098 Z0.2050
G01 X69.2679 Y1.0784 Z0.2050
G01 X69.2655 Y1.0818 Z0.2050
G01 X69.2185 Y1.1455 Z0.2050
G01 X69.2158 Y1.1490 Z0.2050
G01 X69.1689 Y1.2081 Z0.2050
G01 X69.1660 Y1.2116 Z0.2050
G01 X69.1192 Y1.2663 Z0.2050
G01 X69.1161 Y1.2698 Z0.2050
G01 X69.0696 Y1.3203 Z0.2050
G01 X69.0662 Y1.3237 Z0.2050
G01 X69.0199 Y1.3702 Z0.2050
G01 X69.0164 Y1.3735 Z0.2050
G01 X68.9703 Y1.4163 Z0.2050
G01 X68.9667 Y1.4196 Z0.2050
G01 X68.9209 Y1.4588 Z0.2050
G01 X68.9173 Y1.4618 Z0.2050
G01 X68.8719 Y1.4979 Z0.2050
G01 X68.8680 Y1.5009 Z0.2050
G01 X68.8229 Y1.5338 Z0.2050
G01 X68.8193 Y1.5364 Z0.2050
G01 X68.7747 Y1.5666 Z0.2050
G01 X68.7710 Y1.5690 Z0.2050
G01 X68.7268 Y1.5967 Z0.2050
G01 X68.7233 Y1.5989 Z0.2050
G01 X68.6796 Y1.6242 Z0.2050
G01 X68.6762 Y1.6261 Z0.2050
G01 X68.6331 Y1.6494 Z0.2050
G01 X68.6300 Y1.6510 Z0.2050
G01 X68.5875 Y1.6724 Z0.2050
G01 X68.5847 Y1.6738 Z0.2050
G01 X68.5427 Y1.6936 Z0.2050
G01 X68.5404 Y1.6947 Z0.2050
G01 X68.4992 Y1.7131 Z0.2050
G01 X68.4971 Y1.7140 Z0.2050
G01 X68.4566 Y1.7312 Z0.2050
G01 X68.4552 Y1.7318 Z0.2050
G01 X68.4154 Y1.7482 Z0.2050
G01 X68.4145 Y1.7485 Z0.2050
G01 X68.3755 Y1.7642 Z0.2050
G01 X68.3370 Y1.7796 Z0.2050
G01 X68.3010 Y1.7940 Z0.2050
G01 X68.2646 Y1.8090 Z0.2050
G01 X68.2334 Y1.8224 Z0.2050
G01 X68.2004 Y1.8374 Z0.2050
G01 X68.1705 Y1.8522 Z0.2050
G01 X68.1425 Y1.8672 Z0.2050
G01 X68.1160 Y1.8829 Z0.2050
G01 X68.0915 Y1.8992 Z0.2050
G01 X68.0682 Y1.9166 Z0.2050
G01 X68.0462 Y1.9354 Z0.2050
G01 X68.0261 Y1.9548 Z0.2050
G01 X68.0064 Y1.9768 Z0.2050
G01 X67.9880 Y2.0004 Z0.2050
G01 X67.9702 Y2.0268 Z0.2050
G01 X67.9532 Y2.0563 Z0.2050
G01 X67.9372 Y2.0887 Z0.2050
G01 X67.9216 Y2.1260 Z0.2050
G01 X67.9077 Y2.1657 Z0.2050
G01 X67.8943 Y2.2112 Z0.2050
G01 X67.8821 Y2.2616 Z0.2050
G01 X67.8715 Y2.3154 Z0.2050
G01 X67.8622 Y2.3755 Z0.2050
G01 X67.8602 Y2.3924 Z0.2050
G01 X67.8597 Y2.3959 Z0.2050
G01 X67.8592 Y2.3994 Z0.2050
G01 X67.8585 Y2.4029 Z0.2050
G01 X67.8577 Y2.4064 Z0.2050
G01 X67.8568 Y2.4098 Z0.2050
G01 X67.8559 Y2.4133 Z0.2050
G01 X67.8548 Y2.4166 Z0.2050
G01 X67.8536 Y2.4200 Z0.2050
G01 X67.8524 Y2.4233 Z0.2050
G01 X67.8510 Y2.4266 Z0.2050
G01 X67.8496 Y2.4298 Z0.2050
G01 X67.8480 Y2.4331 Z0.2050
G01 X67.8464 Y2.4362 Z0.2050
G01 X67.8446 Y2.4393 Z0.2050
G01 X67.8428 Y2.4424 Z0.2050
G01 X67.8409 Y2.4454 Z0.2050
G01 X67.8389 Y2.4483 Z0.2050
G01 X67.8368 Y2.4512 Z0.2050
G01 X67.8347 Y2.4540 Z0.2050
G01 X67.8324 Y2.4568 Z0.2050
G01 X67.8301 Y2.4595 Z0.2050
G01 X67.8277 Y2.4622 Z0.2050
G01 X67.8253 Y2.4647 Z0.2050
G01 X67.8227 Y2.4672 Z0.2050
G01 X67.8201 Y2.4696 Z0.2050
G01 X67.8174 Y2.4720 Z0.2050
G01 X67.8147 Y2.4742 Z0.2050
G01 X67.8119 Y2.4764 Z0.2050
G01 X67.8090 Y2.4785 Z0.2050
G01 X67.8061 Y2.4805 Z0.2050
G01 X67.8031 Y2.4824 Z0.2050
G01 X67.8001 Y2.4843 Z0.2050
G01 X67.7970 Y2.4861 Z0.2050
G01 X67.7938 Y2.4877 Z0.2050
G01 X67.7906 Y2.4893 Z0.2050
G01 X67.7874 Y2.4907 Z0.2050
G01 X67.7841 Y2.4922 Z0.2050
G01 X67.7808 Y2.4935 Z0.2050
G01 X67.7775 Y2.4946 Z0.2050
G01 X67.7741 Y2.4957 Z0.2050
G01 X67.7707 Y2.4967 Z0.2050
G01 X67.7672 Y2.4976 Z0.2050
G01 X67.7638 Y2.4985 Z0.2050
G01 X67.7603 Y2.4992 Z0.2050
G01 X67.7568 Y2.4998 Z0.2050
G01 X67.7533 Y2.5003 Z0.2050
G01 X67.7497 Y2.5007 Z0.2050
G01 X67.7462 Y2.5009 Z0.2050
G01 X67.7426 Y2.5011 Z0.2050
G01 X67.7391 Y2.5012 Z0.2050
G01 X67.7194 Y2.5015 Z0.2050
G01 X67.7170 Y2.5015 Z0.2050
G01 X67.7119 Y2.5014 Z0.2050
G01 X67.7090 Y2.5014 Z0.2050
G01 X67.0754 Y2.4816 Z0.2050
G01 X66.4418 Y2.4624 Z0.2050
G01 X65.8082 Y2.4437 Z0.2050
G01 X65.1746 Y2.4253 Z0.2050
G01 X64.5411 Y2.4074 Z0.2050
G01 X63.9075 Y2.3900 Z0.2050
G01 X63.2739 Y2.3730 Z0.2050
G01 X62.6403 Y2.3565 Z0.2050
G01 X62.0066 Y2.3404 Z0.2050
G01 X61.3730 Y2.3248 Z0.2050
G01 X60.7393 Y2.3096 Z0.2050
G01 X60.1057 Y2.2949 Z0.2050
G01 X59.4720 Y2.2807 Z0.2050
G01 X58.8384 Y2.2668 Z0.2050
G01 X58.2047 Y2.2535 Z0.2050
G01 X57.5710 Y2.2406 Z0.2050
G01 X56.9372 Y2.2281 Z0.2050
G01 X56.3075 Y2.2162 Z0.2050
G01 X56.3037 Y2.2162 Z0.2050
G01 X55.6699 Y2.2047 Z0.2050
G01 X55.0361 Y2.1936 Z0.2050
G01 X54.4024 Y2.1830 Z0.2050
G01 X53.7687 Y2.1728 Z0.2050
G01 X53.1349 Y2.1631 Z0.2050
G01 X52.5011 Y2.1538 Z0.2050
G01 X52.1653 Y2.1491 Z0.2050
G01 X51.8673 Y2.1450 Z0.2050
G01 X51.3779 Y2.1385 Z0.2050
G01 X51.2336 Y2.1366 Z0.2050
G01 X50.5998 Y2.1287 Z0.2050
G01 X50.5905 Y2.1286 Z0.2050
G01 X49.9660 Y2.1213 Z0.2050
G01 X49.8031 Y2.1195 Z0.2050
G01 X49.3322 Y2.1143 Z0.2050
G01 X48.6985 Y2.1077 Z0.2050
G01 X48.0646 Y2.1016 Z0.2050
G01 X47.4308 Y2.0960 Z0.2050
G01 X46.7970 Y2.0908 Z0.2050
G01 X46.1633 Y2.0861 Z0.2050
G01 X45.5294 Y2.0818 Z0.2050
G01 X44.8956 Y2.0780 Z0.2050
G01 X44.2618 Y2.0746 Z0.2050
G01 X43.6279 Y2.0717 Z0.2050
G01 X42.9941 Y2.0692 Z0.2050
G01 X42.3603 Y2.0672 Z0.2050
G01 X41.7265 Y2.0657 Z0.2050
G01 X41.0927 Y2.0646 Z0.2050
G01 X40.4588 Y2.0639 Z0.2050
G01 X39.8251 Y2.0637 Z0.2050
G01 X39.1914 Y2.0640 Z0.2050
G01 X38.5575 Y2.0647 Z0.2050
G01 X37.9237 Y2.0659 Z0.2050
G01 X37.2899 Y2.0675 Z0.2050
G01 X36.6560 Y2.0696 Z0.2050
G01 X36.0222 Y2.0721 Z0.2050
G01 X35.3884 Y2.0751 Z0.2050
G01 X34.7546 Y2.0785 Z0.2050
G01 X34.1207 Y2.0824 Z0.2050
G01 X33.4870 Y2.0868 Z0.2050
G01 X32.8531 Y2.0916 Z0.2050
G01 X32.2193 Y2.0968 Z0.2050
G01 X31.5856 Y2.1025 Z0.2050
G01 X30.9518 Y2.1087 Z0.2050
G01 X30.3179 Y2.1153 Z0.2050
G01 X29.6842 Y2.1224 Z0.2050
G01 X29.0504 Y2.1299 Z0.2050
G01 X28.4166 Y2.1379 Z0.2050
G01 X27.7828 Y2.1463 Z0.2050
G01 X27.1490 Y2.1551 Z0.2050
G01 X26.5153 Y2.1645 Z0.2050
G01 X25.8816 Y2.1743 Z0.2050
G01 X25.2478 Y2.1845 Z0.2050
G01 X24.6141 Y2.1952 Z0.2050
G01 X23.9802 Y2.2064 Z0.2050
G01 X23.9764 Y2.2064 Z0.2050
G01 X23.3466 Y2.2179 Z0.2050
G01 X22.7129 Y2.2300 Z0.2050
G01 X22.0792 Y2.2425 Z0.2050
G01 X21.4455 Y2.2554 Z0.2050
G01 X20.8119 Y2.2688 Z0.2050
G01 X20.4724 Y2.2762 Z0.2050
G01 X20.1782 Y2.2827 Z0.2050
G01 X19.6850 Y2.2938 Z0.2050
G01 X19.5445 Y2.2970 Z0.2050
G01 X18.9108 Y2.3118 Z0.2050
G01 X18.8976 Y2.3122 Z0.2050
G01 X18.2772 Y2.3271 Z0.2050
G01 X18.1102 Y2.3312 Z0.2050
G01 X17.6436 Y2.3427 Z0.2050
G01 X17.0099 Y2.3589 Z0.2050
G01 X16.3763 Y2.3755 Z0.2050
G01 X15.7428 Y2.3925 Z0.2050
G01 X15.1092 Y2.4100 Z0.2050
G01 X14.4756 Y2.4280 Z0.2050
G01 X13.8420 Y2.4464 Z0.2050
G01 X13.2085 Y2.4653 Z0.2050
G01 X12.5748 Y2.4846 Z0.2050
G01 X11.9412 Y2.5043 Z0.2050
G01 X11.9377 Y2.5044 Z0.2050
G01 X11.3079 Y2.5245 Z0.2050
G01 X10.6744 Y2.5451 Z0.2050
G01 X10.0410 Y2.5663 Z0.2050
G01 X9.4075 Y2.5879 Z0.2050
G01 X8.7740 Y2.6099 Z0.2050
G01 X8.1407 Y2.6324 Z0.2050
G01 X7.5072 Y2.6553 Z0.2050
G01 X6.8738 Y2.6787 Z0.2050
G01 X6.2404 Y2.7026 Z0.2050
G01 X5.6071 Y2.7269 Z0.2050
G01 X4.9737 Y2.7516 Z0.2050
G01 X4.3403 Y2.7769 Z0.2050
G01 X4.3371 Y2.7770 Z0.2050
G01 X4.3314 Y2.7770 Z0.2050
G01 X4.3283 Y2.7770 Z0.2050
G01 X4.3248 Y2.7770 Z0.2050
G01 X4.3213 Y2.7769 Z0.2050
G01 X4.3179 Y2.7767 Z0.2050
G01 X4.3144 Y2.7764 Z0.2050
G01 X4.3109 Y2.7761 Z0.2050
G01 X4.3074 Y2.7755 Z0.2050
G01 X4.3040 Y2.7750 Z0.2050
G01 X4.3005 Y2.7743 Z0.2050
G01 X4.2971 Y2.7735 Z0.2050
G01 X4.2937 Y2.7726 Z0.2050
G01 X4.2903 Y2.7717 Z0.2050
G01 X4.2870 Y2.7706 Z0.2050
G01 X4.2837 Y2.7694 Z0.2050
G01 X4.2804 Y2.7682 Z0.2050
G01 X4.2772 Y2.7668 Z0.2050
G01 X4.2740 Y2.7654 Z0.2050
G01 X4.2709 Y2.7639 Z0.2050
G01 X4.2677 Y2.7623 Z0.2050
G01 X4.2647 Y2.7605 Z0.2050
G01 X4.2617 Y2.7588 Z0.2050
G01 X4.2587 Y2.7569 Z0.2050
G01 X4.2558 Y2.7550 Z0.2050
G01 X4.2530 Y2.7529 Z0.2050
G01 X4.2502 Y2.7508 Z0.2050
G01 X4.2475 Y2.7486 Z0.2050
G01 X4.2448 Y2.7463 Z0.2050
G01 X4.2422 Y2.7440 Z0.2050
G01 X4.2397 Y2.7416 Z0.2050
G01 X4.2372 Y2.7390 Z0.2050
G01 X4.2348 Y2.7365 Z0.2050
G01 X4.2325 Y2.7339 Z0.2050
G01 X4.2303 Y2.7312 Z0.2050
G01 X4.2281 Y2.7284 Z0.2050
G01 X4.2260 Y2.7256 Z0.2050
G01 X4.2240 Y2.7227 Z0.2050
G01 X4.2221 Y2.7198 Z0.2050
G01 X4.2202 Y2.7168 Z0.2050
G01 X4.2185 Y2.7138 Z0.2050
G01 X4.2168 Y2.7107 Z0.2050
G01 X4.2153 Y2.7076 Z0.2050
G01 X4.2138 Y2.7044 Z0.2050
G01 X4.2124 Y2.7012 Z0.2050
G01 X4.2111 Y2.6979 Z0.2050
G01 X4.2098 Y2.6947 Z0.2050
G01 X4.2087 Y2.6914 Z0.2050
G01 X4.2077 Y2.6880 Z0.2050
G01 X4.2068 Y2.6846 Z0.2050
G01 X4.2059 Y2.6812 Z0.2050
G01 X4.2052 Y2.6778 Z0.2050
G01 X4.2046 Y2.6744 Z0.2050
G01 X4.2040 Y2.6709 Z0.2050
G01 X4.2036 Y2.6674 Z0.2050
G01 X4.2032 Y2.6639 Z0.2050
G01 X4.2030 Y2.6605 Z0.2050
G01 X4.2028 Y2.6570 Z0.2050
G01 X4.2019 Y2.6243 Z0.2050
G01 X4.1993 Y2.5557 Z0.2050
G01 X4.1960 Y2.4915 Z0.2050
G01 X4.1921 Y2.4336 Z0.2050
G01 X4.1872 Y2.3755 Z0.2050
G01 X4.1819 Y2.3257 Z0.2050
G01 X4.1755 Y2.2772 Z0.2050
G01 X4.1685 Y2.2345 Z0.2050
G01 X4.1604 Y2.1939 Z0.2050
G01 X4.1518 Y2.1579 Z0.2050
G01 X4.1424 Y2.1255 Z0.2050
G01 X4.1324 Y2.0969 Z0.2050
G01 X4.1217 Y2.0712 Z0.2050
G01 X4.1105 Y2.0488 Z0.2050
G01 X4.0990 Y2.0294 Z0.2050
G01 X4.0869 Y2.0122 Z0.2050
G01 X4.0742 Y1.9971 Z0.2050
G01 X4.0604 Y1.9833 Z0.2050
G01 X4.0457 Y1.9709 Z0.2050
G01 X4.0295 Y1.9593 Z0.2050
G01 X4.0112 Y1.9483 Z0.2050
G01 X3.9905 Y1.9379 Z0.2050
G01 X3.9675 Y1.9280 Z0.2050
G01 X3.9412 Y1.9185 Z0.2050
G01 X3.9124 Y1.9096 Z0.2050
G01 X3.8814 Y1.9014 Z0.2050
G01 X3.8475 Y1.8938 Z0.2050
G01 X3.8092 Y1.8863 Z0.2050
G01 X3.7690 Y1.8794 Z0.2050
G01 X3.7270 Y1.8730 Z0.2050
G01 X3.6794 Y1.8665 Z0.2050
G01 X3.6316 Y1.8604 Z0.2050
G01 X3.5790 Y1.8541 Z0.2050
G01 X3.5246 Y1.8478 Z0.2050
G01 X3.4668 Y1.8412 Z0.2050
G01 X3.4062 Y1.8343 Z0.2050
G01 X3.3428 Y1.8269 Z0.2050
G01 X3.3422 Y1.8268 Z0.2050
G01 X3.2761 Y1.8188 Z0.2050
G01 X3.2754 Y1.8188 Z0.2050
G01 X3.2064 Y1.8100 Z0.2050
G01 X3.2056 Y1.8099 Z0.2050
G01 X3.1337 Y1.8003 Z0.2050
G01 X3.1328 Y1.8002 Z0.2050
G01 X3.0578 Y1.7896 Z0.2050
G01 X3.0566 Y1.7894 Z0.2050
G01 X2.9786 Y1.7777 Z0.2050
G01 X2.9775 Y1.7775 Z0.2050
G01 X2.8963 Y1.7645 Z0.2050
G01 X2.8950 Y1.7643 Z0.2050
G01 X2.8106 Y1.7498 Z0.2050
G01 X2.8094 Y1.7496 Z0.2050
G01 X2.7217 Y1.7337 Z0.2050
G01 X2.7203 Y1.7334 Z0.2050
G01 X2.6294 Y1.7158 Z0.2050
G01 X2.6259 Y1.7151 Z0.2050
G01 X2.5060 Y1.6883 Z0.2050
G01 X2.5033 Y1.6876 Z0.2050
G01 X2.3863 Y1.6586 Z0.2050
G01 X2.3833 Y1.6578 Z0.2050
G01 X2.2721 Y1.6273 Z0.2050
G01 X2.2692 Y1.6264 Z0.2050
G01 X2.1645 Y1.5948 Z0.2050
G01 X2.1614 Y1.5939 Z0.2050
G01 X2.0607 Y1.5606 Z0.2050
G01 X2.0575 Y1.5595 Z0.2050
G01 X1.9623 Y1.5251 Z0.2050
G01 X1.9590 Y1.5239 Z0.2050
G01 X1.8672 Y1.4879 Z0.2050
G01 X1.8640 Y1.4865 Z0.2050
G01 X1.7778 Y1.4498 Z0.2050
G01 X1.7745 Y1.4483 Z0.2050
G01 X1.6924 Y1.4104 Z0.2050
G01 X1.6890 Y1.4088 Z0.2050
G01 X1.6117 Y1.3702 Z0.2050
G01 X1.6082 Y1.3684 Z0.2050
G01 X1.5352 Y1.3290 Z0.2050
G01 X1.5318 Y1.3271 Z0.2050
G01 X1.4625 Y1.2868 Z0.2050
G01 X1.4590 Y1.2846 Z0.2050
G01 X1.3955 Y1.2447 Z0.2050
G01 X1.3920 Y1.2424 Z0.2050
G01 X1.3299 Y1.2004 Z0.2050
G01 X1.3263 Y1.1979 Z0.2050
G01 X1.2710 Y1.1575 Z0.2050
G01 X1.2674 Y1.1549 Z0.2050
G01 X1.2145 Y1.1133 Z0.2050
G01 X1.2110 Y1.1104 Z0.2050
G01 X1.1612 Y1.0683 Z0.2050
G01 X1.1578 Y1.0652 Z0.2050
G01 X1.1122 Y1.0236 Z0.2050
G01 X1.1088 Y1.0203 Z0.2050
G01 X1.0659 Y0.9780 Z0.2050
G01 X1.0626 Y0.9747 Z0.2050
G01 X1.0226 Y0.9321 Z0.2050
G01 X1.0192 Y0.9284 Z0.2050
G01 X0.9833 Y0.8870 Z0.2050
G01 X0.9803 Y0.8833 Z0.2050
G01 X0.9462 Y0.8407 Z0.2050
G01 X0.9431 Y0.8367 Z0.2050
G01 X0.9119 Y0.7944 Z0.2050
G01 X0.9091 Y0.7904 Z0.2050
G01 X0.8801 Y0.7475 Z0.2050
G01 X0.8774 Y0.7433 Z0.2050
G01 X0.8515 Y0.7016 Z0.2050
G01 X0.8489 Y0.6972 Z0.2050
G01 X0.8242 Y0.6534 Z0.2050
G01 X0.8220 Y0.6492 Z0.2050
G01 X0.8001 Y0.6066 Z0.2050
G01 X0.7979 Y0.6020 Z0.2050
G01 X0.7780 Y0.5590 Z0.2050
G01 X0.7759 Y0.5544 Z0.2050
G01 X0.7579 Y0.5109 Z0.2050
G01 X0.7562 Y0.5064 Z0.2050
G01 X0.7397 Y0.4617 Z0.2050
G01 X0.7381 Y0.4572 Z0.2050
G01 X0.7238 Y0.4130 Z0.2050
G01 X0.7223 Y0.4083 Z0.2050
G01 X0.7097 Y0.3635 Z0.2050
G01 X0.7085 Y0.3589 Z0.2050
G01 X0.6975 Y0.3131 Z0.2050
G01 X0.6965 Y0.3085 Z0.2050
G01 X0.6874 Y0.2629 Z0.2050
G01 X0.6865 Y0.2583 Z0.2050
G01 X0.6790 Y0.2119 Z0.2050
G01 X0.6784 Y0.2075 Z0.2050
G01 X0.6725 Y0.1605 Z0.2050
G01 X0.6720 Y0.1560 Z0.2050
G01 X0.6677 Y0.1073 Z0.2050
G01 X0.6674 Y0.1028 Z0.2050
G01 X0.6650 Y0.0554 Z0.2050
G01 X0.6648 Y0.0512 Z0.2050
G01 X0.6640 Y0.0020 Z0.2050
G01 X0.6640 Y-0.0020 Z0.2050
G01 X0.6640 Y-0.0020 Z-0.0100
G01 X0.6648 Y-0.0512 Z-0.0100
G01 X0.6650 Y-0.0554 Z-0.0100
G01 X0.6674 Y-0.1028 Z-0.0100
G01 X0.6677 Y-0.1073 Z-0.0100
G01 X0.6720 Y-0.1560 Z-0.0100
G01 X0.6725 Y-0.1605 Z-0.0100
G01 X0.6784 Y-0.2075 Z-0.0100
G01 X0.6790 Y-0.2119 Z-0.0100
G01 X0.6865 Y-0.2583 Z-0.0100
G01 X0.6874 Y-0.2629 Z-0.0100
G01 X0.6965 Y-0.3085 Z-0.0100
G01 X0.6975 Y-0.3131 Z-0.0100
G01 X0.7085 Y-0.3589 Z-0.0100
G01 X0.7097 Y-0.3635 Z-0.0100
G01 X0.7223 Y-0.4083 Z-0.0100
G01 X0.7238 Y-0.4130 Z-0.0100
G01 X0.7381 Y-0.4572 Z-0.0100
G01 X0.7397 Y-0.4617 Z-0.0100
G01 X0.7562 Y-0.5064 Z-0.0100
G01 X0.7579 Y-0.5109 Z-0.0100
G01 X0.7759 Y-0.5544 Z-0.0100
G01 X0.7780 Y-0.5590 Z-0.0100
G01 X0.7979 Y-0.6020 Z-0.0100
G01 X0.8001 Y-0.6066 Z-0.0100
G01 X0.8220 Y-0.6492 Z-0.0100
G01 X0.8242 Y-0.6534 Z-0.0100
G01 X0.8489 Y-0.6972 Z-0.0100
G01 X0.8515 Y-0.7016 Z-0.0100
G01 X0.8774 Y-0.7433 Z-0.0100
G01 X0.8801 Y-0.7475 Z-0.0100
G01 X0.9091 Y-0.7904 Z-0.0100
G01 X0.9119 Y-0.7944 Z-0.0100
G01 X0.9431 Y-0.8367 Z-0.0100
G01 X0.9462 Y-0.8407 Z-0.0100
G01 X0.9803 Y-0.8833 Z-0.0100
G01 X0.9833 Y-0.8870 Z-0.0100
G01 X1.0192 Y-0.9284 Z-0.0100
G01 X1.0226 Y-0.9321 Z-0.0100
G01 X1.0626 Y-0.9747 Z-0.0100
G01 X1.0659 Y-0.9780 Z-0.0100
G01 X1.1088 Y-1.0203 Z-0.0100
G01 X1.1122 Y-1.0236 Z-0.0100
G01 X1.1578 Y-1.0652 Z-0.0100
G01 X1.1612 Y-1.0683 Z-0.0100
G01 X1.2110 Y-1.1104 Z-0.0100
G01 X1.2145 Y-1.1133 Z-0.0100
G01 X1.2676 Y-1.1550 Z-0.0100
G01 X1.2712 Y-1.1577 Z-0.0100
G01 X1.3263 Y-1.1979 Z-0.0100
G01 X1.3299 Y-1.2004 Z-0.0100
G01 X1.3920 Y-1.2424 Z-0.0100
G01 X1.3955 Y-1.2447 Z-0.0100
G01 X1.4590 Y-1.2846 Z-0.0100
G01 X1.4625 Y-1.2868 Z-0.0100
G01 X1.5318 Y-1.3271 Z-0.0100
G01 X1.5352 Y-1.3290 Z-0.0100
G01 X1.6082 Y-1.3684 Z-0.0100
G01 X1.6117 Y-1.3702 Z-0.0100
G01 X1.6894 Y-1.4090 Z-0.0100
G01 X1.6928 Y-1.4106 Z-0.0100
G01 X1.7745 Y-1.4483 Z-0.0100
G01 X1.7778 Y-1.4498 Z-0.0100
G01 X1.8640 Y-1.4865 Z-0.0100
G01 X1.8672 Y-1.4879 Z-0.0100
G01 X1.9590 Y-1.5239 Z-0.0100
G01 X1.9623 Y-1.5251 Z-0.0100
G01 X2.0575 Y-1.5595 Z-0.0100
G01 X2.0607 Y-1.5606 Z-0.0100
G01 X2.1614 Y-1.5939 Z-0.0100
G01 X2.1645 Y-1.5948 Z-0.0100
G01 X2.2692 Y-1.6264 Z-0.0100
G01 X2.2721 Y-1.6273 Z-0.0100
G01 X2.3833 Y-1.6578 Z-0.0100
G01 X2.3863 Y-1.6586 Z-0.0100
G01 X2.5033 Y-1.6876 Z-0.0100
G01 X2.5060 Y-1.6883 Z-0.0100
G01 X2.6259 Y-1.7151 Z-0.0100
G01 X2.6294 Y-1.7158 Z-0.0100
G01 X2.7203 Y-1.7334 Z-0.0100
G01 X2.7217 Y-1.7337 Z-0.0100
G01 X2.8094 Y-1.7496 Z-0.0100
G01 X2.8106 Y-1.7498 Z-0.0100
G01 X2.8950 Y-1.7643 Z-0.0100
G01 X2.8963 Y-1.7645 Z-0.0100
G01 X2.9775 Y-1.7775 Z-0.0100
G01 X2.9786 Y-1.7777 Z-0.0100
G01 X3.0566 Y-1.7894 Z-0.0100
G01 X3.0578 Y-1.7896 Z-0.0100
G01 X3.1328 Y-1.8002 Z-0.0100
G01 X3.1337 Y-1.8003 Z-0.0100
G01 X3.2056 Y-1.8099 Z-0.0100
G01 X3.2064 Y-1.8100 Z-0.0100
G01 X3.2754 Y-1.8188 Z-0.0100
G01 X3.2761 Y-1.8188 Z-0.0100
G01 X3.3422 Y-1.8268 Z-0.0100
G01 X3.3428 Y-1.8269 Z-0.0100
G01 X3.4061 Y-1.8343 Z-0.0100
G01 X3.4667 Y-1.8412 Z-0.0100
G01 X3.5246 Y-1.8478 Z-0.0100
G01 X3.5790 Y-1.8541 Z-0.0100
G01 X3.6316 Y-1.8604 Z-0.0100
G01 X3.6794 Y-1.8665 Z-0.0100
G01 X3.7270 Y-1.8730 Z-0.0100
G01 X3.7690 Y-1.8794 Z-0.0100
G01 X3.8092 Y-1.8863 Z-0.0100
G01 X3.8475 Y-1.8938 Z-0.0100
G01 X3.8814 Y-1.9014 Z-0.0100
G01 X3.9124 Y-1.9096 Z-0.0100
G01 X3.9412 Y-1.9185 Z-0.0100
G01 X3.9675 Y-1.9280 Z-0.0100
G01 X3.9905 Y-1.9379 Z-0.0100
G01 X4.0112 Y-1.9483 Z-0.0100
G01 X4.0295 Y-1.9593 Z-0.0100
G01 X4.0457 Y-1.9709 Z-0.0100
G01 X4.0604 Y-1.9833 Z-0.0100
G01 X4.0742 Y-1.9971 Z-0.0100
G01 X4.0869 Y-2.0122 Z-0.0100
G01 X4.0990 Y-2.0294 Z-0.0100
G01 X4.1105 Y-2.0488 Z-0.0100
G01 X4.1217 Y-2.0712 Z-0.0100
G01 X4.1325 Y-2.0971 Z-0.0100
G01 X4.1424 Y-2.1255 Z-0.0100
G01 X4.1518 Y-2.1581 Z-0.0100
G01 X4.1606 Y-2.1948 Z-0.0100
G01 X4.1685 Y-2.2347 Z-0.0100
G01 X4.1755 Y-2.2772 Z-0.0100
G01 X4.1819 Y-2.3257 Z-0.0100
G01 X4.1872 Y-2.3761 Z-0.0100
G01 X4.1921 Y-2.4336 Z-0.0100
G01 X4.1960 Y-2.4922 Z-0.0100
G01 X4.1994 Y-2.5573 Z-0.0100
G01 X4.2020 Y-2.6256 Z-0.0100
G01 X4.2028 Y-2.6570 Z-0.0100
G01 X4.2030 Y-2.6605 Z-0.0100
G01 X4.2032 Y-2.6639 Z-0.0100
G01 X4.2036 Y-2.6674 Z-0.0100
G01 X4.2040 Y-2.6709 Z-0.0100
G01 X4.2046 Y-2.6744 Z-0.0100
G01 X4.2052 Y-2.6778 Z-0.0100
G01 X4.2059 Y-2.6812 Z-0.0100
G01 X4.2068 Y-2.6846 Z-0.0100
G01 X4.2077 Y-2.6880 Z-0.0100
G01 X4.2087 Y-2.6914 Z-0.0100
G01 X4.2098 Y-2.6947 Z-0.0100
G01 X4.2111 Y-2.6979 Z-0.0100
G01 X4.2124 Y-2.7012 Z-0.0100
G01 X4.2138 Y-2.7044 Z-0.0100
G01 X4.2153 Y-2.7076 Z-0.0100
G01 X4.2168 Y-2.7107 Z-0.0100
G01 X4.2185 Y-2.7138 Z-0.0100
G01 X4.2202 Y-2.7168 Z-0.0100
G01 X4.2221 Y-2.7198 Z-0.0100
G01 X4.2240 Y-2.7227 Z-0.0100
G01 X4.2260 Y-2.7256 Z-0.0100
G01 X4.2281 Y-2.7284 Z-0.0100
G01 X4.2303 Y-2.7312 Z-0.0100
G01 X4.2325 Y-2.7339 Z-0.0100
G01 X4.2348 Y-2.7365 Z-0.0100
G01 X4.2372 Y-2.7390 Z-0.0100
G01 X4.2397 Y-2.7416 Z-0.0100
G01 X4.2422 Y-2.7440 Z-0.0100
G01 X4.2448 Y-2.7463 Z-0.0100
G01 X4.2475 Y-2.7486 Z-0.0100
G01 X4.2502 Y-2.7508 Z-0.0100
G01 X4.2530 Y-2.7529 Z-0.0100
G01 X4.2558 Y-2.7550 Z-0.0100
G01 X4.2587 Y-2.7569 Z-0.0100
G01 X4.2617 Y-2.7588 Z-0.0100
G01 X4.2647 Y-2.7605 Z-0.0100
G01 X4.2677 Y-2.7623 Z-0.0100
G01 X4.2709 Y-2.7639 Z-0.0100
G01 X4.2740 Y-2.7654 Z-0.0100
G01 X4.2772 Y-2.7668 Z-0.0100
G01 X4.2804 Y-2.7682 Z-0.0100
G01 X4.2837 Y-2.7694 Z-0.0100
G01 X4.2870 Y-2.7706 Z-0.0100
G01 X4.2903 Y-2.7717 Z-0.0100
G01 X4.2937 Y-2.7726 Z-0.0100
G01 X4.2971 Y-2.7735 Z-0.0100
G01 X4.3005 Y-2.7743 Z-0.0100
G01 X4.3040 Y-2.7750 Z-0.0100
G01 X4.3074 Y-2.7755 Z-0.0100
G01 X4.3109 Y-2.7761 Z-0.0100
G01 X4.3144 Y-2.7764 Z-0.0100
G01 X4.3179 Y-2.7767 Z-0.0100
G01 X4.3213 Y-2.7769 Z-0.0100
G01 X4.3248 Y-2.7770 Z-0.0100
G01 X4.3283 Y-2.7770 Z-0.0100
G01 X4.3314 Y-2.7770 Z-0.0100
G01 X4.3371 Y-2.7770 Z-0.0100
G01 X4.3403 Y-2.7769 Z-0.0100
G01 X4.9737 Y-2.7516 Z-0.0100
G01 X5.6071 Y-2.7269 Z-0.0100
G01 X6.2404 Y-2.7026 Z-0.0100
G01 X6.8738 Y-2.6787 Z-0.0100
G01 X7.5072 Y-2.6553 Z-0.0100
G01 X8.1407 Y-2.6324 Z-0.0100
G01 X8.7740 Y-2.6099 Z-0.0100
G01 X9.4075 Y-2.5879 Z-0.0100
G01 X10.0410 Y-2.5663 Z-0.0100
G01 X10.6744 Y-2.5451 Z-0.0100
G01 X11.3079 Y-2.5245 Z-0.0100
G01 X11.9377 Y-2.5044 Z-0.0100
G01 X11.9412 Y-2.5043 Z-0.0100
G01 X12.5748 Y-2.4845 Z-0.0100
G01 X13.2085 Y-2.4653 Z-0.0100
G01 X13.8420 Y-2.4464 Z-0.0100
G01 X14.4756 Y-2.4280 Z-0.0100
G01 X15.1092 Y-2.4100 Z-0.0100
G01 X15.7428 Y-2.3925 Z-0.0100
G01 X16.3763 Y-2.3755 Z-0.0100
G01 X17.0099 Y-2.3589 Z-0.0100
G01 X17.6436 Y-2.3427 Z-0.0100
G01 X18.1102 Y-2.3312 Z-0.0099
G01 X18.2772 Y-2.3271 Z0.0090
G01 X18.8976 Y-2.3122 Z0.0800
G01 X18.9108 Y-2.3118 Z0.0800
G01 X19.5445 Y-2.2970 Z0.0800
G01 X19.6850 Y-2.2938 Z0.0799
G01 X20.1782 Y-2.2827 Z0.0236
G01 X20.4724 Y-2.2762 Z-0.0100
G01 X20.8119 Y-2.2688 Z-0.0100
G01 X21.4455 Y-2.2554 Z-0.0100
G01 X22.0792 Y-2.2425 Z-0.0100
G01 X22.7129 Y-2.2300 Z-0.0100
G01 X23.3466 Y-2.2179 Z-0.0100
G01 X23.9764 Y-2.2064 Z-0.0100
G01 X23.9802 Y-2.2064 Z-0.0100
G01 X24.6141 Y-2.1952 Z-0.0100
G01 X25.2478 Y-2.1845 Z-0.0100
G01 X25.8816 Y-2.1743 Z-0.0100
G01 X26.5153 Y-2.1645 Z-0.0100
G01 X27.1490 Y-2.1551 Z-0.0100
G01 X27.7828 Y-2.1463 Z-0.0100
G01 X28.4166 Y-2.1379 Z-0.0100
G01 X29.0504 Y-2.1299 Z-0.0100
G01 X29.6842 Y-2.1224 Z-0.0100
G01 X30.3179 Y-2.1153 Z-0.0100
G01 X30.9518 Y-2.1087 Z-0.0100
G01 X31.5856 Y-2.1025 Z-0.0100
G01 X32.2193 Y-2.0968 Z-0.0100
G01 X32.8531 Y-2.0916 Z-0.0100
G01 X33.4870 Y-2.0868 Z-0.0100
G01 X34.1207 Y-2.0824 Z-0.0100
G01 X34.7546 Y-2.0785 Z-0.0100
G01 X35.3884 Y-2.0751 Z-0.0100
G01 X36.0222 Y-2.0721 Z-0.0100
G01 X36.6560 Y-2.0696 Z-0.0100
G01 X37.2899 Y-2.0675 Z-0.0100
G01 X37.9237 Y-2.0659 Z-0.0100
G01 X38.5575 Y-2.0647 Z-0.0100
G01 X39.1914 Y-2.0640 Z-0.0100
G01 X39.8251 Y-2.0637 Z-0.0100
G01 X40.4588 Y-2.0639 Z-0.0100
G01 X41.0927 Y-2.0646 Z-0.0100
G01 X41.7265 Y-2.0657 Z-0.0100
G01 X42.3603 Y-2.0672 Z-0.0100
G01 X42.9941 Y-2.0692 Z-0.0100
G01 X43.6279 Y-2.0717 Z-0.0100
G01 X44.2618 Y-2.0746 Z-0.0100
G01 X44.8956 Y-2.0780 Z-0.0100
G01 X45.5294 Y-2.0818 Z-0.0100
G01 X46.1633 Y-2.0861 Z-0.0100
G01 X46.7970 Y-2.0908 Z-0.0100
G01 X47.4308 Y-2.0960 Z-0.0100
G01 X48.0646 Y-2.1016 Z-0.0100
G01 X48.6985 Y-2.1077 Z-0.0100
G01 X49.3322 Y-2.1143 Z-0.0100
G01 X49.8031 Y-2.1195 Z-0.0099
G01 X49.9660 Y-2.1213 Z0.0085
G01 X50.5905 Y-2.1286 Z0.0800
G01 X50.5998 Y-2.1287 Z0.0800
G01 X51.2336 Y-2.1366 Z0.0800
G01 X51.3779 Y-2.1385 Z0.0799
G01 X51.8673 Y-2.1450 Z0.0240
G01 X52.1653 Y-2.1491 Z-0.0100
G01 X52.5011 Y-2.1538 Z-0.0100
G01 X53.1349 Y-2.1631 Z-0.0100
G01 X53.7687 Y-2.1728 Z-0.0100
G01 X54.4024 Y-2.1830 Z-0.0100
G01 X55.0361 Y-2.1936 Z-0.0100
G01 X55.6699 Y-2.2047 Z-0.0100
G01 X56.3037 Y-2.2162 Z-0.0100
G01 X56.3072 Y-2.2162 Z-0.0100
G01 X56.9372 Y-2.2281 Z-0.0100
G01 X57.5710 Y-2.2406 Z-0.0100
G01 X58.2047 Y-2.2535 Z-0.0100
G01 X58.8384 Y-2.2668 Z-0.0100
G01 X59.4720 Y-2.2807 Z-0.0100
G01 X60.1057 Y-2.2949 Z-0.0100
G01 X60.7393 Y-2.3096 Z-0.0100
G01 X61.3730 Y-2.3248 Z-0.0100
G01 X62.0066 Y-2.3404 Z-0.0100
G01 X62.6403 Y-2.3565 Z-0.0100
G01 X63.2739 Y-2.3730 Z-0.0100
G01 X63.9075 Y-2.3900 Z-0.0100
G01 X64.5411 Y-2.4074 Z-0.0100
G01 X65.1746 Y-2.4253 Z-0.0100
G01 X65.8082 Y-2.4437 Z-0.0100
G01 X66.4418 Y-2.4624 Z-0.0100
G01 X67.0754 Y-2.4817 Z-0.0100
G01 X67.7090 Y-2.5014 Z-0.0100
G01 X67.7119 Y-2.5014 Z-0.0100
G01 X67.7170 Y-2.5015 Z-0.0100
G01 X67.7194 Y-2.5015 Z-0.0100
G01 X67.7391 Y-2.5012 Z-0.0100
G01 X67.7426 Y-2.5011 Z-0.0100
G01 X67.7462 Y-2.5009 Z-0.0100
G01 X67.7497 Y-2.5007 Z-0.0100
G01 X67.7533 Y-2.5003 Z-0.0100
G01 X67.7568 Y-2.4998 Z-0.0100
G01 X67.7603 Y-2.4992 Z-0.0100
G01 X67.7638 Y-2.4985 Z-0.0100
G01 X67.7672 Y-2.4976 Z-0.0100
G01 X67.7707 Y-2.4967 Z-0.0100
G01 X67.7741 Y-2.4957 Z-0.0100
G01 X67.7775 Y-2.4946 Z-0.0100
G01 X67.7808 Y-2.4935 Z-0.0100
G01 X67.7841 Y-2.4922 Z-0.0100
G01 X67.7874 Y-2.4907 Z-0.0100
G01 X67.7906 Y-2.4893 Z-0.0100
G01 X67.7938 Y-2.4877 Z-0.0100
G01 X67.7970 Y-2.4861 Z-0.0100
G01 X67.8001 Y-2.4843 Z-0.0100
G01 X67.8031 Y-2.4824 Z-0.0100
G01 X67.8061 Y-2.4805 Z-0.0100
G01 X67.8090 Y-2.4785 Z-0.0100
G01 X67.8119 Y-2.4764 Z-0.0100
G01 X67.8147 Y-2.4742 Z-0.0100
G01 X67.8174 Y-2.4720 Z-0.0100
G01 X67.8201 Y-2.4696 Z-0.0100
G01 X67.8227 Y-2.4672 Z-0.0100
G01 X67.8253 Y-2.4647 Z-0.0100
G01 X67.8277 Y-2.4622 Z-0.0100
G01 X67.8301 Y-2.4595 Z-0.0100
G01 X67.8324 Y-2.4568 Z-0.0100
G01 X67.8347 Y-2.4540 Z-0.0100
G01 X67.8368 Y-2.4512 Z-0.0100
G01 X67.8389 Y-2.4483 Z-0.0100
G01 X67.8409 Y-2.4454 Z-0.0100
G01 X67.8428 Y-2.4424 Z-0.0100
G01 X67.8446 Y-2.4393 Z-0.0100
G01 X67.8464 Y-2.4362 Z-0.0100
G01 X67.8480 Y-2.4331 Z-0.0100
G01 X67.8496 Y-2.4298 Z-0.0100
G01 X67.8510 Y-2.4266 Z-0.0100
G01 X67.8524 Y-2.4233 Z-0.0100
G01 X67.8536 Y-2.4200 Z-0.0100
G01 X67.8548 Y-2.4166 Z-0.0100
G01 X67.8559 Y-2.4133 Z-0.0100
G01 X67.8568 Y-2.4098 Z-0.0100
G01 X67.8577 Y-2.4064 Z-0.0100
G01 X67.8585 Y-2.4029 Z-0.0100
G01 X67.8592 Y-2.3994 Z-0.0100
G01 X67.8597 Y-2.3959 Z-0.0100
G01 X67.8602 Y-2.3924 Z-0.0100
G01 X67.8622 Y-2.3758 Z-0.0100
G01 X67.8715 Y-2.3154 Z-0.0100
G01 X67.8821 Y-2.2616 Z-0.0100
G01 X67.8943 Y-2.2112 Z-0.0100
G01 X67.9077 Y-2.1657 Z-0.0100
G01 X67.9216 Y-2.1260 Z-0.0100
G01 X67.9372 Y-2.0887 Z-0.0100
G01 X67.9532 Y-2.0563 Z-0.0100
G01 X67.9702 Y-2.0268 Z-0.0100
G01 X67.9880 Y-2.0004 Z-0.0100
G01 X68.0064 Y-1.9768 Z-0.0100
G01 X68.0261 Y-1.9548 Z-0.0100
G01 X68.0462 Y-1.9354 Z-0.0100
G01 X68.0682 Y-1.9166 Z-0.0100
G01 X68.0915 Y-1.8992 Z-0.0100
G01 X68.1160 Y-1.8829 Z-0.0100
G01 X68.1425 Y-1.8672 Z-0.0100
G01 X68.1705 Y-1.8522 Z-0.0100
G01 X68.2004 Y-1.8374 Z-0.0100
G01 X68.2333 Y-1.8224 Z-0.0100
G01 X68.2646 Y-1.8090 Z-0.0100
G01 X68.3010 Y-1.7940 Z-0.0100
G01 X68.3370 Y-1.7796 Z-0.0100
G01 X68.3751 Y-1.7644 Z-0.0100
G01 X68.4145 Y-1.7485 Z-0.0100
G01 X68.4154 Y-1.7482 Z-0.0100
G01 X68.4552 Y-1.7318 Z-0.0100
G01 X68.4566 Y-1.7312 Z-0.0100
G01 X68.4971 Y-1.7140 Z-0.0100
G01 X68.4992 Y-1.7131 Z-0.0100
G01 X68.5404 Y-1.6947 Z-0.0100
G01 X68.5427 Y-1.6936 Z-0.0100
G01 X68.5847 Y-1.6738 Z-0.0100
G01 X68.5875 Y-1.6724 Z-0.0100
G01 X68.6300 Y-1.6510 Z-0.0100
G01 X68.6331 Y-1.6494 Z-0.0100
G01 X68.6762 Y-1.6261 Z-0.0100
G01 X68.6796 Y-1.6242 Z-0.0100
G01 X68.7233 Y-1.5989 Z-0.0100
G01 X68.7268 Y-1.5967 Z-0.0100
G01 X68.7710 Y-1.5690 Z-0.0100
G01 X68.7747 Y-1.5666 Z-0.0100
G01 X68.8193 Y-1.5364 Z-0.0100
G01 X68.8229 Y-1.5338 Z-0.0100
G01 X68.8680 Y-1.5009 Z-0.0100
G01 X68.8719 Y-1.4979 Z-0.0100
G01 X68.9173 Y-1.4618 Z-0.0100
G01 X68.9209 Y-1.4588 Z-0.0100
G01 X68.9667 Y-1.4196 Z-0.0100
G01 X68.9703 Y-1.4163 Z-0.0100
G01 X69.0164 Y-1.3735 Z-0.0100
G01 X69.0199 Y-1.3702 Z-0.0100
G01 X69.0662 Y-1.3237 Z-0.0100
G01 X69.0696 Y-1.3203 Z-0.0100
G01 X69.1161 Y-1.2698 Z-0.0100
G01 X69.1192 Y-1.2663 Z-0.0100
G01 X69.1660 Y-1.2116 Z-0.0100
G01 X69.1689 Y-1.2081 Z-0.0100
G01 X69.2158 Y-1.1490 Z-0.0100
G01 X69.2185 Y-1.1455 Z-0.0100
G01 X69.2655 Y-1.0818 Z-0.0100
G01 X69.2679 Y-1.0784 Z-0.0100
G01 X69.3151 Y-1.0098 Z-0.0100
G01 X69.3173 Y-1.0063 Z-0.0100
G01 X69.3644 Y-0.9325 Z-0.0100
G01 X69.3664 Y-0.9293 Z-0.0100
G01 X69.4136 Y-0.8502 Z-0.0100
G01 X69.4166 Y-0.8448 Z-0.0100
G01 X69.4359 Y-0.8084 Z-0.0100
G01 X69.4378 Y-0.8048 Z-0.0100
G01 X69.4558 Y-0.7679 Z-0.0100
G01 X69.4575 Y-0.7642 Z-0.0100
G01 X69.4746 Y-0.7261 Z-0.0100
G01 X69.4761 Y-0.7225 Z-0.0100
G01 X69.4919 Y-0.6842 Z-0.0100
G01 X69.4933 Y-0.6805 Z-0.0100
G01 X69.5083 Y-0.6405 Z-0.0100
G01 X69.5096 Y-0.6370 Z-0.0100
G01 X69.5238 Y-0.5953 Z-0.0100
G01 X69.5250 Y-0.5916 Z-0.0100
G01 X69.5379 Y-0.5494 Z-0.0100
G01 X69.5388 Y-0.5461 Z-0.0100
G01 X69.5503 Y-0.5042 Z-0.0100
G01 X69.5512 Y-0.5007 Z-0.0100
G01 X69.5621 Y-0.4562 Z-0.0100
G01 X69.5629 Y-0.4530 Z-0.0100
G01 X69.5722 Y-0.4097 Z-0.0100
G01 X69.5729 Y-0.4063 Z-0.0100
G01 X69.5817 Y-0.3589 Z-0.0100
G01 X69.5823 Y-0.3558 Z-0.0100
G01 X69.5895 Y-0.3105 Z-0.0100
G01 X69.5900 Y-0.3072 Z-0.0100
G01 X69.5962 Y-0.2601 Z-0.0100
G01 X69.5966 Y-0.2571 Z-0.0100
G01 X69.6016 Y-0.2104 Z-0.0100
G01 X69.6020 Y-0.2072 Z-0.0100
G01 X69.6061 Y-0.1570 Z-0.0100
G01 X69.6062 Y-0.1542 Z-0.0100
G01 X69.6090 Y-0.1067 Z-0.0100
G01 X69.6092 Y-0.1038 Z-0.0100
G01 X69.6109 Y-0.0540 Z-0.0100
G01 X69.6110 Y-0.0511 Z-0.0100
G01 X69.6115 Y-0.0013 Z-0.0100
G01 X69.6115 Y0.0013 Z-0.0100
G01 X69.6110 Y0.0511 Z-0.0100
G01 X69.6109 Y0.0540 Z-0.0100
G01 X69.6092 Y0.1038 Z-0.0100
G01 X69.6090 Y0.1067 Z-0.0100
G01 X69.6062 Y0.1542 Z-0.0100
G01 X69.6061 Y0.1570 Z-0.0100
G01 X69.6020 Y0.2072 Z-0.0100
G01 X69.6016 Y0.2104 Z-0.0100
G01 X69.5966 Y0.2571 Z-0.0100
G01 X69.5962 Y0.2601 Z-0.0100
G01 X69.5900 Y0.3072 Z-0.0100
G01 X69.5895 Y0.3105 Z-0.0100
G01 X69.5823 Y0.3558 Z-0.0100
G01 X69.5817 Y0.3589 Z-0.0100
G01 X69.5729 Y0.4063 Z-0.0100
G01 X69.5722 Y0.4097 Z-0.0100
G01 X69.5629 Y0.4530 Z-0.0100
G01 X69.5622 Y0.4562 Z-0.0100
G01 X69.5514 Y0.5001 Z-0.0100
G01 X69.5505 Y0.5037 Z-0.0100
G01 X69.5388 Y0.5461 Z-0.0100
G01 X69.5379 Y0.5494 Z-0.0100
G01 X69.5250 Y0.5916 Z-0.0100
G01 X69.5238 Y0.5953 Z-0.0100
G01 X69.5096 Y0.6370 Z-0.0100
G01 X69.5083 Y0.6405 Z-0.0100
G01 X69.4933 Y0.6805 Z-0.0100
G01 X69.4919 Y0.6842 Z-0.0100
G01 X69.4761 Y0.7225 Z-0.0100
G01 X69.4746 Y0.7261 Z-0.0100
G01 X69.4575 Y0.7642 Z-0.0100
G01 X69.4558 Y0.7679 Z-0.0100
G01 X69.4378 Y0.8047 Z-0.0100
G01 X69.4360 Y0.8083 Z-0.0100
G01 X69.4166 Y0.8448 Z-0.0100
G01 X69.4136 Y0.8502 Z-0.0100
G01 X69.3664 Y0.9293 Z-0.0100
G01 X69.3644 Y0.9325 Z-0.0100
G01 X69.3173 Y1.0063 Z-0.0100
G01 X69.3151 Y1.0098 Z-0.0100
G01 X69.2679 Y1.0784 Z-0.0100
G01 X69.2655 Y1.0818 Z-0.0100
G01 X69.2185 Y1.1455 Z-0.0100
G01 X69.2158 Y1.1490 Z-0.0100
G01 X69.1689 Y1.2081 Z-0.0100
G01 X69.1660 Y1.2116 Z-0.0100
G01 X69.1192 Y1.2663 Z-0.0100
G01 X69.1161 Y1.2698 Z-0.0100
G01 X69.0696 Y1.3203 Z-0.0100
G01 X69.0662 Y1.3237 Z-0.0100
G01 X69.0199 Y1.3702 Z-0.0100
G01 X69.0164 Y1.3735 Z-0.0100
G01 X68.9703 Y1.4163 Z-0.0100
G01 X68.9667 Y1.4196 Z-0.0100
G01 X68.9209 Y1.4588 Z-0.0100
G01 X68.9173 Y1.4618 Z-0.0100
G01 X68.8719 Y1.4979 Z-0.0100
G01 X68.8680 Y1.5009 Z-0.0100
G01 X68.8229 Y1.5338 Z-0.0100
G01 X68.8193 Y1.5364 Z-0.0100
G01 X68.7747 Y1.5666 Z-0.0100
G01 X68.7710 Y1.5690 Z-0.0100
G01 X68.7268 Y1.5967 Z-0.0100
G01 X68.7233 Y1.5989 Z-0.0100
G01 X68.6796 Y1.6242 Z-0.0100
G01 X68.6762 Y1.6261 Z-0.0100
G01 X68.6331 Y1.6494 Z-0.0100
G01 X68.6300 Y1.6510 Z-0.0100
G01 X68.5875 Y1.6724 Z-0.0100
G01 X68.5847 Y1.6738 Z-0.0100
G01 X68.5427 Y1.6936 Z-0.0100
G01 X68.5404 Y1.6947 Z-0.0100
G01 X68.4992 Y1.7131 Z-0.0100
G01 X68.4971 Y1.7140 Z-0.0100
G01 X68.4566 Y1.7312 Z-0.0100
G01 X68.4552 Y1.7318 Z-0.0100
G01 X68.4154 Y1.7482 Z-0.0100
G01 X68.4145 Y1.7485 Z-0.0100
G01 X68.3755 Y1.7642 Z-0.0100
G01 X68.3370 Y1.7796 Z-0.0100
G01 X68.3010 Y1.7940 Z-0.0100
G01 X68.2646 Y1.8090 Z-0.0100
G01 X68.2334 Y1.8224 Z-0.0100
G01 X68.2004 Y1.8374 Z-0.0100
G01 X68.1705 Y1.8522 Z-0.0100
G01 X68.1425 Y1.8672 Z-0.0100
G01 X68.1160 Y1.8829 Z-0.0100
G01 X68.0915 Y1.8992 Z-0.0100
G01 X68.0682 Y1.9166 Z-0.0100
G01 X68.0462 Y1.9354 Z-0.0100
G01 X68.0261 Y1.9548 Z-0.0100
G01 X68.0064 Y1.9768 Z-0.0100
G01 X67.9880 Y2.0004 Z-0.0100
G01 X67.9702 Y2.0268 Z-0.0100
G01 X67.9532 Y2.0563 Z-0.0100
G01 X67.9372 Y2.0887 Z-0.0100
G01 X67.9216 Y2.1260 Z-0.0100
G01 X67.9077 Y2.1657 Z-0.0100
G01 X67.8943 Y2.2112 Z-0.0100
G01 X67.8821 Y2.2616 Z-0.0100
G01 X67.8715 Y2.3154 Z-0.0100
G01 X67.8622 Y2.3755 Z-0.0100
G01 X67.8602 Y2.3924 Z-0.0100
G01 X67.8597 Y2.3959 Z-0.0100
G01 X67.8592 Y2.3994 Z-0.0100
G01 X67.8585 Y2.4029 Z-0.0100
G01 X67.8577 Y2.4064 Z-0.0100
G01 X67.8568 Y2.4098 Z-0.0100
G01 X67.8559 Y2.4133 Z-0.0100
G01 X67.8548 Y2.4166 Z-0.0100
G01 X67.8536 Y2.4200 Z-0.0100
G01 X67.8524 Y2.4233 Z-0.0100
G01 X67.8510 Y2.4266 Z-0.0100
G01 X67.8496 Y2.4298 Z-0.0100
G01 X67.8480 Y2.4331 Z-0.0100
G01 X67.8464 Y2.4362 Z-0.0100
G01 X67.8446 Y2.4393 Z-0.0100
G01 X67.8428 Y2.4424 Z-0.0100
G01 X67.8409 Y2.4454 Z-0.0100
G01 X67.8389 Y2.4483 Z-0.0100
G01 X67.8368 Y2.4512 Z-0.0100
G01 X67.8347 Y2.4540 Z-0.0100
G01 X67.8324 Y2.4568 Z-0.0100
G01 X67.8301 Y2.4595 Z-0.0100
G01 X67.8277 Y2.4622 Z-0.0100
G01 X67.8253 Y2.4647 Z-0.0100
G01 X67.8227 Y2.4672 Z-0.0100
G01 X67.8201 Y2.4696 Z-0.0100
G01 X67.8174 Y2.4720 Z-0.0100
G01 X67.8147 Y2.4742 Z-0.0100
G01 X67.8119 Y2.4764 Z-0.0100
G01 X67.8090 Y2.4785 Z-0.0100
G01 X67.8061 Y2.4805 Z-0.0100
G01 X67.8031 Y2.4824 Z-0.0100
G01 X67.8001 Y2.4843 Z-0.0100
G01 X67.7970 Y2.4861 Z-0.0100
G01 X67.7938 Y2.4877 Z-0.0100
G01 X67.7906 Y2.4893 Z-0.0100
G01 X67.7874 Y2.4907 Z-0.0100
G01 X67.7841 Y2.4922 Z-0.0100
G01 X67.7808 Y2.4935 Z-0.0100
G01 X67.7775 Y2.4946 Z-0.0100
G01 X67.7741 Y2.4957 Z-0.0100
G01 X67.7707 Y2.4967 Z-0.0100
G01 X67.7672 Y2.4976 Z-0.0100
G01 X67.7638 Y2.4985 Z-0.0100
G01 X67.7603 Y2.4992 Z-0.0100
G01 X67.7568 Y2.4998 Z-0.0100
G01 X67.7533 Y2.5003 Z-0.0100
G01 X67.7497 Y2.5007 Z-0.0100
G01 X67.7462 Y2.5009 Z-0.0100
G01 X67.7426 Y2.5011 Z-0.0100
G01 X67.7391 Y2.5012 Z-0.0100
G01 X67.7194 Y2.5015 Z-0.0100
G01 X67.7170 Y2.5015 Z-0.0100
G01 X67.7119 Y2.5014 Z-0.0100
G01 X67.7090 Y2.5014 Z-0.0100
G01 X67.0754 Y2.4816 Z-0.0100
G01 X66.4418 Y2.4624 Z-0.0100
G01 X65.8082 Y2.4437 Z-0.0100
G01 X65.1746 Y2.4253 Z-0.0100
G01 X64.5411 Y2.4074 Z-0.0100
G01 X63.9075 Y2.3900 Z-0.0100
G01 X63.2739 Y2.3730 Z-0.0100
G01 X62.6403 Y2.3565 Z-0.0100
G01 X62.0066 Y2.3404 Z-0.0100
G01 X61.3730 Y2.3248 Z-0.0100
G01 X60.7393 Y2.3096 Z-0.0100
G01 X60.1057 Y2.2949 Z-0.0100
G01 X59.4720 Y2.2807 Z-0.0100
G01 X58.8384 Y2.2668 Z-0.0100
G01 X58.2047 Y2.2535 Z-0.0100
G01 X57.5710 Y2.2406 Z-0.0100
G01 X56.9372 Y2.2281 Z-0.0100
G01 X56.3075 Y2.2162 Z-0.0100
G01 X56.3037 Y2.2162 Z-0.0100
G01 X55.6699 Y2.2047 Z-0.0100
G01 X55.0361 Y2.1936 Z-0.0100
G01 X54.4024 Y2.1830 Z-0.0100
G01 X53.7687 Y2.1728 Z-0.0100
G01 X53.1349 Y2.1631 Z-0.0100
G01 X52.5011 Y2.1538 Z-0.0100
G01 X52.1653 Y2.1491 Z-0.0100
G01 X51.8673 Y2.1450 Z0.0240
G01 X51.3779 Y2.1385 Z0.0799
G01 X51.2336 Y2.1366 Z0.0800
G01 X50.5998 Y2.1287 Z0.0800
G01 X50.5905 Y2.1286 Z0.0800
G01 X49.9660 Y2.1213 Z0.0085
G01 X49.8031 Y2.1195 Z-0.0099
G01 X49.3322 Y2.1143 Z-0.0100
G01 X48.6985 Y2.1077 Z-0.0100
G01 X48.0646 Y2.1016 Z-0.0100
G01 X47.4308 Y2.0960 Z-0.0100
G01 X46.7970 Y2.0908 Z-0.0100
G01 X46.1633 Y2.0861 Z-0.0100
G01 X45.5294 Y2.0818 Z-0.0100
G01 X44.8956 Y2.0780 Z-0.0100
G01 X44.2618 Y2.0746 Z-0.0100
G01 X43.6279 Y2.0717 Z-0.0100
G01 X42.9941 Y2.0692 Z-0.0100
G01 X42.3603 Y2.0672 Z-0.0100
G01 X41.7265 Y2.0657 Z-0.0100
G01 X41.0927 Y2.0646 Z-0.0100
G01 X40.4588 Y2.0639 Z-0.0100
G01 X39.8251 Y2.0637 Z-0.0100
G01 X39.1914 Y2.0640 Z-0.0100
G01 X38.5575 Y2.0647 Z-0.0100
G01 X37.9237 Y2.0659 Z-0.0100
G01 X37.2899 Y2.0675 Z-0.0100
G01 X36.6560 Y2.0696 Z-0.0100
G01 X36.0222 Y2.0721 Z-0.0100
G01 X35.3884 Y2.0751 Z-0.0100
G01 X34.7546 Y2.0785 Z-0.0100
G01 X34.1207 Y2.0824 Z-0.0100
G01 X33.4870 Y2.0868 Z-0.0100
G01 X32.8531 Y2.0916 Z-0.0100
G01 X32.2193 Y2.0968 Z-0.0100
G01 X31.5856 Y2.1025 Z-0.0100
G01 X30.9518 Y2.1087 Z-0.0100
G01 X30.3179 Y2.1153 Z-0.0100
G01 X29.6842 Y2.1224 Z-0.0100
G01 X29.0504 Y2.1299 Z-0.0100
G01 X28.4166 Y2.1379 Z-0.0100
G01 X27.7828 Y2.1463 Z-0.0100
G01 X27.1490 Y2.1551 Z-0.0100
G01 X26.5153 Y2.1645 Z-0.0100
G01 X25.8816 Y2.1743 Z-0.0100
G01 X25.2478 Y2.1845 Z-0.0100
G01 X24.6141 Y2.1952 Z-0.0100
G01 X23.9802 Y2.2064 Z-0.0100
G01 X23.9764 Y2.2064 Z-0.0100
G01 X23.3466 Y2.2179 Z-0.0100
G01 X22.7129 Y2.2300 Z-0.0100
G01 X22.0792 Y2.2425 Z-0.0100
G01 X21.4455 Y2.2554 Z-0.0100
G01 X20.8119 Y2.2688 Z-0.0100
G01 X20.4724 Y2.2762 Z-0.0100
G01 X20.1782 Y2.2827 Z0.0236
G01 X19.6850 Y2.2938 Z0.0799
G01 X19.5445 Y2.2970 Z0.0800
G01 X18.9108 Y2.3118 Z0.0800
G01 X18.8976 Y2.3122 Z0.0800
G01 X18.2772 Y2.3271 Z0.0090
G01 X18.1102 Y2.3312 Z-0.0099
G01 X17.6436 Y2.3427 Z-0.0100
G01 X17.0099 Y2.3589 Z-0.0100
G01 X16.3763 Y2.3755 Z-0.0100
G01 X15.7428 Y2.3925 Z-0.0100
G01 X15.1092 Y2.4100 Z-0.0100
G01 X14.4756 Y2.4280 Z-0.0100
G01 X13.8420 Y2.4464 Z-0.0100
G01 X13.2085 Y2.4653 Z-0.0100
G01 X12.5748 Y2.4846 Z-0.0100
G01 X11.9412 Y2.5043 Z-0.0100
G01 X11.9377 Y2.5044 Z-0.0100
G01 X11.3079 Y2.5245 Z-0.0100
G01 X10.6744 Y2.5451 Z-0.0100
G01 X10.0410 Y2.5663 Z-0.0100
G01 X9.4075 Y2.5879 Z-0.0100
G01 X8.7740 Y2.6099 Z-0.0100
G01 X8.1407 Y2.6324 Z-0.0100
G01 X7.5072 Y2.6553 Z-0.0100
G01 X6.8738 Y2.6787 Z-0.0100
G01 X6.2404 Y2.7026 Z-0.0100
G01 X5.6071 Y2.7269 Z-0.0100
G01 X4.9737 Y2.7516 Z-0.0100
G01 X4.3403 Y2.7769 Z-0.0100
G01 X4.3371 Y2.7770 Z-0.0100
G01 X4.3314 Y2.7770 Z-0.0100
G01 X4.3283 Y2.7770 Z-0.0100
G01 X4.3248 Y2.7770 Z-0.0100
G01 X4.3213 Y2.7769 Z-0.0100
G01 X4.3179 Y2.7767 Z-0.0100
G01 X4.3144 Y2.7764 Z-0.0100
G01 X4.3109 Y2.7761 Z-0.0100
G01 X4.3074 Y2.7755 Z-0.0100
G01 X4.3040 Y2.7750 Z-0.0100
G01 X4.3005 Y2.7743 Z-0.0100
G01 X4.2971 Y2.7735 Z-0.0100
G01 X4.2937 Y2.7726 Z-0.0100
G01 X4.2903 Y2.7717 Z-0.0100
G01 X4.2870 Y2.7706 Z-0.0100
G01 X4.2837 Y2.7694 Z-0.0100
G01 X4.2804 Y2.7682 Z-0.0100
G01 X4.2772 Y2.7668 Z-0.0100
G01 X4.2740 Y2.7654 Z-0.0100
G01 X4.2709 Y2.7639 Z-0.0100
G01 X4.2677 Y2.7623 Z-0.0100
G01 X4.2647 Y2.7605 Z-0.0100
G01 X4.2617 Y2.7588 Z-0.0100
G01 X4.2587 Y2.7569 Z-0.0100
G01 X4.2558 Y2.7550 Z-0.0100
G01 X4.2530 Y2.7529 Z-0.0100
G01 X4.2502 Y2.7508 Z-0.0100
G01 X4.2475 Y2.7486 Z-0.0100
G01 X4.2448 Y2.7463 Z-0.0100
G01 X4.2422 Y2.7440 Z-0.0100
G01 X4.2397 Y2.7416 Z-0.0100
G01 X4.2372 Y2.7390 Z-0.0100
G01 X4.2348 Y2.7365 Z-0.0100
G01 X4.2325 Y2.7339 Z-0.0100
G01 X4.2303 Y2.7312 Z-0.0100
G01 X4.2281 Y2.7284 Z-0.0100
G01 X4.2260 Y2.7256 Z-0.0100
G01 X4.2240 Y2.7227 Z-0.0100
G01 X4.2221 Y2.7198 Z-0.0100
G01 X4.2202 Y2.7168 Z-0.0100
G01 X4.2185 Y2.7138 Z-0.0100
G01 X4.2168 Y2.7107 Z-0.0100
G01 X4.2153 Y2.7076 Z-0.0100
G01 X4.2138 Y2.7044 Z-0.0100
G01 X4.2124 Y2.7012 Z-0.0100
G01 X4.2111 Y2.6979 Z-0.0100
G01 X4.2098 Y2.6947 Z-0.0100
G01 X4.2087 Y2.6914 Z-0.0100
G01 X4.2077 Y2.6880 Z-0.0100
G01 X4.2068 Y2.6846 Z-0.0100
G01 X4.2059 Y2.6812 Z-0.0100
G01 X4.2052 Y2.6778 Z-0.0100
G01 X4.2046 Y2.6744 Z-0.0100
G01 X4.2040 Y2.6709 Z-0.0100
G01 X4.2036 Y2.6674 Z-0.0100
G01 X4.2032 Y2.6639 Z-0.0100
G01 X4.2030 Y2.6605 Z-0.0100
G01 X4.2028 Y2.6570 Z-0.0100
G01 X4.2019 Y2.6243 Z-0.0100
G01 X4.1993 Y2.5557 Z-0.0100
G01 X4.1960 Y2.4915 Z-0.0100
G01 X4.1921 Y2.4336 Z-0.0100
G01 X4.1872 Y2.3755 Z-0.0100
G01 X4.1819 Y2.3257 Z-0.0100
G01 X4.1755 Y2.2772 Z-0.0100
G01 X4.1685 Y2.2345 Z-0.0100
G01 X4.1604 Y2.1939 Z-0.0100
G01 X4.1518 Y2.1579 Z-0.0100
G01 X4.1424 Y2.1255 Z-0.0100
G01 X4.1324 Y2.0969 Z-0.0100
G01 X4.1217 Y2.0712 Z-0.0100
G01 X4.1105 Y2.0488 Z-0.0100
G01 X4.0990 Y2.0294 Z-0.0100
G01 X4.0869 Y2.0122 Z-0.0100
G01 X4.0742 Y1.9971 Z-0.0100
G01 X4.0604 Y1.9833 Z-0.0100
G01 X4.0457 Y1.9709 Z-0.0100
G01 X4.0295 Y1.9593 Z-0.0100
G01 X4.0112 Y1.9483 Z-0.0100
G01 X3.9905 Y1.9379 Z-0.0100
G01 X3.9675 Y1.9280 Z-0.0100
G01 X3.9412 Y1.9185 Z-0.0100
G01 X3.9124 Y1.9096 Z-0.0100
G01 X3.8814 Y1.9014 Z-0.0100
G01 X3.8475 Y1.8938 Z-0.0100
G01 X3.8092 Y1.8863 Z-0.0100
G01 X3.7690 Y1.8794 Z-0.0100
G01 X3.7270 Y1.8730 Z-0.0100
G01 X3.6794 Y1.8665 Z-0.0100
G01 X3.6316 Y1.8604 Z-0.0100
G01 X3.5790 Y1.8541 Z-0.0100
G01 X3.5246 Y1.8478 Z-0.0100
G01 X3.4668 Y1.8412 Z-0.0100
G01 X3.4062 Y1.8343 Z-0.0100
G01 X3.3428 Y1.8269 Z-0.0100
G01 X3.3422 Y1.8268 Z-0.0100
G01 X3.2761 Y1.8188 Z-0.0100
G01 X3.2754 Y1.8188 Z-0.0100
G01 X3.2064 Y1.8100 Z-0.0100
G01 X3.2056 Y1.8099 Z-0.0100
G01 X3.1337 Y1.8003 Z-0.0100
G01 X3.1328 Y1.8002 Z-0.0100
G01 X3.0578 Y1.7896 Z-0.0100
G01 X3.0566 Y1.7894 Z-0.0100
G01 X2.9786 Y1.7777 Z-0.0100
G01 X2.9775 Y1.7775 Z-0.0100
G01 X2.8963 Y1.7645 Z-0.0100
G01 X2.8950 Y1.7643 Z-0.0100
G01 X2.8106 Y1.7498 Z-0.0100
G01 X2.8094 Y1.7496 Z-0.0100
G01 X2.7217 Y1.7337 Z-0.0100
G01 X2.7203 Y1.7334 Z-0.0100
G01 X2.6294 Y1.7158 Z-0.0100
G01 X2.6259 Y1.7151 Z-0.0100
G01 X2.5060 Y1.6883 Z-0.0100
G01 X2.5033 Y1.6876 Z-0.0100
G01 X2.3863 Y1.6586 Z-0.0100
G01 X2.3833 Y1.6578 Z-0.0100
G01 X2.2721 Y1.6273 Z-0.0100
G01 X2.2692 Y1.6264 Z-0.0100
G01 X2.1645 Y1.5948 Z-0.0100
G01 X2.1614 Y1.5939 Z-0.0100
G01 X2.0607 Y1.5606 Z-0.0100
G01 X2.0575 Y1.5595 Z-0.0100
G01 X1.9623 Y1.5251 Z-0.0100
G01 X1.9590 Y1.5239 Z-0.0100
G01 X1.8672 Y1.4879 Z-0.0100
G01 X1.8640 Y1.4865 Z-0.0100
G01 X1.7778 Y1.4498 Z-0.0100
G01 X1.7745 Y1.4483 Z-0.0100
G01 X1.6924 Y1.4104 Z-0.0100
G01 X1.6890 Y1.4088 Z-0.0100
G01 X1.6117 Y1.3702 Z-0.0100
G01 X1.6082 Y1.3684 Z-0.0100
G01 X1.5352 Y1.3290 Z-0.0100
G01 X1.5318 Y1.3271 Z-0.0100
G01 X1.4625 Y1.2868 Z-0.0100
G01 X1.4590 Y1.2846 Z-0.0100
G01 X1.3955 Y1.2447 Z-0.0100
G01 X1.3920 Y1.2424 Z-0.0100
G01 X1.3299 Y1.2004 Z-0.0100
G01 X1.3263 Y1.1979 Z-0.0100
G01 X1.2710 Y1.1575 Z-0.0100
G01 X1.2674 Y1.1549 Z-0.0100
G01 X1.2145 Y1.1133 Z-0.0100
G01 X1.2110 Y1.1104 Z-0.0100
G01 X1.1612 Y1.0683 Z-0.0100
G01 X1.1578 Y1.0652 Z-0.0100
G01 X1.1122 Y1.0236 Z-0.0100
G01 X1.1088 Y1.0203 Z-0.0100
G01 X1.0659 Y0.9780 Z-0.0100
G01 X1.0626 Y0.9747 Z-0.0100
G01 X1.0226 Y0.9321 Z-0.0100
G01 X1.0192 Y0.9284 Z-0.0100
G01 X0.9833 Y0.8870 Z-0.0100
G01 X0.9803 Y0.8833 Z-0.0100
G01 X0.9462 Y0.8407 Z-0.0100
G01 X0.9431 Y0.8367 Z-0.0100
G01 X0.9119 Y0.7944 Z-0.0100
G01 X0.9091 Y0.7904 Z-0.0100
G01 X0.8801 Y0.7475 Z-0.0100
G01 X0.8774 Y0.7433 Z-0.0100
G01 X0.8515 Y0.7016 Z-0.0100
G01 X0.8489 Y0.6972 Z-0.0100
G01 X0.8242 Y0.6534 Z-0.0100
G01 X0.8220 Y0.6492 Z-0.0100
G01 X0.8001 Y0.6066 Z-0.0100
G01 X0.7979 Y0.6020 Z-0.0100
G01 X0.7780 Y0.5590 Z-0.0100
G01 X0.7759 Y0.5544 Z-0.0100
G01 X0.7579 Y0.5109 Z-0.0100
G01 X0.7562 Y0.5064 Z-0.0100
G01 X0.7397 Y0.4617 Z-0.0100
G01 X0.7381 Y0.4572 Z-0.0100
G01 X0.7238 Y0.4130 Z-0.0100
G01 X0.7223 Y0.4083 Z-0.0100
G01 X0.7097 Y0.3635 Z-0.0100
G01 X0.7085 Y0.3589 Z-0.0100
G01 X0.6975 Y0.3131 Z-0.0100
G01 X0.6965 Y0.3085 Z-0.0100
G01 X0.6874 Y0.2629 Z-0.0100
G01 X0.6865 Y0.2583 Z-0.0100
G01 X0.6790 Y0.2119 Z-0.0100
G01 X0.6784 Y0.2075 Z-0.0100
G01 X0.6725 Y0.1605 Z-0.0100
G01 X0.6720 Y0.1560 Z-0.0100
G01 X0.6677 Y0.1073 Z-0.0100
G01 X0.6674 Y0.1028 Z-0.0100
G01 X0.6650 Y0.0554 Z-0.0100
G01 X0.6648 Y0.0512 Z-0.0100
G01 X0.6640 Y0.0020 Z-0.0100
G01 X0.6640 Y-0.0020 Z-0.0100
G00 X0.6640 Y-0.0020 Z0.6000
M05
G00 X0.0000 Y0.0000 Z0.6000
G49
G01 G55 Z0 F20
G00 G55 X0 Y0 Z0
M30
