( Sample-ski-nose-tail-spacers.nc                                              )
( Generated by MonkeyCAM v4.0.3 at 2016-03-15 22:16:40 New Zealand Daylight Time
(                                                                              )
( This GCode program is provided on an "AS IS" BASIS WITHOUT WARRANTIES OR     )
( CONDITIONS OF ANY KIND, either express or implied. You should inspect this   )
( program very carefully to confirm you understand its operation. YOU ARE      )
( RESPONSIBLE FOR ENSURING THIS PROGRAM WILL NOT DAMAGE YOUR MACHINE OR        )
( MATERIALS.                                                                   )
(                                                                              )
( See http://www.github.com/mikemag/MonkeyCAM for License and documentation.   )
(                                                                              )
( * Rapid height: 0.2500" [0.6350cm]                                           )
( * Tool: T1, Quarter Inch Straight, diameter 0.2500" [0.6350cm]               )
( * Height baseline [Z=0.0] is the top of the table.                           )
( * XY origin is the left side of the table, Y is center of the part.          )
( * Requires G54 to be the part work coordinate offsets [WCO]. [0, 0] is the   )
(   center of the nose, with the board extending to positive X. The cutter may )
(   move to negative values of X.                                              )
( * Requires G55 to be the machine WCO, with Z above the rapid height.         )
( * Units are inches                                                           )
( * Center of the board in G54:                                                )
(     X=36.0236 Y=0.0000 Z=0.0000                                              )
(                                                                              )
( Spacer material length: 9.6771" [24.5800cm]                                  )
(                                                                              )
( * Cutter bounding box in G54:                                                )
(     X0.0000 Y-3.0353 Z-0.0100 to X8.0146 Y3.0353 Z0.2500                     )

G90 G20 G17 G40 G49
G43 H1 T1
G00 G54 X0 Y0 Z0.2500

G00 X5.4557 Y-3.0353 Z0.2500
M03
G04 P5
G01 X5.4557 Y-3.0353 Z-0.0100 F80
G01 X5.4555 Y-2.9432 Z-0.0100
G01 X5.4555 Y-2.9427 Z-0.0100
G01 X5.4549 Y-2.8553 Z-0.0100
G01 X5.4549 Y-2.8546 Z-0.0100
G01 X5.4539 Y-2.7718 Z-0.0100
G01 X5.4539 Y-2.7709 Z-0.0100
G01 X5.4524 Y-2.6925 Z-0.0100
G01 X5.4524 Y-2.6914 Z-0.0100
G01 X5.4503 Y-2.6174 Z-0.0100
G01 X5.4503 Y-2.6161 Z-0.0100
G01 X5.4476 Y-2.5462 Z-0.0100
G01 X5.4475 Y-2.5446 Z-0.0100
G01 X5.4441 Y-2.4787 Z-0.0100
G01 X5.4440 Y-2.4768 Z-0.0100
G01 X5.4399 Y-2.4149 Z-0.0100
G01 X5.4397 Y-2.4127 Z-0.0100
G01 X5.4348 Y-2.3545 Z-0.0100
G01 X5.4345 Y-2.3518 Z-0.0100
G01 X5.4287 Y-2.2973 Z-0.0100
G01 X5.4283 Y-2.2942 Z-0.0100
G01 X5.4216 Y-2.2432 Z-0.0100
G01 X5.4211 Y-2.2395 Z-0.0100
G01 X5.4133 Y-2.1919 Z-0.0100
G01 X5.4125 Y-2.1876 Z-0.0100
G01 X5.4037 Y-2.1433 Z-0.0100
G01 X5.4027 Y-2.1385 Z-0.0100
G01 X5.3928 Y-2.0972 Z-0.0100
G01 X5.3912 Y-2.0915 Z-0.0100
G01 X5.3801 Y-2.0533 Z-0.0100
G01 X5.3781 Y-2.0469 Z-0.0100
G01 X5.3658 Y-2.0115 Z-0.0100
G01 X5.3631 Y-2.0046 Z-0.0100
G01 X5.3495 Y-1.9719 Z-0.0100
G01 X5.3461 Y-1.9643 Z-0.0100
G01 X5.3311 Y-1.9342 Z-0.0100
G01 X5.3266 Y-1.9260 Z-0.0100
G01 X5.3102 Y-1.8984 Z-0.0100
G01 X5.3048 Y-1.8901 Z-0.0100
G01 X5.2869 Y-1.8647 Z-0.0100
G01 X5.2806 Y-1.8565 Z-0.0100
G01 X5.2611 Y-1.8333 Z-0.0100
G01 X5.2538 Y-1.8253 Z-0.0100
G01 X5.2327 Y-1.8042 Z-0.0100
G01 X5.2250 Y-1.7971 Z-0.0100
G01 X5.2023 Y-1.7779 Z-0.0100
G01 X5.1941 Y-1.7715 Z-0.0100
G01 X5.1696 Y-1.7541 Z-0.0100
G01 X5.1614 Y-1.7487 Z-0.0100
G01 X5.1351 Y-1.7329 Z-0.0100
G01 X5.1274 Y-1.7287 Z-0.0100
G01 X5.0992 Y-1.7144 Z-0.0100
G01 X5.0919 Y-1.7110 Z-0.0100
G01 X5.0619 Y-1.6981 Z-0.0100
G01 X5.0553 Y-1.6955 Z-0.0100
G01 X5.0233 Y-1.6839 Z-0.0100
G01 X5.0175 Y-1.6820 Z-0.0100
G01 X4.9835 Y-1.6715 Z-0.0100
G01 X4.9785 Y-1.6701 Z-0.0100
G01 X4.9424 Y-1.6606 Z-0.0100
G01 X4.9380 Y-1.6595 Z-0.0100
G01 X4.8997 Y-1.6509 Z-0.0100
G01 X4.8962 Y-1.6501 Z-0.0100
G01 X4.8557 Y-1.6422 Z-0.0100
G01 X4.8528 Y-1.6417 Z-0.0100
G01 X4.8100 Y-1.6344 Z-0.0100
G01 X4.8078 Y-1.6340 Z-0.0100
G01 X4.7627 Y-1.6271 Z-0.0100
G01 X4.7608 Y-1.6269 Z-0.0100
G01 X4.7133 Y-1.6203 Z-0.0100
G01 X4.7120 Y-1.6201 Z-0.0100
G01 X4.6620 Y-1.6138 Z-0.0100
G01 X4.6611 Y-1.6137 Z-0.0100
G01 X4.6086 Y-1.6074 Z-0.0100
G01 X4.6081 Y-1.6074 Z-0.0100
G01 X4.5529 Y-1.6010 Z-0.0100
G01 X4.4949 Y-1.5944 Z-0.0100
G01 X4.4348 Y-1.5875 Z-0.0100
G01 X4.3715 Y-1.5801 Z-0.0100
G01 X4.3066 Y-1.5723 Z-0.0100
G01 X4.2377 Y-1.5635 Z-0.0100
G01 X4.1675 Y-1.5542 Z-0.0100
G01 X4.0925 Y-1.5436 Z-0.0100
G01 X4.0168 Y-1.5322 Z-0.0100
G01 X3.9356 Y-1.5192 Z-0.0100
G01 X3.8538 Y-1.5051 Z-0.0100
G01 X3.7661 Y-1.4892 Z-0.0100
G01 X3.6781 Y-1.4722 Z-0.0100
G01 X3.5629 Y-1.4464 Z-0.0100
G01 X3.4478 Y-1.4179 Z-0.0100
G01 X3.3393 Y-1.3880 Z-0.0100
G01 X3.2382 Y-1.3575 Z-0.0100
G01 X3.1398 Y-1.3250 Z-0.0100
G01 X3.0478 Y-1.2918 Z-0.0100
G01 X2.9602 Y-1.2574 Z-0.0100
G01 X2.8766 Y-1.2218 Z-0.0100
G01 X2.7989 Y-1.1860 Z-0.0100
G01 X2.7238 Y-1.1485 Z-0.0100
G01 X2.6554 Y-1.1115 Z-0.0100
G01 X2.5899 Y-1.0734 Z-0.0100
G01 X2.5292 Y-1.0352 Z-0.0100
G01 X2.4707 Y-0.9957 Z-0.0100
G01 X2.4193 Y-0.9582 Z-0.0100
G01 X2.3701 Y-0.9196 Z-0.0100
G01 X2.3232 Y-0.8798 Z-0.0100
G01 X2.2818 Y-0.8420 Z-0.0100
G01 X2.2415 Y-0.8023 Z-0.0100
G01 X2.2059 Y-0.7644 Z-0.0100
G01 X2.1726 Y-0.7259 Z-0.0100
G01 X2.1416 Y-0.6873 Z-0.0100
G01 X2.1135 Y-0.6490 Z-0.0100
G01 X2.0876 Y-0.6108 Z-0.0100
G01 X2.0639 Y-0.5726 Z-0.0100
G01 X2.0416 Y-0.5330 Z-0.0100
G01 X2.0227 Y-0.4961 Z-0.0100
G01 X2.0044 Y-0.4566 Z-0.0100
G01 X1.9888 Y-0.4190 Z-0.0100
G01 X1.9734 Y-0.3771 Z-0.0100
G01 X1.9609 Y-0.3388 Z-0.0100
G01 X1.9496 Y-0.2987 Z-0.0100
G01 X1.9396 Y-0.2569 Z-0.0100
G01 X1.9314 Y-0.2165 Z-0.0100
G01 X1.9248 Y-0.1750 Z-0.0100
G01 X1.9193 Y-0.1317 Z-0.0100
G01 X1.9155 Y-0.0877 Z-0.0100
G01 X1.9133 Y-0.0451 Z-0.0100
G01 X1.9125 Y0.0000 Z-0.0100
G01 X1.9133 Y0.0451 Z-0.0100
G01 X1.9155 Y0.0877 Z-0.0100
G01 X1.9193 Y0.1317 Z-0.0100
G01 X1.9248 Y0.1750 Z-0.0100
G01 X1.9314 Y0.2165 Z-0.0100
G01 X1.9396 Y0.2569 Z-0.0100
G01 X1.9496 Y0.2987 Z-0.0100
G01 X1.9609 Y0.3388 Z-0.0100
G01 X1.9734 Y0.3771 Z-0.0100
G01 X1.9888 Y0.4188 Z-0.0100
G01 X2.0044 Y0.4566 Z-0.0100
G01 X2.0227 Y0.4961 Z-0.0100
G01 X2.0416 Y0.5330 Z-0.0100
G01 X2.0639 Y0.5726 Z-0.0100
G01 X2.0876 Y0.6108 Z-0.0100
G01 X2.1135 Y0.6490 Z-0.0100
G01 X2.1416 Y0.6873 Z-0.0100
G01 X2.1726 Y0.7259 Z-0.0100
G01 X2.2059 Y0.7644 Z-0.0100
G01 X2.2415 Y0.8023 Z-0.0100
G01 X2.2818 Y0.8420 Z-0.0100
G01 X2.3232 Y0.8798 Z-0.0100
G01 X2.3701 Y0.9196 Z-0.0100
G01 X2.4192 Y0.9581 Z-0.0100
G01 X2.4707 Y0.9957 Z-0.0100
G01 X2.5292 Y1.0352 Z-0.0100
G01 X2.5899 Y1.0734 Z-0.0100
G01 X2.6554 Y1.1115 Z-0.0100
G01 X2.7238 Y1.1485 Z-0.0100
G01 X2.7981 Y1.1855 Z-0.0100
G01 X2.8771 Y1.2220 Z-0.0100
G01 X2.9602 Y1.2574 Z-0.0100
G01 X3.0478 Y1.2918 Z-0.0100
G01 X3.1398 Y1.3250 Z-0.0100
G01 X3.2382 Y1.3575 Z-0.0100
G01 X3.3393 Y1.3880 Z-0.0100
G01 X3.4478 Y1.4179 Z-0.0100
G01 X3.5629 Y1.4464 Z-0.0100
G01 X3.6781 Y1.4722 Z-0.0100
G01 X3.7661 Y1.4892 Z-0.0100
G01 X3.8538 Y1.5051 Z-0.0100
G01 X3.9356 Y1.5192 Z-0.0100
G01 X4.0168 Y1.5322 Z-0.0100
G01 X4.0925 Y1.5436 Z-0.0100
G01 X4.1675 Y1.5542 Z-0.0100
G01 X4.2377 Y1.5635 Z-0.0100
G01 X4.3066 Y1.5723 Z-0.0100
G01 X4.3715 Y1.5801 Z-0.0100
G01 X4.4348 Y1.5875 Z-0.0100
G01 X4.4949 Y1.5944 Z-0.0100
G01 X4.5527 Y1.6009 Z-0.0100
G01 X4.6081 Y1.6074 Z-0.0100
G01 X4.6086 Y1.6074 Z-0.0100
G01 X4.6611 Y1.6137 Z-0.0100
G01 X4.6620 Y1.6138 Z-0.0100
G01 X4.7120 Y1.6201 Z-0.0100
G01 X4.7133 Y1.6203 Z-0.0100
G01 X4.7608 Y1.6269 Z-0.0100
G01 X4.7627 Y1.6271 Z-0.0100
G01 X4.8078 Y1.6340 Z-0.0100
G01 X4.8100 Y1.6344 Z-0.0100
G01 X4.8528 Y1.6417 Z-0.0100
G01 X4.8557 Y1.6422 Z-0.0100
G01 X4.8962 Y1.6501 Z-0.0100
G01 X4.8997 Y1.6509 Z-0.0100
G01 X4.9380 Y1.6595 Z-0.0100
G01 X4.9424 Y1.6606 Z-0.0100
G01 X4.9785 Y1.6701 Z-0.0100
G01 X4.9835 Y1.6715 Z-0.0100
G01 X5.0175 Y1.6820 Z-0.0100
G01 X5.0233 Y1.6839 Z-0.0100
G01 X5.0553 Y1.6955 Z-0.0100
G01 X5.0619 Y1.6981 Z-0.0100
G01 X5.0919 Y1.7110 Z-0.0100
G01 X5.0992 Y1.7144 Z-0.0100
G01 X5.1274 Y1.7287 Z-0.0100
G01 X5.1351 Y1.7329 Z-0.0100
G01 X5.1614 Y1.7487 Z-0.0100
G01 X5.1696 Y1.7541 Z-0.0100
G01 X5.1941 Y1.7715 Z-0.0100
G01 X5.2023 Y1.7779 Z-0.0100
G01 X5.2250 Y1.7971 Z-0.0100
G01 X5.2327 Y1.8042 Z-0.0100
G01 X5.2538 Y1.8253 Z-0.0100
G01 X5.2611 Y1.8333 Z-0.0100
G01 X5.2806 Y1.8565 Z-0.0100
G01 X5.2869 Y1.8647 Z-0.0100
G01 X5.3048 Y1.8901 Z-0.0100
G01 X5.3102 Y1.8984 Z-0.0100
G01 X5.3266 Y1.9260 Z-0.0100
G01 X5.3311 Y1.9342 Z-0.0100
G01 X5.3461 Y1.9643 Z-0.0100
G01 X5.3495 Y1.9719 Z-0.0100
G01 X5.3631 Y2.0046 Z-0.0100
G01 X5.3658 Y2.0115 Z-0.0100
G01 X5.3781 Y2.0469 Z-0.0100
G01 X5.3801 Y2.0533 Z-0.0100
G01 X5.3912 Y2.0915 Z-0.0100
G01 X5.3928 Y2.0972 Z-0.0100
G01 X5.4027 Y2.1385 Z-0.0100
G01 X5.4037 Y2.1433 Z-0.0100
G01 X5.4125 Y2.1876 Z-0.0100
G01 X5.4133 Y2.1919 Z-0.0100
G01 X5.4211 Y2.2395 Z-0.0100
G01 X5.4216 Y2.2432 Z-0.0100
G01 X5.4283 Y2.2942 Z-0.0100
G01 X5.4287 Y2.2973 Z-0.0100
G01 X5.4345 Y2.3518 Z-0.0100
G01 X5.4348 Y2.3545 Z-0.0100
G01 X5.4397 Y2.4127 Z-0.0100
G01 X5.4399 Y2.4149 Z-0.0100
G01 X5.4440 Y2.4768 Z-0.0100
G01 X5.4441 Y2.4787 Z-0.0100
G01 X5.4475 Y2.5446 Z-0.0100
G01 X5.4476 Y2.5462 Z-0.0100
G01 X5.4503 Y2.6161 Z-0.0100
G01 X5.4503 Y2.6174 Z-0.0100
G01 X5.4524 Y2.6914 Z-0.0100
G01 X5.4524 Y2.6925 Z-0.0100
G01 X5.4539 Y2.7709 Z-0.0100
G01 X5.4539 Y2.7718 Z-0.0100
G01 X5.4549 Y2.8546 Z-0.0100
G01 X5.4549 Y2.8553 Z-0.0100
G01 X5.4555 Y2.9427 Z-0.0100
G01 X5.4555 Y2.9432 Z-0.0100
G01 X5.4557 Y3.0353 Z-0.0100
G00 X5.4557 Y3.0353 Z0.2500
G00 X6.2431 Y2.7587 Z0.2500
G01 X6.2431 Y2.7587 Z-0.0100
G01 X6.2440 Y2.6672 Z-0.0100
G01 X6.2441 Y2.6644 Z-0.0100
G01 X6.2469 Y2.5788 Z-0.0100
G01 X6.2471 Y2.5755 Z-0.0100
G01 X6.2518 Y2.4956 Z-0.0100
G01 X6.2520 Y2.4920 Z-0.0100
G01 X6.2586 Y2.4175 Z-0.0100
G01 X6.2590 Y2.4135 Z-0.0100
G01 X6.2673 Y2.3441 Z-0.0100
G01 X6.2679 Y2.3398 Z-0.0100
G01 X6.2779 Y2.2753 Z-0.0100
G01 X6.2787 Y2.2703 Z-0.0100
G01 X6.2905 Y2.2106 Z-0.0100
G01 X6.2916 Y2.2052 Z-0.0100
G01 X6.3051 Y2.1499 Z-0.0100
G01 X6.3066 Y2.1441 Z-0.0100
G01 X6.3216 Y2.0930 Z-0.0100
G01 X6.3237 Y2.0868 Z-0.0100
G01 X6.3402 Y2.0397 Z-0.0100
G01 X6.3428 Y2.0329 Z-0.0100
G01 X6.3609 Y1.9896 Z-0.0100
G01 X6.3641 Y1.9825 Z-0.0100
G01 X6.3837 Y1.9427 Z-0.0100
G01 X6.3876 Y1.9355 Z-0.0100
G01 X6.4087 Y1.8989 Z-0.0100
G01 X6.4132 Y1.8918 Z-0.0100
G01 X6.4357 Y1.8583 Z-0.0100
G01 X6.4408 Y1.8512 Z-0.0100
G01 X6.4647 Y1.8205 Z-0.0100
G01 X6.4703 Y1.8138 Z-0.0100
G01 X6.4956 Y1.7857 Z-0.0100
G01 X6.5016 Y1.7795 Z-0.0100
G01 X6.5281 Y1.7538 Z-0.0100
G01 X6.5341 Y1.7483 Z-0.0100
G01 X6.5618 Y1.7248 Z-0.0100
G01 X6.5679 Y1.7199 Z-0.0100
G01 X6.5970 Y1.6982 Z-0.0100
G01 X6.6026 Y1.6942 Z-0.0100
G01 X6.6328 Y1.6742 Z-0.0100
G01 X6.6381 Y1.6708 Z-0.0100
G01 X6.6694 Y1.6522 Z-0.0100
G01 X6.6742 Y1.6496 Z-0.0100
G01 X6.7066 Y1.6322 Z-0.0100
G01 X6.7104 Y1.6302 Z-0.0100
G01 X6.7439 Y1.6137 Z-0.0100
G01 X6.7472 Y1.6121 Z-0.0100
G01 X6.7817 Y1.5964 Z-0.0100
G01 X6.7843 Y1.5952 Z-0.0100
G01 X6.8198 Y1.5800 Z-0.0100
G01 X6.8215 Y1.5792 Z-0.0100
G01 X6.8579 Y1.5642 Z-0.0100
G01 X6.8589 Y1.5638 Z-0.0100
G01 X6.8962 Y1.5488 Z-0.0100
G01 X6.9348 Y1.5335 Z-0.0100
G01 X6.9725 Y1.5184 Z-0.0100
G01 X7.0123 Y1.5020 Z-0.0100
G01 X7.0494 Y1.4862 Z-0.0100
G01 X7.0901 Y1.4681 Z-0.0100
G01 X7.1286 Y1.4499 Z-0.0100
G01 X7.1685 Y1.4297 Z-0.0100
G01 X7.2079 Y1.4085 Z-0.0100
G01 X7.2478 Y1.3853 Z-0.0100
G01 X7.2896 Y1.3592 Z-0.0100
G01 X7.3294 Y1.3321 Z-0.0100
G01 X7.3706 Y1.3020 Z-0.0100
G01 X7.4128 Y1.2685 Z-0.0100
G01 X7.4546 Y1.2327 Z-0.0100
G01 X7.4972 Y1.1931 Z-0.0100
G01 X7.5403 Y1.1498 Z-0.0100
G01 X7.5831 Y1.1035 Z-0.0100
G01 X7.6274 Y1.0517 Z-0.0100
G01 X7.6718 Y0.9958 Z-0.0100
G01 X7.7153 Y0.9369 Z-0.0100
G01 X7.7607 Y0.8706 Z-0.0100
G01 X7.8057 Y0.8002 Z-0.0100
G01 X7.8504 Y0.7252 Z-0.0100
G01 X7.8666 Y0.6948 Z-0.0100
G01 X7.8832 Y0.6608 Z-0.0100
G01 X7.8987 Y0.6262 Z-0.0100
G01 X7.9130 Y0.5913 Z-0.0100
G01 X7.9264 Y0.5555 Z-0.0100
G01 X7.9396 Y0.5166 Z-0.0100
G01 X7.9512 Y0.4788 Z-0.0100
G01 X7.9620 Y0.4396 Z-0.0100
G01 X7.9719 Y0.3989 Z-0.0100
G01 X7.9807 Y0.3582 Z-0.0100
G01 X7.9887 Y0.3153 Z-0.0100
G01 X7.9955 Y0.2727 Z-0.0100
G01 X8.0012 Y0.2301 Z-0.0100
G01 X8.0062 Y0.1837 Z-0.0100
G01 X8.0098 Y0.1397 Z-0.0100
G01 X8.0125 Y0.0922 Z-0.0100
G01 X8.0141 Y0.0473 Z-0.0100
G01 X8.0146 Y0.0000 Z-0.0100
G01 X8.0141 Y-0.0473 Z-0.0100
G01 X8.0125 Y-0.0922 Z-0.0100
G01 X8.0098 Y-0.1397 Z-0.0100
G01 X8.0062 Y-0.1837 Z-0.0100
G01 X8.0011 Y-0.2304 Z-0.0100
G01 X7.9955 Y-0.2727 Z-0.0100
G01 X7.9887 Y-0.3153 Z-0.0100
G01 X7.9807 Y-0.3582 Z-0.0100
G01 X7.9717 Y-0.3999 Z-0.0100
G01 X7.9621 Y-0.4392 Z-0.0100
G01 X7.9512 Y-0.4788 Z-0.0100
G01 X7.9396 Y-0.5166 Z-0.0100
G01 X7.9264 Y-0.5555 Z-0.0100
G01 X7.9130 Y-0.5913 Z-0.0100
G01 X7.8987 Y-0.6262 Z-0.0100
G01 X7.8832 Y-0.6608 Z-0.0100
G01 X7.8668 Y-0.6943 Z-0.0100
G01 X7.8502 Y-0.7255 Z-0.0100
G01 X7.8057 Y-0.8002 Z-0.0100
G01 X7.7607 Y-0.8706 Z-0.0100
G01 X7.7153 Y-0.9369 Z-0.0100
G01 X7.6718 Y-0.9958 Z-0.0100
G01 X7.6274 Y-1.0517 Z-0.0100
G01 X7.5831 Y-1.1035 Z-0.0100
G01 X7.5403 Y-1.1498 Z-0.0100
G01 X7.4972 Y-1.1931 Z-0.0100
G01 X7.4546 Y-1.2327 Z-0.0100
G01 X7.4128 Y-1.2685 Z-0.0100
G01 X7.3706 Y-1.3020 Z-0.0100
G01 X7.3294 Y-1.3321 Z-0.0100
G01 X7.2896 Y-1.3592 Z-0.0100
G01 X7.2478 Y-1.3853 Z-0.0100
G01 X7.2079 Y-1.4085 Z-0.0100
G01 X7.1685 Y-1.4297 Z-0.0100
G01 X7.1286 Y-1.4499 Z-0.0100
G01 X7.0901 Y-1.4681 Z-0.0100
G01 X7.0494 Y-1.4862 Z-0.0100
G01 X7.0123 Y-1.5020 Z-0.0100
G01 X6.9725 Y-1.5183 Z-0.0100
G01 X6.9348 Y-1.5335 Z-0.0100
G01 X6.8966 Y-1.5487 Z-0.0100
G01 X6.8589 Y-1.5638 Z-0.0100
G01 X6.8579 Y-1.5642 Z-0.0100
G01 X6.8215 Y-1.5792 Z-0.0100
G01 X6.8198 Y-1.5800 Z-0.0100
G01 X6.7843 Y-1.5952 Z-0.0100
G01 X6.7817 Y-1.5964 Z-0.0100
G01 X6.7472 Y-1.6121 Z-0.0100
G01 X6.7439 Y-1.6137 Z-0.0100
G01 X6.7104 Y-1.6302 Z-0.0100
G01 X6.7066 Y-1.6322 Z-0.0100
G01 X6.6742 Y-1.6496 Z-0.0100
G01 X6.6694 Y-1.6522 Z-0.0100
G01 X6.6381 Y-1.6708 Z-0.0100
G01 X6.6328 Y-1.6742 Z-0.0100
G01 X6.6026 Y-1.6942 Z-0.0100
G01 X6.5970 Y-1.6982 Z-0.0100
G01 X6.5679 Y-1.7199 Z-0.0100
G01 X6.5618 Y-1.7248 Z-0.0100
G01 X6.5341 Y-1.7483 Z-0.0100
G01 X6.5281 Y-1.7538 Z-0.0100
G01 X6.5016 Y-1.7795 Z-0.0100
G01 X6.4956 Y-1.7857 Z-0.0100
G01 X6.4703 Y-1.8138 Z-0.0100
G01 X6.4647 Y-1.8205 Z-0.0100
G01 X6.4408 Y-1.8512 Z-0.0100
G01 X6.4357 Y-1.8583 Z-0.0100
G01 X6.4132 Y-1.8918 Z-0.0100
G01 X6.4087 Y-1.8989 Z-0.0100
G01 X6.3876 Y-1.9355 Z-0.0100
G01 X6.3837 Y-1.9427 Z-0.0100
G01 X6.3641 Y-1.9825 Z-0.0100
G01 X6.3609 Y-1.9896 Z-0.0100
G01 X6.3428 Y-2.0329 Z-0.0100
G01 X6.3402 Y-2.0397 Z-0.0100
G01 X6.3237 Y-2.0868 Z-0.0100
G01 X6.3216 Y-2.0930 Z-0.0100
G01 X6.3066 Y-2.1441 Z-0.0100
G01 X6.3051 Y-2.1499 Z-0.0100
G01 X6.2916 Y-2.2052 Z-0.0100
G01 X6.2905 Y-2.2106 Z-0.0100
G01 X6.2787 Y-2.2703 Z-0.0100
G01 X6.2779 Y-2.2753 Z-0.0100
G01 X6.2679 Y-2.3398 Z-0.0100
G01 X6.2673 Y-2.3441 Z-0.0100
G01 X6.2590 Y-2.4135 Z-0.0100
G01 X6.2586 Y-2.4175 Z-0.0100
G01 X6.2520 Y-2.4920 Z-0.0100
G01 X6.2518 Y-2.4956 Z-0.0100
G01 X6.2471 Y-2.5755 Z-0.0100
G01 X6.2469 Y-2.5788 Z-0.0100
G01 X6.2441 Y-2.6644 Z-0.0100
G01 X6.2440 Y-2.6672 Z-0.0100
G01 X6.2431 Y-2.7587 Z-0.0100
G00 X6.2431 Y-2.7587 Z0.2500
G00 X5.4557 Y-3.0353 Z0.2500
M05
G00 X0.0000 Y0.0000 Z0.2500
G49
G01 G55 Z0 F20
G00 G55 X0 Y0 Z0
M30
