( Sample-ski-nose-tail-spacers.nc                                              )
( Generated by MonkeyCAM v4.1.0 master@47785ff                                 )
(   at 2025-12-31 14:28:19 PST                                                 )
(                                                                              )
( This GCode program is provided on an "AS IS" BASIS WITHOUT WARRANTIES OR     )
( CONDITIONS OF ANY KIND, either express or implied. You should inspect this   )
( program very carefully to confirm you understand its operation. YOU ARE      )
( RESPONSIBLE FOR ENSURING THIS PROGRAM WILL NOT DAMAGE YOUR MACHINE OR        )
( MATERIALS.                                                                   )
(                                                                              )
( See http://www.github.com/mikemag/MonkeyCAM for License and documentation.   )
(                                                                              )
( * Rapid height: 0.2500"                                                      )
( * Tool: T1, Quarter Inch Straight, diameter 0.2500"                          )
( * Height baseline [Z=0.0] is the top of the table.                           )
( * XY origin is the left side of the table, Y is center of the part.          )
( * Requires G54 to be the part work coordinate offsets [WCO]. [0, 0] is the   )
(   center of the nose, with the board extending to positive X. The cutter may )
(   move to negative values of X.                                              )
( * Requires G55 to be the machine WCO, with Z above the rapid height.         )
( * Units are inches                                                           )
( * Center of the board in G54:                                                )
(     X=36.0236 Y=0.0000 Z=0.0000                                              )
(                                                                              )
( Spacer material length: 9.6771"                                              )
(                                                                              )
( * Cutter bounding box in G54:                                                )
(     X0.0000 Y-3.0353 Z-0.0100 to X8.0147 Y3.0353 Z0.2500                     )

G90 G20 G17 G40 G49
G43 H1 T1
G00 G54 X0 Y0 Z0.2500

G00 X5.4557 Y-3.0353 Z0.2500
M03
G04 P5
G01 X5.4557 Y-3.0353 Z-0.0100 F80
G01 X5.4555 Y-2.9432 Z-0.0100
G01 X5.4555 Y-2.9427 Z-0.0100
G01 X5.4549 Y-2.8553 Z-0.0100
G01 X5.4549 Y-2.8546 Z-0.0100
G01 X5.4539 Y-2.7718 Z-0.0100
G01 X5.4539 Y-2.7709 Z-0.0100
G01 X5.4524 Y-2.6925 Z-0.0100
G01 X5.4524 Y-2.6914 Z-0.0100
G01 X5.4503 Y-2.6174 Z-0.0100
G01 X5.4503 Y-2.6161 Z-0.0100
G01 X5.4476 Y-2.5462 Z-0.0100
G01 X5.4475 Y-2.5446 Z-0.0100
G01 X5.4441 Y-2.4788 Z-0.0100
G01 X5.4440 Y-2.4769 Z-0.0100
G01 X5.4399 Y-2.4150 Z-0.0100
G01 X5.4397 Y-2.4127 Z-0.0100
G01 X5.4348 Y-2.3546 Z-0.0100
G01 X5.4345 Y-2.3518 Z-0.0100
G01 X5.4287 Y-2.2973 Z-0.0100
G01 X5.4283 Y-2.2942 Z-0.0100
G01 X5.4216 Y-2.2433 Z-0.0100
G01 X5.4211 Y-2.2396 Z-0.0100
G01 X5.4133 Y-2.1919 Z-0.0100
G01 X5.4125 Y-2.1876 Z-0.0100
G01 X5.4037 Y-2.1433 Z-0.0100
G01 X5.4027 Y-2.1385 Z-0.0100
G01 X5.3928 Y-2.0973 Z-0.0100
G01 X5.3912 Y-2.0916 Z-0.0100
G01 X5.3801 Y-2.0533 Z-0.0100
G01 X5.3781 Y-2.0470 Z-0.0100
G01 X5.3658 Y-2.0115 Z-0.0100
G01 X5.3631 Y-2.0046 Z-0.0100
G01 X5.3495 Y-1.9719 Z-0.0100
G01 X5.3461 Y-1.9644 Z-0.0100
G01 X5.3311 Y-1.9342 Z-0.0100
G01 X5.3266 Y-1.9261 Z-0.0100
G01 X5.3102 Y-1.8984 Z-0.0100
G01 X5.3048 Y-1.8901 Z-0.0100
G01 X5.2869 Y-1.8648 Z-0.0100
G01 X5.2806 Y-1.8566 Z-0.0100
G01 X5.2611 Y-1.8334 Z-0.0100
G01 X5.2538 Y-1.8254 Z-0.0100
G01 X5.2327 Y-1.8043 Z-0.0100
G01 X5.2250 Y-1.7972 Z-0.0100
G01 X5.2023 Y-1.7779 Z-0.0100
G01 X5.1941 Y-1.7716 Z-0.0100
G01 X5.1696 Y-1.7541 Z-0.0100
G01 X5.1614 Y-1.7487 Z-0.0100
G01 X5.1351 Y-1.7330 Z-0.0100
G01 X5.1274 Y-1.7287 Z-0.0100
G01 X5.0992 Y-1.7144 Z-0.0100
G01 X5.0919 Y-1.7110 Z-0.0100
G01 X5.0619 Y-1.6982 Z-0.0100
G01 X5.0553 Y-1.6956 Z-0.0100
G01 X5.0233 Y-1.6840 Z-0.0100
G01 X5.0175 Y-1.6820 Z-0.0100
G01 X4.9835 Y-1.6716 Z-0.0100
G01 X4.9785 Y-1.6701 Z-0.0100
G01 X4.9424 Y-1.6606 Z-0.0100
G01 X4.9380 Y-1.6595 Z-0.0100
G01 X4.8997 Y-1.6509 Z-0.0100
G01 X4.8962 Y-1.6502 Z-0.0100
G01 X4.8557 Y-1.6423 Z-0.0100
G01 X4.8528 Y-1.6417 Z-0.0100
G01 X4.8100 Y-1.6344 Z-0.0100
G01 X4.8078 Y-1.6340 Z-0.0100
G01 X4.7627 Y-1.6272 Z-0.0100
G01 X4.7608 Y-1.6269 Z-0.0100
G01 X4.7133 Y-1.6204 Z-0.0100
G01 X4.7120 Y-1.6202 Z-0.0100
G01 X4.6620 Y-1.6138 Z-0.0100
G01 X4.6611 Y-1.6138 Z-0.0100
G01 X4.6086 Y-1.6075 Z-0.0100
G01 X4.6081 Y-1.6074 Z-0.0100
G01 X4.5529 Y-1.6010 Z-0.0100
G01 X4.4949 Y-1.5944 Z-0.0100
G01 X4.4348 Y-1.5875 Z-0.0100
G01 X4.3715 Y-1.5801 Z-0.0100
G01 X4.3066 Y-1.5723 Z-0.0100
G01 X4.2377 Y-1.5636 Z-0.0100
G01 X4.1675 Y-1.5542 Z-0.0100
G01 X4.0925 Y-1.5436 Z-0.0100
G01 X4.0168 Y-1.5322 Z-0.0100
G01 X3.9356 Y-1.5192 Z-0.0100
G01 X3.8538 Y-1.5052 Z-0.0100
G01 X3.7661 Y-1.4892 Z-0.0100
G01 X3.6781 Y-1.4722 Z-0.0100
G01 X3.5629 Y-1.4464 Z-0.0100
G01 X3.4478 Y-1.4179 Z-0.0100
G01 X3.3393 Y-1.3881 Z-0.0100
G01 X3.2382 Y-1.3576 Z-0.0100
G01 X3.1398 Y-1.3250 Z-0.0100
G01 X3.0478 Y-1.2919 Z-0.0100
G01 X2.9602 Y-1.2575 Z-0.0100
G01 X2.8766 Y-1.2218 Z-0.0100
G01 X2.7988 Y-1.1860 Z-0.0100
G01 X2.7238 Y-1.1485 Z-0.0100
G01 X2.6554 Y-1.1116 Z-0.0100
G01 X2.5899 Y-1.0734 Z-0.0100
G01 X2.5289 Y-1.0351 Z-0.0100
G01 X2.4720 Y-0.9966 Z-0.0100
G01 X2.4186 Y-0.9576 Z-0.0100
G01 X2.3697 Y-0.9193 Z-0.0100
G01 X2.3237 Y-0.8803 Z-0.0100
G01 X2.2810 Y-0.8412 Z-0.0100
G01 X2.2424 Y-0.8033 Z-0.0100
G01 X2.2059 Y-0.7644 Z-0.0100
G01 X2.1722 Y-0.7254 Z-0.0100
G01 X2.1418 Y-0.6875 Z-0.0100
G01 X2.1134 Y-0.6489 Z-0.0100
G01 X2.0876 Y-0.6108 Z-0.0100
G01 X2.0637 Y-0.5723 Z-0.0100
G01 X2.0420 Y-0.5338 Z-0.0100
G01 X2.0219 Y-0.4945 Z-0.0100
G01 X2.0048 Y-0.4577 Z-0.0100
G01 X1.9884 Y-0.4180 Z-0.0100
G01 X1.9737 Y-0.3780 Z-0.0100
G01 X1.9610 Y-0.3391 Z-0.0100
G01 X1.9496 Y-0.2987 Z-0.0100
G01 X1.9396 Y-0.2569 Z-0.0100
G01 X1.9314 Y-0.2165 Z-0.0100
G01 X1.9248 Y-0.1750 Z-0.0100
G01 X1.9193 Y-0.1317 Z-0.0100
G01 X1.9155 Y-0.0877 Z-0.0100
G01 X1.9133 Y-0.0451 Z-0.0100
G01 X1.9125 Y0.0000 Z-0.0100
G01 X1.9133 Y0.0451 Z-0.0100
G01 X1.9155 Y0.0877 Z-0.0100
G01 X1.9193 Y0.1317 Z-0.0100
G01 X1.9248 Y0.1750 Z-0.0100
G01 X1.9314 Y0.2165 Z-0.0100
G01 X1.9396 Y0.2569 Z-0.0100
G01 X1.9496 Y0.2987 Z-0.0100
G01 X1.9610 Y0.3391 Z-0.0100
G01 X1.9737 Y0.3780 Z-0.0100
G01 X1.9884 Y0.4180 Z-0.0100
G01 X2.0048 Y0.4577 Z-0.0100
G01 X2.0219 Y0.4945 Z-0.0100
G01 X2.0420 Y0.5338 Z-0.0100
G01 X2.0637 Y0.5723 Z-0.0100
G01 X2.0876 Y0.6108 Z-0.0100
G01 X2.1134 Y0.6489 Z-0.0100
G01 X2.1418 Y0.6875 Z-0.0100
G01 X2.1722 Y0.7254 Z-0.0100
G01 X2.2055 Y0.7639 Z-0.0100
G01 X2.2424 Y0.8033 Z-0.0100
G01 X2.2810 Y0.8412 Z-0.0100
G01 X2.3237 Y0.8803 Z-0.0100
G01 X2.3692 Y0.9188 Z-0.0100
G01 X2.4187 Y0.9577 Z-0.0100
G01 X2.4722 Y0.9968 Z-0.0100
G01 X2.5289 Y1.0351 Z-0.0100
G01 X2.5899 Y1.0734 Z-0.0100
G01 X2.6554 Y1.1116 Z-0.0100
G01 X2.7238 Y1.1485 Z-0.0100
G01 X2.7981 Y1.1856 Z-0.0100
G01 X2.8771 Y1.2220 Z-0.0100
G01 X2.9602 Y1.2575 Z-0.0100
G01 X3.0478 Y1.2919 Z-0.0100
G01 X3.1398 Y1.3250 Z-0.0100
G01 X3.2382 Y1.3576 Z-0.0100
G01 X3.3393 Y1.3881 Z-0.0100
G01 X3.4478 Y1.4179 Z-0.0100
G01 X3.5629 Y1.4464 Z-0.0100
G01 X3.6781 Y1.4722 Z-0.0100
G01 X3.7661 Y1.4892 Z-0.0100
G01 X3.8538 Y1.5052 Z-0.0100
G01 X3.9356 Y1.5192 Z-0.0100
G01 X4.0168 Y1.5322 Z-0.0100
G01 X4.0925 Y1.5436 Z-0.0100
G01 X4.1675 Y1.5542 Z-0.0100
G01 X4.2377 Y1.5636 Z-0.0100
G01 X4.3066 Y1.5723 Z-0.0100
G01 X4.3715 Y1.5801 Z-0.0100
G01 X4.4348 Y1.5875 Z-0.0100
G01 X4.4949 Y1.5944 Z-0.0100
G01 X4.5527 Y1.6010 Z-0.0100
G01 X4.6081 Y1.6074 Z-0.0100
G01 X4.6086 Y1.6075 Z-0.0100
G01 X4.6611 Y1.6138 Z-0.0100
G01 X4.6620 Y1.6138 Z-0.0100
G01 X4.7120 Y1.6202 Z-0.0100
G01 X4.7133 Y1.6204 Z-0.0100
G01 X4.7608 Y1.6269 Z-0.0100
G01 X4.7627 Y1.6272 Z-0.0100
G01 X4.8078 Y1.6340 Z-0.0100
G01 X4.8100 Y1.6344 Z-0.0100
G01 X4.8528 Y1.6417 Z-0.0100
G01 X4.8557 Y1.6423 Z-0.0100
G01 X4.8962 Y1.6502 Z-0.0100
G01 X4.8997 Y1.6509 Z-0.0100
G01 X4.9380 Y1.6595 Z-0.0100
G01 X4.9424 Y1.6606 Z-0.0100
G01 X4.9785 Y1.6701 Z-0.0100
G01 X4.9835 Y1.6716 Z-0.0100
G01 X5.0175 Y1.6820 Z-0.0100
G01 X5.0233 Y1.6840 Z-0.0100
G01 X5.0553 Y1.6956 Z-0.0100
G01 X5.0619 Y1.6982 Z-0.0100
G01 X5.0919 Y1.7110 Z-0.0100
G01 X5.0992 Y1.7144 Z-0.0100
G01 X5.1274 Y1.7287 Z-0.0100
G01 X5.1351 Y1.7330 Z-0.0100
G01 X5.1614 Y1.7487 Z-0.0100
G01 X5.1696 Y1.7541 Z-0.0100
G01 X5.1941 Y1.7716 Z-0.0100
G01 X5.2023 Y1.7779 Z-0.0100
G01 X5.2250 Y1.7972 Z-0.0100
G01 X5.2327 Y1.8043 Z-0.0100
G01 X5.2538 Y1.8254 Z-0.0100
G01 X5.2611 Y1.8334 Z-0.0100
G01 X5.2806 Y1.8566 Z-0.0100
G01 X5.2869 Y1.8648 Z-0.0100
G01 X5.3048 Y1.8901 Z-0.0100
G01 X5.3102 Y1.8984 Z-0.0100
G01 X5.3266 Y1.9261 Z-0.0100
G01 X5.3311 Y1.9342 Z-0.0100
G01 X5.3461 Y1.9644 Z-0.0100
G01 X5.3495 Y1.9719 Z-0.0100
G01 X5.3631 Y2.0046 Z-0.0100
G01 X5.3658 Y2.0115 Z-0.0100
G01 X5.3781 Y2.0470 Z-0.0100
G01 X5.3801 Y2.0533 Z-0.0100
G01 X5.3912 Y2.0916 Z-0.0100
G01 X5.3928 Y2.0973 Z-0.0100
G01 X5.4027 Y2.1385 Z-0.0100
G01 X5.4037 Y2.1433 Z-0.0100
G01 X5.4125 Y2.1876 Z-0.0100
G01 X5.4133 Y2.1919 Z-0.0100
G01 X5.4211 Y2.2396 Z-0.0100
G01 X5.4216 Y2.2433 Z-0.0100
G01 X5.4283 Y2.2942 Z-0.0100
G01 X5.4287 Y2.2973 Z-0.0100
G01 X5.4345 Y2.3518 Z-0.0100
G01 X5.4348 Y2.3546 Z-0.0100
G01 X5.4397 Y2.4127 Z-0.0100
G01 X5.4399 Y2.4150 Z-0.0100
G01 X5.4440 Y2.4769 Z-0.0100
G01 X5.4441 Y2.4788 Z-0.0100
G01 X5.4475 Y2.5446 Z-0.0100
G01 X5.4476 Y2.5462 Z-0.0100
G01 X5.4503 Y2.6161 Z-0.0100
G01 X5.4503 Y2.6174 Z-0.0100
G01 X5.4524 Y2.6914 Z-0.0100
G01 X5.4524 Y2.6925 Z-0.0100
G01 X5.4539 Y2.7709 Z-0.0100
G01 X5.4539 Y2.7718 Z-0.0100
G01 X5.4549 Y2.8546 Z-0.0100
G01 X5.4549 Y2.8553 Z-0.0100
G01 X5.4555 Y2.9427 Z-0.0100
G01 X5.4555 Y2.9432 Z-0.0100
G01 X5.4557 Y3.0353 Z-0.0100
G00 X5.4557 Y3.0353 Z0.2500
G00 X6.2431 Y2.7599 Z0.2500
G01 X6.2431 Y2.7599 Z-0.0100
G01 X6.2431 Y2.6679 Z-0.0100
G01 X6.2435 Y2.5803 Z-0.0100
G01 X6.2441 Y2.4974 Z-0.0100
G01 X6.2441 Y2.4967 Z-0.0100
G01 X6.2451 Y2.4188 Z-0.0100
G01 X6.2452 Y2.4180 Z-0.0100
G01 X6.2466 Y2.3445 Z-0.0100
G01 X6.2466 Y2.3435 Z-0.0100
G01 X6.2486 Y2.2743 Z-0.0100
G01 X6.2486 Y2.2729 Z-0.0100
G01 X6.2512 Y2.2078 Z-0.0100
G01 X6.2512 Y2.2063 Z-0.0100
G01 X6.2544 Y2.1453 Z-0.0100
G01 X6.2545 Y2.1432 Z-0.0100
G01 X6.2584 Y2.0860 Z-0.0100
G01 X6.2586 Y2.0837 Z-0.0100
G01 X6.2633 Y2.0302 Z-0.0100
G01 X6.2635 Y2.0273 Z-0.0100
G01 X6.2690 Y1.9774 Z-0.0100
G01 X6.2695 Y1.9742 Z-0.0100
G01 X6.2759 Y1.9277 Z-0.0100
G01 X6.2765 Y1.9236 Z-0.0100
G01 X6.2839 Y1.8805 Z-0.0100
G01 X6.2848 Y1.8760 Z-0.0100
G01 X6.2931 Y1.8360 Z-0.0100
G01 X6.2944 Y1.8304 Z-0.0100
G01 X6.3039 Y1.7935 Z-0.0100
G01 X6.3057 Y1.7872 Z-0.0100
G01 X6.3164 Y1.7531 Z-0.0100
G01 X6.3189 Y1.7461 Z-0.0100
G01 X6.3308 Y1.7147 Z-0.0100
G01 X6.3341 Y1.7069 Z-0.0100
G01 X6.3474 Y1.6781 Z-0.0100
G01 X6.3516 Y1.6697 Z-0.0100
G01 X6.3662 Y1.6434 Z-0.0100
G01 X6.3716 Y1.6346 Z-0.0100
G01 X6.3877 Y1.6106 Z-0.0100
G01 X6.3942 Y1.6018 Z-0.0100
G01 X6.4118 Y1.5800 Z-0.0100
G01 X6.4193 Y1.5714 Z-0.0100
G01 X6.4385 Y1.5516 Z-0.0100
G01 X6.4467 Y1.5438 Z-0.0100
G01 X6.4675 Y1.5259 Z-0.0100
G01 X6.4762 Y1.5191 Z-0.0100
G01 X6.4987 Y1.5029 Z-0.0100
G01 X6.5074 Y1.4972 Z-0.0100
G01 X6.5317 Y1.4827 Z-0.0100
G01 X6.5399 Y1.4782 Z-0.0100
G01 X6.5660 Y1.4651 Z-0.0100
G01 X6.5737 Y1.4616 Z-0.0100
G01 X6.6017 Y1.4498 Z-0.0100
G01 X6.6085 Y1.4472 Z-0.0100
G01 X6.6385 Y1.4367 Z-0.0100
G01 X6.6444 Y1.4348 Z-0.0100
G01 X6.6764 Y1.4253 Z-0.0100
G01 X6.6816 Y1.4238 Z-0.0100
G01 X6.7157 Y1.4153 Z-0.0100
G01 X6.7198 Y1.4143 Z-0.0100
G01 X6.7562 Y1.4064 Z-0.0100
G01 X6.7596 Y1.4058 Z-0.0100
G01 X6.7981 Y1.3986 Z-0.0100
G01 X6.8008 Y1.3981 Z-0.0100
G01 X6.8416 Y1.3914 Z-0.0100
G01 X6.8436 Y1.3911 Z-0.0100
G01 X6.8869 Y1.3846 Z-0.0100
G01 X6.8885 Y1.3844 Z-0.0100
G01 X6.9341 Y1.3783 Z-0.0100
G01 X6.9352 Y1.3781 Z-0.0100
G01 X6.9834 Y1.3720 Z-0.0100
G01 X6.9839 Y1.3720 Z-0.0100
G01 X7.0347 Y1.3657 Z-0.0100
G01 X7.0884 Y1.3593 Z-0.0100
G01 X7.1442 Y1.3525 Z-0.0100
G01 X7.2031 Y1.3453 Z-0.0100
G01 X7.2635 Y1.3375 Z-0.0100
G01 X7.3281 Y1.3288 Z-0.0100
G01 X7.3938 Y1.3194 Z-0.0100
G01 X7.4633 Y1.3089 Z-0.0100
G01 X7.5371 Y1.2970 Z-0.0100
G01 X7.6114 Y1.2842 Z-0.0100
G01 X7.6916 Y1.2694 Z-0.0100
G01 X7.7727 Y1.2536 Z-0.0100
G01 X7.8578 Y1.2358 Z-0.0100
G01 X7.9464 Y1.2162 Z-0.0100
G01 X7.9855 Y1.2065 Z-0.0100
G01 X8.0147 Y1.1988 Z-0.0100
G01 X8.0147 Y-1.1988 Z-0.0100
G01 X7.9855 Y-1.2065 Z-0.0100
G01 X7.9464 Y-1.2162 Z-0.0100
G01 X7.8576 Y-1.2359 Z-0.0100
G01 X7.7727 Y-1.2536 Z-0.0100
G01 X7.6916 Y-1.2694 Z-0.0100
G01 X7.6114 Y-1.2842 Z-0.0100
G01 X7.5371 Y-1.2970 Z-0.0100
G01 X7.4633 Y-1.3089 Z-0.0100
G01 X7.3938 Y-1.3194 Z-0.0100
G01 X7.3281 Y-1.3288 Z-0.0100
G01 X7.2635 Y-1.3375 Z-0.0100
G01 X7.2025 Y-1.3453 Z-0.0100
G01 X7.1442 Y-1.3525 Z-0.0100
G01 X7.0884 Y-1.3593 Z-0.0100
G01 X7.0350 Y-1.3657 Z-0.0100
G01 X6.9839 Y-1.3720 Z-0.0100
G01 X6.9834 Y-1.3720 Z-0.0100
G01 X6.9352 Y-1.3781 Z-0.0100
G01 X6.9341 Y-1.3783 Z-0.0100
G01 X6.8885 Y-1.3844 Z-0.0100
G01 X6.8869 Y-1.3846 Z-0.0100
G01 X6.8436 Y-1.3911 Z-0.0100
G01 X6.8416 Y-1.3914 Z-0.0100
G01 X6.8008 Y-1.3981 Z-0.0100
G01 X6.7981 Y-1.3986 Z-0.0100
G01 X6.7596 Y-1.4058 Z-0.0100
G01 X6.7562 Y-1.4064 Z-0.0100
G01 X6.7198 Y-1.4143 Z-0.0100
G01 X6.7157 Y-1.4153 Z-0.0100
G01 X6.6816 Y-1.4238 Z-0.0100
G01 X6.6764 Y-1.4253 Z-0.0100
G01 X6.6444 Y-1.4348 Z-0.0100
G01 X6.6385 Y-1.4367 Z-0.0100
G01 X6.6085 Y-1.4472 Z-0.0100
G01 X6.6017 Y-1.4498 Z-0.0100
G01 X6.5737 Y-1.4616 Z-0.0100
G01 X6.5660 Y-1.4651 Z-0.0100
G01 X6.5399 Y-1.4782 Z-0.0100
G01 X6.5317 Y-1.4827 Z-0.0100
G01 X6.5074 Y-1.4972 Z-0.0100
G01 X6.4987 Y-1.5029 Z-0.0100
G01 X6.4762 Y-1.5191 Z-0.0100
G01 X6.4675 Y-1.5259 Z-0.0100
G01 X6.4467 Y-1.5438 Z-0.0100
G01 X6.4385 Y-1.5516 Z-0.0100
G01 X6.4193 Y-1.5714 Z-0.0100
G01 X6.4118 Y-1.5800 Z-0.0100
G01 X6.3942 Y-1.6018 Z-0.0100
G01 X6.3877 Y-1.6106 Z-0.0100
G01 X6.3716 Y-1.6346 Z-0.0100
G01 X6.3662 Y-1.6434 Z-0.0100
G01 X6.3516 Y-1.6697 Z-0.0100
G01 X6.3474 Y-1.6781 Z-0.0100
G01 X6.3341 Y-1.7069 Z-0.0100
G01 X6.3308 Y-1.7147 Z-0.0100
G01 X6.3189 Y-1.7461 Z-0.0100
G01 X6.3164 Y-1.7531 Z-0.0100
G01 X6.3057 Y-1.7872 Z-0.0100
G01 X6.3039 Y-1.7935 Z-0.0100
G01 X6.2944 Y-1.8304 Z-0.0100
G01 X6.2931 Y-1.8360 Z-0.0100
G01 X6.2848 Y-1.8760 Z-0.0100
G01 X6.2839 Y-1.8805 Z-0.0100
G01 X6.2765 Y-1.9236 Z-0.0100
G01 X6.2759 Y-1.9277 Z-0.0100
G01 X6.2695 Y-1.9742 Z-0.0100
G01 X6.2690 Y-1.9774 Z-0.0100
G01 X6.2635 Y-2.0273 Z-0.0100
G01 X6.2633 Y-2.0302 Z-0.0100
G01 X6.2586 Y-2.0837 Z-0.0100
G01 X6.2584 Y-2.0860 Z-0.0100
G01 X6.2545 Y-2.1432 Z-0.0100
G01 X6.2544 Y-2.1453 Z-0.0100
G01 X6.2512 Y-2.2063 Z-0.0100
G01 X6.2512 Y-2.2078 Z-0.0100
G01 X6.2486 Y-2.2729 Z-0.0100
G01 X6.2486 Y-2.2743 Z-0.0100
G01 X6.2466 Y-2.3435 Z-0.0100
G01 X6.2466 Y-2.3445 Z-0.0100
G01 X6.2452 Y-2.4180 Z-0.0100
G01 X6.2451 Y-2.4188 Z-0.0100
G01 X6.2441 Y-2.4967 Z-0.0100
G01 X6.2441 Y-2.4974 Z-0.0100
G01 X6.2435 Y-2.5799 Z-0.0100
G01 X6.2431 Y-2.6675 Z-0.0100
G01 X6.2431 Y-2.7599 Z-0.0100
G00 X6.2431 Y-2.7599 Z0.2500
G00 X5.4557 Y-3.0353 Z0.2500
M05
G00 X0.0000 Y0.0000 Z0.2500
G49
G01 G55 Z0 F20
G00 G55 X0 Y0 Z0
M30
