( Sample-splitboard-top-cutout.nc                                              )
( Generated by MonkeyCAM v4.1.0 master@47785ff                                 )
(   at 2025-12-31 14:28:16 PST                                                 )
(                                                                              )
( This GCode program is provided on an "AS IS" BASIS WITHOUT WARRANTIES OR     )
( CONDITIONS OF ANY KIND, either express or implied. You should inspect this   )
( program very carefully to confirm you understand its operation. YOU ARE      )
( RESPONSIBLE FOR ENSURING THIS PROGRAM WILL NOT DAMAGE YOUR MACHINE OR        )
( MATERIALS.                                                                   )
(                                                                              )
( See http://www.github.com/mikemag/MonkeyCAM for License and documentation.   )
(                                                                              )
( * Rapid height: 0.6000"                                                      )
( * Tool: T1, Quarter Inch Upcut Spiral, diameter 0.2469"                      )
( * Height baseline [Z=0.0] is the top of the table.                           )
( * XY origin is the left side of the table, Y is center of the part.          )
( * Requires G54 to be the part work coordinate offsets [WCO]. [0, 0] is the   )
(   center of the nose, with the board extending to positive X. The cutter may )
(   move to negative values of X.                                              )
( * Requires G55 to be the machine WCO, with Z above the rapid height.         )
( * Units are inches                                                           )
( * Center of the board in G54:                                                )
(     X=33.8582 Y=0.0000 Z=0.0000                                              )
( * Cutter bounding box in G54:                                                )
(     X0.0000 Y-6.0016 Z-0.0100 to X65.4777 Y6.0016 Z0.6000                    )

G90 G20 G17 G40 G49
G43 H1 T1
G00 G54 X0 Y0 Z0.6000

G00 X0.6639 Y-0.0515 Z0.6000
M03
G04 P5
G01 X0.6639 Y-0.0515 Z0.2050 F80
G01 X0.6658 Y-0.2020 Z0.2050
G01 X0.6659 Y-0.2051 Z0.2050
G01 X0.6716 Y-0.3580 Z0.2050
G01 X0.6718 Y-0.3612 Z0.2050
G01 X0.6812 Y-0.5093 Z0.2050
G01 X0.6815 Y-0.5126 Z0.2050
G01 X0.6952 Y-0.6637 Z0.2050
G01 X0.6955 Y-0.6670 Z0.2050
G01 X0.7131 Y-0.8162 Z0.2050
G01 X0.7136 Y-0.8196 Z0.2050
G01 X0.7349 Y-0.9660 Z0.2050
G01 X0.7355 Y-0.9694 Z0.2050
G01 X0.7611 Y-1.1159 Z0.2050
G01 X0.7617 Y-1.1195 Z0.2050
G01 X0.7914 Y-1.2643 Z0.2050
G01 X0.7922 Y-1.2678 Z0.2050
G01 X0.8259 Y-1.4110 Z0.2050
G01 X0.8268 Y-1.4146 Z0.2050
G01 X0.8648 Y-1.5561 Z0.2050
G01 X0.8658 Y-1.5597 Z0.2050
G01 X0.9083 Y-1.7007 Z0.2050
G01 X0.9094 Y-1.7044 Z0.2050
G01 X0.9558 Y-1.8425 Z0.2050
G01 X0.9572 Y-1.8462 Z0.2050
G01 X1.0083 Y-1.9835 Z0.2050
G01 X1.0098 Y-1.9872 Z0.2050
G01 X1.0646 Y-2.1209 Z0.2050
G01 X1.0662 Y-2.1248 Z0.2050
G01 X1.1263 Y-2.2584 Z0.2050
G01 X1.1281 Y-2.2622 Z0.2050
G01 X1.1919 Y-2.3918 Z0.2050
G01 X1.1938 Y-2.3956 Z0.2050
G01 X1.2622 Y-2.5234 Z0.2050
G01 X1.2644 Y-2.5272 Z0.2050
G01 X1.3387 Y-2.6548 Z0.2050
G01 X1.3409 Y-2.6586 Z0.2050
G01 X1.4185 Y-2.7816 Z0.2050
G01 X1.4209 Y-2.7853 Z0.2050
G01 X1.5040 Y-2.9072 Z0.2050
G01 X1.5067 Y-2.9109 Z0.2050
G01 X1.5946 Y-3.0303 Z0.2050
G01 X1.5974 Y-3.0338 Z0.2050
G01 X1.6905 Y-3.1509 Z0.2050
G01 X1.6935 Y-3.1545 Z0.2050
G01 X1.7910 Y-3.2682 Z0.2050
G01 X1.7940 Y-3.2716 Z0.2050
G01 X1.8983 Y-3.3844 Z0.2050
G01 X1.9015 Y-3.3877 Z0.2050
G01 X2.0102 Y-3.4968 Z0.2050
G01 X2.0135 Y-3.5000 Z0.2050
G01 X2.1277 Y-3.6063 Z0.2050
G01 X2.1311 Y-3.6093 Z0.2050
G01 X2.2519 Y-3.7138 Z0.2050
G01 X2.2555 Y-3.7168 Z0.2050
G01 X2.3819 Y-3.8181 Z0.2050
G01 X2.3855 Y-3.8209 Z0.2050
G01 X2.5174 Y-3.9188 Z0.2050
G01 X2.5210 Y-3.9214 Z0.2050
G01 X2.6607 Y-4.0174 Z0.2050
G01 X2.6644 Y-4.0199 Z0.2050
G01 X2.8094 Y-4.1120 Z0.2050
G01 X2.8132 Y-4.1143 Z0.2050
G01 X2.9655 Y-4.2036 Z0.2050
G01 X2.9692 Y-4.2057 Z0.2050
G01 X3.1278 Y-4.2914 Z0.2050
G01 X3.1316 Y-4.2934 Z0.2050
G01 X3.2983 Y-4.3761 Z0.2050
G01 X3.3020 Y-4.3779 Z0.2050
G01 X3.4749 Y-4.4566 Z0.2050
G01 X3.4787 Y-4.4582 Z0.2050
G01 X3.6596 Y-4.5333 Z0.2050
G01 X3.6633 Y-4.5348 Z0.2050
G01 X3.8513 Y-4.6058 Z0.2050
G01 X3.8550 Y-4.6071 Z0.2050
G01 X4.0498 Y-4.6737 Z0.2050
G01 X4.0535 Y-4.6749 Z0.2050
G01 X4.2582 Y-4.7379 Z0.2050
G01 X4.2618 Y-4.7389 Z0.2050
G01 X4.4744 Y-4.7974 Z0.2050
G01 X4.4779 Y-4.7983 Z0.2050
G01 X4.6964 Y-4.8514 Z0.2050
G01 X4.6998 Y-4.8522 Z0.2050
G01 X4.9279 Y-4.9009 Z0.2050
G01 X4.9313 Y-4.9016 Z0.2050
G01 X5.1680 Y-4.9453 Z0.2050
G01 X5.1713 Y-4.9458 Z0.2050
G01 X5.4152 Y-4.9841 Z0.2050
G01 X5.4190 Y-4.9846 Z0.2050
G01 X5.5109 Y-4.9961 Z0.2050
G01 X5.5120 Y-4.9962 Z0.2050
G01 X5.6005 Y-5.0065 Z0.2050
G01 X5.6016 Y-5.0066 Z0.2050
G01 X5.6867 Y-5.0157 Z0.2050
G01 X5.6877 Y-5.0159 Z0.2050
G01 X5.7694 Y-5.0239 Z0.2050
G01 X5.7703 Y-5.0240 Z0.2050
G01 X5.8488 Y-5.0311 Z0.2050
G01 X5.8497 Y-5.0312 Z0.2050
G01 X5.9250 Y-5.0375 Z0.2050
G01 X5.9256 Y-5.0376 Z0.2050
G01 X5.9978 Y-5.0433 Z0.2050
G01 X5.9983 Y-5.0433 Z0.2050
G01 X6.0673 Y-5.0485 Z0.2050
G01 X6.0678 Y-5.0485 Z0.2050
G01 X6.1339 Y-5.0532 Z0.2050
G01 X6.1972 Y-5.0576 Z0.2050
G01 X6.2571 Y-5.0618 Z0.2050
G01 X6.3139 Y-5.0659 Z0.2050
G01 X6.3688 Y-5.0701 Z0.2050
G01 X6.4194 Y-5.0744 Z0.2050
G01 X6.4664 Y-5.0789 Z0.2050
G01 X6.5134 Y-5.0840 Z0.2050
G01 X6.5533 Y-5.0892 Z0.2050
G01 X6.5933 Y-5.0952 Z0.2050
G01 X6.6287 Y-5.1016 Z0.2050
G01 X6.6627 Y-5.1089 Z0.2050
G01 X6.6919 Y-5.1164 Z0.2050
G01 X6.7192 Y-5.1249 Z0.2050
G01 X6.7431 Y-5.1338 Z0.2050
G01 X6.7646 Y-5.1433 Z0.2050
G01 X6.7836 Y-5.1535 Z0.2050
G01 X6.8004 Y-5.1642 Z0.2050
G01 X6.8155 Y-5.1758 Z0.2050
G01 X6.8290 Y-5.1881 Z0.2050
G01 X6.8416 Y-5.2019 Z0.2050
G01 X6.8538 Y-5.2176 Z0.2050
G01 X6.8650 Y-5.2350 Z0.2050
G01 X6.8762 Y-5.2560 Z0.2050
G01 X6.8866 Y-5.2790 Z0.2050
G01 X6.8968 Y-5.3062 Z0.2050
G01 X6.9059 Y-5.3356 Z0.2050
G01 X6.9146 Y-5.3692 Z0.2050
G01 X6.9229 Y-5.4084 Z0.2050
G01 X6.9298 Y-5.4480 Z0.2050
G01 X6.9362 Y-5.4931 Z0.2050
G01 X6.9419 Y-5.5428 Z0.2050
G01 X6.9466 Y-5.5946 Z0.2050
G01 X6.9508 Y-5.6528 Z0.2050
G01 X6.9542 Y-5.7136 Z0.2050
G01 X6.9569 Y-5.7785 Z0.2050
G01 X6.9590 Y-5.8477 Z0.2050
G01 X6.9598 Y-5.8808 Z0.2050
G01 X6.9599 Y-5.8843 Z0.2050
G01 X6.9601 Y-5.8878 Z0.2050
G01 X6.9604 Y-5.8912 Z0.2050
G01 X6.9609 Y-5.8948 Z0.2050
G01 X6.9614 Y-5.8982 Z0.2050
G01 X6.9620 Y-5.9016 Z0.2050
G01 X6.9627 Y-5.9051 Z0.2050
G01 X6.9635 Y-5.9085 Z0.2050
G01 X6.9644 Y-5.9118 Z0.2050
G01 X6.9654 Y-5.9152 Z0.2050
G01 X6.9665 Y-5.9185 Z0.2050
G01 X6.9677 Y-5.9218 Z0.2050
G01 X6.9690 Y-5.9251 Z0.2050
G01 X6.9704 Y-5.9283 Z0.2050
G01 X6.9718 Y-5.9314 Z0.2050
G01 X6.9734 Y-5.9346 Z0.2050
G01 X6.9750 Y-5.9377 Z0.2050
G01 X6.9768 Y-5.9407 Z0.2050
G01 X6.9786 Y-5.9437 Z0.2050
G01 X6.9805 Y-5.9466 Z0.2050
G01 X6.9825 Y-5.9495 Z0.2050
G01 X6.9845 Y-5.9524 Z0.2050
G01 X6.9867 Y-5.9551 Z0.2050
G01 X6.9889 Y-5.9578 Z0.2050
G01 X6.9912 Y-5.9605 Z0.2050
G01 X6.9936 Y-5.9630 Z0.2050
G01 X6.9960 Y-5.9655 Z0.2050
G01 X6.9985 Y-5.9680 Z0.2050
G01 X7.0011 Y-5.9703 Z0.2050
G01 X7.0037 Y-5.9726 Z0.2050
G01 X7.0064 Y-5.9748 Z0.2050
G01 X7.0092 Y-5.9770 Z0.2050
G01 X7.0120 Y-5.9790 Z0.2050
G01 X7.0150 Y-5.9810 Z0.2050
G01 X7.0179 Y-5.9829 Z0.2050
G01 X7.0209 Y-5.9847 Z0.2050
G01 X7.0239 Y-5.9864 Z0.2050
G01 X7.0270 Y-5.9881 Z0.2050
G01 X7.0301 Y-5.9896 Z0.2050
G01 X7.0333 Y-5.9911 Z0.2050
G01 X7.0366 Y-5.9924 Z0.2050
G01 X7.0398 Y-5.9937 Z0.2050
G01 X7.0431 Y-5.9949 Z0.2050
G01 X7.0464 Y-5.9960 Z0.2050
G01 X7.0498 Y-5.9970 Z0.2050
G01 X7.0532 Y-5.9979 Z0.2050
G01 X7.0566 Y-5.9987 Z0.2050
G01 X7.0600 Y-5.9994 Z0.2050
G01 X7.0635 Y-6.0000 Z0.2050
G01 X7.0669 Y-6.0005 Z0.2050
G01 X7.0704 Y-6.0009 Z0.2050
G01 X7.0738 Y-6.0012 Z0.2050
G01 X7.0774 Y-6.0014 Z0.2050
G01 X7.0809 Y-6.0015 Z0.2050
G01 X7.0829 Y-6.0016 Z0.2050
G01 X7.0886 Y-6.0016 Z0.2050
G01 X7.0973 Y-6.0013 Z0.2050
G01 X7.1017 Y-6.0011 Z0.2050
G01 X7.6364 Y-5.9675 Z0.2050
G01 X8.1688 Y-5.9348 Z0.2050
G01 X8.1706 Y-5.9347 Z0.2050
G01 X8.7052 Y-5.9024 Z0.2050
G01 X9.2399 Y-5.8709 Z0.2050
G01 X9.7745 Y-5.8399 Z0.2050
G01 X10.3091 Y-5.8096 Z0.2050
G01 X10.8405 Y-5.7802 Z0.2050
G01 X10.8435 Y-5.7801 Z0.2050
G01 X11.3783 Y-5.7511 Z0.2050
G01 X11.9132 Y-5.7229 Z0.2050
G01 X12.4480 Y-5.6953 Z0.2050
G01 X12.9828 Y-5.6683 Z0.2050
G01 X13.5152 Y-5.6421 Z0.2050
G01 X13.5173 Y-5.6420 Z0.2050
G01 X14.0523 Y-5.6164 Z0.2050
G01 X14.5874 Y-5.5915 Z0.2050
G01 X15.1223 Y-5.5672 Z0.2050
G01 X15.6572 Y-5.5435 Z0.2050
G01 X16.1922 Y-5.5205 Z0.2050
G01 X16.7233 Y-5.4984 Z0.2050
G01 X16.7269 Y-5.4983 Z0.2050
G01 X17.2621 Y-5.4766 Z0.2050
G01 X17.7974 Y-5.4556 Z0.2050
G01 X18.3324 Y-5.4353 Z0.2050
G01 X18.5039 Y-5.4290 Z0.2050
G01 X18.8675 Y-5.4156 Z0.2050
G01 X19.2913 Y-5.4005 Z0.2050
G01 X19.4027 Y-5.3966 Z0.2050
G01 X19.9378 Y-5.3783 Z0.2050
G01 X20.0787 Y-5.3736 Z0.2050
G01 X20.4730 Y-5.3606 Z0.2050
G01 X20.8661 Y-5.3480 Z0.2050
G01 X21.0044 Y-5.3437 Z0.2050
G01 X21.0079 Y-5.3436 Z0.2050
G01 X21.5435 Y-5.3273 Z0.2050
G01 X22.0787 Y-5.3116 Z0.2050
G01 X22.6140 Y-5.2965 Z0.2050
G01 X23.1492 Y-5.2822 Z0.2050
G01 X23.6846 Y-5.2685 Z0.2050
G01 X24.2199 Y-5.2554 Z0.2050
G01 X24.7552 Y-5.2430 Z0.2050
G01 X25.2906 Y-5.2313 Z0.2050
G01 X25.8259 Y-5.2202 Z0.2050
G01 X26.3573 Y-5.2099 Z0.2050
G01 X26.3610 Y-5.2099 Z0.2050
G01 X26.8965 Y-5.2001 Z0.2050
G01 X27.4321 Y-5.1911 Z0.2050
G01 X27.9675 Y-5.1827 Z0.2050
G01 X28.5029 Y-5.1749 Z0.2050
G01 X29.0383 Y-5.1679 Z0.2050
G01 X29.5738 Y-5.1614 Z0.2050
G01 X30.1092 Y-5.1557 Z0.2050
G01 X30.6447 Y-5.1506 Z0.2050
G01 X31.1801 Y-5.1461 Z0.2050
G01 X31.7156 Y-5.1424 Z0.2050
G01 X32.2511 Y-5.1392 Z0.2050
G01 X32.7865 Y-5.1368 Z0.2050
G01 X33.3220 Y-5.1350 Z0.2050
G01 X33.8575 Y-5.1339 Z0.2050
G01 X34.3929 Y-5.1335 Z0.2050
G01 X34.9281 Y-5.1337 Z0.2050
G01 X35.4636 Y-5.1345 Z0.2050
G01 X35.9991 Y-5.1361 Z0.2050
G01 X36.5346 Y-5.1383 Z0.2050
G01 X37.0700 Y-5.1411 Z0.2050
G01 X37.6055 Y-5.1446 Z0.2050
G01 X38.1410 Y-5.1488 Z0.2050
G01 X38.6764 Y-5.1537 Z0.2050
G01 X39.2118 Y-5.1592 Z0.2050
G01 X39.7473 Y-5.1653 Z0.2050
G01 X40.2827 Y-5.1722 Z0.2050
G01 X40.8181 Y-5.1797 Z0.2050
G01 X41.3536 Y-5.1878 Z0.2050
G01 X41.8890 Y-5.1966 Z0.2050
G01 X42.4246 Y-5.2061 Z0.2050
G01 X42.4284 Y-5.2061 Z0.2050
G01 X42.9598 Y-5.2162 Z0.2050
G01 X43.4951 Y-5.2270 Z0.2050
G01 X44.0305 Y-5.2385 Z0.2050
G01 X44.5658 Y-5.2506 Z0.2050
G01 X45.1011 Y-5.2635 Z0.2050
G01 X45.2755 Y-5.2678 Z0.2050
G01 X45.6364 Y-5.2769 Z0.2050
G01 X46.0629 Y-5.2881 Z0.2050
G01 X46.1717 Y-5.2910 Z0.2050
G01 X46.7070 Y-5.3058 Z0.2050
G01 X46.8503 Y-5.3099 Z0.2050
G01 X47.2422 Y-5.3212 Z0.2050
G01 X47.6377 Y-5.3331 Z0.2050
G01 X47.7776 Y-5.3374 Z0.2050
G01 X48.3130 Y-5.3541 Z0.2050
G01 X48.3163 Y-5.3542 Z0.2050
G01 X48.8479 Y-5.3715 Z0.2050
G01 X49.3831 Y-5.3896 Z0.2050
G01 X49.9182 Y-5.4084 Z0.2050
G01 X50.4533 Y-5.4278 Z0.2050
G01 X50.9884 Y-5.4479 Z0.2050
G01 X51.5235 Y-5.4687 Z0.2050
G01 X52.0588 Y-5.4900 Z0.2050
G01 X52.0624 Y-5.4901 Z0.2050
G01 X52.5936 Y-5.5120 Z0.2050
G01 X53.1286 Y-5.5348 Z0.2050
G01 X53.6635 Y-5.5582 Z0.2050
G01 X54.1985 Y-5.5822 Z0.2050
G01 X54.7335 Y-5.6070 Z0.2050
G01 X55.2685 Y-5.6323 Z0.2050
G01 X55.2708 Y-5.6324 Z0.2050
G01 X55.8031 Y-5.6583 Z0.2050
G01 X56.3379 Y-5.6850 Z0.2050
G01 X56.8727 Y-5.7124 Z0.2050
G01 X57.4076 Y-5.7404 Z0.2050
G01 X57.9424 Y-5.7691 Z0.2050
G01 X57.9455 Y-5.7692 Z0.2050
G01 X58.4768 Y-5.7984 Z0.2050
G01 X59.0114 Y-5.8284 Z0.2050
G01 X59.5460 Y-5.8591 Z0.2050
G01 X60.0807 Y-5.8905 Z0.2050
G01 X60.6155 Y-5.9224 Z0.2050
G01 X60.6200 Y-5.9226 Z0.2050
G01 X60.6287 Y-5.9228 Z0.2050
G01 X60.6315 Y-5.9229 Z0.2050
G01 X60.6323 Y-5.9229 Z0.2050
G01 X60.6358 Y-5.9228 Z0.2050
G01 X60.6394 Y-5.9227 Z0.2050
G01 X60.6429 Y-5.9224 Z0.2050
G01 X60.6464 Y-5.9220 Z0.2050
G01 X60.6500 Y-5.9216 Z0.2050
G01 X60.6535 Y-5.9210 Z0.2050
G01 X60.6570 Y-5.9204 Z0.2050
G01 X60.6604 Y-5.9196 Z0.2050
G01 X60.6639 Y-5.9187 Z0.2050
G01 X60.6673 Y-5.9178 Z0.2050
G01 X60.6707 Y-5.9167 Z0.2050
G01 X60.6740 Y-5.9156 Z0.2050
G01 X60.6774 Y-5.9143 Z0.2050
G01 X60.6807 Y-5.9130 Z0.2050
G01 X60.6839 Y-5.9115 Z0.2050
G01 X60.6871 Y-5.9100 Z0.2050
G01 X60.6903 Y-5.9084 Z0.2050
G01 X60.6934 Y-5.9067 Z0.2050
G01 X60.6964 Y-5.9049 Z0.2050
G01 X60.6995 Y-5.9030 Z0.2050
G01 X60.7024 Y-5.9010 Z0.2050
G01 X60.7053 Y-5.8989 Z0.2050
G01 X60.7081 Y-5.8968 Z0.2050
G01 X60.7109 Y-5.8946 Z0.2050
G01 X60.7136 Y-5.8923 Z0.2050
G01 X60.7162 Y-5.8899 Z0.2050
G01 X60.7188 Y-5.8874 Z0.2050
G01 X60.7213 Y-5.8849 Z0.2050
G01 X60.7237 Y-5.8823 Z0.2050
G01 X60.7261 Y-5.8797 Z0.2050
G01 X60.7284 Y-5.8769 Z0.2050
G01 X60.7305 Y-5.8741 Z0.2050
G01 X60.7327 Y-5.8713 Z0.2050
G01 X60.7347 Y-5.8683 Z0.2050
G01 X60.7366 Y-5.8654 Z0.2050
G01 X60.7385 Y-5.8624 Z0.2050
G01 X60.7403 Y-5.8593 Z0.2050
G01 X60.7419 Y-5.8561 Z0.2050
G01 X60.7435 Y-5.8529 Z0.2050
G01 X60.7450 Y-5.8498 Z0.2050
G01 X60.7464 Y-5.8465 Z0.2050
G01 X60.7477 Y-5.8432 Z0.2050
G01 X60.7489 Y-5.8398 Z0.2050
G01 X60.7500 Y-5.8364 Z0.2050
G01 X60.7511 Y-5.8331 Z0.2050
G01 X60.7520 Y-5.8296 Z0.2050
G01 X60.7528 Y-5.8262 Z0.2050
G01 X60.7535 Y-5.8227 Z0.2050
G01 X60.7541 Y-5.8192 Z0.2050
G01 X60.7547 Y-5.8157 Z0.2050
G01 X60.7551 Y-5.8122 Z0.2050
G01 X60.7554 Y-5.8086 Z0.2050
G01 X60.7556 Y-5.8051 Z0.2050
G01 X60.7557 Y-5.8015 Z0.2050
G01 X60.7563 Y-5.7694 Z0.2050
G01 X60.7580 Y-5.7007 Z0.2050
G01 X60.7601 Y-5.6378 Z0.2050
G01 X60.7630 Y-5.5762 Z0.2050
G01 X60.7664 Y-5.5205 Z0.2050
G01 X60.7704 Y-5.4696 Z0.2050
G01 X60.7752 Y-5.4220 Z0.2050
G01 X60.7808 Y-5.3777 Z0.2050
G01 X60.7871 Y-5.3377 Z0.2050
G01 X60.7940 Y-5.3022 Z0.2050
G01 X60.8018 Y-5.2692 Z0.2050
G01 X60.8103 Y-5.2397 Z0.2050
G01 X60.8192 Y-5.2146 Z0.2050
G01 X60.8284 Y-5.1928 Z0.2050
G01 X60.8384 Y-5.1733 Z0.2050
G01 X60.8487 Y-5.1566 Z0.2050
G01 X60.8590 Y-5.1425 Z0.2050
G01 X60.8707 Y-5.1292 Z0.2050
G01 X60.8826 Y-5.1180 Z0.2050
G01 X60.8966 Y-5.1069 Z0.2050
G01 X60.9120 Y-5.0966 Z0.2050
G01 X60.9293 Y-5.0868 Z0.2050
G01 X60.9501 Y-5.0770 Z0.2050
G01 X60.9726 Y-5.0679 Z0.2050
G01 X60.9985 Y-5.0590 Z0.2050
G01 X61.0269 Y-5.0507 Z0.2050
G01 X61.0585 Y-5.0426 Z0.2050
G01 X61.0942 Y-5.0347 Z0.2050
G01 X61.1318 Y-5.0272 Z0.2050
G01 X61.1709 Y-5.0202 Z0.2050
G01 X61.2149 Y-5.0131 Z0.2050
G01 X61.2625 Y-5.0057 Z0.2050
G01 X61.3120 Y-4.9985 Z0.2050
G01 X61.3642 Y-4.9910 Z0.2050
G01 X61.4199 Y-4.9831 Z0.2050
G01 X61.4785 Y-4.9748 Z0.2050
G01 X61.5402 Y-4.9658 Z0.2050
G01 X61.5408 Y-4.9657 Z0.2050
G01 X61.6050 Y-4.9560 Z0.2050
G01 X61.6058 Y-4.9559 Z0.2050
G01 X61.6730 Y-4.9453 Z0.2050
G01 X61.6740 Y-4.9452 Z0.2050
G01 X61.7444 Y-4.9336 Z0.2050
G01 X61.7453 Y-4.9334 Z0.2050
G01 X61.8188 Y-4.9207 Z0.2050
G01 X61.8199 Y-4.9205 Z0.2050
G01 X61.8966 Y-4.9065 Z0.2050
G01 X61.8978 Y-4.9062 Z0.2050
G01 X61.9778 Y-4.8908 Z0.2050
G01 X61.9791 Y-4.8905 Z0.2050
G01 X62.0624 Y-4.8735 Z0.2050
G01 X62.0638 Y-4.8732 Z0.2050
G01 X62.1505 Y-4.8545 Z0.2050
G01 X62.1519 Y-4.8542 Z0.2050
G01 X62.2421 Y-4.8337 Z0.2050
G01 X62.2470 Y-4.8324 Z0.2050
G01 X62.4157 Y-4.7868 Z0.2050
G01 X62.4199 Y-4.7856 Z0.2050
G01 X62.5814 Y-4.7357 Z0.2050
G01 X62.5856 Y-4.7343 Z0.2050
G01 X62.7410 Y-4.6801 Z0.2050
G01 X62.7452 Y-4.6786 Z0.2050
G01 X62.8939 Y-4.6207 Z0.2050
G01 X62.8981 Y-4.6189 Z0.2050
G01 X63.0416 Y-4.5567 Z0.2050
G01 X63.0458 Y-4.5548 Z0.2050
G01 X63.1846 Y-4.4883 Z0.2050
G01 X63.1889 Y-4.4862 Z0.2050
G01 X63.3206 Y-4.4168 Z0.2050
G01 X63.3247 Y-4.4145 Z0.2050
G01 X63.4514 Y-4.3414 Z0.2050
G01 X63.4556 Y-4.3390 Z0.2050
G01 X63.5786 Y-4.2615 Z0.2050
G01 X63.5826 Y-4.2589 Z0.2050
G01 X63.6992 Y-4.1790 Z0.2050
G01 X63.7031 Y-4.1762 Z0.2050
G01 X63.8161 Y-4.0922 Z0.2050
G01 X63.8199 Y-4.0893 Z0.2050
G01 X63.9272 Y-4.0028 Z0.2050
G01 X63.9309 Y-3.9998 Z0.2050
G01 X64.0349 Y-3.9091 Z0.2050
G01 X64.0384 Y-3.9059 Z0.2050
G01 X64.1371 Y-3.8129 Z0.2050
G01 X64.1405 Y-3.8096 Z0.2050
G01 X64.2360 Y-3.7125 Z0.2050
G01 X64.2391 Y-3.7092 Z0.2050
G01 X64.3292 Y-3.6105 Z0.2050
G01 X64.3323 Y-3.6070 Z0.2050
G01 X64.4200 Y-3.5035 Z0.2050
G01 X64.4229 Y-3.5000 Z0.2050
G01 X64.5062 Y-3.3938 Z0.2050
G01 X64.5089 Y-3.3903 Z0.2050
G01 X64.5883 Y-3.2815 Z0.2050
G01 X64.5908 Y-3.2779 Z0.2050
G01 X64.6664 Y-3.1661 Z0.2050
G01 X64.6687 Y-3.1625 Z0.2050
G01 X64.7410 Y-3.0474 Z0.2050
G01 X64.7431 Y-3.0438 Z0.2050
G01 X64.8116 Y-2.9262 Z0.2050
G01 X64.8136 Y-2.9225 Z0.2050
G01 X64.8782 Y-2.8024 Z0.2050
G01 X64.8800 Y-2.7989 Z0.2050
G01 X64.9416 Y-2.6751 Z0.2050
G01 X64.9432 Y-2.6716 Z0.2050
G01 X65.0015 Y-2.5445 Z0.2050
G01 X65.0031 Y-2.5411 Z0.2050
G01 X65.0568 Y-2.4139 Z0.2050
G01 X65.0581 Y-2.4105 Z0.2050
G01 X65.1096 Y-2.2778 Z0.2050
G01 X65.1108 Y-2.2745 Z0.2050
G01 X65.1579 Y-2.1418 Z0.2050
G01 X65.1590 Y-2.1385 Z0.2050
G01 X65.2027 Y-2.0035 Z0.2050
G01 X65.2037 Y-2.0003 Z0.2050
G01 X65.2446 Y-1.8610 Z0.2050
G01 X65.2455 Y-1.8579 Z0.2050
G01 X65.2826 Y-1.7179 Z0.2050
G01 X65.2834 Y-1.7148 Z0.2050
G01 X65.3171 Y-1.5729 Z0.2050
G01 X65.3177 Y-1.5699 Z0.2050
G01 X65.3480 Y-1.4263 Z0.2050
G01 X65.3486 Y-1.4235 Z0.2050
G01 X65.3757 Y-1.2781 Z0.2050
G01 X65.3762 Y-1.2752 Z0.2050
G01 X65.4001 Y-1.1268 Z0.2050
G01 X65.4005 Y-1.1240 Z0.2050
G01 X65.4208 Y-0.9775 Z0.2050
G01 X65.4211 Y-0.9747 Z0.2050
G01 X65.4385 Y-0.8234 Z0.2050
G01 X65.4388 Y-0.8207 Z0.2050
G01 X65.4524 Y-0.6741 Z0.2050
G01 X65.4526 Y-0.6715 Z0.2050
G01 X65.4637 Y-0.5166 Z0.2050
G01 X65.4638 Y-0.5140 Z0.2050
G01 X65.4714 Y-0.3618 Z0.2050
G01 X65.4716 Y-0.3593 Z0.2050
G01 X65.4761 Y-0.2070 Z0.2050
G01 X65.4762 Y-0.2046 Z0.2050
G01 X65.4777 Y-0.0512 Z0.2050
G01 X65.4777 Y0.0512 Z0.2050
G01 X65.4762 Y0.2046 Z0.2050
G01 X65.4761 Y0.2070 Z0.2050
G01 X65.4716 Y0.3593 Z0.2050
G01 X65.4714 Y0.3618 Z0.2050
G01 X65.4638 Y0.5140 Z0.2050
G01 X65.4637 Y0.5166 Z0.2050
G01 X65.4527 Y0.6703 Z0.2050
G01 X65.4525 Y0.6730 Z0.2050
G01 X65.4388 Y0.8207 Z0.2050
G01 X65.4385 Y0.8234 Z0.2050
G01 X65.4211 Y0.9747 Z0.2050
G01 X65.4208 Y0.9775 Z0.2050
G01 X65.4005 Y1.1240 Z0.2050
G01 X65.4001 Y1.1268 Z0.2050
G01 X65.3762 Y1.2752 Z0.2050
G01 X65.3757 Y1.2781 Z0.2050
G01 X65.3486 Y1.4235 Z0.2050
G01 X65.3480 Y1.4263 Z0.2050
G01 X65.3177 Y1.5699 Z0.2050
G01 X65.3171 Y1.5729 Z0.2050
G01 X65.2834 Y1.7148 Z0.2050
G01 X65.2826 Y1.7179 Z0.2050
G01 X65.2455 Y1.8579 Z0.2050
G01 X65.2446 Y1.8610 Z0.2050
G01 X65.2037 Y2.0003 Z0.2050
G01 X65.2027 Y2.0035 Z0.2050
G01 X65.1590 Y2.1385 Z0.2050
G01 X65.1579 Y2.1418 Z0.2050
G01 X65.1108 Y2.2745 Z0.2050
G01 X65.1096 Y2.2778 Z0.2050
G01 X65.0581 Y2.4105 Z0.2050
G01 X65.0568 Y2.4139 Z0.2050
G01 X65.0031 Y2.5411 Z0.2050
G01 X65.0015 Y2.5445 Z0.2050
G01 X64.9432 Y2.6716 Z0.2050
G01 X64.9416 Y2.6751 Z0.2050
G01 X64.8800 Y2.7989 Z0.2050
G01 X64.8782 Y2.8024 Z0.2050
G01 X64.8136 Y2.9225 Z0.2050
G01 X64.8116 Y2.9262 Z0.2050
G01 X64.7431 Y3.0438 Z0.2050
G01 X64.7410 Y3.0474 Z0.2050
G01 X64.6687 Y3.1625 Z0.2050
G01 X64.6664 Y3.1661 Z0.2050
G01 X64.5908 Y3.2779 Z0.2050
G01 X64.5883 Y3.2815 Z0.2050
G01 X64.5089 Y3.3903 Z0.2050
G01 X64.5062 Y3.3938 Z0.2050
G01 X64.4229 Y3.5000 Z0.2050
G01 X64.4200 Y3.5035 Z0.2050
G01 X64.3323 Y3.6070 Z0.2050
G01 X64.3292 Y3.6105 Z0.2050
G01 X64.2391 Y3.7092 Z0.2050
G01 X64.2360 Y3.7125 Z0.2050
G01 X64.1405 Y3.8096 Z0.2050
G01 X64.1371 Y3.8129 Z0.2050
G01 X64.0384 Y3.9059 Z0.2050
G01 X64.0349 Y3.9091 Z0.2050
G01 X63.9309 Y3.9998 Z0.2050
G01 X63.9272 Y4.0028 Z0.2050
G01 X63.8199 Y4.0893 Z0.2050
G01 X63.8161 Y4.0922 Z0.2050
G01 X63.7031 Y4.1762 Z0.2050
G01 X63.6992 Y4.1790 Z0.2050
G01 X63.5826 Y4.2589 Z0.2050
G01 X63.5786 Y4.2615 Z0.2050
G01 X63.4556 Y4.3390 Z0.2050
G01 X63.4514 Y4.3414 Z0.2050
G01 X63.3247 Y4.4145 Z0.2050
G01 X63.3206 Y4.4168 Z0.2050
G01 X63.1889 Y4.4862 Z0.2050
G01 X63.1846 Y4.4883 Z0.2050
G01 X63.0458 Y4.5548 Z0.2050
G01 X63.0416 Y4.5567 Z0.2050
G01 X62.8981 Y4.6189 Z0.2050
G01 X62.8939 Y4.6207 Z0.2050
G01 X62.7452 Y4.6786 Z0.2050
G01 X62.7410 Y4.6801 Z0.2050
G01 X62.5856 Y4.7343 Z0.2050
G01 X62.5814 Y4.7357 Z0.2050
G01 X62.4199 Y4.7856 Z0.2050
G01 X62.4157 Y4.7868 Z0.2050
G01 X62.2470 Y4.8324 Z0.2050
G01 X62.2421 Y4.8337 Z0.2050
G01 X62.1519 Y4.8542 Z0.2050
G01 X62.1505 Y4.8545 Z0.2050
G01 X62.0638 Y4.8732 Z0.2050
G01 X62.0624 Y4.8735 Z0.2050
G01 X61.9791 Y4.8905 Z0.2050
G01 X61.9778 Y4.8908 Z0.2050
G01 X61.8978 Y4.9062 Z0.2050
G01 X61.8966 Y4.9065 Z0.2050
G01 X61.8199 Y4.9205 Z0.2050
G01 X61.8188 Y4.9207 Z0.2050
G01 X61.7453 Y4.9334 Z0.2050
G01 X61.7444 Y4.9336 Z0.2050
G01 X61.6740 Y4.9452 Z0.2050
G01 X61.6730 Y4.9453 Z0.2050
G01 X61.6058 Y4.9559 Z0.2050
G01 X61.6050 Y4.9560 Z0.2050
G01 X61.5408 Y4.9657 Z0.2050
G01 X61.5402 Y4.9658 Z0.2050
G01 X61.4788 Y4.9747 Z0.2050
G01 X61.4201 Y4.9831 Z0.2050
G01 X61.3642 Y4.9910 Z0.2050
G01 X61.3120 Y4.9985 Z0.2050
G01 X61.2625 Y5.0057 Z0.2050
G01 X61.2149 Y5.0131 Z0.2050
G01 X61.1709 Y5.0202 Z0.2050
G01 X61.1318 Y5.0272 Z0.2050
G01 X61.0942 Y5.0347 Z0.2050
G01 X61.0585 Y5.0426 Z0.2050
G01 X61.0269 Y5.0507 Z0.2050
G01 X60.9985 Y5.0590 Z0.2050
G01 X60.9726 Y5.0679 Z0.2050
G01 X60.9501 Y5.0770 Z0.2050
G01 X60.9293 Y5.0868 Z0.2050
G01 X60.9120 Y5.0966 Z0.2050
G01 X60.8966 Y5.1069 Z0.2050
G01 X60.8826 Y5.1180 Z0.2050
G01 X60.8707 Y5.1292 Z0.2050
G01 X60.8590 Y5.1425 Z0.2050
G01 X60.8487 Y5.1566 Z0.2050
G01 X60.8384 Y5.1733 Z0.2050
G01 X60.8284 Y5.1928 Z0.2050
G01 X60.8192 Y5.2146 Z0.2050
G01 X60.8105 Y5.2393 Z0.2050
G01 X60.8018 Y5.2692 Z0.2050
G01 X60.7940 Y5.3021 Z0.2050
G01 X60.7871 Y5.3374 Z0.2050
G01 X60.7809 Y5.3773 Z0.2050
G01 X60.7752 Y5.4220 Z0.2050
G01 X60.7705 Y5.4687 Z0.2050
G01 X60.7664 Y5.5202 Z0.2050
G01 X60.7630 Y5.5762 Z0.2050
G01 X60.7601 Y5.6378 Z0.2050
G01 X60.7580 Y5.7007 Z0.2050
G01 X60.7579 Y5.7019 Z0.2050
G01 X60.7563 Y5.7694 Z0.2050
G01 X60.7557 Y5.8015 Z0.2050
G01 X60.7556 Y5.8051 Z0.2050
G01 X60.7554 Y5.8086 Z0.2050
G01 X60.7551 Y5.8122 Z0.2050
G01 X60.7547 Y5.8157 Z0.2050
G01 X60.7541 Y5.8192 Z0.2050
G01 X60.7535 Y5.8227 Z0.2050
G01 X60.7528 Y5.8262 Z0.2050
G01 X60.7520 Y5.8296 Z0.2050
G01 X60.7511 Y5.8331 Z0.2050
G01 X60.7500 Y5.8364 Z0.2050
G01 X60.7489 Y5.8398 Z0.2050
G01 X60.7477 Y5.8432 Z0.2050
G01 X60.7464 Y5.8465 Z0.2050
G01 X60.7450 Y5.8498 Z0.2050
G01 X60.7435 Y5.8529 Z0.2050
G01 X60.7419 Y5.8561 Z0.2050
G01 X60.7403 Y5.8593 Z0.2050
G01 X60.7385 Y5.8624 Z0.2050
G01 X60.7366 Y5.8654 Z0.2050
G01 X60.7347 Y5.8683 Z0.2050
G01 X60.7327 Y5.8713 Z0.2050
G01 X60.7305 Y5.8741 Z0.2050
G01 X60.7284 Y5.8769 Z0.2050
G01 X60.7261 Y5.8797 Z0.2050
G01 X60.7237 Y5.8823 Z0.2050
G01 X60.7213 Y5.8849 Z0.2050
G01 X60.7188 Y5.8874 Z0.2050
G01 X60.7162 Y5.8899 Z0.2050
G01 X60.7136 Y5.8923 Z0.2050
G01 X60.7109 Y5.8946 Z0.2050
G01 X60.7081 Y5.8968 Z0.2050
G01 X60.7053 Y5.8989 Z0.2050
G01 X60.7024 Y5.9010 Z0.2050
G01 X60.6995 Y5.9030 Z0.2050
G01 X60.6964 Y5.9049 Z0.2050
G01 X60.6934 Y5.9067 Z0.2050
G01 X60.6903 Y5.9084 Z0.2050
G01 X60.6871 Y5.9100 Z0.2050
G01 X60.6839 Y5.9115 Z0.2050
G01 X60.6807 Y5.9130 Z0.2050
G01 X60.6774 Y5.9143 Z0.2050
G01 X60.6740 Y5.9156 Z0.2050
G01 X60.6707 Y5.9167 Z0.2050
G01 X60.6673 Y5.9178 Z0.2050
G01 X60.6639 Y5.9187 Z0.2050
G01 X60.6604 Y5.9196 Z0.2050
G01 X60.6570 Y5.9204 Z0.2050
G01 X60.6535 Y5.9210 Z0.2050
G01 X60.6500 Y5.9216 Z0.2050
G01 X60.6464 Y5.9220 Z0.2050
G01 X60.6429 Y5.9224 Z0.2050
G01 X60.6394 Y5.9227 Z0.2050
G01 X60.6358 Y5.9228 Z0.2050
G01 X60.6323 Y5.9229 Z0.2050
G01 X60.6315 Y5.9229 Z0.2050
G01 X60.6287 Y5.9228 Z0.2050
G01 X60.6200 Y5.9226 Z0.2050
G01 X60.6155 Y5.9224 Z0.2050
G01 X60.0807 Y5.8904 Z0.2050
G01 X59.5460 Y5.8591 Z0.2050
G01 X59.0114 Y5.8284 Z0.2050
G01 X58.4768 Y5.7984 Z0.2050
G01 X57.9455 Y5.7692 Z0.2050
G01 X57.9424 Y5.7691 Z0.2050
G01 X57.4076 Y5.7404 Z0.2050
G01 X56.8727 Y5.7124 Z0.2050
G01 X56.3379 Y5.6850 Z0.2050
G01 X55.8031 Y5.6583 Z0.2050
G01 X55.2708 Y5.6324 Z0.2050
G01 X55.2685 Y5.6323 Z0.2050
G01 X54.7335 Y5.6069 Z0.2050
G01 X54.1985 Y5.5822 Z0.2050
G01 X53.6635 Y5.5582 Z0.2050
G01 X53.1286 Y5.5348 Z0.2050
G01 X52.5936 Y5.5120 Z0.2050
G01 X52.0625 Y5.4901 Z0.2050
G01 X52.0588 Y5.4900 Z0.2050
G01 X51.5235 Y5.4687 Z0.2050
G01 X50.9884 Y5.4479 Z0.2050
G01 X50.4533 Y5.4278 Z0.2050
G01 X49.9182 Y5.4084 Z0.2050
G01 X49.3831 Y5.3896 Z0.2050
G01 X48.8479 Y5.3715 Z0.2050
G01 X48.3163 Y5.3542 Z0.2050
G01 X48.3130 Y5.3541 Z0.2050
G01 X47.7776 Y5.3374 Z0.2050
G01 X47.6377 Y5.3331 Z0.2050
G01 X47.2422 Y5.3212 Z0.2050
G01 X46.8503 Y5.3099 Z0.2050
G01 X46.7070 Y5.3058 Z0.2050
G01 X46.1717 Y5.2910 Z0.2050
G01 X46.0629 Y5.2881 Z0.2050
G01 X45.6364 Y5.2769 Z0.2050
G01 X45.2755 Y5.2678 Z0.2050
G01 X45.1011 Y5.2635 Z0.2050
G01 X44.5658 Y5.2506 Z0.2050
G01 X44.0305 Y5.2385 Z0.2050
G01 X43.4951 Y5.2270 Z0.2050
G01 X42.9598 Y5.2162 Z0.2050
G01 X42.4284 Y5.2061 Z0.2050
G01 X42.4246 Y5.2061 Z0.2050
G01 X41.8890 Y5.1966 Z0.2050
G01 X41.3536 Y5.1878 Z0.2050
G01 X40.8181 Y5.1797 Z0.2050
G01 X40.2827 Y5.1722 Z0.2050
G01 X39.7473 Y5.1653 Z0.2050
G01 X39.2118 Y5.1592 Z0.2050
G01 X38.6764 Y5.1537 Z0.2050
G01 X38.1410 Y5.1488 Z0.2050
G01 X37.6055 Y5.1446 Z0.2050
G01 X37.0700 Y5.1411 Z0.2050
G01 X36.5346 Y5.1383 Z0.2050
G01 X35.9991 Y5.1361 Z0.2050
G01 X35.4636 Y5.1345 Z0.2050
G01 X34.9281 Y5.1337 Z0.2050
G01 X34.3929 Y5.1335 Z0.2050
G01 X33.8575 Y5.1339 Z0.2050
G01 X33.3220 Y5.1350 Z0.2050
G01 X32.7865 Y5.1368 Z0.2050
G01 X32.2511 Y5.1392 Z0.2050
G01 X31.7156 Y5.1424 Z0.2050
G01 X31.1801 Y5.1461 Z0.2050
G01 X30.6447 Y5.1506 Z0.2050
G01 X30.1092 Y5.1557 Z0.2050
G01 X29.5738 Y5.1614 Z0.2050
G01 X29.0383 Y5.1679 Z0.2050
G01 X28.5029 Y5.1749 Z0.2050
G01 X27.9675 Y5.1827 Z0.2050
G01 X27.4321 Y5.1911 Z0.2050
G01 X26.8965 Y5.2001 Z0.2050
G01 X26.3610 Y5.2099 Z0.2050
G01 X26.3575 Y5.2099 Z0.2050
G01 X25.8259 Y5.2202 Z0.2050
G01 X25.2906 Y5.2313 Z0.2050
G01 X24.7552 Y5.2430 Z0.2050
G01 X24.2199 Y5.2554 Z0.2050
G01 X23.6846 Y5.2685 Z0.2050
G01 X23.1492 Y5.2822 Z0.2050
G01 X22.6140 Y5.2965 Z0.2050
G01 X22.0787 Y5.3116 Z0.2050
G01 X21.5435 Y5.3273 Z0.2050
G01 X21.0079 Y5.3436 Z0.2050
G01 X21.0044 Y5.3437 Z0.2050
G01 X20.8661 Y5.3480 Z0.2050
G01 X20.4730 Y5.3606 Z0.2050
G01 X20.0787 Y5.3736 Z0.2050
G01 X19.9378 Y5.3783 Z0.2050
G01 X19.4027 Y5.3966 Z0.2050
G01 X19.2913 Y5.4005 Z0.2050
G01 X18.8675 Y5.4156 Z0.2050
G01 X18.5039 Y5.4290 Z0.2050
G01 X18.3324 Y5.4353 Z0.2050
G01 X17.7974 Y5.4556 Z0.2050
G01 X17.2621 Y5.4766 Z0.2050
G01 X16.7269 Y5.4983 Z0.2050
G01 X16.7234 Y5.4984 Z0.2050
G01 X16.1922 Y5.5205 Z0.2050
G01 X15.6572 Y5.5435 Z0.2050
G01 X15.1223 Y5.5672 Z0.2050
G01 X14.5874 Y5.5915 Z0.2050
G01 X14.0523 Y5.6164 Z0.2050
G01 X13.5173 Y5.6420 Z0.2050
G01 X13.5152 Y5.6421 Z0.2050
G01 X12.9828 Y5.6683 Z0.2050
G01 X12.4480 Y5.6953 Z0.2050
G01 X11.9132 Y5.7229 Z0.2050
G01 X11.3783 Y5.7512 Z0.2050
G01 X10.8435 Y5.7801 Z0.2050
G01 X10.8405 Y5.7802 Z0.2050
G01 X10.3091 Y5.8096 Z0.2050
G01 X9.7745 Y5.8399 Z0.2050
G01 X9.2399 Y5.8709 Z0.2050
G01 X8.7052 Y5.9024 Z0.2050
G01 X8.1706 Y5.9347 Z0.2050
G01 X8.1688 Y5.9348 Z0.2050
G01 X7.6364 Y5.9675 Z0.2050
G01 X7.1017 Y6.0011 Z0.2050
G01 X7.0973 Y6.0013 Z0.2050
G01 X7.0886 Y6.0016 Z0.2050
G01 X7.0829 Y6.0016 Z0.2050
G01 X7.0809 Y6.0015 Z0.2050
G01 X7.0774 Y6.0014 Z0.2050
G01 X7.0738 Y6.0012 Z0.2050
G01 X7.0704 Y6.0009 Z0.2050
G01 X7.0669 Y6.0005 Z0.2050
G01 X7.0635 Y6.0000 Z0.2050
G01 X7.0600 Y5.9994 Z0.2050
G01 X7.0566 Y5.9987 Z0.2050
G01 X7.0532 Y5.9979 Z0.2050
G01 X7.0498 Y5.9970 Z0.2050
G01 X7.0464 Y5.9960 Z0.2050
G01 X7.0431 Y5.9949 Z0.2050
G01 X7.0398 Y5.9937 Z0.2050
G01 X7.0366 Y5.9924 Z0.2050
G01 X7.0333 Y5.9911 Z0.2050
G01 X7.0301 Y5.9896 Z0.2050
G01 X7.0270 Y5.9881 Z0.2050
G01 X7.0239 Y5.9864 Z0.2050
G01 X7.0209 Y5.9847 Z0.2050
G01 X7.0179 Y5.9829 Z0.2050
G01 X7.0150 Y5.9810 Z0.2050
G01 X7.0120 Y5.9790 Z0.2050
G01 X7.0092 Y5.9770 Z0.2050
G01 X7.0064 Y5.9748 Z0.2050
G01 X7.0037 Y5.9726 Z0.2050
G01 X7.0011 Y5.9703 Z0.2050
G01 X6.9985 Y5.9680 Z0.2050
G01 X6.9960 Y5.9655 Z0.2050
G01 X6.9936 Y5.9630 Z0.2050
G01 X6.9912 Y5.9605 Z0.2050
G01 X6.9889 Y5.9578 Z0.2050
G01 X6.9867 Y5.9551 Z0.2050
G01 X6.9845 Y5.9524 Z0.2050
G01 X6.9825 Y5.9495 Z0.2050
G01 X6.9805 Y5.9466 Z0.2050
G01 X6.9786 Y5.9437 Z0.2050
G01 X6.9768 Y5.9407 Z0.2050
G01 X6.9750 Y5.9377 Z0.2050
G01 X6.9734 Y5.9346 Z0.2050
G01 X6.9718 Y5.9314 Z0.2050
G01 X6.9704 Y5.9283 Z0.2050
G01 X6.9690 Y5.9251 Z0.2050
G01 X6.9677 Y5.9218 Z0.2050
G01 X6.9665 Y5.9185 Z0.2050
G01 X6.9654 Y5.9152 Z0.2050
G01 X6.9644 Y5.9118 Z0.2050
G01 X6.9635 Y5.9085 Z0.2050
G01 X6.9627 Y5.9051 Z0.2050
G01 X6.9620 Y5.9016 Z0.2050
G01 X6.9614 Y5.8982 Z0.2050
G01 X6.9609 Y5.8948 Z0.2050
G01 X6.9604 Y5.8912 Z0.2050
G01 X6.9601 Y5.8878 Z0.2050
G01 X6.9599 Y5.8843 Z0.2050
G01 X6.9598 Y5.8808 Z0.2050
G01 X6.9590 Y5.8465 Z0.2050
G01 X6.9568 Y5.7771 Z0.2050
G01 X6.9541 Y5.7130 Z0.2050
G01 X6.9508 Y5.6528 Z0.2050
G01 X6.9465 Y5.5938 Z0.2050
G01 X6.9420 Y5.5436 Z0.2050
G01 X6.9419 Y5.5428 Z0.2050
G01 X6.9361 Y5.4927 Z0.2050
G01 X6.9298 Y5.4479 Z0.2050
G01 X6.9228 Y5.4078 Z0.2050
G01 X6.9146 Y5.3692 Z0.2050
G01 X6.9059 Y5.3356 Z0.2050
G01 X6.8966 Y5.3058 Z0.2050
G01 X6.8866 Y5.2789 Z0.2050
G01 X6.8762 Y5.2560 Z0.2050
G01 X6.8650 Y5.2350 Z0.2050
G01 X6.8538 Y5.2176 Z0.2050
G01 X6.8416 Y5.2019 Z0.2050
G01 X6.8290 Y5.1881 Z0.2050
G01 X6.8155 Y5.1758 Z0.2050
G01 X6.8004 Y5.1642 Z0.2050
G01 X6.7835 Y5.1534 Z0.2050
G01 X6.7646 Y5.1433 Z0.2050
G01 X6.7431 Y5.1338 Z0.2050
G01 X6.7192 Y5.1249 Z0.2050
G01 X6.6919 Y5.1164 Z0.2050
G01 X6.6627 Y5.1089 Z0.2050
G01 X6.6287 Y5.1016 Z0.2050
G01 X6.5933 Y5.0952 Z0.2050
G01 X6.5533 Y5.0892 Z0.2050
G01 X6.5134 Y5.0840 Z0.2050
G01 X6.4664 Y5.0789 Z0.2050
G01 X6.4194 Y5.0744 Z0.2050
G01 X6.3688 Y5.0701 Z0.2050
G01 X6.3140 Y5.0659 Z0.2050
G01 X6.2571 Y5.0618 Z0.2050
G01 X6.1972 Y5.0576 Z0.2050
G01 X6.1340 Y5.0532 Z0.2050
G01 X6.0678 Y5.0485 Z0.2050
G01 X6.0673 Y5.0485 Z0.2050
G01 X5.9983 Y5.0433 Z0.2050
G01 X5.9978 Y5.0433 Z0.2050
G01 X5.9256 Y5.0376 Z0.2050
G01 X5.9250 Y5.0375 Z0.2050
G01 X5.8497 Y5.0312 Z0.2050
G01 X5.8488 Y5.0311 Z0.2050
G01 X5.7703 Y5.0240 Z0.2050
G01 X5.7694 Y5.0239 Z0.2050
G01 X5.6877 Y5.0159 Z0.2050
G01 X5.6867 Y5.0157 Z0.2050
G01 X5.6016 Y5.0066 Z0.2050
G01 X5.6005 Y5.0065 Z0.2050
G01 X5.5120 Y4.9962 Z0.2050
G01 X5.5109 Y4.9961 Z0.2050
G01 X5.4190 Y4.9846 Z0.2050
G01 X5.4152 Y4.9841 Z0.2050
G01 X5.1713 Y4.9458 Z0.2050
G01 X5.1680 Y4.9453 Z0.2050
G01 X4.9313 Y4.9016 Z0.2050
G01 X4.9279 Y4.9009 Z0.2050
G01 X4.6998 Y4.8522 Z0.2050
G01 X4.6964 Y4.8514 Z0.2050
G01 X4.4779 Y4.7983 Z0.2050
G01 X4.4744 Y4.7974 Z0.2050
G01 X4.2618 Y4.7389 Z0.2050
G01 X4.2582 Y4.7379 Z0.2050
G01 X4.0535 Y4.6749 Z0.2050
G01 X4.0498 Y4.6737 Z0.2050
G01 X3.8550 Y4.6071 Z0.2050
G01 X3.8513 Y4.6058 Z0.2050
G01 X3.6633 Y4.5348 Z0.2050
G01 X3.6596 Y4.5333 Z0.2050
G01 X3.4787 Y4.4582 Z0.2050
G01 X3.4749 Y4.4566 Z0.2050
G01 X3.3020 Y4.3779 Z0.2050
G01 X3.2983 Y4.3761 Z0.2050
G01 X3.1316 Y4.2934 Z0.2050
G01 X3.1278 Y4.2914 Z0.2050
G01 X2.9692 Y4.2057 Z0.2050
G01 X2.9655 Y4.2036 Z0.2050
G01 X2.8132 Y4.1143 Z0.2050
G01 X2.8094 Y4.1120 Z0.2050
G01 X2.6644 Y4.0199 Z0.2050
G01 X2.6607 Y4.0174 Z0.2050
G01 X2.5210 Y3.9214 Z0.2050
G01 X2.5174 Y3.9188 Z0.2050
G01 X2.3855 Y3.8209 Z0.2050
G01 X2.3819 Y3.8181 Z0.2050
G01 X2.2555 Y3.7168 Z0.2050
G01 X2.2519 Y3.7138 Z0.2050
G01 X2.1308 Y3.6091 Z0.2050
G01 X2.1274 Y3.6061 Z0.2050
G01 X2.0135 Y3.5000 Z0.2050
G01 X2.0102 Y3.4968 Z0.2050
G01 X1.9015 Y3.3877 Z0.2050
G01 X1.8983 Y3.3844 Z0.2050
G01 X1.7940 Y3.2716 Z0.2050
G01 X1.7910 Y3.2682 Z0.2050
G01 X1.6935 Y3.1545 Z0.2050
G01 X1.6905 Y3.1509 Z0.2050
G01 X1.5974 Y3.0338 Z0.2050
G01 X1.5946 Y3.0303 Z0.2050
G01 X1.5067 Y2.9109 Z0.2050
G01 X1.5040 Y2.9072 Z0.2050
G01 X1.4209 Y2.7853 Z0.2050
G01 X1.4185 Y2.7816 Z0.2050
G01 X1.3409 Y2.6586 Z0.2050
G01 X1.3387 Y2.6548 Z0.2050
G01 X1.2644 Y2.5272 Z0.2050
G01 X1.2622 Y2.5234 Z0.2050
G01 X1.1938 Y2.3956 Z0.2050
G01 X1.1919 Y2.3918 Z0.2050
G01 X1.1281 Y2.2622 Z0.2050
G01 X1.1263 Y2.2584 Z0.2050
G01 X1.0662 Y2.1248 Z0.2050
G01 X1.0646 Y2.1209 Z0.2050
G01 X1.0098 Y1.9872 Z0.2050
G01 X1.0083 Y1.9835 Z0.2050
G01 X0.9572 Y1.8462 Z0.2050
G01 X0.9558 Y1.8425 Z0.2050
G01 X0.9094 Y1.7044 Z0.2050
G01 X0.9083 Y1.7007 Z0.2050
G01 X0.8658 Y1.5597 Z0.2050
G01 X0.8648 Y1.5561 Z0.2050
G01 X0.8268 Y1.4146 Z0.2050
G01 X0.8259 Y1.4110 Z0.2050
G01 X0.7922 Y1.2678 Z0.2050
G01 X0.7914 Y1.2643 Z0.2050
G01 X0.7617 Y1.1195 Z0.2050
G01 X0.7611 Y1.1159 Z0.2050
G01 X0.7355 Y0.9694 Z0.2050
G01 X0.7349 Y0.9660 Z0.2050
G01 X0.7135 Y0.8190 Z0.2050
G01 X0.7130 Y0.8156 Z0.2050
G01 X0.6955 Y0.6670 Z0.2050
G01 X0.6952 Y0.6637 Z0.2050
G01 X0.6815 Y0.5126 Z0.2050
G01 X0.6812 Y0.5093 Z0.2050
G01 X0.6718 Y0.3612 Z0.2050
G01 X0.6716 Y0.3580 Z0.2050
G01 X0.6659 Y0.2051 Z0.2050
G01 X0.6658 Y0.2020 Z0.2050
G01 X0.6639 Y0.0515 Z0.2050
G01 X0.6639 Y-0.0515 Z0.2050
G01 X0.6639 Y-0.0515 Z-0.0100
G01 X0.6658 Y-0.2020 Z-0.0100
G01 X0.6659 Y-0.2051 Z-0.0100
G01 X0.6716 Y-0.3580 Z-0.0100
G01 X0.6718 Y-0.3612 Z-0.0100
G01 X0.6812 Y-0.5093 Z-0.0100
G01 X0.6815 Y-0.5126 Z-0.0100
G01 X0.6952 Y-0.6637 Z-0.0100
G01 X0.6955 Y-0.6670 Z-0.0100
G01 X0.7131 Y-0.8162 Z-0.0100
G01 X0.7136 Y-0.8196 Z-0.0100
G01 X0.7349 Y-0.9660 Z-0.0100
G01 X0.7355 Y-0.9694 Z-0.0100
G01 X0.7611 Y-1.1159 Z-0.0100
G01 X0.7617 Y-1.1195 Z-0.0100
G01 X0.7914 Y-1.2643 Z-0.0100
G01 X0.7922 Y-1.2678 Z-0.0100
G01 X0.8259 Y-1.4110 Z-0.0100
G01 X0.8268 Y-1.4146 Z-0.0100
G01 X0.8648 Y-1.5561 Z-0.0100
G01 X0.8658 Y-1.5597 Z-0.0100
G01 X0.9083 Y-1.7007 Z-0.0100
G01 X0.9094 Y-1.7044 Z-0.0100
G01 X0.9558 Y-1.8425 Z-0.0100
G01 X0.9572 Y-1.8462 Z-0.0100
G01 X1.0083 Y-1.9835 Z-0.0100
G01 X1.0098 Y-1.9872 Z-0.0100
G01 X1.0646 Y-2.1209 Z-0.0100
G01 X1.0662 Y-2.1248 Z-0.0100
G01 X1.1263 Y-2.2584 Z-0.0100
G01 X1.1281 Y-2.2622 Z-0.0100
G01 X1.1919 Y-2.3918 Z-0.0100
G01 X1.1938 Y-2.3956 Z-0.0100
G01 X1.2622 Y-2.5234 Z-0.0100
G01 X1.2644 Y-2.5272 Z-0.0100
G01 X1.3387 Y-2.6548 Z-0.0100
G01 X1.3409 Y-2.6586 Z-0.0100
G01 X1.4185 Y-2.7816 Z-0.0100
G01 X1.4209 Y-2.7853 Z-0.0100
G01 X1.5040 Y-2.9072 Z-0.0100
G01 X1.5067 Y-2.9109 Z-0.0100
G01 X1.5946 Y-3.0303 Z-0.0100
G01 X1.5974 Y-3.0338 Z-0.0100
G01 X1.6905 Y-3.1509 Z-0.0100
G01 X1.6935 Y-3.1545 Z-0.0100
G01 X1.7910 Y-3.2682 Z-0.0100
G01 X1.7940 Y-3.2716 Z-0.0100
G01 X1.8983 Y-3.3844 Z-0.0100
G01 X1.9015 Y-3.3877 Z-0.0100
G01 X2.0102 Y-3.4968 Z-0.0100
G01 X2.0135 Y-3.5000 Z-0.0100
G01 X2.1277 Y-3.6063 Z-0.0100
G01 X2.1311 Y-3.6093 Z-0.0100
G01 X2.2519 Y-3.7138 Z-0.0100
G01 X2.2555 Y-3.7168 Z-0.0100
G01 X2.3819 Y-3.8181 Z-0.0100
G01 X2.3855 Y-3.8209 Z-0.0100
G01 X2.5174 Y-3.9188 Z-0.0100
G01 X2.5210 Y-3.9214 Z-0.0100
G01 X2.6607 Y-4.0174 Z-0.0100
G01 X2.6644 Y-4.0199 Z-0.0100
G01 X2.8094 Y-4.1120 Z-0.0100
G01 X2.8132 Y-4.1143 Z-0.0100
G01 X2.9655 Y-4.2036 Z-0.0100
G01 X2.9692 Y-4.2057 Z-0.0100
G01 X3.1278 Y-4.2914 Z-0.0100
G01 X3.1316 Y-4.2934 Z-0.0100
G01 X3.2983 Y-4.3761 Z-0.0100
G01 X3.3020 Y-4.3779 Z-0.0100
G01 X3.4749 Y-4.4566 Z-0.0100
G01 X3.4787 Y-4.4582 Z-0.0100
G01 X3.6596 Y-4.5333 Z-0.0100
G01 X3.6633 Y-4.5348 Z-0.0100
G01 X3.8513 Y-4.6058 Z-0.0100
G01 X3.8550 Y-4.6071 Z-0.0100
G01 X4.0498 Y-4.6737 Z-0.0100
G01 X4.0535 Y-4.6749 Z-0.0100
G01 X4.2582 Y-4.7379 Z-0.0100
G01 X4.2618 Y-4.7389 Z-0.0100
G01 X4.4744 Y-4.7974 Z-0.0100
G01 X4.4779 Y-4.7983 Z-0.0100
G01 X4.6964 Y-4.8514 Z-0.0100
G01 X4.6998 Y-4.8522 Z-0.0100
G01 X4.9279 Y-4.9009 Z-0.0100
G01 X4.9313 Y-4.9016 Z-0.0100
G01 X5.1680 Y-4.9453 Z-0.0100
G01 X5.1713 Y-4.9458 Z-0.0100
G01 X5.4152 Y-4.9841 Z-0.0100
G01 X5.4190 Y-4.9846 Z-0.0100
G01 X5.5109 Y-4.9961 Z-0.0100
G01 X5.5120 Y-4.9962 Z-0.0100
G01 X5.6005 Y-5.0065 Z-0.0100
G01 X5.6016 Y-5.0066 Z-0.0100
G01 X5.6867 Y-5.0157 Z-0.0100
G01 X5.6877 Y-5.0159 Z-0.0100
G01 X5.7694 Y-5.0239 Z-0.0100
G01 X5.7703 Y-5.0240 Z-0.0100
G01 X5.8488 Y-5.0311 Z-0.0100
G01 X5.8497 Y-5.0312 Z-0.0100
G01 X5.9250 Y-5.0375 Z-0.0100
G01 X5.9256 Y-5.0376 Z-0.0100
G01 X5.9978 Y-5.0433 Z-0.0100
G01 X5.9983 Y-5.0433 Z-0.0100
G01 X6.0673 Y-5.0485 Z-0.0100
G01 X6.0678 Y-5.0485 Z-0.0100
G01 X6.1339 Y-5.0532 Z-0.0100
G01 X6.1972 Y-5.0576 Z-0.0100
G01 X6.2571 Y-5.0618 Z-0.0100
G01 X6.3139 Y-5.0659 Z-0.0100
G01 X6.3688 Y-5.0701 Z-0.0100
G01 X6.4194 Y-5.0744 Z-0.0100
G01 X6.4664 Y-5.0789 Z-0.0100
G01 X6.5134 Y-5.0840 Z-0.0100
G01 X6.5533 Y-5.0892 Z-0.0100
G01 X6.5933 Y-5.0952 Z-0.0100
G01 X6.6287 Y-5.1016 Z-0.0100
G01 X6.6627 Y-5.1089 Z-0.0100
G01 X6.6919 Y-5.1164 Z-0.0100
G01 X6.7192 Y-5.1249 Z-0.0100
G01 X6.7431 Y-5.1338 Z-0.0100
G01 X6.7646 Y-5.1433 Z-0.0100
G01 X6.7836 Y-5.1535 Z-0.0100
G01 X6.8004 Y-5.1642 Z-0.0100
G01 X6.8155 Y-5.1758 Z-0.0100
G01 X6.8290 Y-5.1881 Z-0.0100
G01 X6.8416 Y-5.2019 Z-0.0100
G01 X6.8538 Y-5.2176 Z-0.0100
G01 X6.8650 Y-5.2350 Z-0.0100
G01 X6.8762 Y-5.2560 Z-0.0100
G01 X6.8866 Y-5.2790 Z-0.0100
G01 X6.8968 Y-5.3062 Z-0.0100
G01 X6.9059 Y-5.3356 Z-0.0100
G01 X6.9146 Y-5.3692 Z-0.0100
G01 X6.9229 Y-5.4084 Z-0.0100
G01 X6.9298 Y-5.4480 Z-0.0100
G01 X6.9362 Y-5.4931 Z-0.0100
G01 X6.9419 Y-5.5428 Z-0.0100
G01 X6.9466 Y-5.5946 Z-0.0100
G01 X6.9508 Y-5.6528 Z-0.0100
G01 X6.9542 Y-5.7136 Z-0.0100
G01 X6.9569 Y-5.7785 Z-0.0100
G01 X6.9590 Y-5.8477 Z-0.0100
G01 X6.9598 Y-5.8808 Z-0.0100
G01 X6.9599 Y-5.8843 Z-0.0100
G01 X6.9601 Y-5.8878 Z-0.0100
G01 X6.9604 Y-5.8912 Z-0.0100
G01 X6.9609 Y-5.8948 Z-0.0100
G01 X6.9614 Y-5.8982 Z-0.0100
G01 X6.9620 Y-5.9016 Z-0.0100
G01 X6.9627 Y-5.9051 Z-0.0100
G01 X6.9635 Y-5.9085 Z-0.0100
G01 X6.9644 Y-5.9118 Z-0.0100
G01 X6.9654 Y-5.9152 Z-0.0100
G01 X6.9665 Y-5.9185 Z-0.0100
G01 X6.9677 Y-5.9218 Z-0.0100
G01 X6.9690 Y-5.9251 Z-0.0100
G01 X6.9704 Y-5.9283 Z-0.0100
G01 X6.9718 Y-5.9314 Z-0.0100
G01 X6.9734 Y-5.9346 Z-0.0100
G01 X6.9750 Y-5.9377 Z-0.0100
G01 X6.9768 Y-5.9407 Z-0.0100
G01 X6.9786 Y-5.9437 Z-0.0100
G01 X6.9805 Y-5.9466 Z-0.0100
G01 X6.9825 Y-5.9495 Z-0.0100
G01 X6.9845 Y-5.9524 Z-0.0100
G01 X6.9867 Y-5.9551 Z-0.0100
G01 X6.9889 Y-5.9578 Z-0.0100
G01 X6.9912 Y-5.9605 Z-0.0100
G01 X6.9936 Y-5.9630 Z-0.0100
G01 X6.9960 Y-5.9655 Z-0.0100
G01 X6.9985 Y-5.9680 Z-0.0100
G01 X7.0011 Y-5.9703 Z-0.0100
G01 X7.0037 Y-5.9726 Z-0.0100
G01 X7.0064 Y-5.9748 Z-0.0100
G01 X7.0092 Y-5.9770 Z-0.0100
G01 X7.0120 Y-5.9790 Z-0.0100
G01 X7.0150 Y-5.9810 Z-0.0100
G01 X7.0179 Y-5.9829 Z-0.0100
G01 X7.0209 Y-5.9847 Z-0.0100
G01 X7.0239 Y-5.9864 Z-0.0100
G01 X7.0270 Y-5.9881 Z-0.0100
G01 X7.0301 Y-5.9896 Z-0.0100
G01 X7.0333 Y-5.9911 Z-0.0100
G01 X7.0366 Y-5.9924 Z-0.0100
G01 X7.0398 Y-5.9937 Z-0.0100
G01 X7.0431 Y-5.9949 Z-0.0100
G01 X7.0464 Y-5.9960 Z-0.0100
G01 X7.0498 Y-5.9970 Z-0.0100
G01 X7.0532 Y-5.9979 Z-0.0100
G01 X7.0566 Y-5.9987 Z-0.0100
G01 X7.0600 Y-5.9994 Z-0.0100
G01 X7.0635 Y-6.0000 Z-0.0100
G01 X7.0669 Y-6.0005 Z-0.0100
G01 X7.0704 Y-6.0009 Z-0.0100
G01 X7.0738 Y-6.0012 Z-0.0100
G01 X7.0774 Y-6.0014 Z-0.0100
G01 X7.0809 Y-6.0015 Z-0.0100
G01 X7.0829 Y-6.0016 Z-0.0100
G01 X7.0886 Y-6.0016 Z-0.0100
G01 X7.0973 Y-6.0013 Z-0.0100
G01 X7.1017 Y-6.0011 Z-0.0100
G01 X7.6364 Y-5.9675 Z-0.0100
G01 X8.1688 Y-5.9348 Z-0.0100
G01 X8.1706 Y-5.9347 Z-0.0100
G01 X8.7052 Y-5.9024 Z-0.0100
G01 X9.2399 Y-5.8709 Z-0.0100
G01 X9.7745 Y-5.8399 Z-0.0100
G01 X10.3091 Y-5.8096 Z-0.0100
G01 X10.8405 Y-5.7802 Z-0.0100
G01 X10.8435 Y-5.7801 Z-0.0100
G01 X11.3783 Y-5.7511 Z-0.0100
G01 X11.9132 Y-5.7229 Z-0.0100
G01 X12.4480 Y-5.6953 Z-0.0100
G01 X12.9828 Y-5.6683 Z-0.0100
G01 X13.5152 Y-5.6421 Z-0.0100
G01 X13.5173 Y-5.6420 Z-0.0100
G01 X14.0523 Y-5.6164 Z-0.0100
G01 X14.5874 Y-5.5915 Z-0.0100
G01 X15.1223 Y-5.5672 Z-0.0100
G01 X15.6572 Y-5.5435 Z-0.0100
G01 X16.1922 Y-5.5205 Z-0.0100
G01 X16.7233 Y-5.4984 Z-0.0100
G01 X16.7269 Y-5.4983 Z-0.0100
G01 X17.2621 Y-5.4766 Z-0.0100
G01 X17.7974 Y-5.4556 Z-0.0100
G01 X18.3324 Y-5.4353 Z-0.0100
G01 X18.5039 Y-5.4290 Z-0.0100
G01 X18.8675 Y-5.4156 Z0.0315
G01 X19.2913 Y-5.4005 Z0.0800
G01 X19.4027 Y-5.3966 Z0.0800
G01 X19.9378 Y-5.3783 Z0.0800
G01 X20.0787 Y-5.3736 Z0.0799
G01 X20.4730 Y-5.3606 Z0.0349
G01 X20.8661 Y-5.3480 Z-0.0100
G01 X21.0044 Y-5.3437 Z-0.0100
G01 X21.0079 Y-5.3436 Z-0.0100
G01 X21.5435 Y-5.3273 Z-0.0100
G01 X22.0787 Y-5.3116 Z-0.0100
G01 X22.6140 Y-5.2965 Z-0.0100
G01 X23.1492 Y-5.2822 Z-0.0100
G01 X23.6846 Y-5.2685 Z-0.0100
G01 X24.2199 Y-5.2554 Z-0.0100
G01 X24.7552 Y-5.2430 Z-0.0100
G01 X25.2906 Y-5.2313 Z-0.0100
G01 X25.8259 Y-5.2202 Z-0.0100
G01 X26.3573 Y-5.2099 Z-0.0100
G01 X26.3610 Y-5.2099 Z-0.0100
G01 X26.8965 Y-5.2001 Z-0.0100
G01 X27.4321 Y-5.1911 Z-0.0100
G01 X27.9675 Y-5.1827 Z-0.0100
G01 X28.5029 Y-5.1749 Z-0.0100
G01 X29.0383 Y-5.1679 Z-0.0100
G01 X29.5738 Y-5.1614 Z-0.0100
G01 X30.1092 Y-5.1557 Z-0.0100
G01 X30.6447 Y-5.1506 Z-0.0100
G01 X31.1801 Y-5.1461 Z-0.0100
G01 X31.7156 Y-5.1424 Z-0.0100
G01 X32.2511 Y-5.1392 Z-0.0100
G01 X32.7865 Y-5.1368 Z-0.0100
G01 X33.3220 Y-5.1350 Z-0.0100
G01 X33.8575 Y-5.1339 Z-0.0100
G01 X34.3929 Y-5.1335 Z-0.0100
G01 X34.9281 Y-5.1337 Z-0.0100
G01 X35.4636 Y-5.1345 Z-0.0100
G01 X35.9991 Y-5.1361 Z-0.0100
G01 X36.5346 Y-5.1383 Z-0.0100
G01 X37.0700 Y-5.1411 Z-0.0100
G01 X37.6055 Y-5.1446 Z-0.0100
G01 X38.1410 Y-5.1488 Z-0.0100
G01 X38.6764 Y-5.1537 Z-0.0100
G01 X39.2118 Y-5.1592 Z-0.0100
G01 X39.7473 Y-5.1653 Z-0.0100
G01 X40.2827 Y-5.1722 Z-0.0100
G01 X40.8181 Y-5.1797 Z-0.0100
G01 X41.3536 Y-5.1878 Z-0.0100
G01 X41.8890 Y-5.1966 Z-0.0100
G01 X42.4246 Y-5.2061 Z-0.0100
G01 X42.4284 Y-5.2061 Z-0.0100
G01 X42.9598 Y-5.2162 Z-0.0100
G01 X43.4951 Y-5.2270 Z-0.0100
G01 X44.0305 Y-5.2385 Z-0.0100
G01 X44.5658 Y-5.2506 Z-0.0100
G01 X45.1011 Y-5.2635 Z-0.0100
G01 X45.2755 Y-5.2678 Z-0.0099
G01 X45.6364 Y-5.2769 Z0.0312
G01 X46.0629 Y-5.2881 Z0.0800
G01 X46.1717 Y-5.2910 Z0.0800
G01 X46.7070 Y-5.3058 Z0.0800
G01 X46.8503 Y-5.3099 Z0.0800
G01 X47.2422 Y-5.3212 Z0.0351
G01 X47.6377 Y-5.3331 Z-0.0100
G01 X47.7776 Y-5.3374 Z-0.0100
G01 X48.3130 Y-5.3541 Z-0.0100
G01 X48.3163 Y-5.3542 Z-0.0100
G01 X48.8479 Y-5.3715 Z-0.0100
G01 X49.3831 Y-5.3896 Z-0.0100
G01 X49.9182 Y-5.4084 Z-0.0100
G01 X50.4533 Y-5.4278 Z-0.0100
G01 X50.9884 Y-5.4479 Z-0.0100
G01 X51.5235 Y-5.4687 Z-0.0100
G01 X52.0588 Y-5.4900 Z-0.0100
G01 X52.0624 Y-5.4901 Z-0.0100
G01 X52.5936 Y-5.5120 Z-0.0100
G01 X53.1286 Y-5.5348 Z-0.0100
G01 X53.6635 Y-5.5582 Z-0.0100
G01 X54.1985 Y-5.5822 Z-0.0100
G01 X54.7335 Y-5.6070 Z-0.0100
G01 X55.2685 Y-5.6323 Z-0.0100
G01 X55.2708 Y-5.6324 Z-0.0100
G01 X55.8031 Y-5.6583 Z-0.0100
G01 X56.3379 Y-5.6850 Z-0.0100
G01 X56.8727 Y-5.7124 Z-0.0100
G01 X57.4076 Y-5.7404 Z-0.0100
G01 X57.9424 Y-5.7691 Z-0.0100
G01 X57.9455 Y-5.7692 Z-0.0100
G01 X58.4768 Y-5.7984 Z-0.0100
G01 X59.0114 Y-5.8284 Z-0.0100
G01 X59.5460 Y-5.8591 Z-0.0100
G01 X60.0807 Y-5.8905 Z-0.0100
G01 X60.6155 Y-5.9224 Z-0.0100
G01 X60.6200 Y-5.9226 Z-0.0100
G01 X60.6287 Y-5.9228 Z-0.0100
G01 X60.6315 Y-5.9229 Z-0.0100
G01 X60.6323 Y-5.9229 Z-0.0100
G01 X60.6358 Y-5.9228 Z-0.0100
G01 X60.6394 Y-5.9227 Z-0.0100
G01 X60.6429 Y-5.9224 Z-0.0100
G01 X60.6464 Y-5.9220 Z-0.0100
G01 X60.6500 Y-5.9216 Z-0.0100
G01 X60.6535 Y-5.9210 Z-0.0100
G01 X60.6570 Y-5.9204 Z-0.0100
G01 X60.6604 Y-5.9196 Z-0.0100
G01 X60.6639 Y-5.9187 Z-0.0100
G01 X60.6673 Y-5.9178 Z-0.0100
G01 X60.6707 Y-5.9167 Z-0.0100
G01 X60.6740 Y-5.9156 Z-0.0100
G01 X60.6774 Y-5.9143 Z-0.0100
G01 X60.6807 Y-5.9130 Z-0.0100
G01 X60.6839 Y-5.9115 Z-0.0100
G01 X60.6871 Y-5.9100 Z-0.0100
G01 X60.6903 Y-5.9084 Z-0.0100
G01 X60.6934 Y-5.9067 Z-0.0100
G01 X60.6964 Y-5.9049 Z-0.0100
G01 X60.6995 Y-5.9030 Z-0.0100
G01 X60.7024 Y-5.9010 Z-0.0100
G01 X60.7053 Y-5.8989 Z-0.0100
G01 X60.7081 Y-5.8968 Z-0.0100
G01 X60.7109 Y-5.8946 Z-0.0100
G01 X60.7136 Y-5.8923 Z-0.0100
G01 X60.7162 Y-5.8899 Z-0.0100
G01 X60.7188 Y-5.8874 Z-0.0100
G01 X60.7213 Y-5.8849 Z-0.0100
G01 X60.7237 Y-5.8823 Z-0.0100
G01 X60.7261 Y-5.8797 Z-0.0100
G01 X60.7284 Y-5.8769 Z-0.0100
G01 X60.7305 Y-5.8741 Z-0.0100
G01 X60.7327 Y-5.8713 Z-0.0100
G01 X60.7347 Y-5.8683 Z-0.0100
G01 X60.7366 Y-5.8654 Z-0.0100
G01 X60.7385 Y-5.8624 Z-0.0100
G01 X60.7403 Y-5.8593 Z-0.0100
G01 X60.7419 Y-5.8561 Z-0.0100
G01 X60.7435 Y-5.8529 Z-0.0100
G01 X60.7450 Y-5.8498 Z-0.0100
G01 X60.7464 Y-5.8465 Z-0.0100
G01 X60.7477 Y-5.8432 Z-0.0100
G01 X60.7489 Y-5.8398 Z-0.0100
G01 X60.7500 Y-5.8364 Z-0.0100
G01 X60.7511 Y-5.8331 Z-0.0100
G01 X60.7520 Y-5.8296 Z-0.0100
G01 X60.7528 Y-5.8262 Z-0.0100
G01 X60.7535 Y-5.8227 Z-0.0100
G01 X60.7541 Y-5.8192 Z-0.0100
G01 X60.7547 Y-5.8157 Z-0.0100
G01 X60.7551 Y-5.8122 Z-0.0100
G01 X60.7554 Y-5.8086 Z-0.0100
G01 X60.7556 Y-5.8051 Z-0.0100
G01 X60.7557 Y-5.8015 Z-0.0100
G01 X60.7563 Y-5.7694 Z-0.0100
G01 X60.7580 Y-5.7007 Z-0.0100
G01 X60.7601 Y-5.6378 Z-0.0100
G01 X60.7630 Y-5.5762 Z-0.0100
G01 X60.7664 Y-5.5205 Z-0.0100
G01 X60.7704 Y-5.4696 Z-0.0100
G01 X60.7752 Y-5.4220 Z-0.0100
G01 X60.7808 Y-5.3777 Z-0.0100
G01 X60.7871 Y-5.3377 Z-0.0100
G01 X60.7940 Y-5.3022 Z-0.0100
G01 X60.8018 Y-5.2692 Z-0.0100
G01 X60.8103 Y-5.2397 Z-0.0100
G01 X60.8192 Y-5.2146 Z-0.0100
G01 X60.8284 Y-5.1928 Z-0.0100
G01 X60.8384 Y-5.1733 Z-0.0100
G01 X60.8487 Y-5.1566 Z-0.0100
G01 X60.8590 Y-5.1425 Z-0.0100
G01 X60.8707 Y-5.1292 Z-0.0100
G01 X60.8826 Y-5.1180 Z-0.0100
G01 X60.8966 Y-5.1069 Z-0.0100
G01 X60.9120 Y-5.0966 Z-0.0100
G01 X60.9293 Y-5.0868 Z-0.0100
G01 X60.9501 Y-5.0770 Z-0.0100
G01 X60.9726 Y-5.0679 Z-0.0100
G01 X60.9985 Y-5.0590 Z-0.0100
G01 X61.0269 Y-5.0507 Z-0.0100
G01 X61.0585 Y-5.0426 Z-0.0100
G01 X61.0942 Y-5.0347 Z-0.0100
G01 X61.1318 Y-5.0272 Z-0.0100
G01 X61.1709 Y-5.0202 Z-0.0100
G01 X61.2149 Y-5.0131 Z-0.0100
G01 X61.2625 Y-5.0057 Z-0.0100
G01 X61.3120 Y-4.9985 Z-0.0100
G01 X61.3642 Y-4.9910 Z-0.0100
G01 X61.4199 Y-4.9831 Z-0.0100
G01 X61.4785 Y-4.9748 Z-0.0100
G01 X61.5402 Y-4.9658 Z-0.0100
G01 X61.5408 Y-4.9657 Z-0.0100
G01 X61.6050 Y-4.9560 Z-0.0100
G01 X61.6058 Y-4.9559 Z-0.0100
G01 X61.6730 Y-4.9453 Z-0.0100
G01 X61.6740 Y-4.9452 Z-0.0100
G01 X61.7444 Y-4.9336 Z-0.0100
G01 X61.7453 Y-4.9334 Z-0.0100
G01 X61.8188 Y-4.9207 Z-0.0100
G01 X61.8199 Y-4.9205 Z-0.0100
G01 X61.8966 Y-4.9065 Z-0.0100
G01 X61.8978 Y-4.9062 Z-0.0100
G01 X61.9778 Y-4.8908 Z-0.0100
G01 X61.9791 Y-4.8905 Z-0.0100
G01 X62.0624 Y-4.8735 Z-0.0100
G01 X62.0638 Y-4.8732 Z-0.0100
G01 X62.1505 Y-4.8545 Z-0.0100
G01 X62.1519 Y-4.8542 Z-0.0100
G01 X62.2421 Y-4.8337 Z-0.0100
G01 X62.2470 Y-4.8324 Z-0.0100
G01 X62.4157 Y-4.7868 Z-0.0100
G01 X62.4199 Y-4.7856 Z-0.0100
G01 X62.5814 Y-4.7357 Z-0.0100
G01 X62.5856 Y-4.7343 Z-0.0100
G01 X62.7410 Y-4.6801 Z-0.0100
G01 X62.7452 Y-4.6786 Z-0.0100
G01 X62.8939 Y-4.6207 Z-0.0100
G01 X62.8981 Y-4.6189 Z-0.0100
G01 X63.0416 Y-4.5567 Z-0.0100
G01 X63.0458 Y-4.5548 Z-0.0100
G01 X63.1846 Y-4.4883 Z-0.0100
G01 X63.1889 Y-4.4862 Z-0.0100
G01 X63.3206 Y-4.4168 Z-0.0100
G01 X63.3247 Y-4.4145 Z-0.0100
G01 X63.4514 Y-4.3414 Z-0.0100
G01 X63.4556 Y-4.3390 Z-0.0100
G01 X63.5786 Y-4.2615 Z-0.0100
G01 X63.5826 Y-4.2589 Z-0.0100
G01 X63.6992 Y-4.1790 Z-0.0100
G01 X63.7031 Y-4.1762 Z-0.0100
G01 X63.8161 Y-4.0922 Z-0.0100
G01 X63.8199 Y-4.0893 Z-0.0100
G01 X63.9272 Y-4.0028 Z-0.0100
G01 X63.9309 Y-3.9998 Z-0.0100
G01 X64.0349 Y-3.9091 Z-0.0100
G01 X64.0384 Y-3.9059 Z-0.0100
G01 X64.1371 Y-3.8129 Z-0.0100
G01 X64.1405 Y-3.8096 Z-0.0100
G01 X64.2360 Y-3.7125 Z-0.0100
G01 X64.2391 Y-3.7092 Z-0.0100
G01 X64.3292 Y-3.6105 Z-0.0100
G01 X64.3323 Y-3.6070 Z-0.0100
G01 X64.4200 Y-3.5035 Z-0.0100
G01 X64.4229 Y-3.5000 Z-0.0100
G01 X64.5062 Y-3.3938 Z-0.0100
G01 X64.5089 Y-3.3903 Z-0.0100
G01 X64.5883 Y-3.2815 Z-0.0100
G01 X64.5908 Y-3.2779 Z-0.0100
G01 X64.6664 Y-3.1661 Z-0.0100
G01 X64.6687 Y-3.1625 Z-0.0100
G01 X64.7410 Y-3.0474 Z-0.0100
G01 X64.7431 Y-3.0438 Z-0.0100
G01 X64.8116 Y-2.9262 Z-0.0100
G01 X64.8136 Y-2.9225 Z-0.0100
G01 X64.8782 Y-2.8024 Z-0.0100
G01 X64.8800 Y-2.7989 Z-0.0100
G01 X64.9416 Y-2.6751 Z-0.0100
G01 X64.9432 Y-2.6716 Z-0.0100
G01 X65.0015 Y-2.5445 Z-0.0100
G01 X65.0031 Y-2.5411 Z-0.0100
G01 X65.0568 Y-2.4139 Z-0.0100
G01 X65.0581 Y-2.4105 Z-0.0100
G01 X65.1096 Y-2.2778 Z-0.0100
G01 X65.1108 Y-2.2745 Z-0.0100
G01 X65.1579 Y-2.1418 Z-0.0100
G01 X65.1590 Y-2.1385 Z-0.0100
G01 X65.2027 Y-2.0035 Z-0.0100
G01 X65.2037 Y-2.0003 Z-0.0100
G01 X65.2446 Y-1.8610 Z-0.0100
G01 X65.2455 Y-1.8579 Z-0.0100
G01 X65.2826 Y-1.7179 Z-0.0100
G01 X65.2834 Y-1.7148 Z-0.0100
G01 X65.3171 Y-1.5729 Z-0.0100
G01 X65.3177 Y-1.5699 Z-0.0100
G01 X65.3480 Y-1.4263 Z-0.0100
G01 X65.3486 Y-1.4235 Z-0.0100
G01 X65.3757 Y-1.2781 Z-0.0100
G01 X65.3762 Y-1.2752 Z-0.0100
G01 X65.4001 Y-1.1268 Z-0.0100
G01 X65.4005 Y-1.1240 Z-0.0100
G01 X65.4208 Y-0.9775 Z-0.0100
G01 X65.4211 Y-0.9747 Z-0.0100
G01 X65.4385 Y-0.8234 Z-0.0100
G01 X65.4388 Y-0.8207 Z-0.0100
G01 X65.4524 Y-0.6741 Z-0.0100
G01 X65.4526 Y-0.6715 Z-0.0100
G01 X65.4637 Y-0.5166 Z-0.0100
G01 X65.4638 Y-0.5140 Z-0.0100
G01 X65.4714 Y-0.3618 Z-0.0100
G01 X65.4716 Y-0.3593 Z-0.0100
G01 X65.4761 Y-0.2070 Z-0.0100
G01 X65.4762 Y-0.2046 Z-0.0100
G01 X65.4777 Y-0.0512 Z-0.0100
G01 X65.4777 Y0.0512 Z-0.0100
G01 X65.4762 Y0.2046 Z-0.0100
G01 X65.4761 Y0.2070 Z-0.0100
G01 X65.4716 Y0.3593 Z-0.0100
G01 X65.4714 Y0.3618 Z-0.0100
G01 X65.4638 Y0.5140 Z-0.0100
G01 X65.4637 Y0.5166 Z-0.0100
G01 X65.4527 Y0.6703 Z-0.0100
G01 X65.4525 Y0.6730 Z-0.0100
G01 X65.4388 Y0.8207 Z-0.0100
G01 X65.4385 Y0.8234 Z-0.0100
G01 X65.4211 Y0.9747 Z-0.0100
G01 X65.4208 Y0.9775 Z-0.0100
G01 X65.4005 Y1.1240 Z-0.0100
G01 X65.4001 Y1.1268 Z-0.0100
G01 X65.3762 Y1.2752 Z-0.0100
G01 X65.3757 Y1.2781 Z-0.0100
G01 X65.3486 Y1.4235 Z-0.0100
G01 X65.3480 Y1.4263 Z-0.0100
G01 X65.3177 Y1.5699 Z-0.0100
G01 X65.3171 Y1.5729 Z-0.0100
G01 X65.2834 Y1.7148 Z-0.0100
G01 X65.2826 Y1.7179 Z-0.0100
G01 X65.2455 Y1.8579 Z-0.0100
G01 X65.2446 Y1.8610 Z-0.0100
G01 X65.2037 Y2.0003 Z-0.0100
G01 X65.2027 Y2.0035 Z-0.0100
G01 X65.1590 Y2.1385 Z-0.0100
G01 X65.1579 Y2.1418 Z-0.0100
G01 X65.1108 Y2.2745 Z-0.0100
G01 X65.1096 Y2.2778 Z-0.0100
G01 X65.0581 Y2.4105 Z-0.0100
G01 X65.0568 Y2.4139 Z-0.0100
G01 X65.0031 Y2.5411 Z-0.0100
G01 X65.0015 Y2.5445 Z-0.0100
G01 X64.9432 Y2.6716 Z-0.0100
G01 X64.9416 Y2.6751 Z-0.0100
G01 X64.8800 Y2.7989 Z-0.0100
G01 X64.8782 Y2.8024 Z-0.0100
G01 X64.8136 Y2.9225 Z-0.0100
G01 X64.8116 Y2.9262 Z-0.0100
G01 X64.7431 Y3.0438 Z-0.0100
G01 X64.7410 Y3.0474 Z-0.0100
G01 X64.6687 Y3.1625 Z-0.0100
G01 X64.6664 Y3.1661 Z-0.0100
G01 X64.5908 Y3.2779 Z-0.0100
G01 X64.5883 Y3.2815 Z-0.0100
G01 X64.5089 Y3.3903 Z-0.0100
G01 X64.5062 Y3.3938 Z-0.0100
G01 X64.4229 Y3.5000 Z-0.0100
G01 X64.4200 Y3.5035 Z-0.0100
G01 X64.3323 Y3.6070 Z-0.0100
G01 X64.3292 Y3.6105 Z-0.0100
G01 X64.2391 Y3.7092 Z-0.0100
G01 X64.2360 Y3.7125 Z-0.0100
G01 X64.1405 Y3.8096 Z-0.0100
G01 X64.1371 Y3.8129 Z-0.0100
G01 X64.0384 Y3.9059 Z-0.0100
G01 X64.0349 Y3.9091 Z-0.0100
G01 X63.9309 Y3.9998 Z-0.0100
G01 X63.9272 Y4.0028 Z-0.0100
G01 X63.8199 Y4.0893 Z-0.0100
G01 X63.8161 Y4.0922 Z-0.0100
G01 X63.7031 Y4.1762 Z-0.0100
G01 X63.6992 Y4.1790 Z-0.0100
G01 X63.5826 Y4.2589 Z-0.0100
G01 X63.5786 Y4.2615 Z-0.0100
G01 X63.4556 Y4.3390 Z-0.0100
G01 X63.4514 Y4.3414 Z-0.0100
G01 X63.3247 Y4.4145 Z-0.0100
G01 X63.3206 Y4.4168 Z-0.0100
G01 X63.1889 Y4.4862 Z-0.0100
G01 X63.1846 Y4.4883 Z-0.0100
G01 X63.0458 Y4.5548 Z-0.0100
G01 X63.0416 Y4.5567 Z-0.0100
G01 X62.8981 Y4.6189 Z-0.0100
G01 X62.8939 Y4.6207 Z-0.0100
G01 X62.7452 Y4.6786 Z-0.0100
G01 X62.7410 Y4.6801 Z-0.0100
G01 X62.5856 Y4.7343 Z-0.0100
G01 X62.5814 Y4.7357 Z-0.0100
G01 X62.4199 Y4.7856 Z-0.0100
G01 X62.4157 Y4.7868 Z-0.0100
G01 X62.2470 Y4.8324 Z-0.0100
G01 X62.2421 Y4.8337 Z-0.0100
G01 X62.1519 Y4.8542 Z-0.0100
G01 X62.1505 Y4.8545 Z-0.0100
G01 X62.0638 Y4.8732 Z-0.0100
G01 X62.0624 Y4.8735 Z-0.0100
G01 X61.9791 Y4.8905 Z-0.0100
G01 X61.9778 Y4.8908 Z-0.0100
G01 X61.8978 Y4.9062 Z-0.0100
G01 X61.8966 Y4.9065 Z-0.0100
G01 X61.8199 Y4.9205 Z-0.0100
G01 X61.8188 Y4.9207 Z-0.0100
G01 X61.7453 Y4.9334 Z-0.0100
G01 X61.7444 Y4.9336 Z-0.0100
G01 X61.6740 Y4.9452 Z-0.0100
G01 X61.6730 Y4.9453 Z-0.0100
G01 X61.6058 Y4.9559 Z-0.0100
G01 X61.6050 Y4.9560 Z-0.0100
G01 X61.5408 Y4.9657 Z-0.0100
G01 X61.5402 Y4.9658 Z-0.0100
G01 X61.4788 Y4.9747 Z-0.0100
G01 X61.4201 Y4.9831 Z-0.0100
G01 X61.3642 Y4.9910 Z-0.0100
G01 X61.3120 Y4.9985 Z-0.0100
G01 X61.2625 Y5.0057 Z-0.0100
G01 X61.2149 Y5.0131 Z-0.0100
G01 X61.1709 Y5.0202 Z-0.0100
G01 X61.1318 Y5.0272 Z-0.0100
G01 X61.0942 Y5.0347 Z-0.0100
G01 X61.0585 Y5.0426 Z-0.0100
G01 X61.0269 Y5.0507 Z-0.0100
G01 X60.9985 Y5.0590 Z-0.0100
G01 X60.9726 Y5.0679 Z-0.0100
G01 X60.9501 Y5.0770 Z-0.0100
G01 X60.9293 Y5.0868 Z-0.0100
G01 X60.9120 Y5.0966 Z-0.0100
G01 X60.8966 Y5.1069 Z-0.0100
G01 X60.8826 Y5.1180 Z-0.0100
G01 X60.8707 Y5.1292 Z-0.0100
G01 X60.8590 Y5.1425 Z-0.0100
G01 X60.8487 Y5.1566 Z-0.0100
G01 X60.8384 Y5.1733 Z-0.0100
G01 X60.8284 Y5.1928 Z-0.0100
G01 X60.8192 Y5.2146 Z-0.0100
G01 X60.8105 Y5.2393 Z-0.0100
G01 X60.8018 Y5.2692 Z-0.0100
G01 X60.7940 Y5.3021 Z-0.0100
G01 X60.7871 Y5.3374 Z-0.0100
G01 X60.7809 Y5.3773 Z-0.0100
G01 X60.7752 Y5.4220 Z-0.0100
G01 X60.7705 Y5.4687 Z-0.0100
G01 X60.7664 Y5.5202 Z-0.0100
G01 X60.7630 Y5.5762 Z-0.0100
G01 X60.7601 Y5.6378 Z-0.0100
G01 X60.7580 Y5.7007 Z-0.0100
G01 X60.7579 Y5.7019 Z-0.0100
G01 X60.7563 Y5.7694 Z-0.0100
G01 X60.7557 Y5.8015 Z-0.0100
G01 X60.7556 Y5.8051 Z-0.0100
G01 X60.7554 Y5.8086 Z-0.0100
G01 X60.7551 Y5.8122 Z-0.0100
G01 X60.7547 Y5.8157 Z-0.0100
G01 X60.7541 Y5.8192 Z-0.0100
G01 X60.7535 Y5.8227 Z-0.0100
G01 X60.7528 Y5.8262 Z-0.0100
G01 X60.7520 Y5.8296 Z-0.0100
G01 X60.7511 Y5.8331 Z-0.0100
G01 X60.7500 Y5.8364 Z-0.0100
G01 X60.7489 Y5.8398 Z-0.0100
G01 X60.7477 Y5.8432 Z-0.0100
G01 X60.7464 Y5.8465 Z-0.0100
G01 X60.7450 Y5.8498 Z-0.0100
G01 X60.7435 Y5.8529 Z-0.0100
G01 X60.7419 Y5.8561 Z-0.0100
G01 X60.7403 Y5.8593 Z-0.0100
G01 X60.7385 Y5.8624 Z-0.0100
G01 X60.7366 Y5.8654 Z-0.0100
G01 X60.7347 Y5.8683 Z-0.0100
G01 X60.7327 Y5.8713 Z-0.0100
G01 X60.7305 Y5.8741 Z-0.0100
G01 X60.7284 Y5.8769 Z-0.0100
G01 X60.7261 Y5.8797 Z-0.0100
G01 X60.7237 Y5.8823 Z-0.0100
G01 X60.7213 Y5.8849 Z-0.0100
G01 X60.7188 Y5.8874 Z-0.0100
G01 X60.7162 Y5.8899 Z-0.0100
G01 X60.7136 Y5.8923 Z-0.0100
G01 X60.7109 Y5.8946 Z-0.0100
G01 X60.7081 Y5.8968 Z-0.0100
G01 X60.7053 Y5.8989 Z-0.0100
G01 X60.7024 Y5.9010 Z-0.0100
G01 X60.6995 Y5.9030 Z-0.0100
G01 X60.6964 Y5.9049 Z-0.0100
G01 X60.6934 Y5.9067 Z-0.0100
G01 X60.6903 Y5.9084 Z-0.0100
G01 X60.6871 Y5.9100 Z-0.0100
G01 X60.6839 Y5.9115 Z-0.0100
G01 X60.6807 Y5.9130 Z-0.0100
G01 X60.6774 Y5.9143 Z-0.0100
G01 X60.6740 Y5.9156 Z-0.0100
G01 X60.6707 Y5.9167 Z-0.0100
G01 X60.6673 Y5.9178 Z-0.0100
G01 X60.6639 Y5.9187 Z-0.0100
G01 X60.6604 Y5.9196 Z-0.0100
G01 X60.6570 Y5.9204 Z-0.0100
G01 X60.6535 Y5.9210 Z-0.0100
G01 X60.6500 Y5.9216 Z-0.0100
G01 X60.6464 Y5.9220 Z-0.0100
G01 X60.6429 Y5.9224 Z-0.0100
G01 X60.6394 Y5.9227 Z-0.0100
G01 X60.6358 Y5.9228 Z-0.0100
G01 X60.6323 Y5.9229 Z-0.0100
G01 X60.6315 Y5.9229 Z-0.0100
G01 X60.6287 Y5.9228 Z-0.0100
G01 X60.6200 Y5.9226 Z-0.0100
G01 X60.6155 Y5.9224 Z-0.0100
G01 X60.0807 Y5.8904 Z-0.0100
G01 X59.5460 Y5.8591 Z-0.0100
G01 X59.0114 Y5.8284 Z-0.0100
G01 X58.4768 Y5.7984 Z-0.0100
G01 X57.9455 Y5.7692 Z-0.0100
G01 X57.9424 Y5.7691 Z-0.0100
G01 X57.4076 Y5.7404 Z-0.0100
G01 X56.8727 Y5.7124 Z-0.0100
G01 X56.3379 Y5.6850 Z-0.0100
G01 X55.8031 Y5.6583 Z-0.0100
G01 X55.2708 Y5.6324 Z-0.0100
G01 X55.2685 Y5.6323 Z-0.0100
G01 X54.7335 Y5.6069 Z-0.0100
G01 X54.1985 Y5.5822 Z-0.0100
G01 X53.6635 Y5.5582 Z-0.0100
G01 X53.1286 Y5.5348 Z-0.0100
G01 X52.5936 Y5.5120 Z-0.0100
G01 X52.0625 Y5.4901 Z-0.0100
G01 X52.0588 Y5.4900 Z-0.0100
G01 X51.5235 Y5.4687 Z-0.0100
G01 X50.9884 Y5.4479 Z-0.0100
G01 X50.4533 Y5.4278 Z-0.0100
G01 X49.9182 Y5.4084 Z-0.0100
G01 X49.3831 Y5.3896 Z-0.0100
G01 X48.8479 Y5.3715 Z-0.0100
G01 X48.3163 Y5.3542 Z-0.0100
G01 X48.3130 Y5.3541 Z-0.0100
G01 X47.7776 Y5.3374 Z-0.0100
G01 X47.6377 Y5.3331 Z-0.0100
G01 X47.2422 Y5.3212 Z0.0351
G01 X46.8503 Y5.3099 Z0.0800
G01 X46.7070 Y5.3058 Z0.0800
G01 X46.1717 Y5.2910 Z0.0800
G01 X46.0629 Y5.2881 Z0.0800
G01 X45.6364 Y5.2769 Z0.0312
G01 X45.2755 Y5.2678 Z-0.0099
G01 X45.1011 Y5.2635 Z-0.0100
G01 X44.5658 Y5.2506 Z-0.0100
G01 X44.0305 Y5.2385 Z-0.0100
G01 X43.4951 Y5.2270 Z-0.0100
G01 X42.9598 Y5.2162 Z-0.0100
G01 X42.4284 Y5.2061 Z-0.0100
G01 X42.4246 Y5.2061 Z-0.0100
G01 X41.8890 Y5.1966 Z-0.0100
G01 X41.3536 Y5.1878 Z-0.0100
G01 X40.8181 Y5.1797 Z-0.0100
G01 X40.2827 Y5.1722 Z-0.0100
G01 X39.7473 Y5.1653 Z-0.0100
G01 X39.2118 Y5.1592 Z-0.0100
G01 X38.6764 Y5.1537 Z-0.0100
G01 X38.1410 Y5.1488 Z-0.0100
G01 X37.6055 Y5.1446 Z-0.0100
G01 X37.0700 Y5.1411 Z-0.0100
G01 X36.5346 Y5.1383 Z-0.0100
G01 X35.9991 Y5.1361 Z-0.0100
G01 X35.4636 Y5.1345 Z-0.0100
G01 X34.9281 Y5.1337 Z-0.0100
G01 X34.3929 Y5.1335 Z-0.0100
G01 X33.8575 Y5.1339 Z-0.0100
G01 X33.3220 Y5.1350 Z-0.0100
G01 X32.7865 Y5.1368 Z-0.0100
G01 X32.2511 Y5.1392 Z-0.0100
G01 X31.7156 Y5.1424 Z-0.0100
G01 X31.1801 Y5.1461 Z-0.0100
G01 X30.6447 Y5.1506 Z-0.0100
G01 X30.1092 Y5.1557 Z-0.0100
G01 X29.5738 Y5.1614 Z-0.0100
G01 X29.0383 Y5.1679 Z-0.0100
G01 X28.5029 Y5.1749 Z-0.0100
G01 X27.9675 Y5.1827 Z-0.0100
G01 X27.4321 Y5.1911 Z-0.0100
G01 X26.8965 Y5.2001 Z-0.0100
G01 X26.3610 Y5.2099 Z-0.0100
G01 X26.3575 Y5.2099 Z-0.0100
G01 X25.8259 Y5.2202 Z-0.0100
G01 X25.2906 Y5.2313 Z-0.0100
G01 X24.7552 Y5.2430 Z-0.0100
G01 X24.2199 Y5.2554 Z-0.0100
G01 X23.6846 Y5.2685 Z-0.0100
G01 X23.1492 Y5.2822 Z-0.0100
G01 X22.6140 Y5.2965 Z-0.0100
G01 X22.0787 Y5.3116 Z-0.0100
G01 X21.5435 Y5.3273 Z-0.0100
G01 X21.0079 Y5.3436 Z-0.0100
G01 X21.0044 Y5.3437 Z-0.0100
G01 X20.8661 Y5.3480 Z-0.0100
G01 X20.4730 Y5.3606 Z0.0349
G01 X20.0787 Y5.3736 Z0.0799
G01 X19.9378 Y5.3783 Z0.0800
G01 X19.4027 Y5.3966 Z0.0800
G01 X19.2913 Y5.4005 Z0.0800
G01 X18.8675 Y5.4156 Z0.0315
G01 X18.5039 Y5.4290 Z-0.0100
G01 X18.3324 Y5.4353 Z-0.0100
G01 X17.7974 Y5.4556 Z-0.0100
G01 X17.2621 Y5.4766 Z-0.0100
G01 X16.7269 Y5.4983 Z-0.0100
G01 X16.7234 Y5.4984 Z-0.0100
G01 X16.1922 Y5.5205 Z-0.0100
G01 X15.6572 Y5.5435 Z-0.0100
G01 X15.1223 Y5.5672 Z-0.0100
G01 X14.5874 Y5.5915 Z-0.0100
G01 X14.0523 Y5.6164 Z-0.0100
G01 X13.5173 Y5.6420 Z-0.0100
G01 X13.5152 Y5.6421 Z-0.0100
G01 X12.9828 Y5.6683 Z-0.0100
G01 X12.4480 Y5.6953 Z-0.0100
G01 X11.9132 Y5.7229 Z-0.0100
G01 X11.3783 Y5.7512 Z-0.0100
G01 X10.8435 Y5.7801 Z-0.0100
G01 X10.8405 Y5.7802 Z-0.0100
G01 X10.3091 Y5.8096 Z-0.0100
G01 X9.7745 Y5.8399 Z-0.0100
G01 X9.2399 Y5.8709 Z-0.0100
G01 X8.7052 Y5.9024 Z-0.0100
G01 X8.1706 Y5.9347 Z-0.0100
G01 X8.1688 Y5.9348 Z-0.0100
G01 X7.6364 Y5.9675 Z-0.0100
G01 X7.1017 Y6.0011 Z-0.0100
G01 X7.0973 Y6.0013 Z-0.0100
G01 X7.0886 Y6.0016 Z-0.0100
G01 X7.0829 Y6.0016 Z-0.0100
G01 X7.0809 Y6.0015 Z-0.0100
G01 X7.0774 Y6.0014 Z-0.0100
G01 X7.0738 Y6.0012 Z-0.0100
G01 X7.0704 Y6.0009 Z-0.0100
G01 X7.0669 Y6.0005 Z-0.0100
G01 X7.0635 Y6.0000 Z-0.0100
G01 X7.0600 Y5.9994 Z-0.0100
G01 X7.0566 Y5.9987 Z-0.0100
G01 X7.0532 Y5.9979 Z-0.0100
G01 X7.0498 Y5.9970 Z-0.0100
G01 X7.0464 Y5.9960 Z-0.0100
G01 X7.0431 Y5.9949 Z-0.0100
G01 X7.0398 Y5.9937 Z-0.0100
G01 X7.0366 Y5.9924 Z-0.0100
G01 X7.0333 Y5.9911 Z-0.0100
G01 X7.0301 Y5.9896 Z-0.0100
G01 X7.0270 Y5.9881 Z-0.0100
G01 X7.0239 Y5.9864 Z-0.0100
G01 X7.0209 Y5.9847 Z-0.0100
G01 X7.0179 Y5.9829 Z-0.0100
G01 X7.0150 Y5.9810 Z-0.0100
G01 X7.0120 Y5.9790 Z-0.0100
G01 X7.0092 Y5.9770 Z-0.0100
G01 X7.0064 Y5.9748 Z-0.0100
G01 X7.0037 Y5.9726 Z-0.0100
G01 X7.0011 Y5.9703 Z-0.0100
G01 X6.9985 Y5.9680 Z-0.0100
G01 X6.9960 Y5.9655 Z-0.0100
G01 X6.9936 Y5.9630 Z-0.0100
G01 X6.9912 Y5.9605 Z-0.0100
G01 X6.9889 Y5.9578 Z-0.0100
G01 X6.9867 Y5.9551 Z-0.0100
G01 X6.9845 Y5.9524 Z-0.0100
G01 X6.9825 Y5.9495 Z-0.0100
G01 X6.9805 Y5.9466 Z-0.0100
G01 X6.9786 Y5.9437 Z-0.0100
G01 X6.9768 Y5.9407 Z-0.0100
G01 X6.9750 Y5.9377 Z-0.0100
G01 X6.9734 Y5.9346 Z-0.0100
G01 X6.9718 Y5.9314 Z-0.0100
G01 X6.9704 Y5.9283 Z-0.0100
G01 X6.9690 Y5.9251 Z-0.0100
G01 X6.9677 Y5.9218 Z-0.0100
G01 X6.9665 Y5.9185 Z-0.0100
G01 X6.9654 Y5.9152 Z-0.0100
G01 X6.9644 Y5.9118 Z-0.0100
G01 X6.9635 Y5.9085 Z-0.0100
G01 X6.9627 Y5.9051 Z-0.0100
G01 X6.9620 Y5.9016 Z-0.0100
G01 X6.9614 Y5.8982 Z-0.0100
G01 X6.9609 Y5.8948 Z-0.0100
G01 X6.9604 Y5.8912 Z-0.0100
G01 X6.9601 Y5.8878 Z-0.0100
G01 X6.9599 Y5.8843 Z-0.0100
G01 X6.9598 Y5.8808 Z-0.0100
G01 X6.9590 Y5.8465 Z-0.0100
G01 X6.9568 Y5.7771 Z-0.0100
G01 X6.9541 Y5.7130 Z-0.0100
G01 X6.9508 Y5.6528 Z-0.0100
G01 X6.9465 Y5.5938 Z-0.0100
G01 X6.9420 Y5.5436 Z-0.0100
G01 X6.9419 Y5.5428 Z-0.0100
G01 X6.9361 Y5.4927 Z-0.0100
G01 X6.9298 Y5.4479 Z-0.0100
G01 X6.9228 Y5.4078 Z-0.0100
G01 X6.9146 Y5.3692 Z-0.0100
G01 X6.9059 Y5.3356 Z-0.0100
G01 X6.8966 Y5.3058 Z-0.0100
G01 X6.8866 Y5.2789 Z-0.0100
G01 X6.8762 Y5.2560 Z-0.0100
G01 X6.8650 Y5.2350 Z-0.0100
G01 X6.8538 Y5.2176 Z-0.0100
G01 X6.8416 Y5.2019 Z-0.0100
G01 X6.8290 Y5.1881 Z-0.0100
G01 X6.8155 Y5.1758 Z-0.0100
G01 X6.8004 Y5.1642 Z-0.0100
G01 X6.7835 Y5.1534 Z-0.0100
G01 X6.7646 Y5.1433 Z-0.0100
G01 X6.7431 Y5.1338 Z-0.0100
G01 X6.7192 Y5.1249 Z-0.0100
G01 X6.6919 Y5.1164 Z-0.0100
G01 X6.6627 Y5.1089 Z-0.0100
G01 X6.6287 Y5.1016 Z-0.0100
G01 X6.5933 Y5.0952 Z-0.0100
G01 X6.5533 Y5.0892 Z-0.0100
G01 X6.5134 Y5.0840 Z-0.0100
G01 X6.4664 Y5.0789 Z-0.0100
G01 X6.4194 Y5.0744 Z-0.0100
G01 X6.3688 Y5.0701 Z-0.0100
G01 X6.3140 Y5.0659 Z-0.0100
G01 X6.2571 Y5.0618 Z-0.0100
G01 X6.1972 Y5.0576 Z-0.0100
G01 X6.1340 Y5.0532 Z-0.0100
G01 X6.0678 Y5.0485 Z-0.0100
G01 X6.0673 Y5.0485 Z-0.0100
G01 X5.9983 Y5.0433 Z-0.0100
G01 X5.9978 Y5.0433 Z-0.0100
G01 X5.9256 Y5.0376 Z-0.0100
G01 X5.9250 Y5.0375 Z-0.0100
G01 X5.8497 Y5.0312 Z-0.0100
G01 X5.8488 Y5.0311 Z-0.0100
G01 X5.7703 Y5.0240 Z-0.0100
G01 X5.7694 Y5.0239 Z-0.0100
G01 X5.6877 Y5.0159 Z-0.0100
G01 X5.6867 Y5.0157 Z-0.0100
G01 X5.6016 Y5.0066 Z-0.0100
G01 X5.6005 Y5.0065 Z-0.0100
G01 X5.5120 Y4.9962 Z-0.0100
G01 X5.5109 Y4.9961 Z-0.0100
G01 X5.4190 Y4.9846 Z-0.0100
G01 X5.4152 Y4.9841 Z-0.0100
G01 X5.1713 Y4.9458 Z-0.0100
G01 X5.1680 Y4.9453 Z-0.0100
G01 X4.9313 Y4.9016 Z-0.0100
G01 X4.9279 Y4.9009 Z-0.0100
G01 X4.6998 Y4.8522 Z-0.0100
G01 X4.6964 Y4.8514 Z-0.0100
G01 X4.4779 Y4.7983 Z-0.0100
G01 X4.4744 Y4.7974 Z-0.0100
G01 X4.2618 Y4.7389 Z-0.0100
G01 X4.2582 Y4.7379 Z-0.0100
G01 X4.0535 Y4.6749 Z-0.0100
G01 X4.0498 Y4.6737 Z-0.0100
G01 X3.8550 Y4.6071 Z-0.0100
G01 X3.8513 Y4.6058 Z-0.0100
G01 X3.6633 Y4.5348 Z-0.0100
G01 X3.6596 Y4.5333 Z-0.0100
G01 X3.4787 Y4.4582 Z-0.0100
G01 X3.4749 Y4.4566 Z-0.0100
G01 X3.3020 Y4.3779 Z-0.0100
G01 X3.2983 Y4.3761 Z-0.0100
G01 X3.1316 Y4.2934 Z-0.0100
G01 X3.1278 Y4.2914 Z-0.0100
G01 X2.9692 Y4.2057 Z-0.0100
G01 X2.9655 Y4.2036 Z-0.0100
G01 X2.8132 Y4.1143 Z-0.0100
G01 X2.8094 Y4.1120 Z-0.0100
G01 X2.6644 Y4.0199 Z-0.0100
G01 X2.6607 Y4.0174 Z-0.0100
G01 X2.5210 Y3.9214 Z-0.0100
G01 X2.5174 Y3.9188 Z-0.0100
G01 X2.3855 Y3.8209 Z-0.0100
G01 X2.3819 Y3.8181 Z-0.0100
G01 X2.2555 Y3.7168 Z-0.0100
G01 X2.2519 Y3.7138 Z-0.0100
G01 X2.1308 Y3.6091 Z-0.0100
G01 X2.1274 Y3.6061 Z-0.0100
G01 X2.0135 Y3.5000 Z-0.0100
G01 X2.0102 Y3.4968 Z-0.0100
G01 X1.9015 Y3.3877 Z-0.0100
G01 X1.8983 Y3.3844 Z-0.0100
G01 X1.7940 Y3.2716 Z-0.0100
G01 X1.7910 Y3.2682 Z-0.0100
G01 X1.6935 Y3.1545 Z-0.0100
G01 X1.6905 Y3.1509 Z-0.0100
G01 X1.5974 Y3.0338 Z-0.0100
G01 X1.5946 Y3.0303 Z-0.0100
G01 X1.5067 Y2.9109 Z-0.0100
G01 X1.5040 Y2.9072 Z-0.0100
G01 X1.4209 Y2.7853 Z-0.0100
G01 X1.4185 Y2.7816 Z-0.0100
G01 X1.3409 Y2.6586 Z-0.0100
G01 X1.3387 Y2.6548 Z-0.0100
G01 X1.2644 Y2.5272 Z-0.0100
G01 X1.2622 Y2.5234 Z-0.0100
G01 X1.1938 Y2.3956 Z-0.0100
G01 X1.1919 Y2.3918 Z-0.0100
G01 X1.1281 Y2.2622 Z-0.0100
G01 X1.1263 Y2.2584 Z-0.0100
G01 X1.0662 Y2.1248 Z-0.0100
G01 X1.0646 Y2.1209 Z-0.0100
G01 X1.0098 Y1.9872 Z-0.0100
G01 X1.0083 Y1.9835 Z-0.0100
G01 X0.9572 Y1.8462 Z-0.0100
G01 X0.9558 Y1.8425 Z-0.0100
G01 X0.9094 Y1.7044 Z-0.0100
G01 X0.9083 Y1.7007 Z-0.0100
G01 X0.8658 Y1.5597 Z-0.0100
G01 X0.8648 Y1.5561 Z-0.0100
G01 X0.8268 Y1.4146 Z-0.0100
G01 X0.8259 Y1.4110 Z-0.0100
G01 X0.7922 Y1.2678 Z-0.0100
G01 X0.7914 Y1.2643 Z-0.0100
G01 X0.7617 Y1.1195 Z-0.0100
G01 X0.7611 Y1.1159 Z-0.0100
G01 X0.7355 Y0.9694 Z-0.0100
G01 X0.7349 Y0.9660 Z-0.0100
G01 X0.7135 Y0.8190 Z-0.0100
G01 X0.7130 Y0.8156 Z-0.0100
G01 X0.6955 Y0.6670 Z-0.0100
G01 X0.6952 Y0.6637 Z-0.0100
G01 X0.6815 Y0.5126 Z-0.0100
G01 X0.6812 Y0.5093 Z-0.0100
G01 X0.6718 Y0.3612 Z-0.0100
G01 X0.6716 Y0.3580 Z-0.0100
G01 X0.6659 Y0.2051 Z-0.0100
G01 X0.6658 Y0.2020 Z-0.0100
G01 X0.6639 Y0.0515 Z-0.0100
G01 X0.6639 Y-0.0515 Z-0.0100
G00 X0.6639 Y-0.0515 Z0.6000
M05
G00 X0.0000 Y0.0000 Z0.6000
G49
G01 G55 Z0 F20
G00 G55 X0 Y0 Z0
M30
