( Sample-ski-base-cutout.nc                                                    )
( Generated by MonkeyCAM v4.0.3 at 2016-03-03 13:56:33 New Zealand Daylight Time
(                                                                              )
( This GCode program is provided on an "AS IS" BASIS WITHOUT WARRANTIES OR     )
( CONDITIONS OF ANY KIND, either express or implied. You should inspect this   )
( program very carefully to confirm you understand its operation. YOU ARE      )
( RESPONSIBLE FOR ENSURING THIS PROGRAM WILL NOT DAMAGE YOUR MACHINE OR        )
( MATERIALS.                                                                   )
(                                                                              )
( See http://www.github.com/mikemag/MonkeyCAM for License and documentation.   )
(                                                                              )
( * Rapid height: 0.2500" [0.6350cm]                                           )
( * Tool: T1, Quarter Inch Straight, diameter 0.2500" [0.6350cm]               )
( * Height baseline [Z=0.0] is the top of the table.                           )
( * XY origin is the left side of the table, Y is center of the part.          )
( * Requires G54 to be the part work coordinate offsets [WCO]. [0, 0] is the   )
(   center of the nose, with the board extending to positive X. The cutter may )
(   move to negative values of X.                                              )
( * Requires G55 to be the machine WCO, with Z above the rapid height.         )
( * Units are inches                                                           )
( * Center of the board in G54:                                                )
(     X=36.0236 Y=0.0000 Z=0.0000                                              )
( * Cutter bounding box in G54:                                                )
(     X-0.1250 Y-2.5818 Z-0.0100 to X70.4005 Y2.5818 Z0.2500                   )

G90 G20 G17 G40 G49
G43 H1 T1
G00 G54 X0 Y0 Z0.2500

G00 X-0.1250 Y-0.0021 Z0.2500
M03
G04 P5
G01 X-0.1250 Y-0.0021 Z-0.0100 F80
G01 X-0.1237 Y-0.0781 Z-0.0100
G01 X-0.1235 Y-0.0824 Z-0.0100
G01 X-0.1196 Y-0.1585 Z-0.0100
G01 X-0.1192 Y-0.1629 Z-0.0100
G01 X-0.1126 Y-0.2388 Z-0.0100
G01 X-0.1121 Y-0.2433 Z-0.0100
G01 X-0.1027 Y-0.3190 Z-0.0100
G01 X-0.1020 Y-0.3235 Z-0.0100
G01 X-0.0898 Y-0.3990 Z-0.0100
G01 X-0.0890 Y-0.4036 Z-0.0100
G01 X-0.0739 Y-0.4788 Z-0.0100
G01 X-0.0729 Y-0.4834 Z-0.0100
G01 X-0.0549 Y-0.5582 Z-0.0100
G01 X-0.0537 Y-0.5628 Z-0.0100
G01 X-0.0327 Y-0.6372 Z-0.0100
G01 X-0.0313 Y-0.6419 Z-0.0100
G01 X-0.0073 Y-0.7157 Z-0.0100
G01 X-0.0057 Y-0.7204 Z-0.0100
G01 X0.0212 Y-0.7937 Z-0.0100
G01 X0.0231 Y-0.7983 Z-0.0100
G01 X0.0532 Y-0.8710 Z-0.0100
G01 X0.0552 Y-0.8757 Z-0.0100
G01 X0.0886 Y-0.9477 Z-0.0100
G01 X0.0907 Y-0.9522 Z-0.0100
G01 X0.1273 Y-1.0235 Z-0.0100
G01 X0.1297 Y-1.0280 Z-0.0100
G01 X0.1695 Y-1.0985 Z-0.0100
G01 X0.1721 Y-1.1028 Z-0.0100
G01 X0.2152 Y-1.1725 Z-0.0100
G01 X0.2180 Y-1.1768 Z-0.0100
G01 X0.2645 Y-1.2455 Z-0.0100
G01 X0.2674 Y-1.2496 Z-0.0100
G01 X0.3173 Y-1.3174 Z-0.0100
G01 X0.3204 Y-1.3214 Z-0.0100
G01 X0.3738 Y-1.3881 Z-0.0100
G01 X0.3770 Y-1.3919 Z-0.0100
G01 X0.4339 Y-1.4575 Z-0.0100
G01 X0.4372 Y-1.4612 Z-0.0100
G01 X0.4978 Y-1.5257 Z-0.0100
G01 X0.5011 Y-1.5291 Z-0.0100
G01 X0.5653 Y-1.5924 Z-0.0100
G01 X0.5688 Y-1.5958 Z-0.0100
G01 X0.6367 Y-1.6577 Z-0.0100
G01 X0.6402 Y-1.6608 Z-0.0100
G01 X0.7118 Y-1.7215 Z-0.0100
G01 X0.7153 Y-1.7244 Z-0.0100
G01 X0.7908 Y-1.7837 Z-0.0100
G01 X0.7944 Y-1.7864 Z-0.0100
G01 X0.8736 Y-1.8442 Z-0.0100
G01 X0.8772 Y-1.8467 Z-0.0100
G01 X0.9604 Y-1.9030 Z-0.0100
G01 X0.9639 Y-1.9053 Z-0.0100
G01 X1.0511 Y-1.9600 Z-0.0100
G01 X1.0547 Y-1.9622 Z-0.0100
G01 X1.1458 Y-2.0152 Z-0.0100
G01 X1.1493 Y-2.0172 Z-0.0100
G01 X1.2444 Y-2.0686 Z-0.0100
G01 X1.2479 Y-2.0704 Z-0.0100
G01 X1.3472 Y-2.1200 Z-0.0100
G01 X1.3507 Y-2.1216 Z-0.0100
G01 X1.4541 Y-2.1694 Z-0.0100
G01 X1.4575 Y-2.1709 Z-0.0100
G01 X1.5651 Y-2.2168 Z-0.0100
G01 X1.5685 Y-2.2181 Z-0.0100
G01 X1.6804 Y-2.2620 Z-0.0100
G01 X1.6836 Y-2.2633 Z-0.0100
G01 X1.7998 Y-2.3052 Z-0.0100
G01 X1.8030 Y-2.3063 Z-0.0100
G01 X1.9236 Y-2.3462 Z-0.0100
G01 X1.9267 Y-2.3472 Z-0.0100
G01 X2.0517 Y-2.3849 Z-0.0100
G01 X2.0547 Y-2.3857 Z-0.0100
G01 X2.1842 Y-2.4213 Z-0.0100
G01 X2.1872 Y-2.4220 Z-0.0100
G01 X2.3211 Y-2.4553 Z-0.0100
G01 X2.3240 Y-2.4560 Z-0.0100
G01 X2.4625 Y-2.4870 Z-0.0100
G01 X2.4653 Y-2.4876 Z-0.0100
G01 X2.6085 Y-2.5162 Z-0.0100
G01 X2.6112 Y-2.5166 Z-0.0100
G01 X2.7341 Y-2.5384 Z-0.0100
G01 X2.7376 Y-2.5390 Z-0.0100
G01 X2.7412 Y-2.5394 Z-0.0100
G01 X2.7447 Y-2.5398 Z-0.0100
G01 X2.7483 Y-2.5401 Z-0.0100
G01 X2.7518 Y-2.5402 Z-0.0100
G01 X2.7554 Y-2.5403 Z-0.0100
G01 X2.7590 Y-2.5403 Z-0.0100
G01 X2.7626 Y-2.5401 Z-0.0100
G01 X2.7662 Y-2.5399 Z-0.0100
G01 X2.7697 Y-2.5395 Z-0.0100
G01 X2.7733 Y-2.5391 Z-0.0100
G01 X2.7768 Y-2.5385 Z-0.0100
G01 X2.7803 Y-2.5379 Z-0.0100
G01 X2.7838 Y-2.5372 Z-0.0100
G01 X2.7873 Y-2.5363 Z-0.0100
G01 X2.7907 Y-2.5353 Z-0.0100
G01 X2.7942 Y-2.5343 Z-0.0100
G01 X2.7975 Y-2.5331 Z-0.0100
G01 X2.8009 Y-2.5319 Z-0.0100
G01 X2.8042 Y-2.5306 Z-0.0100
G01 X2.8075 Y-2.5291 Z-0.0100
G01 X2.8107 Y-2.5276 Z-0.0100
G01 X2.8139 Y-2.5260 Z-0.0100
G01 X2.8171 Y-2.5243 Z-0.0100
G01 X2.8202 Y-2.5225 Z-0.0100
G01 X2.8232 Y-2.5206 Z-0.0100
G01 X2.8262 Y-2.5187 Z-0.0100
G01 X2.8291 Y-2.5166 Z-0.0100
G01 X2.8320 Y-2.5144 Z-0.0100
G01 X2.8348 Y-2.5122 Z-0.0100
G01 X2.8375 Y-2.5099 Z-0.0100
G01 X2.8402 Y-2.5075 Z-0.0100
G01 X2.8428 Y-2.5051 Z-0.0100
G01 X2.8453 Y-2.5026 Z-0.0100
G01 X2.8478 Y-2.5000 Z-0.0100
G01 X2.8502 Y-2.4973 Z-0.0100
G01 X2.8525 Y-2.4946 Z-0.0100
G01 X2.8548 Y-2.4918 Z-0.0100
G01 X2.8569 Y-2.4889 Z-0.0100
G01 X2.8590 Y-2.4860 Z-0.0100
G01 X2.8609 Y-2.4830 Z-0.0100
G01 X2.8628 Y-2.4800 Z-0.0100
G01 X2.8632 Y-2.4793 Z-0.0100
G01 X2.9252 Y-2.4889 Z-0.0100
G01 X2.9277 Y-2.4893 Z-0.0100
G01 X3.0836 Y-2.5102 Z-0.0100
G01 X3.0860 Y-2.5105 Z-0.0100
G01 X3.2470 Y-2.5288 Z-0.0100
G01 X3.2494 Y-2.5291 Z-0.0100
G01 X3.4154 Y-2.5448 Z-0.0100
G01 X3.4177 Y-2.5450 Z-0.0100
G01 X3.5872 Y-2.5579 Z-0.0100
G01 X3.5894 Y-2.5581 Z-0.0100
G01 X3.7665 Y-2.5683 Z-0.0100
G01 X3.7687 Y-2.5684 Z-0.0100
G01 X3.9488 Y-2.5757 Z-0.0100
G01 X3.9509 Y-2.5758 Z-0.0100
G01 X4.1360 Y-2.5803 Z-0.0100
G01 X4.1379 Y-2.5803 Z-0.0100
G01 X4.3288 Y-2.5818 Z-0.0100
G01 X4.3348 Y-2.5817 Z-0.0100
G01 X4.9643 Y-2.5566 Z-0.0100
G01 X4.9659 Y-2.5566 Z-0.0100
G01 X5.5995 Y-2.5318 Z-0.0100
G01 X5.6020 Y-2.5317 Z-0.0100
G01 X6.2329 Y-2.5075 Z-0.0100
G01 X6.8665 Y-2.4837 Z-0.0100
G01 X7.5000 Y-2.4603 Z-0.0100
G01 X8.1336 Y-2.4373 Z-0.0100
G01 X8.7672 Y-2.4148 Z-0.0100
G01 X9.4007 Y-2.3928 Z-0.0100
G01 X10.0343 Y-2.3712 Z-0.0100
G01 X10.6679 Y-2.3501 Z-0.0100
G01 X11.3016 Y-2.3294 Z-0.0100
G01 X11.9352 Y-2.3092 Z-0.0100
G01 X12.5670 Y-2.2894 Z-0.0100
G01 X12.5688 Y-2.2894 Z-0.0100
G01 X13.2025 Y-2.2701 Z-0.0100
G01 X13.8362 Y-2.2513 Z-0.0100
G01 X14.4699 Y-2.2329 Z-0.0100
G01 X15.1036 Y-2.2149 Z-0.0100
G01 X15.7374 Y-2.1974 Z-0.0100
G01 X16.3711 Y-2.1803 Z-0.0100
G01 X17.0048 Y-2.1638 Z-0.0100
G01 X17.6386 Y-2.1476 Z-0.0100
G01 X18.2724 Y-2.1320 Z-0.0100
G01 X18.9061 Y-2.1167 Z-0.0100
G01 X19.5400 Y-2.1019 Z-0.0100
G01 X20.1738 Y-2.0876 Z-0.0100
G01 X20.1774 Y-2.0875 Z-0.0100
G01 X20.8075 Y-2.0737 Z-0.0100
G01 X21.4414 Y-2.0603 Z-0.0100
G01 X22.0752 Y-2.0473 Z-0.0100
G01 X22.7091 Y-2.0348 Z-0.0100
G01 X23.3429 Y-2.0227 Z-0.0100
G01 X23.9746 Y-2.0112 Z-0.0100
G01 X23.9768 Y-2.0112 Z-0.0100
G01 X24.6107 Y-2.0000 Z-0.0100
G01 X25.2445 Y-1.9893 Z-0.0100
G01 X25.8784 Y-1.9791 Z-0.0100
G01 X26.5123 Y-1.9693 Z-0.0100
G01 X27.1462 Y-1.9600 Z-0.0100
G01 X27.7801 Y-1.9511 Z-0.0100
G01 X28.4140 Y-1.9427 Z-0.0100
G01 X29.0479 Y-1.9347 Z-0.0100
G01 X29.6818 Y-1.9272 Z-0.0100
G01 X30.3158 Y-1.9201 Z-0.0100
G01 X30.9497 Y-1.9135 Z-0.0100
G01 X31.5837 Y-1.9073 Z-0.0100
G01 X32.2176 Y-1.9016 Z-0.0100
G01 X32.8515 Y-1.8964 Z-0.0100
G01 X33.4855 Y-1.8916 Z-0.0100
G01 X34.1194 Y-1.8872 Z-0.0100
G01 X34.7534 Y-1.8833 Z-0.0100
G01 X35.3873 Y-1.8799 Z-0.0100
G01 X36.0213 Y-1.8769 Z-0.0100
G01 X36.6553 Y-1.8744 Z-0.0100
G01 X37.2892 Y-1.8723 Z-0.0100
G01 X37.9232 Y-1.8707 Z-0.0100
G01 X38.5572 Y-1.8695 Z-0.0100
G01 X39.1912 Y-1.8688 Z-0.0100
G01 X39.8251 Y-1.8685 Z-0.0100
G01 X40.4590 Y-1.8687 Z-0.0100
G01 X41.0929 Y-1.8694 Z-0.0100
G01 X41.7270 Y-1.8705 Z-0.0100
G01 X42.3609 Y-1.8720 Z-0.0100
G01 X42.9949 Y-1.8740 Z-0.0100
G01 X43.6288 Y-1.8765 Z-0.0100
G01 X44.2628 Y-1.8794 Z-0.0100
G01 X44.8968 Y-1.8828 Z-0.0100
G01 X45.5307 Y-1.8866 Z-0.0100
G01 X46.1647 Y-1.8909 Z-0.0100
G01 X46.7986 Y-1.8956 Z-0.0100
G01 X47.4326 Y-1.9008 Z-0.0100
G01 X48.0665 Y-1.9064 Z-0.0100
G01 X48.7005 Y-1.9125 Z-0.0100
G01 X49.3344 Y-1.9191 Z-0.0100
G01 X49.9683 Y-1.9261 Z-0.0100
G01 X50.6022 Y-1.9335 Z-0.0100
G01 X51.2361 Y-1.9414 Z-0.0100
G01 X51.8701 Y-1.9498 Z-0.0100
G01 X52.5039 Y-1.9586 Z-0.0100
G01 X53.1379 Y-1.9679 Z-0.0100
G01 X53.7718 Y-1.9776 Z-0.0100
G01 X54.4057 Y-1.9878 Z-0.0100
G01 X55.0395 Y-1.9984 Z-0.0100
G01 X55.6734 Y-2.0095 Z-0.0100
G01 X55.6755 Y-2.0095 Z-0.0100
G01 X56.3072 Y-2.0210 Z-0.0100
G01 X56.9411 Y-2.0330 Z-0.0100
G01 X57.5750 Y-2.0454 Z-0.0100
G01 X58.2088 Y-2.0583 Z-0.0100
G01 X58.8426 Y-2.0717 Z-0.0100
G01 X59.4727 Y-2.0854 Z-0.0100
G01 X59.4764 Y-2.0855 Z-0.0100
G01 X60.1102 Y-2.0998 Z-0.0100
G01 X60.7440 Y-2.1145 Z-0.0100
G01 X61.3778 Y-2.1297 Z-0.0100
G01 X62.0116 Y-2.1453 Z-0.0100
G01 X62.6453 Y-2.1614 Z-0.0100
G01 X63.2791 Y-2.1779 Z-0.0100
G01 X63.9128 Y-2.1949 Z-0.0100
G01 X64.5465 Y-2.2123 Z-0.0100
G01 X65.1803 Y-2.2302 Z-0.0100
G01 X65.8140 Y-2.2485 Z-0.0100
G01 X66.4477 Y-2.2673 Z-0.0100
G01 X67.0814 Y-2.2866 Z-0.0100
G01 X67.0832 Y-2.2866 Z-0.0100
G01 X67.7132 Y-2.3062 Z-0.0100
G01 X67.7186 Y-2.3063 Z-0.0100
G01 X67.8295 Y-2.3049 Z-0.0100
G01 X67.8325 Y-2.3048 Z-0.0100
G01 X67.9422 Y-2.3009 Z-0.0100
G01 X67.9453 Y-2.3007 Z-0.0100
G01 X68.0503 Y-2.2943 Z-0.0100
G01 X68.0535 Y-2.2940 Z-0.0100
G01 X68.1553 Y-2.2851 Z-0.0100
G01 X68.1587 Y-2.2848 Z-0.0100
G01 X68.2587 Y-2.2733 Z-0.0100
G01 X68.2620 Y-2.2729 Z-0.0100
G01 X68.3589 Y-2.2590 Z-0.0100
G01 X68.3625 Y-2.2585 Z-0.0100
G01 X68.3982 Y-2.2524 Z-0.0100
G01 X68.3987 Y-2.2531 Z-0.0100
G01 X68.4007 Y-2.2561 Z-0.0100
G01 X68.4027 Y-2.2590 Z-0.0100
G01 X68.4049 Y-2.2619 Z-0.0100
G01 X68.4071 Y-2.2647 Z-0.0100
G01 X68.4094 Y-2.2674 Z-0.0100
G01 X68.4118 Y-2.2701 Z-0.0100
G01 X68.4142 Y-2.2727 Z-0.0100
G01 X68.4168 Y-2.2752 Z-0.0100
G01 X68.4194 Y-2.2777 Z-0.0100
G01 X68.4220 Y-2.2800 Z-0.0100
G01 X68.4248 Y-2.2823 Z-0.0100
G01 X68.4275 Y-2.2846 Z-0.0100
G01 X68.4304 Y-2.2867 Z-0.0100
G01 X68.4333 Y-2.2887 Z-0.0100
G01 X68.4363 Y-2.2907 Z-0.0100
G01 X68.4393 Y-2.2926 Z-0.0100
G01 X68.4424 Y-2.2944 Z-0.0100
G01 X68.4455 Y-2.2961 Z-0.0100
G01 X68.4487 Y-2.2977 Z-0.0100
G01 X68.4519 Y-2.2993 Z-0.0100
G01 X68.4552 Y-2.3007 Z-0.0100
G01 X68.4585 Y-2.3020 Z-0.0100
G01 X68.4618 Y-2.3033 Z-0.0100
G01 X68.4652 Y-2.3044 Z-0.0100
G01 X68.4686 Y-2.3055 Z-0.0100
G01 X68.4721 Y-2.3064 Z-0.0100
G01 X68.4755 Y-2.3073 Z-0.0100
G01 X68.4790 Y-2.3081 Z-0.0100
G01 X68.4825 Y-2.3087 Z-0.0100
G01 X68.4861 Y-2.3093 Z-0.0100
G01 X68.4896 Y-2.3098 Z-0.0100
G01 X68.4931 Y-2.3101 Z-0.0100
G01 X68.4967 Y-2.3104 Z-0.0100
G01 X68.5003 Y-2.3105 Z-0.0100
G01 X68.5038 Y-2.3106 Z-0.0100
G01 X68.5074 Y-2.3105 Z-0.0100
G01 X68.5110 Y-2.3104 Z-0.0100
G01 X68.5145 Y-2.3101 Z-0.0100
G01 X68.5181 Y-2.3098 Z-0.0100
G01 X68.5216 Y-2.3093 Z-0.0100
G01 X68.5251 Y-2.3088 Z-0.0100
G01 X68.5287 Y-2.3081 Z-0.0100
G01 X68.5668 Y-2.3004 Z-0.0100
G01 X68.5706 Y-2.2996 Z-0.0100
G01 X68.6607 Y-2.2785 Z-0.0100
G01 X68.6644 Y-2.2775 Z-0.0100
G01 X68.7518 Y-2.2542 Z-0.0100
G01 X68.7557 Y-2.2531 Z-0.0100
G01 X68.8403 Y-2.2276 Z-0.0100
G01 X68.8442 Y-2.2264 Z-0.0100
G01 X68.9260 Y-2.1988 Z-0.0100
G01 X68.9299 Y-2.1974 Z-0.0100
G01 X69.0091 Y-2.1677 Z-0.0100
G01 X69.0131 Y-2.1662 Z-0.0100
G01 X69.0896 Y-2.1346 Z-0.0100
G01 X69.0935 Y-2.1328 Z-0.0100
G01 X69.1674 Y-2.0992 Z-0.0100
G01 X69.1714 Y-2.0973 Z-0.0100
G01 X69.2427 Y-2.0617 Z-0.0100
G01 X69.2466 Y-2.0597 Z-0.0100
G01 X69.3153 Y-2.0223 Z-0.0100
G01 X69.3192 Y-2.0201 Z-0.0100
G01 X69.3853 Y-1.9810 Z-0.0100
G01 X69.3893 Y-1.9785 Z-0.0100
G01 X69.4529 Y-1.9376 Z-0.0100
G01 X69.4567 Y-1.9351 Z-0.0100
G01 X69.5178 Y-1.8925 Z-0.0100
G01 X69.5217 Y-1.8897 Z-0.0100
G01 X69.5803 Y-1.8455 Z-0.0100
G01 X69.5839 Y-1.8427 Z-0.0100
G01 X69.6401 Y-1.7969 Z-0.0100
G01 X69.6438 Y-1.7938 Z-0.0100
G01 X69.6976 Y-1.7466 Z-0.0100
G01 X69.7011 Y-1.7434 Z-0.0100
G01 X69.7525 Y-1.6946 Z-0.0100
G01 X69.7559 Y-1.6914 Z-0.0100
G01 X69.8050 Y-1.6412 Z-0.0100
G01 X69.8083 Y-1.6378 Z-0.0100
G01 X69.8551 Y-1.5862 Z-0.0100
G01 X69.8581 Y-1.5828 Z-0.0100
G01 X69.9026 Y-1.5300 Z-0.0100
G01 X69.9056 Y-1.5264 Z-0.0100
G01 X69.9479 Y-1.4723 Z-0.0100
G01 X69.9506 Y-1.4688 Z-0.0100
G01 X69.9907 Y-1.4135 Z-0.0100
G01 X69.9933 Y-1.4098 Z-0.0100
G01 X70.0312 Y-1.3534 Z-0.0100
G01 X70.0336 Y-1.3497 Z-0.0100
G01 X70.0694 Y-1.2922 Z-0.0100
G01 X70.0716 Y-1.2885 Z-0.0100
G01 X70.1053 Y-1.2300 Z-0.0100
G01 X70.1074 Y-1.2262 Z-0.0100
G01 X70.1389 Y-1.1667 Z-0.0100
G01 X70.1408 Y-1.1631 Z-0.0100
G01 X70.1703 Y-1.1027 Z-0.0100
G01 X70.1721 Y-1.0989 Z-0.0100
G01 X70.1996 Y-1.0376 Z-0.0100
G01 X70.2011 Y-1.0340 Z-0.0100
G01 X70.2266 Y-0.9719 Z-0.0100
G01 X70.2281 Y-0.9681 Z-0.0100
G01 X70.2516 Y-0.9053 Z-0.0100
G01 X70.2529 Y-0.9017 Z-0.0100
G01 X70.2745 Y-0.8382 Z-0.0100
G01 X70.2757 Y-0.8346 Z-0.0100
G01 X70.2953 Y-0.7704 Z-0.0100
G01 X70.2963 Y-0.7669 Z-0.0100
G01 X70.3142 Y-0.7021 Z-0.0100
G01 X70.3151 Y-0.6986 Z-0.0100
G01 X70.3311 Y-0.6332 Z-0.0100
G01 X70.3318 Y-0.6299 Z-0.0100
G01 X70.3460 Y-0.5640 Z-0.0100
G01 X70.3466 Y-0.5606 Z-0.0100
G01 X70.3590 Y-0.4944 Z-0.0100
G01 X70.3596 Y-0.4911 Z-0.0100
G01 X70.3702 Y-0.4245 Z-0.0100
G01 X70.3707 Y-0.4213 Z-0.0100
G01 X70.3796 Y-0.3544 Z-0.0100
G01 X70.3800 Y-0.3511 Z-0.0100
G01 X70.3872 Y-0.2839 Z-0.0100
G01 X70.3875 Y-0.2808 Z-0.0100
G01 X70.3930 Y-0.2133 Z-0.0100
G01 X70.3933 Y-0.2103 Z-0.0100
G01 X70.3972 Y-0.1427 Z-0.0100
G01 X70.3973 Y-0.1398 Z-0.0100
G01 X70.3997 Y-0.0721 Z-0.0100
G01 X70.3998 Y-0.0692 Z-0.0100
G01 X70.4005 Y-0.0014 Z-0.0100
G01 X70.4005 Y0.0014 Z-0.0100
G01 X70.3998 Y0.0692 Z-0.0100
G01 X70.3997 Y0.0721 Z-0.0100
G01 X70.3973 Y0.1398 Z-0.0100
G01 X70.3972 Y0.1427 Z-0.0100
G01 X70.3933 Y0.2103 Z-0.0100
G01 X70.3930 Y0.2133 Z-0.0100
G01 X70.3875 Y0.2808 Z-0.0100
G01 X70.3872 Y0.2839 Z-0.0100
G01 X70.3800 Y0.3511 Z-0.0100
G01 X70.3796 Y0.3544 Z-0.0100
G01 X70.3707 Y0.4213 Z-0.0100
G01 X70.3702 Y0.4245 Z-0.0100
G01 X70.3596 Y0.4911 Z-0.0100
G01 X70.3590 Y0.4944 Z-0.0100
G01 X70.3466 Y0.5606 Z-0.0100
G01 X70.3460 Y0.5640 Z-0.0100
G01 X70.3318 Y0.6299 Z-0.0100
G01 X70.3311 Y0.6332 Z-0.0100
G01 X70.3151 Y0.6986 Z-0.0100
G01 X70.3142 Y0.7021 Z-0.0100
G01 X70.2963 Y0.7669 Z-0.0100
G01 X70.2953 Y0.7704 Z-0.0100
G01 X70.2757 Y0.8346 Z-0.0100
G01 X70.2745 Y0.8382 Z-0.0100
G01 X70.2529 Y0.9017 Z-0.0100
G01 X70.2516 Y0.9053 Z-0.0100
G01 X70.2281 Y0.9681 Z-0.0100
G01 X70.2266 Y0.9719 Z-0.0100
G01 X70.2011 Y1.0340 Z-0.0100
G01 X70.1996 Y1.0376 Z-0.0100
G01 X70.1721 Y1.0989 Z-0.0100
G01 X70.1703 Y1.1027 Z-0.0100
G01 X70.1408 Y1.1631 Z-0.0100
G01 X70.1389 Y1.1667 Z-0.0100
G01 X70.1074 Y1.2262 Z-0.0100
G01 X70.1053 Y1.2300 Z-0.0100
G01 X70.0716 Y1.2885 Z-0.0100
G01 X70.0694 Y1.2922 Z-0.0100
G01 X70.0336 Y1.3497 Z-0.0100
G01 X70.0312 Y1.3534 Z-0.0100
G01 X69.9933 Y1.4098 Z-0.0100
G01 X69.9907 Y1.4135 Z-0.0100
G01 X69.9506 Y1.4688 Z-0.0100
G01 X69.9479 Y1.4723 Z-0.0100
G01 X69.9056 Y1.5264 Z-0.0100
G01 X69.9026 Y1.5300 Z-0.0100
G01 X69.8581 Y1.5828 Z-0.0100
G01 X69.8551 Y1.5862 Z-0.0100
G01 X69.8083 Y1.6378 Z-0.0100
G01 X69.8050 Y1.6412 Z-0.0100
G01 X69.7559 Y1.6914 Z-0.0100
G01 X69.7525 Y1.6946 Z-0.0100
G01 X69.7011 Y1.7434 Z-0.0100
G01 X69.6976 Y1.7466 Z-0.0100
G01 X69.6438 Y1.7938 Z-0.0100
G01 X69.6401 Y1.7969 Z-0.0100
G01 X69.5839 Y1.8427 Z-0.0100
G01 X69.5803 Y1.8455 Z-0.0100
G01 X69.5217 Y1.8897 Z-0.0100
G01 X69.5178 Y1.8925 Z-0.0100
G01 X69.4567 Y1.9351 Z-0.0100
G01 X69.4529 Y1.9376 Z-0.0100
G01 X69.3893 Y1.9785 Z-0.0100
G01 X69.3853 Y1.9810 Z-0.0100
G01 X69.3192 Y2.0201 Z-0.0100
G01 X69.3153 Y2.0223 Z-0.0100
G01 X69.2466 Y2.0597 Z-0.0100
G01 X69.2427 Y2.0617 Z-0.0100
G01 X69.1714 Y2.0973 Z-0.0100
G01 X69.1674 Y2.0992 Z-0.0100
G01 X69.0935 Y2.1328 Z-0.0100
G01 X69.0896 Y2.1346 Z-0.0100
G01 X69.0131 Y2.1662 Z-0.0100
G01 X69.0091 Y2.1677 Z-0.0100
G01 X68.9299 Y2.1974 Z-0.0100
G01 X68.9260 Y2.1988 Z-0.0100
G01 X68.8442 Y2.2264 Z-0.0100
G01 X68.8403 Y2.2276 Z-0.0100
G01 X68.7557 Y2.2531 Z-0.0100
G01 X68.7518 Y2.2542 Z-0.0100
G01 X68.6644 Y2.2775 Z-0.0100
G01 X68.6607 Y2.2785 Z-0.0100
G01 X68.5706 Y2.2996 Z-0.0100
G01 X68.5668 Y2.3004 Z-0.0100
G01 X68.5287 Y2.3081 Z-0.0100
G01 X68.5251 Y2.3088 Z-0.0100
G01 X68.5216 Y2.3093 Z-0.0100
G01 X68.5181 Y2.3098 Z-0.0100
G01 X68.5145 Y2.3101 Z-0.0100
G01 X68.5110 Y2.3104 Z-0.0100
G01 X68.5074 Y2.3105 Z-0.0100
G01 X68.5038 Y2.3106 Z-0.0100
G01 X68.5003 Y2.3105 Z-0.0100
G01 X68.4967 Y2.3104 Z-0.0100
G01 X68.4931 Y2.3101 Z-0.0100
G01 X68.4896 Y2.3098 Z-0.0100
G01 X68.4861 Y2.3093 Z-0.0100
G01 X68.4825 Y2.3087 Z-0.0100
G01 X68.4790 Y2.3081 Z-0.0100
G01 X68.4755 Y2.3073 Z-0.0100
G01 X68.4721 Y2.3064 Z-0.0100
G01 X68.4686 Y2.3055 Z-0.0100
G01 X68.4652 Y2.3044 Z-0.0100
G01 X68.4618 Y2.3033 Z-0.0100
G01 X68.4585 Y2.3020 Z-0.0100
G01 X68.4552 Y2.3007 Z-0.0100
G01 X68.4519 Y2.2993 Z-0.0100
G01 X68.4487 Y2.2977 Z-0.0100
G01 X68.4455 Y2.2961 Z-0.0100
G01 X68.4424 Y2.2944 Z-0.0100
G01 X68.4393 Y2.2926 Z-0.0100
G01 X68.4363 Y2.2907 Z-0.0100
G01 X68.4333 Y2.2887 Z-0.0100
G01 X68.4304 Y2.2867 Z-0.0100
G01 X68.4275 Y2.2846 Z-0.0100
G01 X68.4248 Y2.2823 Z-0.0100
G01 X68.4220 Y2.2800 Z-0.0100
G01 X68.4194 Y2.2777 Z-0.0100
G01 X68.4168 Y2.2752 Z-0.0100
G01 X68.4142 Y2.2727 Z-0.0100
G01 X68.4118 Y2.2701 Z-0.0100
G01 X68.4094 Y2.2674 Z-0.0100
G01 X68.4071 Y2.2647 Z-0.0100
G01 X68.4049 Y2.2619 Z-0.0100
G01 X68.4027 Y2.2590 Z-0.0100
G01 X68.4007 Y2.2561 Z-0.0100
G01 X68.3987 Y2.2531 Z-0.0100
G01 X68.3982 Y2.2524 Z-0.0100
G01 X68.3625 Y2.2585 Z-0.0100
G01 X68.3589 Y2.2590 Z-0.0100
G01 X68.2620 Y2.2729 Z-0.0100
G01 X68.2587 Y2.2733 Z-0.0100
G01 X68.1587 Y2.2848 Z-0.0100
G01 X68.1553 Y2.2851 Z-0.0100
G01 X68.0535 Y2.2940 Z-0.0100
G01 X68.0503 Y2.2943 Z-0.0100
G01 X67.9453 Y2.3007 Z-0.0100
G01 X67.9422 Y2.3009 Z-0.0100
G01 X67.8325 Y2.3048 Z-0.0100
G01 X67.8295 Y2.3049 Z-0.0100
G01 X67.7186 Y2.3063 Z-0.0100
G01 X67.7132 Y2.3062 Z-0.0100
G01 X67.0832 Y2.2866 Z-0.0100
G01 X67.0814 Y2.2866 Z-0.0100
G01 X66.4477 Y2.2673 Z-0.0100
G01 X65.8140 Y2.2485 Z-0.0100
G01 X65.1803 Y2.2302 Z-0.0100
G01 X64.5465 Y2.2123 Z-0.0100
G01 X63.9128 Y2.1949 Z-0.0100
G01 X63.2791 Y2.1779 Z-0.0100
G01 X62.6453 Y2.1614 Z-0.0100
G01 X62.0116 Y2.1453 Z-0.0100
G01 X61.3778 Y2.1297 Z-0.0100
G01 X60.7440 Y2.1145 Z-0.0100
G01 X60.1102 Y2.0998 Z-0.0100
G01 X59.4764 Y2.0855 Z-0.0100
G01 X59.4728 Y2.0854 Z-0.0100
G01 X58.8426 Y2.0717 Z-0.0100
G01 X58.2088 Y2.0583 Z-0.0100
G01 X57.5750 Y2.0454 Z-0.0100
G01 X56.9411 Y2.0330 Z-0.0100
G01 X56.3072 Y2.0210 Z-0.0100
G01 X55.6755 Y2.0095 Z-0.0100
G01 X55.6734 Y2.0095 Z-0.0100
G01 X55.0395 Y1.9984 Z-0.0100
G01 X54.4057 Y1.9878 Z-0.0100
G01 X53.7718 Y1.9776 Z-0.0100
G01 X53.1379 Y1.9679 Z-0.0100
G01 X52.5039 Y1.9586 Z-0.0100
G01 X51.8701 Y1.9498 Z-0.0100
G01 X51.2361 Y1.9414 Z-0.0100
G01 X50.6022 Y1.9335 Z-0.0100
G01 X49.9683 Y1.9261 Z-0.0100
G01 X49.3344 Y1.9191 Z-0.0100
G01 X48.7005 Y1.9125 Z-0.0100
G01 X48.0665 Y1.9064 Z-0.0100
G01 X47.4326 Y1.9008 Z-0.0100
G01 X46.7986 Y1.8956 Z-0.0100
G01 X46.1647 Y1.8909 Z-0.0100
G01 X45.5307 Y1.8866 Z-0.0100
G01 X44.8968 Y1.8828 Z-0.0100
G01 X44.2628 Y1.8794 Z-0.0100
G01 X43.6288 Y1.8765 Z-0.0100
G01 X42.9949 Y1.8740 Z-0.0100
G01 X42.3609 Y1.8720 Z-0.0100
G01 X41.7270 Y1.8705 Z-0.0100
G01 X41.0929 Y1.8694 Z-0.0100
G01 X40.4590 Y1.8687 Z-0.0100
G01 X39.8251 Y1.8685 Z-0.0100
G01 X39.1912 Y1.8688 Z-0.0100
G01 X38.5572 Y1.8695 Z-0.0100
G01 X37.9232 Y1.8707 Z-0.0100
G01 X37.2892 Y1.8723 Z-0.0100
G01 X36.6553 Y1.8744 Z-0.0100
G01 X36.0213 Y1.8769 Z-0.0100
G01 X35.3873 Y1.8799 Z-0.0100
G01 X34.7534 Y1.8833 Z-0.0100
G01 X34.1194 Y1.8872 Z-0.0100
G01 X33.4855 Y1.8916 Z-0.0100
G01 X32.8515 Y1.8964 Z-0.0100
G01 X32.2176 Y1.9016 Z-0.0100
G01 X31.5837 Y1.9073 Z-0.0100
G01 X30.9497 Y1.9135 Z-0.0100
G01 X30.3158 Y1.9201 Z-0.0100
G01 X29.6818 Y1.9272 Z-0.0100
G01 X29.0479 Y1.9347 Z-0.0100
G01 X28.4140 Y1.9427 Z-0.0100
G01 X27.7801 Y1.9511 Z-0.0100
G01 X27.1462 Y1.9600 Z-0.0100
G01 X26.5123 Y1.9693 Z-0.0100
G01 X25.8784 Y1.9791 Z-0.0100
G01 X25.2445 Y1.9893 Z-0.0100
G01 X24.6107 Y2.0000 Z-0.0100
G01 X23.9768 Y2.0112 Z-0.0100
G01 X23.9746 Y2.0112 Z-0.0100
G01 X23.3429 Y2.0227 Z-0.0100
G01 X22.7091 Y2.0348 Z-0.0100
G01 X22.0752 Y2.0473 Z-0.0100
G01 X21.4414 Y2.0603 Z-0.0100
G01 X20.8075 Y2.0737 Z-0.0100
G01 X20.1775 Y2.0875 Z-0.0100
G01 X20.1738 Y2.0876 Z-0.0100
G01 X19.5400 Y2.1019 Z-0.0100
G01 X18.9061 Y2.1167 Z-0.0100
G01 X18.2724 Y2.1320 Z-0.0100
G01 X17.6386 Y2.1476 Z-0.0100
G01 X17.0048 Y2.1638 Z-0.0100
G01 X16.3711 Y2.1803 Z-0.0100
G01 X15.7374 Y2.1974 Z-0.0100
G01 X15.1036 Y2.2149 Z-0.0100
G01 X14.4699 Y2.2329 Z-0.0100
G01 X13.8362 Y2.2513 Z-0.0100
G01 X13.2025 Y2.2701 Z-0.0100
G01 X12.5688 Y2.2894 Z-0.0100
G01 X12.5670 Y2.2894 Z-0.0100
G01 X11.9352 Y2.3092 Z-0.0100
G01 X11.3016 Y2.3294 Z-0.0100
G01 X10.6679 Y2.3501 Z-0.0100
G01 X10.0343 Y2.3712 Z-0.0100
G01 X9.4007 Y2.3928 Z-0.0100
G01 X8.7672 Y2.4148 Z-0.0100
G01 X8.1336 Y2.4373 Z-0.0100
G01 X7.5000 Y2.4603 Z-0.0100
G01 X6.8665 Y2.4837 Z-0.0100
G01 X6.2329 Y2.5075 Z-0.0100
G01 X5.6020 Y2.5317 Z-0.0100
G01 X5.5995 Y2.5318 Z-0.0100
G01 X4.9659 Y2.5566 Z-0.0100
G01 X4.9643 Y2.5566 Z-0.0100
G01 X4.3348 Y2.5817 Z-0.0100
G01 X4.3288 Y2.5818 Z-0.0100
G01 X4.1379 Y2.5803 Z-0.0100
G01 X4.1360 Y2.5803 Z-0.0100
G01 X3.9509 Y2.5758 Z-0.0100
G01 X3.9488 Y2.5757 Z-0.0100
G01 X3.7687 Y2.5684 Z-0.0100
G01 X3.7665 Y2.5683 Z-0.0100
G01 X3.5894 Y2.5581 Z-0.0100
G01 X3.5872 Y2.5579 Z-0.0100
G01 X3.4177 Y2.5450 Z-0.0100
G01 X3.4154 Y2.5448 Z-0.0100
G01 X3.2494 Y2.5291 Z-0.0100
G01 X3.2470 Y2.5288 Z-0.0100
G01 X3.0860 Y2.5105 Z-0.0100
G01 X3.0836 Y2.5102 Z-0.0100
G01 X2.9277 Y2.4893 Z-0.0100
G01 X2.9252 Y2.4889 Z-0.0100
G01 X2.8632 Y2.4793 Z-0.0100
G01 X2.8628 Y2.4800 Z-0.0100
G01 X2.8609 Y2.4830 Z-0.0100
G01 X2.8590 Y2.4860 Z-0.0100
G01 X2.8569 Y2.4889 Z-0.0100
G01 X2.8548 Y2.4918 Z-0.0100
G01 X2.8525 Y2.4946 Z-0.0100
G01 X2.8502 Y2.4973 Z-0.0100
G01 X2.8478 Y2.5000 Z-0.0100
G01 X2.8453 Y2.5026 Z-0.0100
G01 X2.8428 Y2.5051 Z-0.0100
G01 X2.8402 Y2.5075 Z-0.0100
G01 X2.8375 Y2.5099 Z-0.0100
G01 X2.8348 Y2.5122 Z-0.0100
G01 X2.8320 Y2.5144 Z-0.0100
G01 X2.8291 Y2.5166 Z-0.0100
G01 X2.8262 Y2.5187 Z-0.0100
G01 X2.8232 Y2.5206 Z-0.0100
G01 X2.8202 Y2.5225 Z-0.0100
G01 X2.8171 Y2.5243 Z-0.0100
G01 X2.8139 Y2.5260 Z-0.0100
G01 X2.8107 Y2.5276 Z-0.0100
G01 X2.8075 Y2.5291 Z-0.0100
G01 X2.8042 Y2.5306 Z-0.0100
G01 X2.8009 Y2.5319 Z-0.0100
G01 X2.7975 Y2.5331 Z-0.0100
G01 X2.7942 Y2.5343 Z-0.0100
G01 X2.7907 Y2.5353 Z-0.0100
G01 X2.7873 Y2.5363 Z-0.0100
G01 X2.7838 Y2.5372 Z-0.0100
G01 X2.7803 Y2.5379 Z-0.0100
G01 X2.7768 Y2.5385 Z-0.0100
G01 X2.7733 Y2.5391 Z-0.0100
G01 X2.7697 Y2.5395 Z-0.0100
G01 X2.7662 Y2.5399 Z-0.0100
G01 X2.7626 Y2.5401 Z-0.0100
G01 X2.7590 Y2.5403 Z-0.0100
G01 X2.7554 Y2.5403 Z-0.0100
G01 X2.7518 Y2.5402 Z-0.0100
G01 X2.7483 Y2.5401 Z-0.0100
G01 X2.7447 Y2.5398 Z-0.0100
G01 X2.7412 Y2.5394 Z-0.0100
G01 X2.7376 Y2.5390 Z-0.0100
G01 X2.7341 Y2.5384 Z-0.0100
G01 X2.6112 Y2.5166 Z-0.0100
G01 X2.6085 Y2.5162 Z-0.0100
G01 X2.4653 Y2.4876 Z-0.0100
G01 X2.4625 Y2.4870 Z-0.0100
G01 X2.3240 Y2.4560 Z-0.0100
G01 X2.3211 Y2.4553 Z-0.0100
G01 X2.1872 Y2.4220 Z-0.0100
G01 X2.1842 Y2.4213 Z-0.0100
G01 X2.0547 Y2.3857 Z-0.0100
G01 X2.0517 Y2.3849 Z-0.0100
G01 X1.9267 Y2.3472 Z-0.0100
G01 X1.9236 Y2.3462 Z-0.0100
G01 X1.8030 Y2.3063 Z-0.0100
G01 X1.7998 Y2.3052 Z-0.0100
G01 X1.6836 Y2.2633 Z-0.0100
G01 X1.6804 Y2.2620 Z-0.0100
G01 X1.5685 Y2.2181 Z-0.0100
G01 X1.5651 Y2.2168 Z-0.0100
G01 X1.4575 Y2.1709 Z-0.0100
G01 X1.4541 Y2.1694 Z-0.0100
G01 X1.3507 Y2.1216 Z-0.0100
G01 X1.3472 Y2.1200 Z-0.0100
G01 X1.2479 Y2.0704 Z-0.0100
G01 X1.2444 Y2.0686 Z-0.0100
G01 X1.1493 Y2.0172 Z-0.0100
G01 X1.1458 Y2.0152 Z-0.0100
G01 X1.0547 Y1.9622 Z-0.0100
G01 X1.0511 Y1.9600 Z-0.0100
G01 X0.9639 Y1.9053 Z-0.0100
G01 X0.9604 Y1.9030 Z-0.0100
G01 X0.8772 Y1.8467 Z-0.0100
G01 X0.8736 Y1.8442 Z-0.0100
G01 X0.7944 Y1.7864 Z-0.0100
G01 X0.7908 Y1.7837 Z-0.0100
G01 X0.7153 Y1.7244 Z-0.0100
G01 X0.7118 Y1.7215 Z-0.0100
G01 X0.6402 Y1.6608 Z-0.0100
G01 X0.6367 Y1.6577 Z-0.0100
G01 X0.5688 Y1.5958 Z-0.0100
G01 X0.5653 Y1.5924 Z-0.0100
G01 X0.5011 Y1.5291 Z-0.0100
G01 X0.4978 Y1.5257 Z-0.0100
G01 X0.4372 Y1.4612 Z-0.0100
G01 X0.4339 Y1.4575 Z-0.0100
G01 X0.3770 Y1.3919 Z-0.0100
G01 X0.3738 Y1.3881 Z-0.0100
G01 X0.3204 Y1.3214 Z-0.0100
G01 X0.3173 Y1.3174 Z-0.0100
G01 X0.2674 Y1.2496 Z-0.0100
G01 X0.2645 Y1.2455 Z-0.0100
G01 X0.2180 Y1.1768 Z-0.0100
G01 X0.2152 Y1.1725 Z-0.0100
G01 X0.1721 Y1.1028 Z-0.0100
G01 X0.1695 Y1.0985 Z-0.0100
G01 X0.1297 Y1.0280 Z-0.0100
G01 X0.1273 Y1.0235 Z-0.0100
G01 X0.0907 Y0.9522 Z-0.0100
G01 X0.0886 Y0.9477 Z-0.0100
G01 X0.0552 Y0.8757 Z-0.0100
G01 X0.0532 Y0.8710 Z-0.0100
G01 X0.0231 Y0.7983 Z-0.0100
G01 X0.0212 Y0.7937 Z-0.0100
G01 X-0.0057 Y0.7204 Z-0.0100
G01 X-0.0073 Y0.7157 Z-0.0100
G01 X-0.0313 Y0.6419 Z-0.0100
G01 X-0.0327 Y0.6372 Z-0.0100
G01 X-0.0537 Y0.5628 Z-0.0100
G01 X-0.0549 Y0.5582 Z-0.0100
G01 X-0.0729 Y0.4834 Z-0.0100
G01 X-0.0739 Y0.4788 Z-0.0100
G01 X-0.0890 Y0.4036 Z-0.0100
G01 X-0.0898 Y0.3990 Z-0.0100
G01 X-0.1020 Y0.3235 Z-0.0100
G01 X-0.1027 Y0.3190 Z-0.0100
G01 X-0.1121 Y0.2433 Z-0.0100
G01 X-0.1126 Y0.2388 Z-0.0100
G01 X-0.1192 Y0.1629 Z-0.0100
G01 X-0.1196 Y0.1585 Z-0.0100
G01 X-0.1235 Y0.0824 Z-0.0100
G01 X-0.1237 Y0.0781 Z-0.0100
G01 X-0.1250 Y0.0021 Z-0.0100
G01 X-0.1250 Y-0.0021 Z-0.0100
G00 X-0.1250 Y-0.0021 Z0.2500
M05
G00 X0.0000 Y0.0000 Z0.2500
G49
G01 G55 Z0 F20
G00 G55 X0 Y0 Z0
M30
