( Sample-ski-nose-tail-spacers.nc                                              )
( Generated by MonkeyCAM v4.0.4 at 2016-07-26 22:44:28 New Zealand Standard Time
(                                                                              )
( This GCode program is provided on an "AS IS" BASIS WITHOUT WARRANTIES OR     )
( CONDITIONS OF ANY KIND, either express or implied. You should inspect this   )
( program very carefully to confirm you understand its operation. YOU ARE      )
( RESPONSIBLE FOR ENSURING THIS PROGRAM WILL NOT DAMAGE YOUR MACHINE OR        )
( MATERIALS.                                                                   )
(                                                                              )
( See http://www.github.com/mikemag/MonkeyCAM for License and documentation.   )
(                                                                              )
( * Rapid height: 0.2500" [0.6350cm]                                           )
( * Tool: T1, Quarter Inch Straight, diameter 0.2500" [0.6350cm]               )
( * Height baseline [Z=0.0] is the top of the table.                           )
( * XY origin is the left side of the table, Y is center of the part.          )
( * Requires G54 to be the part work coordinate offsets [WCO]. [0, 0] is the   )
(   center of the nose, with the board extending to positive X. The cutter may )
(   move to negative values of X.                                              )
( * Requires G55 to be the machine WCO, with Z above the rapid height.         )
( * Units are inches                                                           )
( * Center of the board in G54:                                                )
(     X=36.0236 Y=0.0000 Z=0.0000                                              )
(                                                                              )
( Spacer material length: 9.6771" [24.5800cm]                                  )
(                                                                              )
( * Cutter bounding box in G54:                                                )
(     X0.0000 Y-3.0353 Z-0.0100 to X8.0147 Y3.0353 Z0.2500                     )

G90 G20 G17 G40 G49
G43 H1 T1
G00 G54 X0 Y0 Z0.2500

G00 X5.4557 Y-3.0353 Z0.2500
M03
G04 P5
G01 X5.4557 Y-3.0353 Z-0.0100 F80
G01 X5.4555 Y-2.9432 Z-0.0100
G01 X5.4555 Y-2.9425 Z-0.0100
G01 X5.4548 Y-2.8551 Z-0.0100
G01 X5.4548 Y-2.8543 Z-0.0100
G01 X5.4537 Y-2.7714 Z-0.0100
G01 X5.4537 Y-2.7705 Z-0.0100
G01 X5.4521 Y-2.6919 Z-0.0100
G01 X5.4521 Y-2.6907 Z-0.0100
G01 X5.4498 Y-2.6164 Z-0.0100
G01 X5.4498 Y-2.6151 Z-0.0100
G01 X5.4469 Y-2.5450 Z-0.0100
G01 X5.4468 Y-2.5432 Z-0.0100
G01 X5.4432 Y-2.4771 Z-0.0100
G01 X5.4431 Y-2.4751 Z-0.0100
G01 X5.4387 Y-2.4129 Z-0.0100
G01 X5.4385 Y-2.4106 Z-0.0100
G01 X5.4332 Y-2.3521 Z-0.0100
G01 X5.4329 Y-2.3494 Z-0.0100
G01 X5.4268 Y-2.2945 Z-0.0100
G01 X5.4264 Y-2.2912 Z-0.0100
G01 X5.4193 Y-2.2398 Z-0.0100
G01 X5.4187 Y-2.2362 Z-0.0100
G01 X5.4106 Y-2.1882 Z-0.0100
G01 X5.4098 Y-2.1838 Z-0.0100
G01 X5.4006 Y-2.1391 Z-0.0100
G01 X5.3994 Y-2.1342 Z-0.0100
G01 X5.3891 Y-2.0925 Z-0.0100
G01 X5.3875 Y-2.0868 Z-0.0100
G01 X5.3759 Y-2.0482 Z-0.0100
G01 X5.3739 Y-2.0420 Z-0.0100
G01 X5.3611 Y-2.0062 Z-0.0100
G01 X5.3584 Y-1.9991 Z-0.0100
G01 X5.3442 Y-1.9661 Z-0.0100
G01 X5.3407 Y-1.9584 Z-0.0100
G01 X5.3251 Y-1.9280 Z-0.0100
G01 X5.3207 Y-1.9200 Z-0.0100
G01 X5.3037 Y-1.8920 Z-0.0100
G01 X5.2982 Y-1.8837 Z-0.0100
G01 X5.2798 Y-1.8581 Z-0.0100
G01 X5.2733 Y-1.8499 Z-0.0100
G01 X5.2533 Y-1.8264 Z-0.0100
G01 X5.2459 Y-1.8186 Z-0.0100
G01 X5.2243 Y-1.7973 Z-0.0100
G01 X5.2166 Y-1.7903 Z-0.0100
G01 X5.1932 Y-1.7709 Z-0.0100
G01 X5.1849 Y-1.7645 Z-0.0100
G01 X5.1598 Y-1.7470 Z-0.0100
G01 X5.1516 Y-1.7418 Z-0.0100
G01 X5.1247 Y-1.7259 Z-0.0100
G01 X5.1169 Y-1.7217 Z-0.0100
G01 X5.0881 Y-1.7074 Z-0.0100
G01 X5.0809 Y-1.7041 Z-0.0100
G01 X5.0502 Y-1.6912 Z-0.0100
G01 X5.0435 Y-1.6887 Z-0.0100
G01 X5.0108 Y-1.6772 Z-0.0100
G01 X5.0049 Y-1.6753 Z-0.0100
G01 X4.9702 Y-1.6650 Z-0.0100
G01 X4.9651 Y-1.6635 Z-0.0100
G01 X4.9283 Y-1.6543 Z-0.0100
G01 X4.9238 Y-1.6533 Z-0.0100
G01 X4.8849 Y-1.6450 Z-0.0100
G01 X4.8811 Y-1.6442 Z-0.0100
G01 X4.8400 Y-1.6367 Z-0.0100
G01 X4.8371 Y-1.6362 Z-0.0100
G01 X4.7936 Y-1.6294 Z-0.0100
G01 X4.7911 Y-1.6290 Z-0.0100
G01 X4.7453 Y-1.6227 Z-0.0100
G01 X4.7434 Y-1.6225 Z-0.0100
G01 X4.6952 Y-1.6166 Z-0.0100
G01 X4.6937 Y-1.6165 Z-0.0100
G01 X4.6431 Y-1.6109 Z-0.0100
G01 X4.6420 Y-1.6108 Z-0.0100
G01 X4.5888 Y-1.6054 Z-0.0100
G01 X4.5883 Y-1.6054 Z-0.0100
G01 X4.5325 Y-1.6000 Z-0.0100
G01 X4.5320 Y-1.6000 Z-0.0100
G01 X4.4736 Y-1.5945 Z-0.0100
G01 X4.4126 Y-1.5888 Z-0.0100
G01 X4.3487 Y-1.5828 Z-0.0100
G01 X4.2829 Y-1.5764 Z-0.0100
G01 X4.2133 Y-1.5692 Z-0.0100
G01 X4.1414 Y-1.5615 Z-0.0100
G01 X4.0672 Y-1.5529 Z-0.0100
G01 X3.9903 Y-1.5435 Z-0.0100
G01 X3.9085 Y-1.5326 Z-0.0100
G01 X3.8259 Y-1.5209 Z-0.0100
G01 X3.7390 Y-1.5077 Z-0.0100
G01 X3.6484 Y-1.4929 Z-0.0100
G01 X3.5303 Y-1.4706 Z-0.0100
G01 X3.4147 Y-1.4464 Z-0.0100
G01 X3.3019 Y-1.4202 Z-0.0100
G01 X3.1996 Y-1.3941 Z-0.0100
G01 X3.0973 Y-1.3655 Z-0.0100
G01 X3.0028 Y-1.3368 Z-0.0100
G01 X2.9128 Y-1.3069 Z-0.0100
G01 X2.8275 Y-1.2762 Z-0.0100
G01 X2.7452 Y-1.2441 Z-0.0100
G01 X2.6712 Y-1.2129 Z-0.0100
G01 X2.5987 Y-1.1798 Z-0.0100
G01 X2.5338 Y-1.1479 Z-0.0100
G01 X2.4701 Y-1.1141 Z-0.0100
G01 X2.4135 Y-1.0818 Z-0.0100
G01 X2.3590 Y-1.0482 Z-0.0100
G01 X2.3111 Y-1.0164 Z-0.0100
G01 X2.2652 Y-0.9835 Z-0.0100
G01 X2.2244 Y-0.9520 Z-0.0100
G01 X2.1856 Y-0.9198 Z-0.0100
G01 X2.1518 Y-0.8894 Z-0.0100
G01 X2.1212 Y-0.8596 Z-0.0100
G01 X2.0935 Y-0.8304 Z-0.0100
G01 X2.0680 Y-0.8011 Z-0.0100
G01 X2.0459 Y-0.7735 Z-0.0100
G01 X2.0255 Y-0.7457 Z-0.0100
G01 X2.0086 Y-0.7204 Z-0.0100
G01 X1.9924 Y-0.6936 Z-0.0100
G01 X1.9788 Y-0.6688 Z-0.0100
G01 X1.9668 Y-0.6443 Z-0.0100
G01 X1.9556 Y-0.6187 Z-0.0100
G01 X1.9466 Y-0.5953 Z-0.0100
G01 X1.9385 Y-0.5711 Z-0.0100
G01 X1.9314 Y-0.5463 Z-0.0100
G01 X1.9259 Y-0.5231 Z-0.0100
G01 X1.9211 Y-0.4977 Z-0.0100
G01 X1.9173 Y-0.4722 Z-0.0100
G01 X1.9148 Y-0.4476 Z-0.0100
G01 X1.9131 Y-0.4202 Z-0.0100
G01 X1.9124 Y-0.3855 Z-0.0100
G01 X1.9124 Y0.3848 Z-0.0100
G01 X1.9131 Y0.4202 Z-0.0100
G01 X1.9148 Y0.4476 Z-0.0100
G01 X1.9173 Y0.4722 Z-0.0100
G01 X1.9211 Y0.4977 Z-0.0100
G01 X1.9259 Y0.5231 Z-0.0100
G01 X1.9314 Y0.5463 Z-0.0100
G01 X1.9385 Y0.5711 Z-0.0100
G01 X1.9466 Y0.5953 Z-0.0100
G01 X1.9556 Y0.6187 Z-0.0100
G01 X1.9668 Y0.6443 Z-0.0100
G01 X1.9788 Y0.6688 Z-0.0100
G01 X1.9924 Y0.6936 Z-0.0100
G01 X2.0086 Y0.7204 Z-0.0100
G01 X2.0255 Y0.7457 Z-0.0100
G01 X2.0459 Y0.7735 Z-0.0100
G01 X2.0680 Y0.8011 Z-0.0100
G01 X2.0935 Y0.8304 Z-0.0100
G01 X2.1212 Y0.8596 Z-0.0100
G01 X2.1518 Y0.8894 Z-0.0100
G01 X2.1857 Y0.9199 Z-0.0100
G01 X2.2247 Y0.9523 Z-0.0100
G01 X2.2646 Y0.9831 Z-0.0100
G01 X2.3111 Y1.0164 Z-0.0100
G01 X2.3595 Y1.0485 Z-0.0100
G01 X2.4132 Y1.0816 Z-0.0100
G01 X2.4698 Y1.1139 Z-0.0100
G01 X2.5338 Y1.1479 Z-0.0100
G01 X2.5987 Y1.1798 Z-0.0100
G01 X2.6712 Y1.2129 Z-0.0100
G01 X2.7452 Y1.2441 Z-0.0100
G01 X2.8275 Y1.2762 Z-0.0100
G01 X2.9127 Y1.3069 Z-0.0100
G01 X3.0028 Y1.3368 Z-0.0100
G01 X3.0973 Y1.3655 Z-0.0100
G01 X3.1996 Y1.3941 Z-0.0100
G01 X3.3019 Y1.4202 Z-0.0100
G01 X3.4147 Y1.4464 Z-0.0100
G01 X3.5303 Y1.4706 Z-0.0100
G01 X3.6484 Y1.4929 Z-0.0100
G01 X3.7391 Y1.5077 Z-0.0100
G01 X3.8259 Y1.5209 Z-0.0100
G01 X3.9085 Y1.5327 Z-0.0100
G01 X3.9903 Y1.5435 Z-0.0100
G01 X4.0672 Y1.5529 Z-0.0100
G01 X4.1414 Y1.5615 Z-0.0100
G01 X4.2133 Y1.5692 Z-0.0100
G01 X4.2829 Y1.5764 Z-0.0100
G01 X4.3487 Y1.5828 Z-0.0100
G01 X4.4126 Y1.5888 Z-0.0100
G01 X4.4736 Y1.5945 Z-0.0100
G01 X4.5320 Y1.6000 Z-0.0100
G01 X4.5325 Y1.6000 Z-0.0100
G01 X4.5883 Y1.6054 Z-0.0100
G01 X4.5888 Y1.6054 Z-0.0100
G01 X4.6420 Y1.6108 Z-0.0100
G01 X4.6431 Y1.6109 Z-0.0100
G01 X4.6937 Y1.6165 Z-0.0100
G01 X4.6952 Y1.6166 Z-0.0100
G01 X4.7434 Y1.6225 Z-0.0100
G01 X4.7453 Y1.6227 Z-0.0100
G01 X4.7911 Y1.6290 Z-0.0100
G01 X4.7936 Y1.6294 Z-0.0100
G01 X4.8371 Y1.6362 Z-0.0100
G01 X4.8400 Y1.6367 Z-0.0100
G01 X4.8811 Y1.6442 Z-0.0100
G01 X4.8849 Y1.6450 Z-0.0100
G01 X4.9238 Y1.6533 Z-0.0100
G01 X4.9283 Y1.6543 Z-0.0100
G01 X4.9651 Y1.6635 Z-0.0100
G01 X4.9702 Y1.6650 Z-0.0100
G01 X5.0049 Y1.6753 Z-0.0100
G01 X5.0108 Y1.6772 Z-0.0100
G01 X5.0435 Y1.6887 Z-0.0100
G01 X5.0502 Y1.6912 Z-0.0100
G01 X5.0809 Y1.7041 Z-0.0100
G01 X5.0881 Y1.7074 Z-0.0100
G01 X5.1169 Y1.7217 Z-0.0100
G01 X5.1247 Y1.7259 Z-0.0100
G01 X5.1516 Y1.7418 Z-0.0100
G01 X5.1598 Y1.7470 Z-0.0100
G01 X5.1849 Y1.7645 Z-0.0100
G01 X5.1932 Y1.7709 Z-0.0100
G01 X5.2166 Y1.7903 Z-0.0100
G01 X5.2243 Y1.7973 Z-0.0100
G01 X5.2459 Y1.8186 Z-0.0100
G01 X5.2533 Y1.8264 Z-0.0100
G01 X5.2733 Y1.8499 Z-0.0100
G01 X5.2798 Y1.8581 Z-0.0100
G01 X5.2982 Y1.8837 Z-0.0100
G01 X5.3037 Y1.8920 Z-0.0100
G01 X5.3207 Y1.9200 Z-0.0100
G01 X5.3251 Y1.9280 Z-0.0100
G01 X5.3407 Y1.9584 Z-0.0100
G01 X5.3442 Y1.9661 Z-0.0100
G01 X5.3584 Y1.9991 Z-0.0100
G01 X5.3611 Y2.0062 Z-0.0100
G01 X5.3739 Y2.0420 Z-0.0100
G01 X5.3759 Y2.0482 Z-0.0100
G01 X5.3875 Y2.0868 Z-0.0100
G01 X5.3891 Y2.0925 Z-0.0100
G01 X5.3994 Y2.1342 Z-0.0100
G01 X5.4006 Y2.1391 Z-0.0100
G01 X5.4098 Y2.1838 Z-0.0100
G01 X5.4106 Y2.1882 Z-0.0100
G01 X5.4187 Y2.2362 Z-0.0100
G01 X5.4193 Y2.2398 Z-0.0100
G01 X5.4264 Y2.2912 Z-0.0100
G01 X5.4268 Y2.2945 Z-0.0100
G01 X5.4329 Y2.3494 Z-0.0100
G01 X5.4332 Y2.3521 Z-0.0100
G01 X5.4385 Y2.4106 Z-0.0100
G01 X5.4387 Y2.4129 Z-0.0100
G01 X5.4431 Y2.4751 Z-0.0100
G01 X5.4432 Y2.4771 Z-0.0100
G01 X5.4468 Y2.5432 Z-0.0100
G01 X5.4469 Y2.5450 Z-0.0100
G01 X5.4498 Y2.6151 Z-0.0100
G01 X5.4498 Y2.6164 Z-0.0100
G01 X5.4521 Y2.6907 Z-0.0100
G01 X5.4521 Y2.6919 Z-0.0100
G01 X5.4537 Y2.7705 Z-0.0100
G01 X5.4537 Y2.7714 Z-0.0100
G01 X5.4548 Y2.8543 Z-0.0100
G01 X5.4548 Y2.8551 Z-0.0100
G01 X5.4555 Y2.9425 Z-0.0100
G01 X5.4555 Y2.9432 Z-0.0100
G01 X5.4557 Y3.0353 Z-0.0100
G00 X5.4557 Y3.0353 Z0.2500
G00 X6.2431 Y2.7599 Z0.2500
G01 X6.2431 Y2.7599 Z-0.0100
G01 X6.2431 Y2.6679 Z-0.0100
G01 X6.2435 Y2.5803 Z-0.0100
G01 X6.2441 Y2.4974 Z-0.0100
G01 X6.2441 Y2.4967 Z-0.0100
G01 X6.2451 Y2.4188 Z-0.0100
G01 X6.2452 Y2.4180 Z-0.0100
G01 X6.2466 Y2.3445 Z-0.0100
G01 X6.2466 Y2.3435 Z-0.0100
G01 X6.2486 Y2.2743 Z-0.0100
G01 X6.2486 Y2.2729 Z-0.0100
G01 X6.2512 Y2.2078 Z-0.0100
G01 X6.2512 Y2.2063 Z-0.0100
G01 X6.2544 Y2.1453 Z-0.0100
G01 X6.2545 Y2.1432 Z-0.0100
G01 X6.2584 Y2.0860 Z-0.0100
G01 X6.2586 Y2.0837 Z-0.0100
G01 X6.2633 Y2.0302 Z-0.0100
G01 X6.2635 Y2.0273 Z-0.0100
G01 X6.2690 Y1.9774 Z-0.0100
G01 X6.2695 Y1.9742 Z-0.0100
G01 X6.2759 Y1.9277 Z-0.0100
G01 X6.2765 Y1.9236 Z-0.0100
G01 X6.2839 Y1.8805 Z-0.0100
G01 X6.2848 Y1.8760 Z-0.0100
G01 X6.2931 Y1.8360 Z-0.0100
G01 X6.2944 Y1.8304 Z-0.0100
G01 X6.3039 Y1.7935 Z-0.0100
G01 X6.3057 Y1.7872 Z-0.0100
G01 X6.3164 Y1.7531 Z-0.0100
G01 X6.3189 Y1.7461 Z-0.0100
G01 X6.3308 Y1.7147 Z-0.0100
G01 X6.3341 Y1.7069 Z-0.0100
G01 X6.3474 Y1.6781 Z-0.0100
G01 X6.3516 Y1.6697 Z-0.0100
G01 X6.3662 Y1.6434 Z-0.0100
G01 X6.3716 Y1.6346 Z-0.0100
G01 X6.3877 Y1.6106 Z-0.0100
G01 X6.3942 Y1.6018 Z-0.0100
G01 X6.4118 Y1.5800 Z-0.0100
G01 X6.4193 Y1.5714 Z-0.0100
G01 X6.4385 Y1.5516 Z-0.0100
G01 X6.4467 Y1.5438 Z-0.0100
G01 X6.4675 Y1.5259 Z-0.0100
G01 X6.4762 Y1.5191 Z-0.0100
G01 X6.4987 Y1.5029 Z-0.0100
G01 X6.5074 Y1.4972 Z-0.0100
G01 X6.5317 Y1.4827 Z-0.0100
G01 X6.5399 Y1.4782 Z-0.0100
G01 X6.5660 Y1.4651 Z-0.0100
G01 X6.5737 Y1.4616 Z-0.0100
G01 X6.6017 Y1.4498 Z-0.0100
G01 X6.6085 Y1.4472 Z-0.0100
G01 X6.6385 Y1.4367 Z-0.0100
G01 X6.6444 Y1.4348 Z-0.0100
G01 X6.6764 Y1.4253 Z-0.0100
G01 X6.6816 Y1.4238 Z-0.0100
G01 X6.7157 Y1.4153 Z-0.0100
G01 X6.7198 Y1.4143 Z-0.0100
G01 X6.7562 Y1.4064 Z-0.0100
G01 X6.7596 Y1.4058 Z-0.0100
G01 X6.7981 Y1.3986 Z-0.0100
G01 X6.8008 Y1.3981 Z-0.0100
G01 X6.8416 Y1.3914 Z-0.0100
G01 X6.8436 Y1.3911 Z-0.0100
G01 X6.8869 Y1.3846 Z-0.0100
G01 X6.8885 Y1.3844 Z-0.0100
G01 X6.9341 Y1.3783 Z-0.0100
G01 X6.9352 Y1.3781 Z-0.0100
G01 X6.9834 Y1.3720 Z-0.0100
G01 X6.9839 Y1.3720 Z-0.0100
G01 X7.0347 Y1.3657 Z-0.0100
G01 X7.0884 Y1.3593 Z-0.0100
G01 X7.1442 Y1.3525 Z-0.0100
G01 X7.2031 Y1.3453 Z-0.0100
G01 X7.2635 Y1.3375 Z-0.0100
G01 X7.3281 Y1.3288 Z-0.0100
G01 X7.3938 Y1.3194 Z-0.0100
G01 X7.4633 Y1.3089 Z-0.0100
G01 X7.5371 Y1.2970 Z-0.0100
G01 X7.6114 Y1.2842 Z-0.0100
G01 X7.6916 Y1.2694 Z-0.0100
G01 X7.7727 Y1.2536 Z-0.0100
G01 X7.8578 Y1.2358 Z-0.0100
G01 X7.9464 Y1.2162 Z-0.0100
G01 X7.9855 Y1.2065 Z-0.0100
G01 X8.0147 Y1.1988 Z-0.0100
G01 X8.0147 Y-1.1988 Z-0.0100
G01 X7.9855 Y-1.2065 Z-0.0100
G01 X7.9464 Y-1.2162 Z-0.0100
G01 X7.8576 Y-1.2359 Z-0.0100
G01 X7.7727 Y-1.2536 Z-0.0100
G01 X7.6916 Y-1.2694 Z-0.0100
G01 X7.6114 Y-1.2842 Z-0.0100
G01 X7.5371 Y-1.2970 Z-0.0100
G01 X7.4633 Y-1.3089 Z-0.0100
G01 X7.3938 Y-1.3194 Z-0.0100
G01 X7.3281 Y-1.3288 Z-0.0100
G01 X7.2635 Y-1.3375 Z-0.0100
G01 X7.2025 Y-1.3453 Z-0.0100
G01 X7.1442 Y-1.3525 Z-0.0100
G01 X7.0884 Y-1.3593 Z-0.0100
G01 X7.0350 Y-1.3657 Z-0.0100
G01 X6.9839 Y-1.3720 Z-0.0100
G01 X6.9834 Y-1.3720 Z-0.0100
G01 X6.9352 Y-1.3781 Z-0.0100
G01 X6.9341 Y-1.3783 Z-0.0100
G01 X6.8885 Y-1.3844 Z-0.0100
G01 X6.8869 Y-1.3846 Z-0.0100
G01 X6.8436 Y-1.3911 Z-0.0100
G01 X6.8416 Y-1.3914 Z-0.0100
G01 X6.8008 Y-1.3981 Z-0.0100
G01 X6.7981 Y-1.3986 Z-0.0100
G01 X6.7596 Y-1.4058 Z-0.0100
G01 X6.7562 Y-1.4064 Z-0.0100
G01 X6.7198 Y-1.4143 Z-0.0100
G01 X6.7157 Y-1.4153 Z-0.0100
G01 X6.6816 Y-1.4238 Z-0.0100
G01 X6.6764 Y-1.4253 Z-0.0100
G01 X6.6444 Y-1.4348 Z-0.0100
G01 X6.6385 Y-1.4367 Z-0.0100
G01 X6.6085 Y-1.4472 Z-0.0100
G01 X6.6017 Y-1.4498 Z-0.0100
G01 X6.5737 Y-1.4616 Z-0.0100
G01 X6.5660 Y-1.4651 Z-0.0100
G01 X6.5399 Y-1.4782 Z-0.0100
G01 X6.5317 Y-1.4827 Z-0.0100
G01 X6.5074 Y-1.4972 Z-0.0100
G01 X6.4987 Y-1.5029 Z-0.0100
G01 X6.4762 Y-1.5191 Z-0.0100
G01 X6.4675 Y-1.5259 Z-0.0100
G01 X6.4467 Y-1.5438 Z-0.0100
G01 X6.4385 Y-1.5516 Z-0.0100
G01 X6.4193 Y-1.5714 Z-0.0100
G01 X6.4118 Y-1.5800 Z-0.0100
G01 X6.3942 Y-1.6018 Z-0.0100
G01 X6.3877 Y-1.6106 Z-0.0100
G01 X6.3716 Y-1.6346 Z-0.0100
G01 X6.3662 Y-1.6434 Z-0.0100
G01 X6.3516 Y-1.6697 Z-0.0100
G01 X6.3474 Y-1.6781 Z-0.0100
G01 X6.3341 Y-1.7069 Z-0.0100
G01 X6.3308 Y-1.7147 Z-0.0100
G01 X6.3189 Y-1.7461 Z-0.0100
G01 X6.3164 Y-1.7531 Z-0.0100
G01 X6.3057 Y-1.7872 Z-0.0100
G01 X6.3039 Y-1.7935 Z-0.0100
G01 X6.2944 Y-1.8304 Z-0.0100
G01 X6.2931 Y-1.8360 Z-0.0100
G01 X6.2848 Y-1.8760 Z-0.0100
G01 X6.2839 Y-1.8805 Z-0.0100
G01 X6.2765 Y-1.9236 Z-0.0100
G01 X6.2759 Y-1.9277 Z-0.0100
G01 X6.2695 Y-1.9742 Z-0.0100
G01 X6.2690 Y-1.9774 Z-0.0100
G01 X6.2635 Y-2.0273 Z-0.0100
G01 X6.2633 Y-2.0302 Z-0.0100
G01 X6.2586 Y-2.0837 Z-0.0100
G01 X6.2584 Y-2.0860 Z-0.0100
G01 X6.2545 Y-2.1432 Z-0.0100
G01 X6.2544 Y-2.1453 Z-0.0100
G01 X6.2512 Y-2.2063 Z-0.0100
G01 X6.2512 Y-2.2078 Z-0.0100
G01 X6.2486 Y-2.2729 Z-0.0100
G01 X6.2486 Y-2.2743 Z-0.0100
G01 X6.2466 Y-2.3435 Z-0.0100
G01 X6.2466 Y-2.3445 Z-0.0100
G01 X6.2452 Y-2.4180 Z-0.0100
G01 X6.2451 Y-2.4188 Z-0.0100
G01 X6.2441 Y-2.4967 Z-0.0100
G01 X6.2441 Y-2.4974 Z-0.0100
G01 X6.2435 Y-2.5799 Z-0.0100
G01 X6.2431 Y-2.6675 Z-0.0100
G01 X6.2431 Y-2.7599 Z-0.0100
G00 X6.2431 Y-2.7599 Z0.2500
G00 X5.4557 Y-3.0353 Z0.2500
M05
G00 X0.0000 Y0.0000 Z0.2500
G49
G01 G55 Z0 F20
G00 G55 X0 Y0 Z0
M30
