( Sample-ski-top-cutout.nc                                                     )
( Generated by MonkeyCAM v4.0.4 at 2016-07-27 22:31:12 New Zealand Standard Time
(                                                                              )
( This GCode program is provided on an "AS IS" BASIS WITHOUT WARRANTIES OR     )
( CONDITIONS OF ANY KIND, either express or implied. You should inspect this   )
( program very carefully to confirm you understand its operation. YOU ARE      )
( RESPONSIBLE FOR ENSURING THIS PROGRAM WILL NOT DAMAGE YOUR MACHINE OR        )
( MATERIALS.                                                                   )
(                                                                              )
( See http://www.github.com/mikemag/MonkeyCAM for License and documentation.   )
(                                                                              )
( * Rapid height: 0.6000" [1.5240cm]                                           )
( * Tool: T1, Quarter Inch Upcut Spiral, diameter 0.2469" [0.6273cm]           )
( * Height baseline [Z=0.0] is the top of the table.                           )
( * XY origin is the left side of the table, Y is center of the part.          )
( * Requires G54 to be the part work coordinate offsets [WCO]. [0, 0] is the   )
(   center of the nose, with the board extending to positive X. The cutter may )
(   move to negative values of X.                                              )
( * Requires G55 to be the machine WCO, with Z above the rapid height.         )
( * Units are inches                                                           )
( * Center of the board in G54:                                                )
(     X=36.0236 Y=0.0000 Z=0.0000                                              )
( * Cutter bounding box in G54:                                                )
(     X0.0000 Y-2.7770 Z-0.0100 to X69.6116 Y2.7770 Z0.6000                    )

G90 G20 G17 G40 G49
G43 H1 T1
G00 G54 X0 Y0 Z0.6000

G00 X0.6639 Y-0.3855 Z0.6000
M03
G04 P5
G01 X0.6639 Y-0.3855 Z0.2050 F80
G01 X0.6639 Y-0.3881 Z0.2050
G01 X0.6648 Y-0.4280 Z0.2050
G01 X0.6650 Y-0.4329 Z0.2050
G01 X0.6669 Y-0.4653 Z0.2050
G01 X0.6674 Y-0.4706 Z0.2050
G01 X0.6705 Y-0.5006 Z0.2050
G01 X0.6711 Y-0.5060 Z0.2050
G01 X0.6757 Y-0.5366 Z0.2050
G01 X0.6765 Y-0.5418 Z0.2050
G01 X0.6824 Y-0.5722 Z0.2050
G01 X0.6835 Y-0.5774 Z0.2050
G01 X0.6905 Y-0.6069 Z0.2050
G01 X0.6919 Y-0.6122 Z0.2050
G01 X0.7003 Y-0.6418 Z0.2050
G01 X0.7019 Y-0.6472 Z0.2050
G01 X0.7117 Y-0.6764 Z0.2050
G01 X0.7136 Y-0.6816 Z0.2050
G01 X0.7248 Y-0.7108 Z0.2050
G01 X0.7269 Y-0.7160 Z0.2050
G01 X0.7400 Y-0.7460 Z0.2050
G01 X0.7423 Y-0.7509 Z0.2050
G01 X0.7569 Y-0.7807 Z0.2050
G01 X0.7594 Y-0.7855 Z0.2050
G01 X0.7761 Y-0.8159 Z0.2050
G01 X0.7788 Y-0.8207 Z0.2050
G01 X0.7971 Y-0.8508 Z0.2050
G01 X0.8000 Y-0.8554 Z0.2050
G01 X0.8207 Y-0.8864 Z0.2050
G01 X0.8238 Y-0.8909 Z0.2050
G01 X0.8470 Y-0.9224 Z0.2050
G01 X0.8502 Y-0.9266 Z0.2050
G01 X0.8759 Y-0.9587 Z0.2050
G01 X0.8792 Y-0.9626 Z0.2050
G01 X0.9078 Y-0.9955 Z0.2050
G01 X0.9113 Y-0.9994 Z0.2050
G01 X0.9421 Y-1.0318 Z0.2050
G01 X0.9456 Y-1.0353 Z0.2050
G01 X0.9808 Y-1.0696 Z0.2050
G01 X0.9843 Y-1.0729 Z0.2050
G01 X1.0214 Y-1.1062 Z0.2050
G01 X1.0250 Y-1.1093 Z0.2050
G01 X1.0673 Y-1.1446 Z0.2050
G01 X1.0709 Y-1.1475 Z0.2050
G01 X1.1149 Y-1.1814 Z0.2050
G01 X1.1184 Y-1.1840 Z0.2050
G01 X1.1679 Y-1.2195 Z0.2050
G01 X1.1715 Y-1.2220 Z0.2050
G01 X1.2237 Y-1.2566 Z0.2050
G01 X1.2272 Y-1.2588 Z0.2050
G01 X1.2849 Y-1.2944 Z0.2050
G01 X1.2884 Y-1.2965 Z0.2050
G01 X1.3487 Y-1.3309 Z0.2050
G01 X1.3520 Y-1.3327 Z0.2050
G01 X1.4185 Y-1.3680 Z0.2050
G01 X1.4219 Y-1.3698 Z0.2050
G01 X1.4909 Y-1.4037 Z0.2050
G01 X1.4941 Y-1.4052 Z0.2050
G01 X1.5693 Y-1.4395 Z0.2050
G01 X1.5725 Y-1.4409 Z0.2050
G01 X1.6513 Y-1.4741 Z0.2050
G01 X1.6544 Y-1.4754 Z0.2050
G01 X1.7387 Y-1.5083 Z0.2050
G01 X1.7418 Y-1.5095 Z0.2050
G01 X1.8287 Y-1.5407 Z0.2050
G01 X1.8316 Y-1.5417 Z0.2050
G01 X1.9262 Y-1.5731 Z0.2050
G01 X1.9291 Y-1.5740 Z0.2050
G01 X2.0262 Y-1.6037 Z0.2050
G01 X2.0290 Y-1.6045 Z0.2050
G01 X2.1339 Y-1.6337 Z0.2050
G01 X2.1366 Y-1.6344 Z0.2050
G01 X2.2425 Y-1.6615 Z0.2050
G01 X2.2452 Y-1.6621 Z0.2050
G01 X2.3593 Y-1.6886 Z0.2050
G01 X2.3618 Y-1.6891 Z0.2050
G01 X2.4810 Y-1.7141 Z0.2050
G01 X2.4835 Y-1.7146 Z0.2050
G01 X2.6046 Y-1.7375 Z0.2050
G01 X2.6076 Y-1.7380 Z0.2050
G01 X2.6990 Y-1.7529 Z0.2050
G01 X2.7003 Y-1.7531 Z0.2050
G01 X2.7885 Y-1.7665 Z0.2050
G01 X2.7897 Y-1.7667 Z0.2050
G01 X2.8747 Y-1.7788 Z0.2050
G01 X2.8759 Y-1.7790 Z0.2050
G01 X2.9576 Y-1.7898 Z0.2050
G01 X2.9588 Y-1.7899 Z0.2050
G01 X3.0374 Y-1.7996 Z0.2050
G01 X3.0383 Y-1.7997 Z0.2050
G01 X3.1139 Y-1.8084 Z0.2050
G01 X3.1148 Y-1.8085 Z0.2050
G01 X3.1873 Y-1.8164 Z0.2050
G01 X3.1880 Y-1.8164 Z0.2050
G01 X3.2577 Y-1.8236 Z0.2050
G01 X3.2583 Y-1.8236 Z0.2050
G01 X3.3250 Y-1.8301 Z0.2050
G01 X3.3893 Y-1.8362 Z0.2050
G01 X3.4505 Y-1.8419 Z0.2050
G01 X3.5090 Y-1.8474 Z0.2050
G01 X3.5638 Y-1.8526 Z0.2050
G01 X3.6170 Y-1.8580 Z0.2050
G01 X3.6652 Y-1.8633 Z0.2050
G01 X3.7130 Y-1.8691 Z0.2050
G01 X3.7554 Y-1.8749 Z0.2050
G01 X3.7966 Y-1.8814 Z0.2050
G01 X3.8355 Y-1.8885 Z0.2050
G01 X3.8703 Y-1.8959 Z0.2050
G01 X3.9014 Y-1.9037 Z0.2050
G01 X3.9311 Y-1.9125 Z0.2050
G01 X3.9575 Y-1.9218 Z0.2050
G01 X3.9812 Y-1.9318 Z0.2050
G01 X4.0024 Y-1.9423 Z0.2050
G01 X4.0216 Y-1.9535 Z0.2050
G01 X4.0385 Y-1.9654 Z0.2050
G01 X4.0536 Y-1.9779 Z0.2050
G01 X4.0679 Y-1.9920 Z0.2050
G01 X4.0814 Y-2.0077 Z0.2050
G01 X4.0935 Y-2.0246 Z0.2050
G01 X4.1059 Y-2.0451 Z0.2050
G01 X4.1174 Y-2.0675 Z0.2050
G01 X4.1285 Y-2.0934 Z0.2050
G01 X4.1389 Y-2.1227 Z0.2050
G01 X4.1487 Y-2.1554 Z0.2050
G01 X4.1575 Y-2.1909 Z0.2050
G01 X4.1662 Y-2.2331 Z0.2050
G01 X4.1735 Y-2.2760 Z0.2050
G01 X4.1800 Y-2.3227 Z0.2050
G01 X4.1860 Y-2.3770 Z0.2050
G01 X4.1909 Y-2.4309 Z0.2050
G01 X4.1952 Y-2.4927 Z0.2050
G01 X4.1987 Y-2.5568 Z0.2050
G01 X4.2015 Y-2.6240 Z0.2050
G01 X4.2025 Y-2.6573 Z0.2050
G01 X4.2026 Y-2.6608 Z0.2050
G01 X4.2029 Y-2.6643 Z0.2050
G01 X4.2033 Y-2.6678 Z0.2050
G01 X4.2037 Y-2.6712 Z0.2050
G01 X4.2042 Y-2.6747 Z0.2050
G01 X4.2049 Y-2.6781 Z0.2050
G01 X4.2057 Y-2.6816 Z0.2050
G01 X4.2065 Y-2.6850 Z0.2050
G01 X4.2074 Y-2.6883 Z0.2050
G01 X4.2085 Y-2.6917 Z0.2050
G01 X4.2096 Y-2.6950 Z0.2050
G01 X4.2108 Y-2.6983 Z0.2050
G01 X4.2121 Y-2.7015 Z0.2050
G01 X4.2135 Y-2.7047 Z0.2050
G01 X4.2150 Y-2.7079 Z0.2050
G01 X4.2166 Y-2.7110 Z0.2050
G01 X4.2183 Y-2.7141 Z0.2050
G01 X4.2200 Y-2.7171 Z0.2050
G01 X4.2219 Y-2.7201 Z0.2050
G01 X4.2238 Y-2.7230 Z0.2050
G01 X4.2258 Y-2.7259 Z0.2050
G01 X4.2279 Y-2.7287 Z0.2050
G01 X4.2301 Y-2.7314 Z0.2050
G01 X4.2323 Y-2.7341 Z0.2050
G01 X4.2346 Y-2.7367 Z0.2050
G01 X4.2370 Y-2.7392 Z0.2050
G01 X4.2395 Y-2.7417 Z0.2050
G01 X4.2420 Y-2.7442 Z0.2050
G01 X4.2446 Y-2.7465 Z0.2050
G01 X4.2473 Y-2.7488 Z0.2050
G01 X4.2500 Y-2.7509 Z0.2050
G01 X4.2528 Y-2.7531 Z0.2050
G01 X4.2557 Y-2.7551 Z0.2050
G01 X4.2586 Y-2.7570 Z0.2050
G01 X4.2615 Y-2.7589 Z0.2050
G01 X4.2646 Y-2.7607 Z0.2050
G01 X4.2676 Y-2.7624 Z0.2050
G01 X4.2707 Y-2.7640 Z0.2050
G01 X4.2739 Y-2.7655 Z0.2050
G01 X4.2771 Y-2.7669 Z0.2050
G01 X4.2803 Y-2.7683 Z0.2050
G01 X4.2836 Y-2.7695 Z0.2050
G01 X4.2869 Y-2.7707 Z0.2050
G01 X4.2902 Y-2.7717 Z0.2050
G01 X4.2936 Y-2.7727 Z0.2050
G01 X4.2970 Y-2.7736 Z0.2050
G01 X4.3004 Y-2.7743 Z0.2050
G01 X4.3038 Y-2.7750 Z0.2050
G01 X4.3072 Y-2.7756 Z0.2050
G01 X4.3107 Y-2.7761 Z0.2050
G01 X4.3142 Y-2.7764 Z0.2050
G01 X4.3177 Y-2.7767 Z0.2050
G01 X4.3212 Y-2.7769 Z0.2050
G01 X4.3247 Y-2.7770 Z0.2050
G01 X4.3287 Y-2.7770 Z0.2050
G01 X4.3316 Y-2.7770 Z0.2050
G01 X4.3371 Y-2.7770 Z0.2050
G01 X4.3403 Y-2.7769 Z0.2050
G01 X4.9737 Y-2.7516 Z0.2050
G01 X5.6071 Y-2.7269 Z0.2050
G01 X6.2404 Y-2.7026 Z0.2050
G01 X6.8738 Y-2.6787 Z0.2050
G01 X7.5072 Y-2.6553 Z0.2050
G01 X8.1407 Y-2.6324 Z0.2050
G01 X8.7740 Y-2.6099 Z0.2050
G01 X9.4075 Y-2.5879 Z0.2050
G01 X10.0410 Y-2.5663 Z0.2050
G01 X10.6744 Y-2.5451 Z0.2050
G01 X11.3079 Y-2.5245 Z0.2050
G01 X11.9377 Y-2.5044 Z0.2050
G01 X11.9412 Y-2.5043 Z0.2050
G01 X12.5748 Y-2.4845 Z0.2050
G01 X13.2085 Y-2.4653 Z0.2050
G01 X13.8420 Y-2.4464 Z0.2050
G01 X14.4756 Y-2.4280 Z0.2050
G01 X15.1092 Y-2.4100 Z0.2050
G01 X15.7428 Y-2.3925 Z0.2050
G01 X16.3763 Y-2.3755 Z0.2050
G01 X17.0099 Y-2.3589 Z0.2050
G01 X17.6436 Y-2.3427 Z0.2050
G01 X18.1102 Y-2.3312 Z0.2050
G01 X18.2772 Y-2.3271 Z0.2050
G01 X18.8976 Y-2.3122 Z0.2050
G01 X18.9108 Y-2.3118 Z0.2050
G01 X19.5445 Y-2.2970 Z0.2050
G01 X19.6850 Y-2.2938 Z0.2050
G01 X20.1782 Y-2.2827 Z0.2050
G01 X20.4724 Y-2.2762 Z0.2050
G01 X20.8119 Y-2.2688 Z0.2050
G01 X21.4455 Y-2.2554 Z0.2050
G01 X22.0792 Y-2.2425 Z0.2050
G01 X22.7129 Y-2.2300 Z0.2050
G01 X23.3466 Y-2.2179 Z0.2050
G01 X23.9764 Y-2.2064 Z0.2050
G01 X23.9802 Y-2.2064 Z0.2050
G01 X24.6141 Y-2.1952 Z0.2050
G01 X25.2478 Y-2.1845 Z0.2050
G01 X25.8816 Y-2.1743 Z0.2050
G01 X26.5153 Y-2.1645 Z0.2050
G01 X27.1490 Y-2.1551 Z0.2050
G01 X27.7828 Y-2.1463 Z0.2050
G01 X28.4166 Y-2.1379 Z0.2050
G01 X29.0504 Y-2.1299 Z0.2050
G01 X29.6842 Y-2.1224 Z0.2050
G01 X30.3179 Y-2.1153 Z0.2050
G01 X30.9518 Y-2.1087 Z0.2050
G01 X31.5856 Y-2.1025 Z0.2050
G01 X32.2193 Y-2.0968 Z0.2050
G01 X32.8531 Y-2.0916 Z0.2050
G01 X33.4870 Y-2.0868 Z0.2050
G01 X34.1207 Y-2.0824 Z0.2050
G01 X34.7546 Y-2.0785 Z0.2050
G01 X35.3884 Y-2.0751 Z0.2050
G01 X36.0222 Y-2.0721 Z0.2050
G01 X36.6560 Y-2.0696 Z0.2050
G01 X37.2899 Y-2.0675 Z0.2050
G01 X37.9237 Y-2.0659 Z0.2050
G01 X38.5575 Y-2.0647 Z0.2050
G01 X39.1914 Y-2.0640 Z0.2050
G01 X39.8251 Y-2.0637 Z0.2050
G01 X40.4588 Y-2.0639 Z0.2050
G01 X41.0927 Y-2.0646 Z0.2050
G01 X41.7265 Y-2.0657 Z0.2050
G01 X42.3603 Y-2.0672 Z0.2050
G01 X42.9941 Y-2.0692 Z0.2050
G01 X43.6279 Y-2.0717 Z0.2050
G01 X44.2618 Y-2.0746 Z0.2050
G01 X44.8956 Y-2.0780 Z0.2050
G01 X45.5294 Y-2.0818 Z0.2050
G01 X46.1633 Y-2.0861 Z0.2050
G01 X46.7970 Y-2.0908 Z0.2050
G01 X47.4308 Y-2.0960 Z0.2050
G01 X48.0646 Y-2.1016 Z0.2050
G01 X48.6985 Y-2.1077 Z0.2050
G01 X49.3322 Y-2.1143 Z0.2050
G01 X49.8031 Y-2.1195 Z0.2050
G01 X49.9660 Y-2.1213 Z0.2050
G01 X50.5905 Y-2.1286 Z0.2050
G01 X50.5998 Y-2.1287 Z0.2050
G01 X51.2336 Y-2.1366 Z0.2050
G01 X51.3779 Y-2.1385 Z0.2050
G01 X51.8673 Y-2.1450 Z0.2050
G01 X52.1653 Y-2.1491 Z0.2050
G01 X52.5011 Y-2.1538 Z0.2050
G01 X53.1349 Y-2.1631 Z0.2050
G01 X53.7687 Y-2.1728 Z0.2050
G01 X54.4024 Y-2.1830 Z0.2050
G01 X55.0361 Y-2.1936 Z0.2050
G01 X55.6699 Y-2.2047 Z0.2050
G01 X56.3037 Y-2.2162 Z0.2050
G01 X56.3072 Y-2.2162 Z0.2050
G01 X56.9372 Y-2.2281 Z0.2050
G01 X57.5710 Y-2.2406 Z0.2050
G01 X58.2047 Y-2.2535 Z0.2050
G01 X58.8384 Y-2.2668 Z0.2050
G01 X59.4720 Y-2.2807 Z0.2050
G01 X60.1057 Y-2.2949 Z0.2050
G01 X60.7393 Y-2.3096 Z0.2050
G01 X61.3730 Y-2.3248 Z0.2050
G01 X62.0066 Y-2.3404 Z0.2050
G01 X62.6403 Y-2.3565 Z0.2050
G01 X63.2739 Y-2.3730 Z0.2050
G01 X63.9075 Y-2.3900 Z0.2050
G01 X64.5411 Y-2.4074 Z0.2050
G01 X65.1746 Y-2.4253 Z0.2050
G01 X65.8082 Y-2.4437 Z0.2050
G01 X66.4418 Y-2.4624 Z0.2050
G01 X67.0754 Y-2.4817 Z0.2050
G01 X67.7090 Y-2.5014 Z0.2050
G01 X67.7116 Y-2.5014 Z0.2050
G01 X67.7157 Y-2.5015 Z0.2050
G01 X67.7194 Y-2.5015 Z0.2050
G01 X67.7229 Y-2.5014 Z0.2050
G01 X67.7265 Y-2.5013 Z0.2050
G01 X67.7300 Y-2.5010 Z0.2050
G01 X67.7335 Y-2.5007 Z0.2050
G01 X67.7371 Y-2.5002 Z0.2050
G01 X67.7406 Y-2.4997 Z0.2050
G01 X67.7440 Y-2.4990 Z0.2050
G01 X67.7475 Y-2.4983 Z0.2050
G01 X67.7509 Y-2.4974 Z0.2050
G01 X67.7544 Y-2.4964 Z0.2050
G01 X67.7577 Y-2.4954 Z0.2050
G01 X67.7611 Y-2.4942 Z0.2050
G01 X67.7644 Y-2.4930 Z0.2050
G01 X67.7677 Y-2.4916 Z0.2050
G01 X67.7709 Y-2.4902 Z0.2050
G01 X67.7742 Y-2.4887 Z0.2050
G01 X67.7773 Y-2.4871 Z0.2050
G01 X67.7804 Y-2.4853 Z0.2050
G01 X67.7835 Y-2.4836 Z0.2050
G01 X67.7865 Y-2.4817 Z0.2050
G01 X67.7894 Y-2.4797 Z0.2050
G01 X67.7923 Y-2.4777 Z0.2050
G01 X67.7951 Y-2.4755 Z0.2050
G01 X67.7979 Y-2.4733 Z0.2050
G01 X67.8006 Y-2.4710 Z0.2050
G01 X67.8033 Y-2.4687 Z0.2050
G01 X67.8058 Y-2.4662 Z0.2050
G01 X67.8083 Y-2.4637 Z0.2050
G01 X67.8107 Y-2.4611 Z0.2050
G01 X67.8131 Y-2.4585 Z0.2050
G01 X67.8153 Y-2.4557 Z0.2050
G01 X67.8175 Y-2.4529 Z0.2050
G01 X67.8196 Y-2.4501 Z0.2050
G01 X67.8217 Y-2.4472 Z0.2050
G01 X67.8236 Y-2.4442 Z0.2050
G01 X67.8255 Y-2.4412 Z0.2050
G01 X67.8272 Y-2.4381 Z0.2050
G01 X67.8289 Y-2.4350 Z0.2050
G01 X67.8305 Y-2.4318 Z0.2050
G01 X67.8320 Y-2.4286 Z0.2050
G01 X67.8334 Y-2.4254 Z0.2050
G01 X67.8348 Y-2.4221 Z0.2050
G01 X67.8359 Y-2.4187 Z0.2050
G01 X67.8371 Y-2.4154 Z0.2050
G01 X67.8381 Y-2.4120 Z0.2050
G01 X67.8390 Y-2.4086 Z0.2050
G01 X67.8399 Y-2.4051 Z0.2050
G01 X67.8406 Y-2.4016 Z0.2050
G01 X67.8412 Y-2.3982 Z0.2050
G01 X67.8417 Y-2.3947 Z0.2050
G01 X67.8422 Y-2.3911 Z0.2050
G01 X67.8425 Y-2.3876 Z0.2050
G01 X67.8427 Y-2.3841 Z0.2050
G01 X67.8428 Y-2.3805 Z0.2050
G01 X67.8435 Y-2.3504 Z0.2050
G01 X67.8453 Y-2.2826 Z0.2050
G01 X67.8478 Y-2.2191 Z0.2050
G01 X67.8509 Y-2.1601 Z0.2050
G01 X67.8547 Y-2.1038 Z0.2050
G01 X67.8590 Y-2.0535 Z0.2050
G01 X67.8642 Y-2.0068 Z0.2050
G01 X67.8701 Y-1.9635 Z0.2050
G01 X67.8769 Y-1.9242 Z0.2050
G01 X67.8840 Y-1.8903 Z0.2050
G01 X67.8922 Y-1.8585 Z0.2050
G01 X67.9008 Y-1.8311 Z0.2050
G01 X67.9100 Y-1.8070 Z0.2050
G01 X67.9194 Y-1.7866 Z0.2050
G01 X67.9296 Y-1.7681 Z0.2050
G01 X67.9393 Y-1.7537 Z0.2050
G01 X67.9504 Y-1.7399 Z0.2050
G01 X67.9614 Y-1.7286 Z0.2050
G01 X67.9741 Y-1.7176 Z0.2050
G01 X67.9877 Y-1.7078 Z0.2050
G01 X68.0037 Y-1.6983 Z0.2050
G01 X68.0217 Y-1.6892 Z0.2050
G01 X68.0432 Y-1.6802 Z0.2050
G01 X68.0661 Y-1.6722 Z0.2050
G01 X68.0935 Y-1.6641 Z0.2050
G01 X68.1219 Y-1.6569 Z0.2050
G01 X68.1554 Y-1.6497 Z0.2050
G01 X68.1920 Y-1.6429 Z0.2050
G01 X68.2290 Y-1.6368 Z0.2050
G01 X68.2702 Y-1.6307 Z0.2050
G01 X68.3159 Y-1.6245 Z0.2050
G01 X68.3625 Y-1.6186 Z0.2050
G01 X68.4131 Y-1.6124 Z0.2050
G01 X68.4665 Y-1.6060 Z0.2050
G01 X68.5227 Y-1.5992 Z0.2050
G01 X68.5820 Y-1.5918 Z0.2050
G01 X68.5826 Y-1.5918 Z0.2050
G01 X68.6444 Y-1.5838 Z0.2050
G01 X68.6451 Y-1.5837 Z0.2050
G01 X68.7097 Y-1.5750 Z0.2050
G01 X68.7107 Y-1.5749 Z0.2050
G01 X68.7783 Y-1.5653 Z0.2050
G01 X68.7794 Y-1.5651 Z0.2050
G01 X68.8501 Y-1.5544 Z0.2050
G01 X68.8512 Y-1.5542 Z0.2050
G01 X68.9251 Y-1.5423 Z0.2050
G01 X68.9264 Y-1.5421 Z0.2050
G01 X69.0034 Y-1.5288 Z0.2050
G01 X69.0048 Y-1.5286 Z0.2050
G01 X69.0850 Y-1.5138 Z0.2050
G01 X69.0863 Y-1.5136 Z0.2050
G01 X69.1699 Y-1.4972 Z0.2050
G01 X69.1714 Y-1.4969 Z0.2050
G01 X69.2583 Y-1.4788 Z0.2050
G01 X69.2598 Y-1.4785 Z0.2050
G01 X69.3502 Y-1.4584 Z0.2050
G01 X69.3531 Y-1.4577 Z0.2050
G01 X69.3935 Y-1.4478 Z0.2050
G01 X69.3956 Y-1.4472 Z0.2050
G01 X69.4369 Y-1.4362 Z0.2050
G01 X69.4393 Y-1.4356 Z0.2050
G01 X69.4759 Y-1.4251 Z0.2050
G01 X69.4783 Y-1.4243 Z0.2050
G01 X69.5123 Y-1.4138 Z0.2050
G01 X69.5148 Y-1.4130 Z0.2050
G01 X69.5272 Y-1.4088 Z0.2050
G01 X69.5305 Y-1.4077 Z0.2050
G01 X69.5338 Y-1.4064 Z0.2050
G01 X69.5370 Y-1.4051 Z0.2050
G01 X69.5402 Y-1.4037 Z0.2050
G01 X69.5434 Y-1.4022 Z0.2050
G01 X69.5465 Y-1.4005 Z0.2050
G01 X69.5495 Y-1.3988 Z0.2050
G01 X69.5525 Y-1.3970 Z0.2050
G01 X69.5555 Y-1.3952 Z0.2050
G01 X69.5584 Y-1.3932 Z0.2050
G01 X69.5613 Y-1.3912 Z0.2050
G01 X69.5641 Y-1.3891 Z0.2050
G01 X69.5668 Y-1.3869 Z0.2050
G01 X69.5695 Y-1.3846 Z0.2050
G01 X69.5721 Y-1.3823 Z0.2050
G01 X69.5746 Y-1.3798 Z0.2050
G01 X69.5771 Y-1.3774 Z0.2050
G01 X69.5795 Y-1.3748 Z0.2050
G01 X69.5818 Y-1.3722 Z0.2050
G01 X69.5840 Y-1.3695 Z0.2050
G01 X69.5862 Y-1.3667 Z0.2050
G01 X69.5883 Y-1.3639 Z0.2050
G01 X69.5903 Y-1.3611 Z0.2050
G01 X69.5922 Y-1.3581 Z0.2050
G01 X69.5941 Y-1.3551 Z0.2050
G01 X69.5958 Y-1.3521 Z0.2050
G01 X69.5975 Y-1.3490 Z0.2050
G01 X69.5991 Y-1.3459 Z0.2050
G01 X69.6006 Y-1.3427 Z0.2050
G01 X69.6020 Y-1.3395 Z0.2050
G01 X69.6033 Y-1.3362 Z0.2050
G01 X69.6045 Y-1.3330 Z0.2050
G01 X69.6056 Y-1.3296 Z0.2050
G01 X69.6066 Y-1.3263 Z0.2050
G01 X69.6076 Y-1.3229 Z0.2050
G01 X69.6084 Y-1.3195 Z0.2050
G01 X69.6092 Y-1.3161 Z0.2050
G01 X69.6098 Y-1.3127 Z0.2050
G01 X69.6103 Y-1.3092 Z0.2050
G01 X69.6108 Y-1.3057 Z0.2050
G01 X69.6112 Y-1.3022 Z0.2050
G01 X69.6114 Y-1.2987 Z0.2050
G01 X69.6116 Y-1.2952 Z0.2050
G01 X69.6116 Y-1.2917 Z0.2050
G01 X69.6116 Y1.2917 Z0.2050
G01 X69.6116 Y1.2952 Z0.2050
G01 X69.6114 Y1.2987 Z0.2050
G01 X69.6112 Y1.3022 Z0.2050
G01 X69.6108 Y1.3057 Z0.2050
G01 X69.6103 Y1.3092 Z0.2050
G01 X69.6098 Y1.3127 Z0.2050
G01 X69.6092 Y1.3161 Z0.2050
G01 X69.6084 Y1.3195 Z0.2050
G01 X69.6076 Y1.3229 Z0.2050
G01 X69.6066 Y1.3263 Z0.2050
G01 X69.6056 Y1.3296 Z0.2050
G01 X69.6045 Y1.3330 Z0.2050
G01 X69.6033 Y1.3362 Z0.2050
G01 X69.6020 Y1.3395 Z0.2050
G01 X69.6006 Y1.3427 Z0.2050
G01 X69.5991 Y1.3459 Z0.2050
G01 X69.5975 Y1.3490 Z0.2050
G01 X69.5958 Y1.3521 Z0.2050
G01 X69.5941 Y1.3551 Z0.2050
G01 X69.5922 Y1.3581 Z0.2050
G01 X69.5903 Y1.3611 Z0.2050
G01 X69.5883 Y1.3639 Z0.2050
G01 X69.5862 Y1.3667 Z0.2050
G01 X69.5840 Y1.3695 Z0.2050
G01 X69.5818 Y1.3722 Z0.2050
G01 X69.5795 Y1.3748 Z0.2050
G01 X69.5771 Y1.3774 Z0.2050
G01 X69.5746 Y1.3798 Z0.2050
G01 X69.5721 Y1.3823 Z0.2050
G01 X69.5695 Y1.3846 Z0.2050
G01 X69.5668 Y1.3869 Z0.2050
G01 X69.5641 Y1.3891 Z0.2050
G01 X69.5613 Y1.3912 Z0.2050
G01 X69.5584 Y1.3932 Z0.2050
G01 X69.5555 Y1.3952 Z0.2050
G01 X69.5525 Y1.3970 Z0.2050
G01 X69.5495 Y1.3988 Z0.2050
G01 X69.5465 Y1.4005 Z0.2050
G01 X69.5434 Y1.4022 Z0.2050
G01 X69.5402 Y1.4037 Z0.2050
G01 X69.5370 Y1.4051 Z0.2050
G01 X69.5338 Y1.4064 Z0.2050
G01 X69.5305 Y1.4077 Z0.2050
G01 X69.5272 Y1.4088 Z0.2050
G01 X69.5148 Y1.4130 Z0.2050
G01 X69.5123 Y1.4138 Z0.2050
G01 X69.4783 Y1.4243 Z0.2050
G01 X69.4759 Y1.4251 Z0.2050
G01 X69.4393 Y1.4356 Z0.2050
G01 X69.4369 Y1.4362 Z0.2050
G01 X69.3956 Y1.4472 Z0.2050
G01 X69.3935 Y1.4478 Z0.2050
G01 X69.3531 Y1.4577 Z0.2050
G01 X69.3502 Y1.4584 Z0.2050
G01 X69.2598 Y1.4785 Z0.2050
G01 X69.2583 Y1.4788 Z0.2050
G01 X69.1714 Y1.4969 Z0.2050
G01 X69.1699 Y1.4972 Z0.2050
G01 X69.0863 Y1.5136 Z0.2050
G01 X69.0850 Y1.5138 Z0.2050
G01 X69.0048 Y1.5286 Z0.2050
G01 X69.0034 Y1.5288 Z0.2050
G01 X68.9264 Y1.5421 Z0.2050
G01 X68.9251 Y1.5423 Z0.2050
G01 X68.8512 Y1.5542 Z0.2050
G01 X68.8501 Y1.5544 Z0.2050
G01 X68.7794 Y1.5651 Z0.2050
G01 X68.7783 Y1.5653 Z0.2050
G01 X68.7107 Y1.5749 Z0.2050
G01 X68.7097 Y1.5750 Z0.2050
G01 X68.6451 Y1.5837 Z0.2050
G01 X68.6444 Y1.5838 Z0.2050
G01 X68.5826 Y1.5918 Z0.2050
G01 X68.5820 Y1.5918 Z0.2050
G01 X68.5231 Y1.5991 Z0.2050
G01 X68.4666 Y1.6059 Z0.2050
G01 X68.4131 Y1.6124 Z0.2050
G01 X68.3625 Y1.6186 Z0.2050
G01 X68.3159 Y1.6245 Z0.2050
G01 X68.2702 Y1.6307 Z0.2050
G01 X68.2290 Y1.6368 Z0.2050
G01 X68.1920 Y1.6429 Z0.2050
G01 X68.1554 Y1.6497 Z0.2050
G01 X68.1219 Y1.6569 Z0.2050
G01 X68.0935 Y1.6641 Z0.2050
G01 X68.0661 Y1.6722 Z0.2050
G01 X68.0432 Y1.6802 Z0.2050
G01 X68.0217 Y1.6892 Z0.2050
G01 X68.0037 Y1.6983 Z0.2050
G01 X67.9877 Y1.7078 Z0.2050
G01 X67.9741 Y1.7176 Z0.2050
G01 X67.9614 Y1.7286 Z0.2050
G01 X67.9504 Y1.7399 Z0.2050
G01 X67.9393 Y1.7537 Z0.2050
G01 X67.9296 Y1.7681 Z0.2050
G01 X67.9194 Y1.7866 Z0.2050
G01 X67.9100 Y1.8070 Z0.2050
G01 X67.9008 Y1.8311 Z0.2050
G01 X67.8922 Y1.8585 Z0.2050
G01 X67.8840 Y1.8903 Z0.2050
G01 X67.8769 Y1.9242 Z0.2050
G01 X67.8702 Y1.9633 Z0.2050
G01 X67.8642 Y2.0064 Z0.2050
G01 X67.8590 Y2.0535 Z0.2050
G01 X67.8548 Y2.1029 Z0.2050
G01 X67.8509 Y2.1601 Z0.2050
G01 X67.8478 Y2.2191 Z0.2050
G01 X67.8453 Y2.2826 Z0.2050
G01 X67.8435 Y2.3504 Z0.2050
G01 X67.8428 Y2.3805 Z0.2050
G01 X67.8427 Y2.3841 Z0.2050
G01 X67.8425 Y2.3876 Z0.2050
G01 X67.8422 Y2.3911 Z0.2050
G01 X67.8417 Y2.3947 Z0.2050
G01 X67.8412 Y2.3982 Z0.2050
G01 X67.8406 Y2.4016 Z0.2050
G01 X67.8399 Y2.4051 Z0.2050
G01 X67.8390 Y2.4086 Z0.2050
G01 X67.8381 Y2.4120 Z0.2050
G01 X67.8371 Y2.4154 Z0.2050
G01 X67.8359 Y2.4187 Z0.2050
G01 X67.8348 Y2.4221 Z0.2050
G01 X67.8334 Y2.4254 Z0.2050
G01 X67.8320 Y2.4286 Z0.2050
G01 X67.8305 Y2.4318 Z0.2050
G01 X67.8289 Y2.4350 Z0.2050
G01 X67.8272 Y2.4381 Z0.2050
G01 X67.8255 Y2.4412 Z0.2050
G01 X67.8236 Y2.4442 Z0.2050
G01 X67.8217 Y2.4472 Z0.2050
G01 X67.8196 Y2.4501 Z0.2050
G01 X67.8175 Y2.4529 Z0.2050
G01 X67.8153 Y2.4557 Z0.2050
G01 X67.8131 Y2.4585 Z0.2050
G01 X67.8107 Y2.4611 Z0.2050
G01 X67.8083 Y2.4637 Z0.2050
G01 X67.8058 Y2.4662 Z0.2050
G01 X67.8033 Y2.4687 Z0.2050
G01 X67.8006 Y2.4710 Z0.2050
G01 X67.7979 Y2.4733 Z0.2050
G01 X67.7951 Y2.4755 Z0.2050
G01 X67.7923 Y2.4777 Z0.2050
G01 X67.7894 Y2.4797 Z0.2050
G01 X67.7865 Y2.4817 Z0.2050
G01 X67.7835 Y2.4836 Z0.2050
G01 X67.7804 Y2.4853 Z0.2050
G01 X67.7773 Y2.4871 Z0.2050
G01 X67.7742 Y2.4887 Z0.2050
G01 X67.7709 Y2.4902 Z0.2050
G01 X67.7677 Y2.4916 Z0.2050
G01 X67.7644 Y2.4930 Z0.2050
G01 X67.7611 Y2.4942 Z0.2050
G01 X67.7577 Y2.4954 Z0.2050
G01 X67.7544 Y2.4964 Z0.2050
G01 X67.7509 Y2.4974 Z0.2050
G01 X67.7475 Y2.4983 Z0.2050
G01 X67.7440 Y2.4990 Z0.2050
G01 X67.7406 Y2.4997 Z0.2050
G01 X67.7371 Y2.5002 Z0.2050
G01 X67.7335 Y2.5007 Z0.2050
G01 X67.7300 Y2.5010 Z0.2050
G01 X67.7265 Y2.5013 Z0.2050
G01 X67.7229 Y2.5014 Z0.2050
G01 X67.7194 Y2.5015 Z0.2050
G01 X67.7157 Y2.5015 Z0.2050
G01 X67.7116 Y2.5014 Z0.2050
G01 X67.7090 Y2.5014 Z0.2050
G01 X67.0754 Y2.4816 Z0.2050
G01 X66.4418 Y2.4624 Z0.2050
G01 X65.8082 Y2.4437 Z0.2050
G01 X65.1746 Y2.4253 Z0.2050
G01 X64.5411 Y2.4074 Z0.2050
G01 X63.9075 Y2.3900 Z0.2050
G01 X63.2739 Y2.3730 Z0.2050
G01 X62.6403 Y2.3565 Z0.2050
G01 X62.0066 Y2.3404 Z0.2050
G01 X61.3730 Y2.3248 Z0.2050
G01 X60.7393 Y2.3096 Z0.2050
G01 X60.1057 Y2.2949 Z0.2050
G01 X59.4720 Y2.2807 Z0.2050
G01 X58.8384 Y2.2668 Z0.2050
G01 X58.2047 Y2.2535 Z0.2050
G01 X57.5710 Y2.2406 Z0.2050
G01 X56.9372 Y2.2281 Z0.2050
G01 X56.3075 Y2.2162 Z0.2050
G01 X56.3037 Y2.2162 Z0.2050
G01 X55.6699 Y2.2047 Z0.2050
G01 X55.0361 Y2.1936 Z0.2050
G01 X54.4024 Y2.1830 Z0.2050
G01 X53.7687 Y2.1728 Z0.2050
G01 X53.1349 Y2.1631 Z0.2050
G01 X52.5011 Y2.1538 Z0.2050
G01 X52.1653 Y2.1491 Z0.2050
G01 X51.8673 Y2.1450 Z0.2050
G01 X51.3779 Y2.1385 Z0.2050
G01 X51.2336 Y2.1366 Z0.2050
G01 X50.5998 Y2.1287 Z0.2050
G01 X50.5905 Y2.1286 Z0.2050
G01 X49.9660 Y2.1213 Z0.2050
G01 X49.8031 Y2.1195 Z0.2050
G01 X49.3322 Y2.1143 Z0.2050
G01 X48.6985 Y2.1077 Z0.2050
G01 X48.0646 Y2.1016 Z0.2050
G01 X47.4308 Y2.0960 Z0.2050
G01 X46.7970 Y2.0908 Z0.2050
G01 X46.1633 Y2.0861 Z0.2050
G01 X45.5294 Y2.0818 Z0.2050
G01 X44.8956 Y2.0780 Z0.2050
G01 X44.2618 Y2.0746 Z0.2050
G01 X43.6279 Y2.0717 Z0.2050
G01 X42.9941 Y2.0692 Z0.2050
G01 X42.3603 Y2.0672 Z0.2050
G01 X41.7265 Y2.0657 Z0.2050
G01 X41.0927 Y2.0646 Z0.2050
G01 X40.4588 Y2.0639 Z0.2050
G01 X39.8251 Y2.0637 Z0.2050
G01 X39.1914 Y2.0640 Z0.2050
G01 X38.5575 Y2.0647 Z0.2050
G01 X37.9237 Y2.0659 Z0.2050
G01 X37.2899 Y2.0675 Z0.2050
G01 X36.6560 Y2.0696 Z0.2050
G01 X36.0222 Y2.0721 Z0.2050
G01 X35.3884 Y2.0751 Z0.2050
G01 X34.7546 Y2.0785 Z0.2050
G01 X34.1207 Y2.0824 Z0.2050
G01 X33.4870 Y2.0868 Z0.2050
G01 X32.8531 Y2.0916 Z0.2050
G01 X32.2193 Y2.0968 Z0.2050
G01 X31.5856 Y2.1025 Z0.2050
G01 X30.9518 Y2.1087 Z0.2050
G01 X30.3179 Y2.1153 Z0.2050
G01 X29.6842 Y2.1224 Z0.2050
G01 X29.0504 Y2.1299 Z0.2050
G01 X28.4166 Y2.1379 Z0.2050
G01 X27.7828 Y2.1463 Z0.2050
G01 X27.1490 Y2.1551 Z0.2050
G01 X26.5153 Y2.1645 Z0.2050
G01 X25.8816 Y2.1743 Z0.2050
G01 X25.2478 Y2.1845 Z0.2050
G01 X24.6141 Y2.1952 Z0.2050
G01 X23.9802 Y2.2064 Z0.2050
G01 X23.9764 Y2.2064 Z0.2050
G01 X23.3466 Y2.2179 Z0.2050
G01 X22.7129 Y2.2300 Z0.2050
G01 X22.0792 Y2.2425 Z0.2050
G01 X21.4455 Y2.2554 Z0.2050
G01 X20.8119 Y2.2688 Z0.2050
G01 X20.4724 Y2.2762 Z0.2050
G01 X20.1782 Y2.2827 Z0.2050
G01 X19.6850 Y2.2938 Z0.2050
G01 X19.5445 Y2.2970 Z0.2050
G01 X18.9108 Y2.3118 Z0.2050
G01 X18.8976 Y2.3122 Z0.2050
G01 X18.2772 Y2.3271 Z0.2050
G01 X18.1102 Y2.3312 Z0.2050
G01 X17.6436 Y2.3427 Z0.2050
G01 X17.0099 Y2.3589 Z0.2050
G01 X16.3763 Y2.3755 Z0.2050
G01 X15.7428 Y2.3925 Z0.2050
G01 X15.1092 Y2.4100 Z0.2050
G01 X14.4756 Y2.4280 Z0.2050
G01 X13.8420 Y2.4464 Z0.2050
G01 X13.2085 Y2.4653 Z0.2050
G01 X12.5748 Y2.4846 Z0.2050
G01 X11.9412 Y2.5043 Z0.2050
G01 X11.9377 Y2.5044 Z0.2050
G01 X11.3079 Y2.5245 Z0.2050
G01 X10.6744 Y2.5451 Z0.2050
G01 X10.0410 Y2.5663 Z0.2050
G01 X9.4075 Y2.5879 Z0.2050
G01 X8.7740 Y2.6099 Z0.2050
G01 X8.1407 Y2.6324 Z0.2050
G01 X7.5072 Y2.6553 Z0.2050
G01 X6.8738 Y2.6787 Z0.2050
G01 X6.2404 Y2.7026 Z0.2050
G01 X5.6071 Y2.7269 Z0.2050
G01 X4.9737 Y2.7516 Z0.2050
G01 X4.3403 Y2.7769 Z0.2050
G01 X4.3371 Y2.7770 Z0.2050
G01 X4.3316 Y2.7770 Z0.2050
G01 X4.3287 Y2.7770 Z0.2050
G01 X4.3247 Y2.7770 Z0.2050
G01 X4.3212 Y2.7769 Z0.2050
G01 X4.3177 Y2.7767 Z0.2050
G01 X4.3142 Y2.7764 Z0.2050
G01 X4.3107 Y2.7761 Z0.2050
G01 X4.3072 Y2.7756 Z0.2050
G01 X4.3038 Y2.7750 Z0.2050
G01 X4.3004 Y2.7743 Z0.2050
G01 X4.2970 Y2.7736 Z0.2050
G01 X4.2936 Y2.7727 Z0.2050
G01 X4.2902 Y2.7717 Z0.2050
G01 X4.2869 Y2.7707 Z0.2050
G01 X4.2836 Y2.7695 Z0.2050
G01 X4.2803 Y2.7683 Z0.2050
G01 X4.2771 Y2.7669 Z0.2050
G01 X4.2739 Y2.7655 Z0.2050
G01 X4.2707 Y2.7640 Z0.2050
G01 X4.2676 Y2.7624 Z0.2050
G01 X4.2646 Y2.7607 Z0.2050
G01 X4.2615 Y2.7589 Z0.2050
G01 X4.2586 Y2.7570 Z0.2050
G01 X4.2557 Y2.7551 Z0.2050
G01 X4.2528 Y2.7531 Z0.2050
G01 X4.2500 Y2.7509 Z0.2050
G01 X4.2473 Y2.7488 Z0.2050
G01 X4.2446 Y2.7465 Z0.2050
G01 X4.2420 Y2.7442 Z0.2050
G01 X4.2395 Y2.7417 Z0.2050
G01 X4.2370 Y2.7392 Z0.2050
G01 X4.2346 Y2.7367 Z0.2050
G01 X4.2323 Y2.7341 Z0.2050
G01 X4.2301 Y2.7314 Z0.2050
G01 X4.2279 Y2.7287 Z0.2050
G01 X4.2258 Y2.7259 Z0.2050
G01 X4.2238 Y2.7230 Z0.2050
G01 X4.2219 Y2.7201 Z0.2050
G01 X4.2200 Y2.7171 Z0.2050
G01 X4.2183 Y2.7141 Z0.2050
G01 X4.2166 Y2.7110 Z0.2050
G01 X4.2150 Y2.7079 Z0.2050
G01 X4.2135 Y2.7047 Z0.2050
G01 X4.2121 Y2.7015 Z0.2050
G01 X4.2108 Y2.6983 Z0.2050
G01 X4.2096 Y2.6950 Z0.2050
G01 X4.2085 Y2.6917 Z0.2050
G01 X4.2074 Y2.6883 Z0.2050
G01 X4.2065 Y2.6850 Z0.2050
G01 X4.2057 Y2.6816 Z0.2050
G01 X4.2049 Y2.6781 Z0.2050
G01 X4.2042 Y2.6747 Z0.2050
G01 X4.2037 Y2.6712 Z0.2050
G01 X4.2033 Y2.6678 Z0.2050
G01 X4.2029 Y2.6643 Z0.2050
G01 X4.2026 Y2.6608 Z0.2050
G01 X4.2025 Y2.6573 Z0.2050
G01 X4.2014 Y2.6240 Z0.2050
G01 X4.1987 Y2.5551 Z0.2050
G01 X4.1952 Y2.4927 Z0.2050
G01 X4.1908 Y2.4305 Z0.2050
G01 X4.1860 Y2.3770 Z0.2050
G01 X4.1799 Y2.3221 Z0.2050
G01 X4.1735 Y2.2760 Z0.2050
G01 X4.1661 Y2.2325 Z0.2050
G01 X4.1575 Y2.1909 Z0.2050
G01 X4.1486 Y2.1550 Z0.2050
G01 X4.1389 Y2.1227 Z0.2050
G01 X4.1284 Y2.0933 Z0.2050
G01 X4.1172 Y2.0672 Z0.2050
G01 X4.1059 Y2.0451 Z0.2050
G01 X4.0935 Y2.0246 Z0.2050
G01 X4.0814 Y2.0077 Z0.2050
G01 X4.0679 Y1.9920 Z0.2050
G01 X4.0536 Y1.9779 Z0.2050
G01 X4.0385 Y1.9654 Z0.2050
G01 X4.0216 Y1.9535 Z0.2050
G01 X4.0024 Y1.9422 Z0.2050
G01 X3.9812 Y1.9318 Z0.2050
G01 X3.9575 Y1.9218 Z0.2050
G01 X3.9311 Y1.9125 Z0.2050
G01 X3.9014 Y1.9037 Z0.2050
G01 X3.8703 Y1.8959 Z0.2050
G01 X3.8355 Y1.8885 Z0.2050
G01 X3.7966 Y1.8814 Z0.2050
G01 X3.7554 Y1.8749 Z0.2050
G01 X3.7130 Y1.8691 Z0.2050
G01 X3.6652 Y1.8633 Z0.2050
G01 X3.6170 Y1.8580 Z0.2050
G01 X3.5638 Y1.8526 Z0.2050
G01 X3.5090 Y1.8473 Z0.2050
G01 X3.4506 Y1.8419 Z0.2050
G01 X3.3894 Y1.8362 Z0.2050
G01 X3.3254 Y1.8301 Z0.2050
G01 X3.2583 Y1.8236 Z0.2050
G01 X3.2577 Y1.8236 Z0.2050
G01 X3.1880 Y1.8164 Z0.2050
G01 X3.1873 Y1.8164 Z0.2050
G01 X3.1148 Y1.8085 Z0.2050
G01 X3.1139 Y1.8084 Z0.2050
G01 X3.0383 Y1.7997 Z0.2050
G01 X3.0374 Y1.7996 Z0.2050
G01 X2.9588 Y1.7899 Z0.2050
G01 X2.9576 Y1.7898 Z0.2050
G01 X2.8759 Y1.7790 Z0.2050
G01 X2.8747 Y1.7788 Z0.2050
G01 X2.7897 Y1.7667 Z0.2050
G01 X2.7885 Y1.7665 Z0.2050
G01 X2.7003 Y1.7531 Z0.2050
G01 X2.6990 Y1.7529 Z0.2050
G01 X2.6076 Y1.7380 Z0.2050
G01 X2.6046 Y1.7375 Z0.2050
G01 X2.4835 Y1.7146 Z0.2050
G01 X2.4810 Y1.7141 Z0.2050
G01 X2.3618 Y1.6891 Z0.2050
G01 X2.3593 Y1.6886 Z0.2050
G01 X2.2452 Y1.6621 Z0.2050
G01 X2.2425 Y1.6615 Z0.2050
G01 X2.1366 Y1.6344 Z0.2050
G01 X2.1339 Y1.6337 Z0.2050
G01 X2.0290 Y1.6045 Z0.2050
G01 X2.0262 Y1.6037 Z0.2050
G01 X1.9291 Y1.5740 Z0.2050
G01 X1.9262 Y1.5731 Z0.2050
G01 X1.8316 Y1.5417 Z0.2050
G01 X1.8287 Y1.5407 Z0.2050
G01 X1.7418 Y1.5095 Z0.2050
G01 X1.7387 Y1.5083 Z0.2050
G01 X1.6544 Y1.4754 Z0.2050
G01 X1.6513 Y1.4741 Z0.2050
G01 X1.5725 Y1.4409 Z0.2050
G01 X1.5693 Y1.4395 Z0.2050
G01 X1.4941 Y1.4052 Z0.2050
G01 X1.4909 Y1.4037 Z0.2050
G01 X1.4219 Y1.3698 Z0.2050
G01 X1.4185 Y1.3680 Z0.2050
G01 X1.3520 Y1.3327 Z0.2050
G01 X1.3487 Y1.3309 Z0.2050
G01 X1.2883 Y1.2963 Z0.2050
G01 X1.2848 Y1.2943 Z0.2050
G01 X1.2272 Y1.2588 Z0.2050
G01 X1.2237 Y1.2566 Z0.2050
G01 X1.1715 Y1.2220 Z0.2050
G01 X1.1679 Y1.2195 Z0.2050
G01 X1.1184 Y1.1840 Z0.2050
G01 X1.1149 Y1.1814 Z0.2050
G01 X1.0709 Y1.1474 Z0.2050
G01 X1.0672 Y1.1445 Z0.2050
G01 X1.0249 Y1.1093 Z0.2050
G01 X1.0214 Y1.1062 Z0.2050
G01 X0.9843 Y1.0729 Z0.2050
G01 X0.9808 Y1.0696 Z0.2050
G01 X0.9456 Y1.0353 Z0.2050
G01 X0.9421 Y1.0318 Z0.2050
G01 X0.9113 Y0.9994 Z0.2050
G01 X0.9078 Y0.9955 Z0.2050
G01 X0.8792 Y0.9626 Z0.2050
G01 X0.8759 Y0.9587 Z0.2050
G01 X0.8502 Y0.9266 Z0.2050
G01 X0.8470 Y0.9224 Z0.2050
G01 X0.8238 Y0.8909 Z0.2050
G01 X0.8207 Y0.8864 Z0.2050
G01 X0.8000 Y0.8554 Z0.2050
G01 X0.7971 Y0.8508 Z0.2050
G01 X0.7788 Y0.8207 Z0.2050
G01 X0.7761 Y0.8159 Z0.2050
G01 X0.7594 Y0.7855 Z0.2050
G01 X0.7569 Y0.7807 Z0.2050
G01 X0.7423 Y0.7509 Z0.2050
G01 X0.7400 Y0.7460 Z0.2050
G01 X0.7269 Y0.7160 Z0.2050
G01 X0.7248 Y0.7108 Z0.2050
G01 X0.7136 Y0.6816 Z0.2050
G01 X0.7117 Y0.6764 Z0.2050
G01 X0.7019 Y0.6472 Z0.2050
G01 X0.7003 Y0.6418 Z0.2050
G01 X0.6919 Y0.6122 Z0.2050
G01 X0.6905 Y0.6069 Z0.2050
G01 X0.6835 Y0.5774 Z0.2050
G01 X0.6824 Y0.5722 Z0.2050
G01 X0.6765 Y0.5418 Z0.2050
G01 X0.6757 Y0.5366 Z0.2050
G01 X0.6711 Y0.5060 Z0.2050
G01 X0.6705 Y0.5006 Z0.2050
G01 X0.6674 Y0.4706 Z0.2050
G01 X0.6669 Y0.4653 Z0.2050
G01 X0.6650 Y0.4329 Z0.2050
G01 X0.6648 Y0.4280 Z0.2050
G01 X0.6639 Y0.3881 Z0.2050
G01 X0.6639 Y0.3855 Z0.2050
G01 X0.6639 Y-0.3855 Z0.2050
G01 X0.6639 Y-0.3855 Z-0.0100
G01 X0.6639 Y-0.3881 Z-0.0100
G01 X0.6648 Y-0.4280 Z-0.0100
G01 X0.6650 Y-0.4329 Z-0.0100
G01 X0.6669 Y-0.4653 Z-0.0100
G01 X0.6674 Y-0.4706 Z-0.0100
G01 X0.6705 Y-0.5006 Z-0.0100
G01 X0.6711 Y-0.5060 Z-0.0100
G01 X0.6757 Y-0.5366 Z-0.0100
G01 X0.6765 Y-0.5418 Z-0.0100
G01 X0.6824 Y-0.5722 Z-0.0100
G01 X0.6835 Y-0.5774 Z-0.0100
G01 X0.6905 Y-0.6069 Z-0.0100
G01 X0.6919 Y-0.6122 Z-0.0100
G01 X0.7003 Y-0.6418 Z-0.0100
G01 X0.7019 Y-0.6472 Z-0.0100
G01 X0.7117 Y-0.6764 Z-0.0100
G01 X0.7136 Y-0.6816 Z-0.0100
G01 X0.7248 Y-0.7108 Z-0.0100
G01 X0.7269 Y-0.7160 Z-0.0100
G01 X0.7400 Y-0.7460 Z-0.0100
G01 X0.7423 Y-0.7509 Z-0.0100
G01 X0.7569 Y-0.7807 Z-0.0100
G01 X0.7594 Y-0.7855 Z-0.0100
G01 X0.7761 Y-0.8159 Z-0.0100
G01 X0.7788 Y-0.8207 Z-0.0100
G01 X0.7971 Y-0.8508 Z-0.0100
G01 X0.8000 Y-0.8554 Z-0.0100
G01 X0.8207 Y-0.8864 Z-0.0100
G01 X0.8238 Y-0.8909 Z-0.0100
G01 X0.8470 Y-0.9224 Z-0.0100
G01 X0.8502 Y-0.9266 Z-0.0100
G01 X0.8759 Y-0.9587 Z-0.0100
G01 X0.8792 Y-0.9626 Z-0.0100
G01 X0.9078 Y-0.9955 Z-0.0100
G01 X0.9113 Y-0.9994 Z-0.0100
G01 X0.9421 Y-1.0318 Z-0.0100
G01 X0.9456 Y-1.0353 Z-0.0100
G01 X0.9808 Y-1.0696 Z-0.0100
G01 X0.9843 Y-1.0729 Z-0.0100
G01 X1.0214 Y-1.1062 Z-0.0100
G01 X1.0250 Y-1.1093 Z-0.0100
G01 X1.0673 Y-1.1446 Z-0.0100
G01 X1.0709 Y-1.1475 Z-0.0100
G01 X1.1149 Y-1.1814 Z-0.0100
G01 X1.1184 Y-1.1840 Z-0.0100
G01 X1.1679 Y-1.2195 Z-0.0100
G01 X1.1715 Y-1.2220 Z-0.0100
G01 X1.2237 Y-1.2566 Z-0.0100
G01 X1.2272 Y-1.2588 Z-0.0100
G01 X1.2849 Y-1.2944 Z-0.0100
G01 X1.2884 Y-1.2965 Z-0.0100
G01 X1.3487 Y-1.3309 Z-0.0100
G01 X1.3520 Y-1.3327 Z-0.0100
G01 X1.4185 Y-1.3680 Z-0.0100
G01 X1.4219 Y-1.3698 Z-0.0100
G01 X1.4909 Y-1.4037 Z-0.0100
G01 X1.4941 Y-1.4052 Z-0.0100
G01 X1.5693 Y-1.4395 Z-0.0100
G01 X1.5725 Y-1.4409 Z-0.0100
G01 X1.6513 Y-1.4741 Z-0.0100
G01 X1.6544 Y-1.4754 Z-0.0100
G01 X1.7387 Y-1.5083 Z-0.0100
G01 X1.7418 Y-1.5095 Z-0.0100
G01 X1.8287 Y-1.5407 Z-0.0100
G01 X1.8316 Y-1.5417 Z-0.0100
G01 X1.9262 Y-1.5731 Z-0.0100
G01 X1.9291 Y-1.5740 Z-0.0100
G01 X2.0262 Y-1.6037 Z-0.0100
G01 X2.0290 Y-1.6045 Z-0.0100
G01 X2.1339 Y-1.6337 Z-0.0100
G01 X2.1366 Y-1.6344 Z-0.0100
G01 X2.2425 Y-1.6615 Z-0.0100
G01 X2.2452 Y-1.6621 Z-0.0100
G01 X2.3593 Y-1.6886 Z-0.0100
G01 X2.3618 Y-1.6891 Z-0.0100
G01 X2.4810 Y-1.7141 Z-0.0100
G01 X2.4835 Y-1.7146 Z-0.0100
G01 X2.6046 Y-1.7375 Z-0.0100
G01 X2.6076 Y-1.7380 Z-0.0100
G01 X2.6990 Y-1.7529 Z-0.0100
G01 X2.7003 Y-1.7531 Z-0.0100
G01 X2.7885 Y-1.7665 Z-0.0100
G01 X2.7897 Y-1.7667 Z-0.0100
G01 X2.8747 Y-1.7788 Z-0.0100
G01 X2.8759 Y-1.7790 Z-0.0100
G01 X2.9576 Y-1.7898 Z-0.0100
G01 X2.9588 Y-1.7899 Z-0.0100
G01 X3.0374 Y-1.7996 Z-0.0100
G01 X3.0383 Y-1.7997 Z-0.0100
G01 X3.1139 Y-1.8084 Z-0.0100
G01 X3.1148 Y-1.8085 Z-0.0100
G01 X3.1873 Y-1.8164 Z-0.0100
G01 X3.1880 Y-1.8164 Z-0.0100
G01 X3.2577 Y-1.8236 Z-0.0100
G01 X3.2583 Y-1.8236 Z-0.0100
G01 X3.3250 Y-1.8301 Z-0.0100
G01 X3.3893 Y-1.8362 Z-0.0100
G01 X3.4505 Y-1.8419 Z-0.0100
G01 X3.5090 Y-1.8474 Z-0.0100
G01 X3.5638 Y-1.8526 Z-0.0100
G01 X3.6170 Y-1.8580 Z-0.0100
G01 X3.6652 Y-1.8633 Z-0.0100
G01 X3.7130 Y-1.8691 Z-0.0100
G01 X3.7554 Y-1.8749 Z-0.0100
G01 X3.7966 Y-1.8814 Z-0.0100
G01 X3.8355 Y-1.8885 Z-0.0100
G01 X3.8703 Y-1.8959 Z-0.0100
G01 X3.9014 Y-1.9037 Z-0.0100
G01 X3.9311 Y-1.9125 Z-0.0100
G01 X3.9575 Y-1.9218 Z-0.0100
G01 X3.9812 Y-1.9318 Z-0.0100
G01 X4.0024 Y-1.9423 Z-0.0100
G01 X4.0216 Y-1.9535 Z-0.0100
G01 X4.0385 Y-1.9654 Z-0.0100
G01 X4.0536 Y-1.9779 Z-0.0100
G01 X4.0679 Y-1.9920 Z-0.0100
G01 X4.0814 Y-2.0077 Z-0.0100
G01 X4.0935 Y-2.0246 Z-0.0100
G01 X4.1059 Y-2.0451 Z-0.0100
G01 X4.1174 Y-2.0675 Z-0.0100
G01 X4.1285 Y-2.0934 Z-0.0100
G01 X4.1389 Y-2.1227 Z-0.0100
G01 X4.1487 Y-2.1554 Z-0.0100
G01 X4.1575 Y-2.1909 Z-0.0100
G01 X4.1662 Y-2.2331 Z-0.0100
G01 X4.1735 Y-2.2760 Z-0.0100
G01 X4.1800 Y-2.3227 Z-0.0100
G01 X4.1860 Y-2.3770 Z-0.0100
G01 X4.1909 Y-2.4309 Z-0.0100
G01 X4.1952 Y-2.4927 Z-0.0100
G01 X4.1987 Y-2.5568 Z-0.0100
G01 X4.2015 Y-2.6240 Z-0.0100
G01 X4.2025 Y-2.6573 Z-0.0100
G01 X4.2026 Y-2.6608 Z-0.0100
G01 X4.2029 Y-2.6643 Z-0.0100
G01 X4.2033 Y-2.6678 Z-0.0100
G01 X4.2037 Y-2.6712 Z-0.0100
G01 X4.2042 Y-2.6747 Z-0.0100
G01 X4.2049 Y-2.6781 Z-0.0100
G01 X4.2057 Y-2.6816 Z-0.0100
G01 X4.2065 Y-2.6850 Z-0.0100
G01 X4.2074 Y-2.6883 Z-0.0100
G01 X4.2085 Y-2.6917 Z-0.0100
G01 X4.2096 Y-2.6950 Z-0.0100
G01 X4.2108 Y-2.6983 Z-0.0100
G01 X4.2121 Y-2.7015 Z-0.0100
G01 X4.2135 Y-2.7047 Z-0.0100
G01 X4.2150 Y-2.7079 Z-0.0100
G01 X4.2166 Y-2.7110 Z-0.0100
G01 X4.2183 Y-2.7141 Z-0.0100
G01 X4.2200 Y-2.7171 Z-0.0100
G01 X4.2219 Y-2.7201 Z-0.0100
G01 X4.2238 Y-2.7230 Z-0.0100
G01 X4.2258 Y-2.7259 Z-0.0100
G01 X4.2279 Y-2.7287 Z-0.0100
G01 X4.2301 Y-2.7314 Z-0.0100
G01 X4.2323 Y-2.7341 Z-0.0100
G01 X4.2346 Y-2.7367 Z-0.0100
G01 X4.2370 Y-2.7392 Z-0.0100
G01 X4.2395 Y-2.7417 Z-0.0100
G01 X4.2420 Y-2.7442 Z-0.0100
G01 X4.2446 Y-2.7465 Z-0.0100
G01 X4.2473 Y-2.7488 Z-0.0100
G01 X4.2500 Y-2.7509 Z-0.0100
G01 X4.2528 Y-2.7531 Z-0.0100
G01 X4.2557 Y-2.7551 Z-0.0100
G01 X4.2586 Y-2.7570 Z-0.0100
G01 X4.2615 Y-2.7589 Z-0.0100
G01 X4.2646 Y-2.7607 Z-0.0100
G01 X4.2676 Y-2.7624 Z-0.0100
G01 X4.2707 Y-2.7640 Z-0.0100
G01 X4.2739 Y-2.7655 Z-0.0100
G01 X4.2771 Y-2.7669 Z-0.0100
G01 X4.2803 Y-2.7683 Z-0.0100
G01 X4.2836 Y-2.7695 Z-0.0100
G01 X4.2869 Y-2.7707 Z-0.0100
G01 X4.2902 Y-2.7717 Z-0.0100
G01 X4.2936 Y-2.7727 Z-0.0100
G01 X4.2970 Y-2.7736 Z-0.0100
G01 X4.3004 Y-2.7743 Z-0.0100
G01 X4.3038 Y-2.7750 Z-0.0100
G01 X4.3072 Y-2.7756 Z-0.0100
G01 X4.3107 Y-2.7761 Z-0.0100
G01 X4.3142 Y-2.7764 Z-0.0100
G01 X4.3177 Y-2.7767 Z-0.0100
G01 X4.3212 Y-2.7769 Z-0.0100
G01 X4.3247 Y-2.7770 Z-0.0100
G01 X4.3287 Y-2.7770 Z-0.0100
G01 X4.3316 Y-2.7770 Z-0.0100
G01 X4.3371 Y-2.7770 Z-0.0100
G01 X4.3403 Y-2.7769 Z-0.0100
G01 X4.9737 Y-2.7516 Z-0.0100
G01 X5.6071 Y-2.7269 Z-0.0100
G01 X6.2404 Y-2.7026 Z-0.0100
G01 X6.8738 Y-2.6787 Z-0.0100
G01 X7.5072 Y-2.6553 Z-0.0100
G01 X8.1407 Y-2.6324 Z-0.0100
G01 X8.7740 Y-2.6099 Z-0.0100
G01 X9.4075 Y-2.5879 Z-0.0100
G01 X10.0410 Y-2.5663 Z-0.0100
G01 X10.6744 Y-2.5451 Z-0.0100
G01 X11.3079 Y-2.5245 Z-0.0100
G01 X11.9377 Y-2.5044 Z-0.0100
G01 X11.9412 Y-2.5043 Z-0.0100
G01 X12.5748 Y-2.4845 Z-0.0100
G01 X13.2085 Y-2.4653 Z-0.0100
G01 X13.8420 Y-2.4464 Z-0.0100
G01 X14.4756 Y-2.4280 Z-0.0100
G01 X15.1092 Y-2.4100 Z-0.0100
G01 X15.7428 Y-2.3925 Z-0.0100
G01 X16.3763 Y-2.3755 Z-0.0100
G01 X17.0099 Y-2.3589 Z-0.0100
G01 X17.6436 Y-2.3427 Z-0.0100
G01 X18.1102 Y-2.3312 Z-0.0099
G01 X18.2772 Y-2.3271 Z0.0090
G01 X18.8976 Y-2.3122 Z0.0800
G01 X18.9108 Y-2.3118 Z0.0800
G01 X19.5445 Y-2.2970 Z0.0800
G01 X19.6850 Y-2.2938 Z0.0799
G01 X20.1782 Y-2.2827 Z0.0236
G01 X20.4724 Y-2.2762 Z-0.0100
G01 X20.8119 Y-2.2688 Z-0.0100
G01 X21.4455 Y-2.2554 Z-0.0100
G01 X22.0792 Y-2.2425 Z-0.0100
G01 X22.7129 Y-2.2300 Z-0.0100
G01 X23.3466 Y-2.2179 Z-0.0100
G01 X23.9764 Y-2.2064 Z-0.0100
G01 X23.9802 Y-2.2064 Z-0.0100
G01 X24.6141 Y-2.1952 Z-0.0100
G01 X25.2478 Y-2.1845 Z-0.0100
G01 X25.8816 Y-2.1743 Z-0.0100
G01 X26.5153 Y-2.1645 Z-0.0100
G01 X27.1490 Y-2.1551 Z-0.0100
G01 X27.7828 Y-2.1463 Z-0.0100
G01 X28.4166 Y-2.1379 Z-0.0100
G01 X29.0504 Y-2.1299 Z-0.0100
G01 X29.6842 Y-2.1224 Z-0.0100
G01 X30.3179 Y-2.1153 Z-0.0100
G01 X30.9518 Y-2.1087 Z-0.0100
G01 X31.5856 Y-2.1025 Z-0.0100
G01 X32.2193 Y-2.0968 Z-0.0100
G01 X32.8531 Y-2.0916 Z-0.0100
G01 X33.4870 Y-2.0868 Z-0.0100
G01 X34.1207 Y-2.0824 Z-0.0100
G01 X34.7546 Y-2.0785 Z-0.0100
G01 X35.3884 Y-2.0751 Z-0.0100
G01 X36.0222 Y-2.0721 Z-0.0100
G01 X36.6560 Y-2.0696 Z-0.0100
G01 X37.2899 Y-2.0675 Z-0.0100
G01 X37.9237 Y-2.0659 Z-0.0100
G01 X38.5575 Y-2.0647 Z-0.0100
G01 X39.1914 Y-2.0640 Z-0.0100
G01 X39.8251 Y-2.0637 Z-0.0100
G01 X40.4588 Y-2.0639 Z-0.0100
G01 X41.0927 Y-2.0646 Z-0.0100
G01 X41.7265 Y-2.0657 Z-0.0100
G01 X42.3603 Y-2.0672 Z-0.0100
G01 X42.9941 Y-2.0692 Z-0.0100
G01 X43.6279 Y-2.0717 Z-0.0100
G01 X44.2618 Y-2.0746 Z-0.0100
G01 X44.8956 Y-2.0780 Z-0.0100
G01 X45.5294 Y-2.0818 Z-0.0100
G01 X46.1633 Y-2.0861 Z-0.0100
G01 X46.7970 Y-2.0908 Z-0.0100
G01 X47.4308 Y-2.0960 Z-0.0100
G01 X48.0646 Y-2.1016 Z-0.0100
G01 X48.6985 Y-2.1077 Z-0.0100
G01 X49.3322 Y-2.1143 Z-0.0100
G01 X49.8031 Y-2.1195 Z-0.0099
G01 X49.9660 Y-2.1213 Z0.0085
G01 X50.5905 Y-2.1286 Z0.0800
G01 X50.5998 Y-2.1287 Z0.0800
G01 X51.2336 Y-2.1366 Z0.0800
G01 X51.3779 Y-2.1385 Z0.0799
G01 X51.8673 Y-2.1450 Z0.0240
G01 X52.1653 Y-2.1491 Z-0.0100
G01 X52.5011 Y-2.1538 Z-0.0100
G01 X53.1349 Y-2.1631 Z-0.0100
G01 X53.7687 Y-2.1728 Z-0.0100
G01 X54.4024 Y-2.1830 Z-0.0100
G01 X55.0361 Y-2.1936 Z-0.0100
G01 X55.6699 Y-2.2047 Z-0.0100
G01 X56.3037 Y-2.2162 Z-0.0100
G01 X56.3072 Y-2.2162 Z-0.0100
G01 X56.9372 Y-2.2281 Z-0.0100
G01 X57.5710 Y-2.2406 Z-0.0100
G01 X58.2047 Y-2.2535 Z-0.0100
G01 X58.8384 Y-2.2668 Z-0.0100
G01 X59.4720 Y-2.2807 Z-0.0100
G01 X60.1057 Y-2.2949 Z-0.0100
G01 X60.7393 Y-2.3096 Z-0.0100
G01 X61.3730 Y-2.3248 Z-0.0100
G01 X62.0066 Y-2.3404 Z-0.0100
G01 X62.6403 Y-2.3565 Z-0.0100
G01 X63.2739 Y-2.3730 Z-0.0100
G01 X63.9075 Y-2.3900 Z-0.0100
G01 X64.5411 Y-2.4074 Z-0.0100
G01 X65.1746 Y-2.4253 Z-0.0100
G01 X65.8082 Y-2.4437 Z-0.0100
G01 X66.4418 Y-2.4624 Z-0.0100
G01 X67.0754 Y-2.4817 Z-0.0100
G01 X67.7090 Y-2.5014 Z-0.0100
G01 X67.7116 Y-2.5014 Z-0.0100
G01 X67.7157 Y-2.5015 Z-0.0100
G01 X67.7194 Y-2.5015 Z-0.0100
G01 X67.7229 Y-2.5014 Z-0.0100
G01 X67.7265 Y-2.5013 Z-0.0100
G01 X67.7300 Y-2.5010 Z-0.0100
G01 X67.7335 Y-2.5007 Z-0.0100
G01 X67.7371 Y-2.5002 Z-0.0100
G01 X67.7406 Y-2.4997 Z-0.0100
G01 X67.7440 Y-2.4990 Z-0.0100
G01 X67.7475 Y-2.4983 Z-0.0100
G01 X67.7509 Y-2.4974 Z-0.0100
G01 X67.7544 Y-2.4964 Z-0.0100
G01 X67.7577 Y-2.4954 Z-0.0100
G01 X67.7611 Y-2.4942 Z-0.0100
G01 X67.7644 Y-2.4930 Z-0.0100
G01 X67.7677 Y-2.4916 Z-0.0100
G01 X67.7709 Y-2.4902 Z-0.0100
G01 X67.7742 Y-2.4887 Z-0.0100
G01 X67.7773 Y-2.4871 Z-0.0100
G01 X67.7804 Y-2.4853 Z-0.0100
G01 X67.7835 Y-2.4836 Z-0.0100
G01 X67.7865 Y-2.4817 Z-0.0100
G01 X67.7894 Y-2.4797 Z-0.0100
G01 X67.7923 Y-2.4777 Z-0.0100
G01 X67.7951 Y-2.4755 Z-0.0100
G01 X67.7979 Y-2.4733 Z-0.0100
G01 X67.8006 Y-2.4710 Z-0.0100
G01 X67.8033 Y-2.4687 Z-0.0100
G01 X67.8058 Y-2.4662 Z-0.0100
G01 X67.8083 Y-2.4637 Z-0.0100
G01 X67.8107 Y-2.4611 Z-0.0100
G01 X67.8131 Y-2.4585 Z-0.0100
G01 X67.8153 Y-2.4557 Z-0.0100
G01 X67.8175 Y-2.4529 Z-0.0100
G01 X67.8196 Y-2.4501 Z-0.0100
G01 X67.8217 Y-2.4472 Z-0.0100
G01 X67.8236 Y-2.4442 Z-0.0100
G01 X67.8255 Y-2.4412 Z-0.0100
G01 X67.8272 Y-2.4381 Z-0.0100
G01 X67.8289 Y-2.4350 Z-0.0100
G01 X67.8305 Y-2.4318 Z-0.0100
G01 X67.8320 Y-2.4286 Z-0.0100
G01 X67.8334 Y-2.4254 Z-0.0100
G01 X67.8348 Y-2.4221 Z-0.0100
G01 X67.8359 Y-2.4187 Z-0.0100
G01 X67.8371 Y-2.4154 Z-0.0100
G01 X67.8381 Y-2.4120 Z-0.0100
G01 X67.8390 Y-2.4086 Z-0.0100
G01 X67.8399 Y-2.4051 Z-0.0100
G01 X67.8406 Y-2.4016 Z-0.0100
G01 X67.8412 Y-2.3982 Z-0.0100
G01 X67.8417 Y-2.3947 Z-0.0100
G01 X67.8422 Y-2.3911 Z-0.0100
G01 X67.8425 Y-2.3876 Z-0.0100
G01 X67.8427 Y-2.3841 Z-0.0100
G01 X67.8428 Y-2.3805 Z-0.0100
G01 X67.8435 Y-2.3504 Z-0.0100
G01 X67.8453 Y-2.2826 Z-0.0100
G01 X67.8478 Y-2.2191 Z-0.0100
G01 X67.8509 Y-2.1601 Z-0.0100
G01 X67.8547 Y-2.1038 Z-0.0100
G01 X67.8590 Y-2.0535 Z-0.0100
G01 X67.8642 Y-2.0068 Z-0.0100
G01 X67.8701 Y-1.9635 Z-0.0100
G01 X67.8769 Y-1.9242 Z-0.0100
G01 X67.8840 Y-1.8903 Z-0.0100
G01 X67.8922 Y-1.8585 Z-0.0100
G01 X67.9008 Y-1.8311 Z-0.0100
G01 X67.9100 Y-1.8070 Z-0.0100
G01 X67.9194 Y-1.7866 Z-0.0100
G01 X67.9296 Y-1.7681 Z-0.0100
G01 X67.9393 Y-1.7537 Z-0.0100
G01 X67.9504 Y-1.7399 Z-0.0100
G01 X67.9614 Y-1.7286 Z-0.0100
G01 X67.9741 Y-1.7176 Z-0.0100
G01 X67.9877 Y-1.7078 Z-0.0100
G01 X68.0037 Y-1.6983 Z-0.0100
G01 X68.0217 Y-1.6892 Z-0.0100
G01 X68.0432 Y-1.6802 Z-0.0100
G01 X68.0661 Y-1.6722 Z-0.0100
G01 X68.0935 Y-1.6641 Z-0.0100
G01 X68.1219 Y-1.6569 Z-0.0100
G01 X68.1554 Y-1.6497 Z-0.0100
G01 X68.1920 Y-1.6429 Z-0.0100
G01 X68.2290 Y-1.6368 Z-0.0100
G01 X68.2702 Y-1.6307 Z-0.0100
G01 X68.3159 Y-1.6245 Z-0.0100
G01 X68.3625 Y-1.6186 Z-0.0100
G01 X68.4131 Y-1.6124 Z-0.0100
G01 X68.4665 Y-1.6060 Z-0.0100
G01 X68.5227 Y-1.5992 Z-0.0100
G01 X68.5820 Y-1.5918 Z-0.0100
G01 X68.5826 Y-1.5918 Z-0.0100
G01 X68.6444 Y-1.5838 Z-0.0100
G01 X68.6451 Y-1.5837 Z-0.0100
G01 X68.7097 Y-1.5750 Z-0.0100
G01 X68.7107 Y-1.5749 Z-0.0100
G01 X68.7783 Y-1.5653 Z-0.0100
G01 X68.7794 Y-1.5651 Z-0.0100
G01 X68.8501 Y-1.5544 Z-0.0100
G01 X68.8512 Y-1.5542 Z-0.0100
G01 X68.9251 Y-1.5423 Z-0.0100
G01 X68.9264 Y-1.5421 Z-0.0100
G01 X69.0034 Y-1.5288 Z-0.0100
G01 X69.0048 Y-1.5286 Z-0.0100
G01 X69.0850 Y-1.5138 Z-0.0100
G01 X69.0863 Y-1.5136 Z-0.0100
G01 X69.1699 Y-1.4972 Z-0.0100
G01 X69.1714 Y-1.4969 Z-0.0100
G01 X69.2583 Y-1.4788 Z-0.0100
G01 X69.2598 Y-1.4785 Z-0.0100
G01 X69.3502 Y-1.4584 Z-0.0100
G01 X69.3531 Y-1.4577 Z-0.0100
G01 X69.3935 Y-1.4478 Z-0.0100
G01 X69.3956 Y-1.4472 Z-0.0100
G01 X69.4369 Y-1.4362 Z-0.0100
G01 X69.4393 Y-1.4356 Z-0.0100
G01 X69.4759 Y-1.4251 Z-0.0100
G01 X69.4783 Y-1.4243 Z-0.0100
G01 X69.5123 Y-1.4138 Z-0.0100
G01 X69.5148 Y-1.4130 Z-0.0100
G01 X69.5272 Y-1.4088 Z-0.0100
G01 X69.5305 Y-1.4077 Z-0.0100
G01 X69.5338 Y-1.4064 Z-0.0100
G01 X69.5370 Y-1.4051 Z-0.0100
G01 X69.5402 Y-1.4037 Z-0.0100
G01 X69.5434 Y-1.4022 Z-0.0100
G01 X69.5465 Y-1.4005 Z-0.0100
G01 X69.5495 Y-1.3988 Z-0.0100
G01 X69.5525 Y-1.3970 Z-0.0100
G01 X69.5555 Y-1.3952 Z-0.0100
G01 X69.5584 Y-1.3932 Z-0.0100
G01 X69.5613 Y-1.3912 Z-0.0100
G01 X69.5641 Y-1.3891 Z-0.0100
G01 X69.5668 Y-1.3869 Z-0.0100
G01 X69.5695 Y-1.3846 Z-0.0100
G01 X69.5721 Y-1.3823 Z-0.0100
G01 X69.5746 Y-1.3798 Z-0.0100
G01 X69.5771 Y-1.3774 Z-0.0100
G01 X69.5795 Y-1.3748 Z-0.0100
G01 X69.5818 Y-1.3722 Z-0.0100
G01 X69.5840 Y-1.3695 Z-0.0100
G01 X69.5862 Y-1.3667 Z-0.0100
G01 X69.5883 Y-1.3639 Z-0.0100
G01 X69.5903 Y-1.3611 Z-0.0100
G01 X69.5922 Y-1.3581 Z-0.0100
G01 X69.5941 Y-1.3551 Z-0.0100
G01 X69.5958 Y-1.3521 Z-0.0100
G01 X69.5975 Y-1.3490 Z-0.0100
G01 X69.5991 Y-1.3459 Z-0.0100
G01 X69.6006 Y-1.3427 Z-0.0100
G01 X69.6020 Y-1.3395 Z-0.0100
G01 X69.6033 Y-1.3362 Z-0.0100
G01 X69.6045 Y-1.3330 Z-0.0100
G01 X69.6056 Y-1.3296 Z-0.0100
G01 X69.6066 Y-1.3263 Z-0.0100
G01 X69.6076 Y-1.3229 Z-0.0100
G01 X69.6084 Y-1.3195 Z-0.0100
G01 X69.6092 Y-1.3161 Z-0.0100
G01 X69.6098 Y-1.3127 Z-0.0100
G01 X69.6103 Y-1.3092 Z-0.0100
G01 X69.6108 Y-1.3057 Z-0.0100
G01 X69.6112 Y-1.3022 Z-0.0100
G01 X69.6114 Y-1.2987 Z-0.0100
G01 X69.6116 Y-1.2952 Z-0.0100
G01 X69.6116 Y-1.2917 Z-0.0100
G01 X69.6116 Y1.2917 Z-0.0100
G01 X69.6116 Y1.2952 Z-0.0100
G01 X69.6114 Y1.2987 Z-0.0100
G01 X69.6112 Y1.3022 Z-0.0100
G01 X69.6108 Y1.3057 Z-0.0100
G01 X69.6103 Y1.3092 Z-0.0100
G01 X69.6098 Y1.3127 Z-0.0100
G01 X69.6092 Y1.3161 Z-0.0100
G01 X69.6084 Y1.3195 Z-0.0100
G01 X69.6076 Y1.3229 Z-0.0100
G01 X69.6066 Y1.3263 Z-0.0100
G01 X69.6056 Y1.3296 Z-0.0100
G01 X69.6045 Y1.3330 Z-0.0100
G01 X69.6033 Y1.3362 Z-0.0100
G01 X69.6020 Y1.3395 Z-0.0100
G01 X69.6006 Y1.3427 Z-0.0100
G01 X69.5991 Y1.3459 Z-0.0100
G01 X69.5975 Y1.3490 Z-0.0100
G01 X69.5958 Y1.3521 Z-0.0100
G01 X69.5941 Y1.3551 Z-0.0100
G01 X69.5922 Y1.3581 Z-0.0100
G01 X69.5903 Y1.3611 Z-0.0100
G01 X69.5883 Y1.3639 Z-0.0100
G01 X69.5862 Y1.3667 Z-0.0100
G01 X69.5840 Y1.3695 Z-0.0100
G01 X69.5818 Y1.3722 Z-0.0100
G01 X69.5795 Y1.3748 Z-0.0100
G01 X69.5771 Y1.3774 Z-0.0100
G01 X69.5746 Y1.3798 Z-0.0100
G01 X69.5721 Y1.3823 Z-0.0100
G01 X69.5695 Y1.3846 Z-0.0100
G01 X69.5668 Y1.3869 Z-0.0100
G01 X69.5641 Y1.3891 Z-0.0100
G01 X69.5613 Y1.3912 Z-0.0100
G01 X69.5584 Y1.3932 Z-0.0100
G01 X69.5555 Y1.3952 Z-0.0100
G01 X69.5525 Y1.3970 Z-0.0100
G01 X69.5495 Y1.3988 Z-0.0100
G01 X69.5465 Y1.4005 Z-0.0100
G01 X69.5434 Y1.4022 Z-0.0100
G01 X69.5402 Y1.4037 Z-0.0100
G01 X69.5370 Y1.4051 Z-0.0100
G01 X69.5338 Y1.4064 Z-0.0100
G01 X69.5305 Y1.4077 Z-0.0100
G01 X69.5272 Y1.4088 Z-0.0100
G01 X69.5148 Y1.4130 Z-0.0100
G01 X69.5123 Y1.4138 Z-0.0100
G01 X69.4783 Y1.4243 Z-0.0100
G01 X69.4759 Y1.4251 Z-0.0100
G01 X69.4393 Y1.4356 Z-0.0100
G01 X69.4369 Y1.4362 Z-0.0100
G01 X69.3956 Y1.4472 Z-0.0100
G01 X69.3935 Y1.4478 Z-0.0100
G01 X69.3531 Y1.4577 Z-0.0100
G01 X69.3502 Y1.4584 Z-0.0100
G01 X69.2598 Y1.4785 Z-0.0100
G01 X69.2583 Y1.4788 Z-0.0100
G01 X69.1714 Y1.4969 Z-0.0100
G01 X69.1699 Y1.4972 Z-0.0100
G01 X69.0863 Y1.5136 Z-0.0100
G01 X69.0850 Y1.5138 Z-0.0100
G01 X69.0048 Y1.5286 Z-0.0100
G01 X69.0034 Y1.5288 Z-0.0100
G01 X68.9264 Y1.5421 Z-0.0100
G01 X68.9251 Y1.5423 Z-0.0100
G01 X68.8512 Y1.5542 Z-0.0100
G01 X68.8501 Y1.5544 Z-0.0100
G01 X68.7794 Y1.5651 Z-0.0100
G01 X68.7783 Y1.5653 Z-0.0100
G01 X68.7107 Y1.5749 Z-0.0100
G01 X68.7097 Y1.5750 Z-0.0100
G01 X68.6451 Y1.5837 Z-0.0100
G01 X68.6444 Y1.5838 Z-0.0100
G01 X68.5826 Y1.5918 Z-0.0100
G01 X68.5820 Y1.5918 Z-0.0100
G01 X68.5231 Y1.5991 Z-0.0100
G01 X68.4666 Y1.6059 Z-0.0100
G01 X68.4131 Y1.6124 Z-0.0100
G01 X68.3625 Y1.6186 Z-0.0100
G01 X68.3159 Y1.6245 Z-0.0100
G01 X68.2702 Y1.6307 Z-0.0100
G01 X68.2290 Y1.6368 Z-0.0100
G01 X68.1920 Y1.6429 Z-0.0100
G01 X68.1554 Y1.6497 Z-0.0100
G01 X68.1219 Y1.6569 Z-0.0100
G01 X68.0935 Y1.6641 Z-0.0100
G01 X68.0661 Y1.6722 Z-0.0100
G01 X68.0432 Y1.6802 Z-0.0100
G01 X68.0217 Y1.6892 Z-0.0100
G01 X68.0037 Y1.6983 Z-0.0100
G01 X67.9877 Y1.7078 Z-0.0100
G01 X67.9741 Y1.7176 Z-0.0100
G01 X67.9614 Y1.7286 Z-0.0100
G01 X67.9504 Y1.7399 Z-0.0100
G01 X67.9393 Y1.7537 Z-0.0100
G01 X67.9296 Y1.7681 Z-0.0100
G01 X67.9194 Y1.7866 Z-0.0100
G01 X67.9100 Y1.8070 Z-0.0100
G01 X67.9008 Y1.8311 Z-0.0100
G01 X67.8922 Y1.8585 Z-0.0100
G01 X67.8840 Y1.8903 Z-0.0100
G01 X67.8769 Y1.9242 Z-0.0100
G01 X67.8702 Y1.9633 Z-0.0100
G01 X67.8642 Y2.0064 Z-0.0100
G01 X67.8590 Y2.0535 Z-0.0100
G01 X67.8548 Y2.1029 Z-0.0100
G01 X67.8509 Y2.1601 Z-0.0100
G01 X67.8478 Y2.2191 Z-0.0100
G01 X67.8453 Y2.2826 Z-0.0100
G01 X67.8435 Y2.3504 Z-0.0100
G01 X67.8428 Y2.3805 Z-0.0100
G01 X67.8427 Y2.3841 Z-0.0100
G01 X67.8425 Y2.3876 Z-0.0100
G01 X67.8422 Y2.3911 Z-0.0100
G01 X67.8417 Y2.3947 Z-0.0100
G01 X67.8412 Y2.3982 Z-0.0100
G01 X67.8406 Y2.4016 Z-0.0100
G01 X67.8399 Y2.4051 Z-0.0100
G01 X67.8390 Y2.4086 Z-0.0100
G01 X67.8381 Y2.4120 Z-0.0100
G01 X67.8371 Y2.4154 Z-0.0100
G01 X67.8359 Y2.4187 Z-0.0100
G01 X67.8348 Y2.4221 Z-0.0100
G01 X67.8334 Y2.4254 Z-0.0100
G01 X67.8320 Y2.4286 Z-0.0100
G01 X67.8305 Y2.4318 Z-0.0100
G01 X67.8289 Y2.4350 Z-0.0100
G01 X67.8272 Y2.4381 Z-0.0100
G01 X67.8255 Y2.4412 Z-0.0100
G01 X67.8236 Y2.4442 Z-0.0100
G01 X67.8217 Y2.4472 Z-0.0100
G01 X67.8196 Y2.4501 Z-0.0100
G01 X67.8175 Y2.4529 Z-0.0100
G01 X67.8153 Y2.4557 Z-0.0100
G01 X67.8131 Y2.4585 Z-0.0100
G01 X67.8107 Y2.4611 Z-0.0100
G01 X67.8083 Y2.4637 Z-0.0100
G01 X67.8058 Y2.4662 Z-0.0100
G01 X67.8033 Y2.4687 Z-0.0100
G01 X67.8006 Y2.4710 Z-0.0100
G01 X67.7979 Y2.4733 Z-0.0100
G01 X67.7951 Y2.4755 Z-0.0100
G01 X67.7923 Y2.4777 Z-0.0100
G01 X67.7894 Y2.4797 Z-0.0100
G01 X67.7865 Y2.4817 Z-0.0100
G01 X67.7835 Y2.4836 Z-0.0100
G01 X67.7804 Y2.4853 Z-0.0100
G01 X67.7773 Y2.4871 Z-0.0100
G01 X67.7742 Y2.4887 Z-0.0100
G01 X67.7709 Y2.4902 Z-0.0100
G01 X67.7677 Y2.4916 Z-0.0100
G01 X67.7644 Y2.4930 Z-0.0100
G01 X67.7611 Y2.4942 Z-0.0100
G01 X67.7577 Y2.4954 Z-0.0100
G01 X67.7544 Y2.4964 Z-0.0100
G01 X67.7509 Y2.4974 Z-0.0100
G01 X67.7475 Y2.4983 Z-0.0100
G01 X67.7440 Y2.4990 Z-0.0100
G01 X67.7406 Y2.4997 Z-0.0100
G01 X67.7371 Y2.5002 Z-0.0100
G01 X67.7335 Y2.5007 Z-0.0100
G01 X67.7300 Y2.5010 Z-0.0100
G01 X67.7265 Y2.5013 Z-0.0100
G01 X67.7229 Y2.5014 Z-0.0100
G01 X67.7194 Y2.5015 Z-0.0100
G01 X67.7157 Y2.5015 Z-0.0100
G01 X67.7116 Y2.5014 Z-0.0100
G01 X67.7090 Y2.5014 Z-0.0100
G01 X67.0754 Y2.4816 Z-0.0100
G01 X66.4418 Y2.4624 Z-0.0100
G01 X65.8082 Y2.4437 Z-0.0100
G01 X65.1746 Y2.4253 Z-0.0100
G01 X64.5411 Y2.4074 Z-0.0100
G01 X63.9075 Y2.3900 Z-0.0100
G01 X63.2739 Y2.3730 Z-0.0100
G01 X62.6403 Y2.3565 Z-0.0100
G01 X62.0066 Y2.3404 Z-0.0100
G01 X61.3730 Y2.3248 Z-0.0100
G01 X60.7393 Y2.3096 Z-0.0100
G01 X60.1057 Y2.2949 Z-0.0100
G01 X59.4720 Y2.2807 Z-0.0100
G01 X58.8384 Y2.2668 Z-0.0100
G01 X58.2047 Y2.2535 Z-0.0100
G01 X57.5710 Y2.2406 Z-0.0100
G01 X56.9372 Y2.2281 Z-0.0100
G01 X56.3075 Y2.2162 Z-0.0100
G01 X56.3037 Y2.2162 Z-0.0100
G01 X55.6699 Y2.2047 Z-0.0100
G01 X55.0361 Y2.1936 Z-0.0100
G01 X54.4024 Y2.1830 Z-0.0100
G01 X53.7687 Y2.1728 Z-0.0100
G01 X53.1349 Y2.1631 Z-0.0100
G01 X52.5011 Y2.1538 Z-0.0100
G01 X52.1653 Y2.1491 Z-0.0100
G01 X51.8673 Y2.1450 Z0.0240
G01 X51.3779 Y2.1385 Z0.0799
G01 X51.2336 Y2.1366 Z0.0800
G01 X50.5998 Y2.1287 Z0.0800
G01 X50.5905 Y2.1286 Z0.0800
G01 X49.9660 Y2.1213 Z0.0085
G01 X49.8031 Y2.1195 Z-0.0099
G01 X49.3322 Y2.1143 Z-0.0100
G01 X48.6985 Y2.1077 Z-0.0100
G01 X48.0646 Y2.1016 Z-0.0100
G01 X47.4308 Y2.0960 Z-0.0100
G01 X46.7970 Y2.0908 Z-0.0100
G01 X46.1633 Y2.0861 Z-0.0100
G01 X45.5294 Y2.0818 Z-0.0100
G01 X44.8956 Y2.0780 Z-0.0100
G01 X44.2618 Y2.0746 Z-0.0100
G01 X43.6279 Y2.0717 Z-0.0100
G01 X42.9941 Y2.0692 Z-0.0100
G01 X42.3603 Y2.0672 Z-0.0100
G01 X41.7265 Y2.0657 Z-0.0100
G01 X41.0927 Y2.0646 Z-0.0100
G01 X40.4588 Y2.0639 Z-0.0100
G01 X39.8251 Y2.0637 Z-0.0100
G01 X39.1914 Y2.0640 Z-0.0100
G01 X38.5575 Y2.0647 Z-0.0100
G01 X37.9237 Y2.0659 Z-0.0100
G01 X37.2899 Y2.0675 Z-0.0100
G01 X36.6560 Y2.0696 Z-0.0100
G01 X36.0222 Y2.0721 Z-0.0100
G01 X35.3884 Y2.0751 Z-0.0100
G01 X34.7546 Y2.0785 Z-0.0100
G01 X34.1207 Y2.0824 Z-0.0100
G01 X33.4870 Y2.0868 Z-0.0100
G01 X32.8531 Y2.0916 Z-0.0100
G01 X32.2193 Y2.0968 Z-0.0100
G01 X31.5856 Y2.1025 Z-0.0100
G01 X30.9518 Y2.1087 Z-0.0100
G01 X30.3179 Y2.1153 Z-0.0100
G01 X29.6842 Y2.1224 Z-0.0100
G01 X29.0504 Y2.1299 Z-0.0100
G01 X28.4166 Y2.1379 Z-0.0100
G01 X27.7828 Y2.1463 Z-0.0100
G01 X27.1490 Y2.1551 Z-0.0100
G01 X26.5153 Y2.1645 Z-0.0100
G01 X25.8816 Y2.1743 Z-0.0100
G01 X25.2478 Y2.1845 Z-0.0100
G01 X24.6141 Y2.1952 Z-0.0100
G01 X23.9802 Y2.2064 Z-0.0100
G01 X23.9764 Y2.2064 Z-0.0100
G01 X23.3466 Y2.2179 Z-0.0100
G01 X22.7129 Y2.2300 Z-0.0100
G01 X22.0792 Y2.2425 Z-0.0100
G01 X21.4455 Y2.2554 Z-0.0100
G01 X20.8119 Y2.2688 Z-0.0100
G01 X20.4724 Y2.2762 Z-0.0100
G01 X20.1782 Y2.2827 Z0.0236
G01 X19.6850 Y2.2938 Z0.0799
G01 X19.5445 Y2.2970 Z0.0800
G01 X18.9108 Y2.3118 Z0.0800
G01 X18.8976 Y2.3122 Z0.0800
G01 X18.2772 Y2.3271 Z0.0090
G01 X18.1102 Y2.3312 Z-0.0099
G01 X17.6436 Y2.3427 Z-0.0100
G01 X17.0099 Y2.3589 Z-0.0100
G01 X16.3763 Y2.3755 Z-0.0100
G01 X15.7428 Y2.3925 Z-0.0100
G01 X15.1092 Y2.4100 Z-0.0100
G01 X14.4756 Y2.4280 Z-0.0100
G01 X13.8420 Y2.4464 Z-0.0100
G01 X13.2085 Y2.4653 Z-0.0100
G01 X12.5748 Y2.4846 Z-0.0100
G01 X11.9412 Y2.5043 Z-0.0100
G01 X11.9377 Y2.5044 Z-0.0100
G01 X11.3079 Y2.5245 Z-0.0100
G01 X10.6744 Y2.5451 Z-0.0100
G01 X10.0410 Y2.5663 Z-0.0100
G01 X9.4075 Y2.5879 Z-0.0100
G01 X8.7740 Y2.6099 Z-0.0100
G01 X8.1407 Y2.6324 Z-0.0100
G01 X7.5072 Y2.6553 Z-0.0100
G01 X6.8738 Y2.6787 Z-0.0100
G01 X6.2404 Y2.7026 Z-0.0100
G01 X5.6071 Y2.7269 Z-0.0100
G01 X4.9737 Y2.7516 Z-0.0100
G01 X4.3403 Y2.7769 Z-0.0100
G01 X4.3371 Y2.7770 Z-0.0100
G01 X4.3316 Y2.7770 Z-0.0100
G01 X4.3287 Y2.7770 Z-0.0100
G01 X4.3247 Y2.7770 Z-0.0100
G01 X4.3212 Y2.7769 Z-0.0100
G01 X4.3177 Y2.7767 Z-0.0100
G01 X4.3142 Y2.7764 Z-0.0100
G01 X4.3107 Y2.7761 Z-0.0100
G01 X4.3072 Y2.7756 Z-0.0100
G01 X4.3038 Y2.7750 Z-0.0100
G01 X4.3004 Y2.7743 Z-0.0100
G01 X4.2970 Y2.7736 Z-0.0100
G01 X4.2936 Y2.7727 Z-0.0100
G01 X4.2902 Y2.7717 Z-0.0100
G01 X4.2869 Y2.7707 Z-0.0100
G01 X4.2836 Y2.7695 Z-0.0100
G01 X4.2803 Y2.7683 Z-0.0100
G01 X4.2771 Y2.7669 Z-0.0100
G01 X4.2739 Y2.7655 Z-0.0100
G01 X4.2707 Y2.7640 Z-0.0100
G01 X4.2676 Y2.7624 Z-0.0100
G01 X4.2646 Y2.7607 Z-0.0100
G01 X4.2615 Y2.7589 Z-0.0100
G01 X4.2586 Y2.7570 Z-0.0100
G01 X4.2557 Y2.7551 Z-0.0100
G01 X4.2528 Y2.7531 Z-0.0100
G01 X4.2500 Y2.7509 Z-0.0100
G01 X4.2473 Y2.7488 Z-0.0100
G01 X4.2446 Y2.7465 Z-0.0100
G01 X4.2420 Y2.7442 Z-0.0100
G01 X4.2395 Y2.7417 Z-0.0100
G01 X4.2370 Y2.7392 Z-0.0100
G01 X4.2346 Y2.7367 Z-0.0100
G01 X4.2323 Y2.7341 Z-0.0100
G01 X4.2301 Y2.7314 Z-0.0100
G01 X4.2279 Y2.7287 Z-0.0100
G01 X4.2258 Y2.7259 Z-0.0100
G01 X4.2238 Y2.7230 Z-0.0100
G01 X4.2219 Y2.7201 Z-0.0100
G01 X4.2200 Y2.7171 Z-0.0100
G01 X4.2183 Y2.7141 Z-0.0100
G01 X4.2166 Y2.7110 Z-0.0100
G01 X4.2150 Y2.7079 Z-0.0100
G01 X4.2135 Y2.7047 Z-0.0100
G01 X4.2121 Y2.7015 Z-0.0100
G01 X4.2108 Y2.6983 Z-0.0100
G01 X4.2096 Y2.6950 Z-0.0100
G01 X4.2085 Y2.6917 Z-0.0100
G01 X4.2074 Y2.6883 Z-0.0100
G01 X4.2065 Y2.6850 Z-0.0100
G01 X4.2057 Y2.6816 Z-0.0100
G01 X4.2049 Y2.6781 Z-0.0100
G01 X4.2042 Y2.6747 Z-0.0100
G01 X4.2037 Y2.6712 Z-0.0100
G01 X4.2033 Y2.6678 Z-0.0100
G01 X4.2029 Y2.6643 Z-0.0100
G01 X4.2026 Y2.6608 Z-0.0100
G01 X4.2025 Y2.6573 Z-0.0100
G01 X4.2014 Y2.6240 Z-0.0100
G01 X4.1987 Y2.5551 Z-0.0100
G01 X4.1952 Y2.4927 Z-0.0100
G01 X4.1908 Y2.4305 Z-0.0100
G01 X4.1860 Y2.3770 Z-0.0100
G01 X4.1799 Y2.3221 Z-0.0100
G01 X4.1735 Y2.2760 Z-0.0100
G01 X4.1661 Y2.2325 Z-0.0100
G01 X4.1575 Y2.1909 Z-0.0100
G01 X4.1486 Y2.1550 Z-0.0100
G01 X4.1389 Y2.1227 Z-0.0100
G01 X4.1284 Y2.0933 Z-0.0100
G01 X4.1172 Y2.0672 Z-0.0100
G01 X4.1059 Y2.0451 Z-0.0100
G01 X4.0935 Y2.0246 Z-0.0100
G01 X4.0814 Y2.0077 Z-0.0100
G01 X4.0679 Y1.9920 Z-0.0100
G01 X4.0536 Y1.9779 Z-0.0100
G01 X4.0385 Y1.9654 Z-0.0100
G01 X4.0216 Y1.9535 Z-0.0100
G01 X4.0024 Y1.9422 Z-0.0100
G01 X3.9812 Y1.9318 Z-0.0100
G01 X3.9575 Y1.9218 Z-0.0100
G01 X3.9311 Y1.9125 Z-0.0100
G01 X3.9014 Y1.9037 Z-0.0100
G01 X3.8703 Y1.8959 Z-0.0100
G01 X3.8355 Y1.8885 Z-0.0100
G01 X3.7966 Y1.8814 Z-0.0100
G01 X3.7554 Y1.8749 Z-0.0100
G01 X3.7130 Y1.8691 Z-0.0100
G01 X3.6652 Y1.8633 Z-0.0100
G01 X3.6170 Y1.8580 Z-0.0100
G01 X3.5638 Y1.8526 Z-0.0100
G01 X3.5090 Y1.8473 Z-0.0100
G01 X3.4506 Y1.8419 Z-0.0100
G01 X3.3894 Y1.8362 Z-0.0100
G01 X3.3254 Y1.8301 Z-0.0100
G01 X3.2583 Y1.8236 Z-0.0100
G01 X3.2577 Y1.8236 Z-0.0100
G01 X3.1880 Y1.8164 Z-0.0100
G01 X3.1873 Y1.8164 Z-0.0100
G01 X3.1148 Y1.8085 Z-0.0100
G01 X3.1139 Y1.8084 Z-0.0100
G01 X3.0383 Y1.7997 Z-0.0100
G01 X3.0374 Y1.7996 Z-0.0100
G01 X2.9588 Y1.7899 Z-0.0100
G01 X2.9576 Y1.7898 Z-0.0100
G01 X2.8759 Y1.7790 Z-0.0100
G01 X2.8747 Y1.7788 Z-0.0100
G01 X2.7897 Y1.7667 Z-0.0100
G01 X2.7885 Y1.7665 Z-0.0100
G01 X2.7003 Y1.7531 Z-0.0100
G01 X2.6990 Y1.7529 Z-0.0100
G01 X2.6076 Y1.7380 Z-0.0100
G01 X2.6046 Y1.7375 Z-0.0100
G01 X2.4835 Y1.7146 Z-0.0100
G01 X2.4810 Y1.7141 Z-0.0100
G01 X2.3618 Y1.6891 Z-0.0100
G01 X2.3593 Y1.6886 Z-0.0100
G01 X2.2452 Y1.6621 Z-0.0100
G01 X2.2425 Y1.6615 Z-0.0100
G01 X2.1366 Y1.6344 Z-0.0100
G01 X2.1339 Y1.6337 Z-0.0100
G01 X2.0290 Y1.6045 Z-0.0100
G01 X2.0262 Y1.6037 Z-0.0100
G01 X1.9291 Y1.5740 Z-0.0100
G01 X1.9262 Y1.5731 Z-0.0100
G01 X1.8316 Y1.5417 Z-0.0100
G01 X1.8287 Y1.5407 Z-0.0100
G01 X1.7418 Y1.5095 Z-0.0100
G01 X1.7387 Y1.5083 Z-0.0100
G01 X1.6544 Y1.4754 Z-0.0100
G01 X1.6513 Y1.4741 Z-0.0100
G01 X1.5725 Y1.4409 Z-0.0100
G01 X1.5693 Y1.4395 Z-0.0100
G01 X1.4941 Y1.4052 Z-0.0100
G01 X1.4909 Y1.4037 Z-0.0100
G01 X1.4219 Y1.3698 Z-0.0100
G01 X1.4185 Y1.3680 Z-0.0100
G01 X1.3520 Y1.3327 Z-0.0100
G01 X1.3487 Y1.3309 Z-0.0100
G01 X1.2883 Y1.2963 Z-0.0100
G01 X1.2848 Y1.2943 Z-0.0100
G01 X1.2272 Y1.2588 Z-0.0100
G01 X1.2237 Y1.2566 Z-0.0100
G01 X1.1715 Y1.2220 Z-0.0100
G01 X1.1679 Y1.2195 Z-0.0100
G01 X1.1184 Y1.1840 Z-0.0100
G01 X1.1149 Y1.1814 Z-0.0100
G01 X1.0709 Y1.1474 Z-0.0100
G01 X1.0672 Y1.1445 Z-0.0100
G01 X1.0249 Y1.1093 Z-0.0100
G01 X1.0214 Y1.1062 Z-0.0100
G01 X0.9843 Y1.0729 Z-0.0100
G01 X0.9808 Y1.0696 Z-0.0100
G01 X0.9456 Y1.0353 Z-0.0100
G01 X0.9421 Y1.0318 Z-0.0100
G01 X0.9113 Y0.9994 Z-0.0100
G01 X0.9078 Y0.9955 Z-0.0100
G01 X0.8792 Y0.9626 Z-0.0100
G01 X0.8759 Y0.9587 Z-0.0100
G01 X0.8502 Y0.9266 Z-0.0100
G01 X0.8470 Y0.9224 Z-0.0100
G01 X0.8238 Y0.8909 Z-0.0100
G01 X0.8207 Y0.8864 Z-0.0100
G01 X0.8000 Y0.8554 Z-0.0100
G01 X0.7971 Y0.8508 Z-0.0100
G01 X0.7788 Y0.8207 Z-0.0100
G01 X0.7761 Y0.8159 Z-0.0100
G01 X0.7594 Y0.7855 Z-0.0100
G01 X0.7569 Y0.7807 Z-0.0100
G01 X0.7423 Y0.7509 Z-0.0100
G01 X0.7400 Y0.7460 Z-0.0100
G01 X0.7269 Y0.7160 Z-0.0100
G01 X0.7248 Y0.7108 Z-0.0100
G01 X0.7136 Y0.6816 Z-0.0100
G01 X0.7117 Y0.6764 Z-0.0100
G01 X0.7019 Y0.6472 Z-0.0100
G01 X0.7003 Y0.6418 Z-0.0100
G01 X0.6919 Y0.6122 Z-0.0100
G01 X0.6905 Y0.6069 Z-0.0100
G01 X0.6835 Y0.5774 Z-0.0100
G01 X0.6824 Y0.5722 Z-0.0100
G01 X0.6765 Y0.5418 Z-0.0100
G01 X0.6757 Y0.5366 Z-0.0100
G01 X0.6711 Y0.5060 Z-0.0100
G01 X0.6705 Y0.5006 Z-0.0100
G01 X0.6674 Y0.4706 Z-0.0100
G01 X0.6669 Y0.4653 Z-0.0100
G01 X0.6650 Y0.4329 Z-0.0100
G01 X0.6648 Y0.4280 Z-0.0100
G01 X0.6639 Y0.3881 Z-0.0100
G01 X0.6639 Y0.3855 Z-0.0100
G01 X0.6639 Y-0.3855 Z-0.0100
G00 X0.6639 Y-0.3855 Z0.6000
M05
G00 X0.0000 Y0.0000 Z0.6000
G49
G01 G55 Z0 F20
G00 G55 X0 Y0 Z0
M30
