( Sample-ski-core-edge-groove.nc                                               )
( Generated by MonkeyCAM v4.0.3 at 2014-10-16 22:28:10 PDT                     )
(                                                                              )
( This GCode program is provided on an "AS IS" BASIS WITHOUT WARRANTIES OR     )
( CONDITIONS OF ANY KIND, either express or implied. You should inspect this   )
( program very carefully to confirm you understand its operation. YOU ARE      )
( RESPONSIBLE FOR ENSURING THIS PROGRAM WILL NOT DAMAGE YOUR MACHINE OR        )
( MATERIALS.                                                                   )
(                                                                              )
( See http://www.github.com/mikemag/MonkeyCAM for License and documentation.   )
(                                                                              )
( * Rapid height: 0.1000" [0.2540cm]                                           )
( * Tool: T1, Quarter Inch Upcut Spiral, diameter 0.2469" [0.6273cm]           )
( * Height baseline [Z=0.0] is the top of the material.                        )
( * XY origin is the left side of the table, Y is center of the part.          )
( * Requires G54 to be the part work coordinate offsets [WCO]. [0, 0] is the   )
(   center of the nose, with the board extending to positive X. The cutter may )
(   move to negative values of X.                                              )
( * Requires G55 to be the machine WCO, with Z above the rapid height.         )
( * Units are inches                                                           )
( * Center of the board in G54:                                                )
(     X=36.0236 Y=0.0000 Z=0.0000                                              )
( * Cutter bounding box in G54:                                                )
(     X0.0000 Y-2.5301 Z0.0000 to X70.2701 Y2.5301 Z0.1000                     )

G90 G20 G17 G40 G49
G43 H1 T1
G00 G54 X0 Y0 Z0.1000

M03
G04 P5
G00 X0.2305 Y0.0000 Z0.1000
G01 X0.2305 Y0.0000 Z0.0000 F70
G01 X0.2305 Y0.0000 Z0.0000
G01 X0.2316 Y-0.0681 Z0.0000
G01 X0.2351 Y-0.1355 Z0.0000
G01 X0.2412 Y-0.2039 Z0.0000
G01 X0.2495 Y-0.2708 Z0.0000
G01 X0.2603 Y-0.3378 Z0.0000
G01 X0.2739 Y-0.4054 Z0.0000
G01 X0.2895 Y-0.4701 Z0.0000
G01 X0.3082 Y-0.5365 Z0.0000
G01 X0.3295 Y-0.6021 Z0.0000
G01 X0.3533 Y-0.6667 Z0.0000
G01 X0.3797 Y-0.7304 Z0.0000
G01 X0.4093 Y-0.7943 Z0.0000
G01 X0.4414 Y-0.8570 Z0.0000
G01 X0.4769 Y-0.9200 Z0.0000
G01 X0.5152 Y-0.9818 Z0.0000
G01 X0.5558 Y-1.0417 Z0.0000
G01 X0.6011 Y-1.1033 Z0.0000
G01 X0.6485 Y-1.1624 Z0.0000
G01 X0.6995 Y-1.2212 Z0.0000
G01 X0.7538 Y-1.2790 Z0.0000
G01 X0.8117 Y-1.3361 Z0.0000
G01 X0.8735 Y-1.3925 Z0.0000
G01 X0.9384 Y-1.4475 Z0.0000
G01 X1.0070 Y-1.5014 Z0.0000
G01 X1.0802 Y-1.5548 Z0.0000
G01 X1.1566 Y-1.6066 Z0.0000
G01 X1.2366 Y-1.6568 Z0.0000
G01 X1.3214 Y-1.7061 Z0.0000
G01 X1.4103 Y-1.7542 Z0.0000
G01 X1.5027 Y-1.8003 Z0.0000
G01 X1.6002 Y-1.8453 Z0.0000
G01 X1.7018 Y-1.8886 Z0.0000
G01 X1.8072 Y-1.9300 Z0.0000
G01 X1.9178 Y-1.9699 Z0.0000
G01 X2.0325 Y-2.0078 Z0.0000
G01 X2.1507 Y-2.0435 Z0.0000
G01 X2.2765 Y-2.0780 Z0.0000
G01 X2.4032 Y-2.1094 Z0.0000
G01 X2.5374 Y-2.1395 Z0.0000
G01 X2.6752 Y-2.1670 Z0.0000
G01 X2.8193 Y-2.1924 Z0.0000
G01 X2.9668 Y-2.2153 Z0.0000
G01 X3.1195 Y-2.2358 Z0.0000
G01 X3.2763 Y-2.2537 Z0.0000
G01 X3.4402 Y-2.2692 Z0.0000
G01 X3.6076 Y-2.2819 Z0.0000
G01 X3.7805 Y-2.2920 Z0.0000
G01 X3.9590 Y-2.2992 Z0.0000
G01 X4.1407 Y-2.3036 Z0.0000
G01 X4.3274 Y-2.3051 Z0.0000
G01 X4.9550 Y-2.2801 Z0.0000
G01 X5.5887 Y-2.2553 Z0.0000
G01 X6.2224 Y-2.2310 Z0.0000
G01 X6.8561 Y-2.2071 Z0.0000
G01 X7.4898 Y-2.1837 Z0.0000
G01 X8.1235 Y-2.1608 Z0.0000
G01 X8.7573 Y-2.1383 Z0.0000
G01 X9.3911 Y-2.1162 Z0.0000
G01 X10.0249 Y-2.0946 Z0.0000
G01 X10.6587 Y-2.0735 Z0.0000
G01 X11.2925 Y-2.0528 Z0.0000
G01 X11.9264 Y-2.0326 Z0.0000
G01 X12.5602 Y-2.0128 Z0.0000
G01 X13.1941 Y-1.9935 Z0.0000
G01 X13.8280 Y-1.9746 Z0.0000
G01 X14.4619 Y-1.9562 Z0.0000
G01 X15.0958 Y-1.9383 Z0.0000
G01 X15.7297 Y-1.9207 Z0.0000
G01 X16.3637 Y-1.9037 Z0.0000
G01 X16.9976 Y-1.8871 Z0.0000
G01 X17.6316 Y-1.8709 Z0.0000
G01 X18.2655 Y-1.8553 Z0.0000
G01 X18.8995 Y-1.8400 Z0.0000
G01 X19.5335 Y-1.8253 Z0.0000
G01 X20.1675 Y-1.8109 Z0.0000
G01 X20.8015 Y-1.7970 Z0.0000
G01 X21.4355 Y-1.7836 Z0.0000
G01 X22.0696 Y-1.7706 Z0.0000
G01 X22.7036 Y-1.7581 Z0.0000
G01 X23.3377 Y-1.7461 Z0.0000
G01 X23.9717 Y-1.7344 Z0.0000
G01 X24.6058 Y-1.7233 Z0.0000
G01 X25.2398 Y-1.7126 Z0.0000
G01 X25.8739 Y-1.7024 Z0.0000
G01 X26.5081 Y-1.6926 Z0.0000
G01 X27.1421 Y-1.6832 Z0.0000
G01 X27.7762 Y-1.6744 Z0.0000
G01 X28.4103 Y-1.6659 Z0.0000
G01 X29.0444 Y-1.6579 Z0.0000
G01 X29.6786 Y-1.6504 Z0.0000
G01 X30.3127 Y-1.6433 Z0.0000
G01 X30.9468 Y-1.6367 Z0.0000
G01 X31.5810 Y-1.6305 Z0.0000
G01 X32.2151 Y-1.6248 Z0.0000
G01 X32.8492 Y-1.6196 Z0.0000
G01 X33.4834 Y-1.6148 Z0.0000
G01 X34.1175 Y-1.6105 Z0.0000
G01 X34.7517 Y-1.6066 Z0.0000
G01 X35.3858 Y-1.6031 Z0.0000
G01 X36.0200 Y-1.6001 Z0.0000
G01 X36.6542 Y-1.5976 Z0.0000
G01 X37.2883 Y-1.5955 Z0.0000
G01 X37.9225 Y-1.5939 Z0.0000
G01 X38.5566 Y-1.5927 Z0.0000
G01 X39.1908 Y-1.5920 Z0.0000
G01 X39.8250 Y-1.5918 Z0.0000
G01 X40.4592 Y-1.5920 Z0.0000
G01 X41.0933 Y-1.5926 Z0.0000
G01 X41.7275 Y-1.5937 Z0.0000
G01 X42.3616 Y-1.5953 Z0.0000
G01 X42.9958 Y-1.5973 Z0.0000
G01 X43.6300 Y-1.5997 Z0.0000
G01 X44.2641 Y-1.6027 Z0.0000
G01 X44.8983 Y-1.6060 Z0.0000
G01 X45.5324 Y-1.6098 Z0.0000
G01 X46.1666 Y-1.6141 Z0.0000
G01 X46.8007 Y-1.6188 Z0.0000
G01 X47.4349 Y-1.6240 Z0.0000
G01 X48.0690 Y-1.6297 Z0.0000
G01 X48.7031 Y-1.6358 Z0.0000
G01 X49.3372 Y-1.6423 Z0.0000
G01 X49.9714 Y-1.6493 Z0.0000
G01 X50.6055 Y-1.6568 Z0.0000
G01 X51.2396 Y-1.6647 Z0.0000
G01 X51.8737 Y-1.6731 Z0.0000
G01 X52.5078 Y-1.6819 Z0.0000
G01 X53.1420 Y-1.6912 Z0.0000
G01 X53.7760 Y-1.7009 Z0.0000
G01 X54.4101 Y-1.7111 Z0.0000
G01 X55.0442 Y-1.7217 Z0.0000
G01 X55.6783 Y-1.7327 Z0.0000
G01 X56.3123 Y-1.7443 Z0.0000
G01 X56.9464 Y-1.7563 Z0.0000
G01 X57.5804 Y-1.7687 Z0.0000
G01 X58.2144 Y-1.7816 Z0.0000
G01 X58.8485 Y-1.7950 Z0.0000
G01 X59.4825 Y-1.8088 Z0.0000
G01 X60.1165 Y-1.8231 Z0.0000
G01 X60.7505 Y-1.8378 Z0.0000
G01 X61.3844 Y-1.8530 Z0.0000
G01 X62.0184 Y-1.8686 Z0.0000
G01 X62.6524 Y-1.8847 Z0.0000
G01 X63.2863 Y-1.9012 Z0.0000
G01 X63.9203 Y-1.9182 Z0.0000
G01 X64.5542 Y-1.9356 Z0.0000
G01 X65.1881 Y-1.9535 Z0.0000
G01 X65.8220 Y-1.9718 Z0.0000
G01 X66.4559 Y-1.9907 Z0.0000
G01 X67.0898 Y-2.0099 Z0.0000
G01 X67.7181 Y-2.0295 Z0.0000
G01 X67.8257 Y-2.0282 Z0.0000
G01 X67.9291 Y-2.0244 Z0.0000
G01 X68.0306 Y-2.0182 Z0.0000
G01 X68.1300 Y-2.0095 Z0.0000
G01 X68.2257 Y-1.9985 Z0.0000
G01 X68.3164 Y-1.9856 Z0.0000
G01 X68.4070 Y-1.9700 Z0.0000
G01 X68.4933 Y-1.9525 Z0.0000
G01 X68.5765 Y-1.9331 Z0.0000
G01 X68.6562 Y-1.9118 Z0.0000
G01 X68.7344 Y-1.8883 Z0.0000
G01 X68.8091 Y-1.8630 Z0.0000
G01 X68.8805 Y-1.8363 Z0.0000
G01 X68.9497 Y-1.8077 Z0.0000
G01 X69.0167 Y-1.7772 Z0.0000
G01 X69.0798 Y-1.7457 Z0.0000
G01 X69.1423 Y-1.7117 Z0.0000
G01 X69.2003 Y-1.6774 Z0.0000
G01 X69.2574 Y-1.6406 Z0.0000
G01 X69.3102 Y-1.6039 Z0.0000
G01 X69.3631 Y-1.5640 Z0.0000
G01 X69.4126 Y-1.5237 Z0.0000
G01 X69.4599 Y-1.4822 Z0.0000
G01 X69.5048 Y-1.4397 Z0.0000
G01 X69.5480 Y-1.3956 Z0.0000
G01 X69.5892 Y-1.3502 Z0.0000
G01 X69.6284 Y-1.3037 Z0.0000
G01 X69.6653 Y-1.2566 Z0.0000
G01 X69.7006 Y-1.2080 Z0.0000
G01 X69.7335 Y-1.1590 Z0.0000
G01 X69.7652 Y-1.1081 Z0.0000
G01 X69.7953 Y-1.0559 Z0.0000
G01 X69.8229 Y-1.0038 Z0.0000
G01 X69.8492 Y-0.9500 Z0.0000
G01 X69.8737 Y-0.8955 Z0.0000
G01 X69.8966 Y-0.8395 Z0.0000
G01 X69.9174 Y-0.7841 Z0.0000
G01 X69.9366 Y-0.7275 Z0.0000
G01 X69.9545 Y-0.6692 Z0.0000
G01 X69.9705 Y-0.6109 Z0.0000
G01 X69.9848 Y-0.5522 Z0.0000
G01 X69.9977 Y-0.4927 Z0.0000
G01 X70.0090 Y-0.4317 Z0.0000
G01 X70.0186 Y-0.3719 Z0.0000
G01 X70.0268 Y-0.3102 Z0.0000
G01 X70.0335 Y-0.2478 Z0.0000
G01 X70.0385 Y-0.1872 Z0.0000
G01 X70.0422 Y-0.1242 Z0.0000
G01 X70.0442 Y-0.0640 Z0.0000
G01 X70.0450 Y0.0000 Z0.0000
G01 X70.0442 Y0.0638 Z0.0000
G01 X70.0422 Y0.1242 Z0.0000
G01 X70.0385 Y0.1872 Z0.0000
G01 X70.0335 Y0.2478 Z0.0000
G01 X70.0268 Y0.3102 Z0.0000
G01 X70.0186 Y0.3719 Z0.0000
G01 X70.0090 Y0.4317 Z0.0000
G01 X69.9977 Y0.4927 Z0.0000
G01 X69.9848 Y0.5522 Z0.0000
G01 X69.9705 Y0.6109 Z0.0000
G01 X69.9545 Y0.6692 Z0.0000
G01 X69.9366 Y0.7275 Z0.0000
G01 X69.9174 Y0.7841 Z0.0000
G01 X69.8966 Y0.8395 Z0.0000
G01 X69.8738 Y0.8952 Z0.0000
G01 X69.8492 Y0.9500 Z0.0000
G01 X69.8229 Y1.0038 Z0.0000
G01 X69.7953 Y1.0559 Z0.0000
G01 X69.7654 Y1.1079 Z0.0000
G01 X69.7339 Y1.1585 Z0.0000
G01 X69.7006 Y1.2080 Z0.0000
G01 X69.6653 Y1.2566 Z0.0000
G01 X69.6284 Y1.3037 Z0.0000
G01 X69.5892 Y1.3502 Z0.0000
G01 X69.5483 Y1.3953 Z0.0000
G01 X69.5048 Y1.4397 Z0.0000
G01 X69.4599 Y1.4822 Z0.0000
G01 X69.4126 Y1.5237 Z0.0000
G01 X69.3631 Y1.5640 Z0.0000
G01 X69.3103 Y1.6038 Z0.0000
G01 X69.2574 Y1.6406 Z0.0000
G01 X69.2003 Y1.6774 Z0.0000
G01 X69.1423 Y1.7117 Z0.0000
G01 X69.0799 Y1.7456 Z0.0000
G01 X69.0167 Y1.7772 Z0.0000
G01 X68.9497 Y1.8077 Z0.0000
G01 X68.8805 Y1.8363 Z0.0000
G01 X68.8091 Y1.8630 Z0.0000
G01 X68.7344 Y1.8883 Z0.0000
G01 X68.6562 Y1.9118 Z0.0000
G01 X68.5765 Y1.9331 Z0.0000
G01 X68.4933 Y1.9525 Z0.0000
G01 X68.4070 Y1.9700 Z0.0000
G01 X68.3164 Y1.9856 Z0.0000
G01 X68.2257 Y1.9985 Z0.0000
G01 X68.1300 Y2.0095 Z0.0000
G01 X68.0306 Y2.0182 Z0.0000
G01 X67.9291 Y2.0244 Z0.0000
G01 X67.8257 Y2.0282 Z0.0000
G01 X67.7181 Y2.0295 Z0.0000
G01 X67.0900 Y2.0099 Z0.0000
G01 X66.4561 Y1.9907 Z0.0000
G01 X65.8222 Y1.9719 Z0.0000
G01 X65.1883 Y1.9535 Z0.0000
G01 X64.5544 Y1.9356 Z0.0000
G01 X63.9204 Y1.9182 Z0.0000
G01 X63.2865 Y1.9012 Z0.0000
G01 X62.6525 Y1.8847 Z0.0000
G01 X62.0186 Y1.8686 Z0.0000
G01 X61.3846 Y1.8530 Z0.0000
G01 X60.7506 Y1.8378 Z0.0000
G01 X60.1166 Y1.8231 Z0.0000
G01 X59.4827 Y1.8088 Z0.0000
G01 X58.8486 Y1.7950 Z0.0000
G01 X58.2146 Y1.7816 Z0.0000
G01 X57.5806 Y1.7687 Z0.0000
G01 X56.9465 Y1.7563 Z0.0000
G01 X56.3125 Y1.7443 Z0.0000
G01 X55.6785 Y1.7327 Z0.0000
G01 X55.0443 Y1.7217 Z0.0000
G01 X54.4103 Y1.7111 Z0.0000
G01 X53.7762 Y1.7009 Z0.0000
G01 X53.1421 Y1.6912 Z0.0000
G01 X52.5080 Y1.6819 Z0.0000
G01 X51.8739 Y1.6731 Z0.0000
G01 X51.2398 Y1.6647 Z0.0000
G01 X50.6057 Y1.6568 Z0.0000
G01 X49.9716 Y1.6493 Z0.0000
G01 X49.3374 Y1.6423 Z0.0000
G01 X48.7033 Y1.6358 Z0.0000
G01 X48.0692 Y1.6297 Z0.0000
G01 X47.4350 Y1.6240 Z0.0000
G01 X46.8009 Y1.6188 Z0.0000
G01 X46.1668 Y1.6141 Z0.0000
G01 X45.5326 Y1.6098 Z0.0000
G01 X44.8984 Y1.6060 Z0.0000
G01 X44.2643 Y1.6027 Z0.0000
G01 X43.6301 Y1.5997 Z0.0000
G01 X42.9960 Y1.5973 Z0.0000
G01 X42.3618 Y1.5953 Z0.0000
G01 X41.7277 Y1.5937 Z0.0000
G01 X41.0935 Y1.5926 Z0.0000
G01 X40.4593 Y1.5920 Z0.0000
G01 X39.8251 Y1.5918 Z0.0000
G01 X39.1910 Y1.5920 Z0.0000
G01 X38.5568 Y1.5927 Z0.0000
G01 X37.9226 Y1.5939 Z0.0000
G01 X37.2885 Y1.5955 Z0.0000
G01 X36.6543 Y1.5976 Z0.0000
G01 X36.0202 Y1.6001 Z0.0000
G01 X35.3860 Y1.6031 Z0.0000
G01 X34.7518 Y1.6066 Z0.0000
G01 X34.1177 Y1.6105 Z0.0000
G01 X33.4836 Y1.6148 Z0.0000
G01 X32.8494 Y1.6196 Z0.0000
G01 X32.2153 Y1.6248 Z0.0000
G01 X31.5811 Y1.6305 Z0.0000
G01 X30.9470 Y1.6367 Z0.0000
G01 X30.3129 Y1.6433 Z0.0000
G01 X29.6787 Y1.6504 Z0.0000
G01 X29.0446 Y1.6579 Z0.0000
G01 X28.4105 Y1.6659 Z0.0000
G01 X27.7764 Y1.6744 Z0.0000
G01 X27.1423 Y1.6832 Z0.0000
G01 X26.5082 Y1.6926 Z0.0000
G01 X25.8741 Y1.7024 Z0.0000
G01 X25.2400 Y1.7126 Z0.0000
G01 X24.6059 Y1.7233 Z0.0000
G01 X23.9719 Y1.7344 Z0.0000
G01 X23.3378 Y1.7461 Z0.0000
G01 X22.7038 Y1.7581 Z0.0000
G01 X22.0697 Y1.7706 Z0.0000
G01 X21.4357 Y1.7836 Z0.0000
G01 X20.8017 Y1.7970 Z0.0000
G01 X20.1677 Y1.8109 Z0.0000
G01 X19.5337 Y1.8252 Z0.0000
G01 X18.8997 Y1.8400 Z0.0000
G01 X18.2657 Y1.8553 Z0.0000
G01 X17.6317 Y1.8709 Z0.0000
G01 X16.9977 Y1.8871 Z0.0000
G01 X16.3638 Y1.9037 Z0.0000
G01 X15.7299 Y1.9207 Z0.0000
G01 X15.0959 Y1.9383 Z0.0000
G01 X14.4620 Y1.9562 Z0.0000
G01 X13.8281 Y1.9746 Z0.0000
G01 X13.1943 Y1.9935 Z0.0000
G01 X12.5604 Y2.0128 Z0.0000
G01 X11.9265 Y2.0326 Z0.0000
G01 X11.2927 Y2.0528 Z0.0000
G01 X10.6588 Y2.0735 Z0.0000
G01 X10.0251 Y2.0946 Z0.0000
G01 X9.3913 Y2.1162 Z0.0000
G01 X8.7575 Y2.1383 Z0.0000
G01 X8.1237 Y2.1608 Z0.0000
G01 X7.4900 Y2.1837 Z0.0000
G01 X6.8562 Y2.2071 Z0.0000
G01 X6.2225 Y2.2310 Z0.0000
G01 X5.5888 Y2.2553 Z0.0000
G01 X4.9551 Y2.2800 Z0.0000
G01 X4.3274 Y2.3051 Z0.0000
G01 X4.1407 Y2.3036 Z0.0000
G01 X3.9590 Y2.2992 Z0.0000
G01 X3.7805 Y2.2920 Z0.0000
G01 X3.6076 Y2.2819 Z0.0000
G01 X3.4402 Y2.2692 Z0.0000
G01 X3.2763 Y2.2537 Z0.0000
G01 X3.1195 Y2.2358 Z0.0000
G01 X2.9668 Y2.2153 Z0.0000
G01 X2.8193 Y2.1924 Z0.0000
G01 X2.6752 Y2.1670 Z0.0000
G01 X2.5374 Y2.1395 Z0.0000
G01 X2.4032 Y2.1094 Z0.0000
G01 X2.2765 Y2.0780 Z0.0000
G01 X2.1507 Y2.0435 Z0.0000
G01 X2.0325 Y2.0078 Z0.0000
G01 X1.9178 Y1.9699 Z0.0000
G01 X1.8072 Y1.9300 Z0.0000
G01 X1.7018 Y1.8886 Z0.0000
G01 X1.6002 Y1.8453 Z0.0000
G01 X1.5027 Y1.8003 Z0.0000
G01 X1.4103 Y1.7542 Z0.0000
G01 X1.3214 Y1.7061 Z0.0000
G01 X1.2366 Y1.6568 Z0.0000
G01 X1.1562 Y1.6063 Z0.0000
G01 X1.0802 Y1.5548 Z0.0000
G01 X1.0070 Y1.5014 Z0.0000
G01 X0.9384 Y1.4475 Z0.0000
G01 X0.8733 Y1.3924 Z0.0000
G01 X0.8117 Y1.3361 Z0.0000
G01 X0.7538 Y1.2790 Z0.0000
G01 X0.6995 Y1.2212 Z0.0000
G01 X0.6485 Y1.1624 Z0.0000
G01 X0.6011 Y1.1033 Z0.0000
G01 X0.5558 Y1.0417 Z0.0000
G01 X0.5152 Y0.9818 Z0.0000
G01 X0.4769 Y0.9200 Z0.0000
G01 X0.4414 Y0.8570 Z0.0000
G01 X0.4093 Y0.7943 Z0.0000
G01 X0.3796 Y0.7303 Z0.0000
G01 X0.3531 Y0.6662 Z0.0000
G01 X0.3295 Y0.6021 Z0.0000
G01 X0.3082 Y0.5365 Z0.0000
G01 X0.2895 Y0.4701 Z0.0000
G01 X0.2739 Y0.4054 Z0.0000
G01 X0.2603 Y0.3376 Z0.0000
G01 X0.2495 Y0.2706 Z0.0000
G01 X0.2412 Y0.2039 Z0.0000
G01 X0.2351 Y0.1353 Z0.0000
G01 X0.2316 Y0.0677 Z0.0000
G01 X0.2305 Y0.0000 Z0.0000
G01 X0.0054 Y0.0000 Z0.0000
G01 X0.0054 Y0.0000 Z0.0000
G01 X0.0067 Y-0.0757 Z0.0000
G01 X0.0107 Y-0.1517 Z0.0000
G01 X0.0173 Y-0.2272 Z0.0000
G01 X0.0267 Y-0.3027 Z0.0000
G01 X0.0388 Y-0.3779 Z0.0000
G01 X0.0539 Y-0.4529 Z0.0000
G01 X0.0718 Y-0.5274 Z0.0000
G01 X0.0928 Y-0.6018 Z0.0000
G01 X0.1166 Y-0.6753 Z0.0000
G01 X0.1436 Y-0.7484 Z0.0000
G01 X0.1736 Y-0.8209 Z0.0000
G01 X0.2069 Y-0.8927 Z0.0000
G01 X0.2433 Y-0.9639 Z0.0000
G01 X0.2830 Y-1.0342 Z0.0000
G01 X0.3260 Y-1.1037 Z0.0000
G01 X0.3724 Y-1.1723 Z0.0000
G01 X0.4222 Y-1.2399 Z0.0000
G01 X0.4755 Y-1.3064 Z0.0000
G01 X0.5325 Y-1.3721 Z0.0000
G01 X0.5928 Y-1.4363 Z0.0000
G01 X0.6568 Y-1.4994 Z0.0000
G01 X0.7247 Y-1.5614 Z0.0000
G01 X0.7960 Y-1.6218 Z0.0000
G01 X0.8712 Y-1.6810 Z0.0000
G01 X0.9503 Y-1.7387 Z0.0000
G01 X1.0333 Y-1.7948 Z0.0000
G01 X1.1205 Y-1.8496 Z0.0000
G01 X1.2114 Y-1.9025 Z0.0000
G01 X1.3062 Y-1.9537 Z0.0000
G01 X1.4053 Y-2.0032 Z0.0000
G01 X1.5087 Y-2.0509 Z0.0000
G01 X1.6163 Y-2.0968 Z0.0000
G01 X1.7279 Y-2.1406 Z0.0000
G01 X1.8440 Y-2.1825 Z0.0000
G01 X1.9646 Y-2.2223 Z0.0000
G01 X2.0893 Y-2.2600 Z0.0000
G01 X2.2186 Y-2.2955 Z0.0000
G01 X2.3524 Y-2.3287 Z0.0000
G01 X2.4910 Y-2.3597 Z0.0000
G01 X2.6340 Y-2.3882 Z0.0000
G01 X2.7818 Y-2.4144 Z0.0000
G01 X2.9342 Y-2.4380 Z0.0000
G01 X3.0915 Y-2.4591 Z0.0000
G01 X3.2537 Y-2.4776 Z0.0000
G01 X3.4205 Y-2.4934 Z0.0000
G01 X3.5925 Y-2.5064 Z0.0000
G01 X3.7695 Y-2.5167 Z0.0000
G01 X3.9514 Y-2.5241 Z0.0000
G01 X4.1385 Y-2.5286 Z0.0000
G01 X4.3305 Y-2.5301 Z0.0000
G01 X4.9639 Y-2.5049 Z0.0000
G01 X5.5975 Y-2.4801 Z0.0000
G01 X6.2310 Y-2.4559 Z0.0000
G01 X6.8646 Y-2.4320 Z0.0000
G01 X7.4981 Y-2.4086 Z0.0000
G01 X8.1317 Y-2.3857 Z0.0000
G01 X8.7653 Y-2.3632 Z0.0000
G01 X9.3989 Y-2.3411 Z0.0000
G01 X10.0325 Y-2.3196 Z0.0000
G01 X10.6662 Y-2.2984 Z0.0000
G01 X11.2998 Y-2.2777 Z0.0000
G01 X11.9336 Y-2.2575 Z0.0000
G01 X12.5673 Y-2.2377 Z0.0000
G01 X13.2010 Y-2.2184 Z0.0000
G01 X13.8347 Y-2.1996 Z0.0000
G01 X14.4684 Y-2.1812 Z0.0000
G01 X15.1022 Y-2.1632 Z0.0000
G01 X15.7359 Y-2.1457 Z0.0000
G01 X16.3697 Y-2.1287 Z0.0000
G01 X17.0035 Y-2.1120 Z0.0000
G01 X17.6373 Y-2.0959 Z0.0000
G01 X18.2711 Y-2.0802 Z0.0000
G01 X18.9049 Y-2.0650 Z0.0000
G01 X19.5388 Y-2.0502 Z0.0000
G01 X20.1726 Y-2.0359 Z0.0000
G01 X20.8064 Y-2.0220 Z0.0000
G01 X21.4403 Y-2.0086 Z0.0000
G01 X22.0742 Y-1.9956 Z0.0000
G01 X22.7080 Y-1.9831 Z0.0000
G01 X23.3419 Y-1.9711 Z0.0000
G01 X23.9758 Y-1.9594 Z0.0000
G01 X24.6098 Y-1.9483 Z0.0000
G01 X25.2437 Y-1.9376 Z0.0000
G01 X25.8776 Y-1.9274 Z0.0000
G01 X26.5115 Y-1.9176 Z0.0000
G01 X27.1454 Y-1.9082 Z0.0000
G01 X27.7794 Y-1.8994 Z0.0000
G01 X28.4133 Y-1.8909 Z0.0000
G01 X29.0473 Y-1.8829 Z0.0000
G01 X29.6812 Y-1.8754 Z0.0000
G01 X30.3152 Y-1.8684 Z0.0000
G01 X30.9492 Y-1.8618 Z0.0000
G01 X31.5832 Y-1.8556 Z0.0000
G01 X32.2171 Y-1.8499 Z0.0000
G01 X32.8511 Y-1.8446 Z0.0000
G01 X33.4851 Y-1.8398 Z0.0000
G01 X34.1191 Y-1.8355 Z0.0000
G01 X34.7531 Y-1.8316 Z0.0000
G01 X35.3870 Y-1.8282 Z0.0000
G01 X36.0211 Y-1.8252 Z0.0000
G01 X36.6550 Y-1.8227 Z0.0000
G01 X37.2891 Y-1.8206 Z0.0000
G01 X37.9231 Y-1.8190 Z0.0000
G01 X38.5571 Y-1.8178 Z0.0000
G01 X39.1911 Y-1.8171 Z0.0000
G01 X39.8251 Y-1.8168 Z0.0000
G01 X40.4591 Y-1.8170 Z0.0000
G01 X41.0931 Y-1.8176 Z0.0000
G01 X41.7271 Y-1.8187 Z0.0000
G01 X42.3611 Y-1.8203 Z0.0000
G01 X42.9951 Y-1.8223 Z0.0000
G01 X43.6291 Y-1.8248 Z0.0000
G01 X44.2631 Y-1.8277 Z0.0000
G01 X44.8971 Y-1.8311 Z0.0000
G01 X45.5311 Y-1.8349 Z0.0000
G01 X46.1651 Y-1.8392 Z0.0000
G01 X46.7990 Y-1.8439 Z0.0000
G01 X47.4330 Y-1.8491 Z0.0000
G01 X48.0670 Y-1.8547 Z0.0000
G01 X48.7010 Y-1.8608 Z0.0000
G01 X49.3349 Y-1.8674 Z0.0000
G01 X49.9689 Y-1.8744 Z0.0000
G01 X50.6029 Y-1.8818 Z0.0000
G01 X51.2368 Y-1.8897 Z0.0000
G01 X51.8708 Y-1.8981 Z0.0000
G01 X52.5047 Y-1.9069 Z0.0000
G01 X53.1387 Y-1.9162 Z0.0000
G01 X53.7726 Y-1.9259 Z0.0000
G01 X54.4065 Y-1.9361 Z0.0000
G01 X55.0404 Y-1.9467 Z0.0000
G01 X55.6743 Y-1.9577 Z0.0000
G01 X56.3082 Y-1.9693 Z0.0000
G01 X56.9421 Y-1.9813 Z0.0000
G01 X57.5760 Y-1.9937 Z0.0000
G01 X58.2099 Y-2.0066 Z0.0000
G01 X58.8437 Y-2.0200 Z0.0000
G01 X59.4776 Y-2.0338 Z0.0000
G01 X60.1114 Y-2.0481 Z0.0000
G01 X60.7452 Y-2.0627 Z0.0000
G01 X61.3790 Y-2.0779 Z0.0000
G01 X62.0129 Y-2.0935 Z0.0000
G01 X62.6467 Y-2.1096 Z0.0000
G01 X63.2805 Y-2.1261 Z0.0000
G01 X63.9142 Y-2.1431 Z0.0000
G01 X64.5480 Y-2.1606 Z0.0000
G01 X65.1818 Y-2.1785 Z0.0000
G01 X65.8155 Y-2.1968 Z0.0000
G01 X66.4492 Y-2.2156 Z0.0000
G01 X67.0829 Y-2.2348 Z0.0000
G01 X67.7166 Y-2.2546 Z0.0000
G01 X67.8299 Y-2.2532 Z0.0000
G01 X67.9403 Y-2.2492 Z0.0000
G01 X68.0479 Y-2.2426 Z0.0000
G01 X68.1522 Y-2.2335 Z0.0000
G01 X68.2537 Y-2.2218 Z0.0000
G01 X68.3525 Y-2.2077 Z0.0000
G01 X68.4481 Y-2.1913 Z0.0000
G01 X68.5410 Y-2.1725 Z0.0000
G01 X68.6308 Y-2.1515 Z0.0000
G01 X68.7181 Y-2.1282 Z0.0000
G01 X68.8025 Y-2.1027 Z0.0000
G01 X68.8844 Y-2.0751 Z0.0000
G01 X68.9633 Y-2.0456 Z0.0000
G01 X69.0395 Y-2.0141 Z0.0000
G01 X69.1133 Y-1.9804 Z0.0000
G01 X69.1843 Y-1.9451 Z0.0000
G01 X69.2527 Y-1.9078 Z0.0000
G01 X69.3189 Y-1.8687 Z0.0000
G01 X69.3823 Y-1.8279 Z0.0000
G01 X69.4431 Y-1.7855 Z0.0000
G01 X69.5016 Y-1.7414 Z0.0000
G01 X69.5578 Y-1.6957 Z0.0000
G01 X69.6113 Y-1.6487 Z0.0000
G01 X69.6628 Y-1.5999 Z0.0000
G01 X69.7117 Y-1.5501 Z0.0000
G01 X69.7584 Y-1.4987 Z0.0000
G01 X69.8028 Y-1.4460 Z0.0000
G01 X69.8450 Y-1.3921 Z0.0000
G01 X69.8850 Y-1.3370 Z0.0000
G01 X69.9229 Y-1.2808 Z0.0000
G01 X69.9585 Y-1.2235 Z0.0000
G01 X69.9921 Y-1.1651 Z0.0000
G01 X70.0236 Y-1.1057 Z0.0000
G01 X70.0530 Y-1.0455 Z0.0000
G01 X70.0804 Y-0.9844 Z0.0000
G01 X70.1059 Y-0.9223 Z0.0000
G01 X70.1293 Y-0.8597 Z0.0000
G01 X70.1509 Y-0.7963 Z0.0000
G01 X70.1705 Y-0.7323 Z0.0000
G01 X70.1883 Y-0.6676 Z0.0000
G01 X70.2042 Y-0.6024 Z0.0000
G01 X70.2184 Y-0.5367 Z0.0000
G01 X70.2307 Y-0.4705 Z0.0000
G01 X70.2413 Y-0.4041 Z0.0000
G01 X70.2503 Y-0.3372 Z0.0000
G01 X70.2575 Y-0.2701 Z0.0000
G01 X70.2630 Y-0.2028 Z0.0000
G01 X70.2669 Y-0.1353 Z0.0000
G01 X70.2693 Y-0.0676 Z0.0000
G01 X70.2701 Y0.0000 Z0.0000
G01 X70.2693 Y0.0675 Z0.0000
G01 X70.2669 Y0.1351 Z0.0000
G01 X70.2630 Y0.2027 Z0.0000
G01 X70.2574 Y0.2701 Z0.0000
G01 X70.2503 Y0.3371 Z0.0000
G01 X70.2414 Y0.4039 Z0.0000
G01 X70.2307 Y0.4705 Z0.0000
G01 X70.2184 Y0.5366 Z0.0000
G01 X70.2043 Y0.6023 Z0.0000
G01 X70.1884 Y0.6675 Z0.0000
G01 X70.1706 Y0.7321 Z0.0000
G01 X70.1509 Y0.7962 Z0.0000
G01 X70.1293 Y0.8597 Z0.0000
G01 X70.1059 Y0.9223 Z0.0000
G01 X70.0805 Y0.9842 Z0.0000
G01 X70.0531 Y1.0453 Z0.0000
G01 X70.0237 Y1.1056 Z0.0000
G01 X69.9921 Y1.1651 Z0.0000
G01 X69.9586 Y1.2233 Z0.0000
G01 X69.9230 Y1.2806 Z0.0000
G01 X69.8851 Y1.3368 Z0.0000
G01 X69.8451 Y1.3919 Z0.0000
G01 X69.8029 Y1.4459 Z0.0000
G01 X69.7585 Y1.4985 Z0.0000
G01 X69.7118 Y1.5499 Z0.0000
G01 X69.6628 Y1.5999 Z0.0000
G01 X69.6113 Y1.6487 Z0.0000
G01 X69.5578 Y1.6957 Z0.0000
G01 X69.5017 Y1.7413 Z0.0000
G01 X69.4431 Y1.7855 Z0.0000
G01 X69.3823 Y1.8279 Z0.0000
G01 X69.3189 Y1.8687 Z0.0000
G01 X69.2527 Y1.9078 Z0.0000
G01 X69.1844 Y1.9450 Z0.0000
G01 X69.1133 Y1.9805 Z0.0000
G01 X69.0395 Y2.0140 Z0.0000
G01 X68.9633 Y2.0456 Z0.0000
G01 X68.8844 Y2.0751 Z0.0000
G01 X68.8025 Y2.1027 Z0.0000
G01 X68.7181 Y2.1282 Z0.0000
G01 X68.6310 Y2.1514 Z0.0000
G01 X68.5410 Y2.1725 Z0.0000
G01 X68.4481 Y2.1913 Z0.0000
G01 X68.3525 Y2.2077 Z0.0000
G01 X68.2537 Y2.2218 Z0.0000
G01 X68.1522 Y2.2335 Z0.0000
G01 X68.0479 Y2.2426 Z0.0000
G01 X67.9403 Y2.2492 Z0.0000
G01 X67.8299 Y2.2532 Z0.0000
G01 X67.7166 Y2.2546 Z0.0000
G01 X67.0829 Y2.2348 Z0.0000
G01 X66.4492 Y2.2156 Z0.0000
G01 X65.8155 Y2.1968 Z0.0000
G01 X65.1818 Y2.1785 Z0.0000
G01 X64.5480 Y2.1606 Z0.0000
G01 X63.9142 Y2.1431 Z0.0000
G01 X63.2805 Y2.1261 Z0.0000
G01 X62.6467 Y2.1096 Z0.0000
G01 X62.0129 Y2.0935 Z0.0000
G01 X61.3790 Y2.0779 Z0.0000
G01 X60.7452 Y2.0627 Z0.0000
G01 X60.1114 Y2.0481 Z0.0000
G01 X59.4776 Y2.0338 Z0.0000
G01 X58.8437 Y2.0200 Z0.0000
G01 X58.2099 Y2.0066 Z0.0000
G01 X57.5760 Y1.9937 Z0.0000
G01 X56.9421 Y1.9813 Z0.0000
G01 X56.3082 Y1.9693 Z0.0000
G01 X55.6744 Y1.9577 Z0.0000
G01 X55.0404 Y1.9467 Z0.0000
G01 X54.4065 Y1.9361 Z0.0000
G01 X53.7726 Y1.9259 Z0.0000
G01 X53.1387 Y1.9162 Z0.0000
G01 X52.5047 Y1.9069 Z0.0000
G01 X51.8708 Y1.8981 Z0.0000
G01 X51.2368 Y1.8897 Z0.0000
G01 X50.6029 Y1.8818 Z0.0000
G01 X49.9689 Y1.8744 Z0.0000
G01 X49.3350 Y1.8674 Z0.0000
G01 X48.7010 Y1.8608 Z0.0000
G01 X48.0670 Y1.8547 Z0.0000
G01 X47.4330 Y1.8491 Z0.0000
G01 X46.7990 Y1.8439 Z0.0000
G01 X46.1651 Y1.8392 Z0.0000
G01 X45.5311 Y1.8349 Z0.0000
G01 X44.8971 Y1.8311 Z0.0000
G01 X44.2631 Y1.8277 Z0.0000
G01 X43.6291 Y1.8248 Z0.0000
G01 X42.9951 Y1.8223 Z0.0000
G01 X42.3611 Y1.8203 Z0.0000
G01 X41.7271 Y1.8187 Z0.0000
G01 X41.0931 Y1.8176 Z0.0000
G01 X40.4591 Y1.8170 Z0.0000
G01 X39.8251 Y1.8168 Z0.0000
G01 X39.1911 Y1.8171 Z0.0000
G01 X38.5571 Y1.8178 Z0.0000
G01 X37.9231 Y1.8190 Z0.0000
G01 X37.2891 Y1.8206 Z0.0000
G01 X36.6551 Y1.8227 Z0.0000
G01 X36.0211 Y1.8252 Z0.0000
G01 X35.3870 Y1.8282 Z0.0000
G01 X34.7531 Y1.8316 Z0.0000
G01 X34.1191 Y1.8355 Z0.0000
G01 X33.4851 Y1.8398 Z0.0000
G01 X32.8511 Y1.8446 Z0.0000
G01 X32.2171 Y1.8499 Z0.0000
G01 X31.5832 Y1.8556 Z0.0000
G01 X30.9492 Y1.8618 Z0.0000
G01 X30.3152 Y1.8684 Z0.0000
G01 X29.6812 Y1.8754 Z0.0000
G01 X29.0473 Y1.8829 Z0.0000
G01 X28.4133 Y1.8909 Z0.0000
G01 X27.7794 Y1.8994 Z0.0000
G01 X27.1454 Y1.9082 Z0.0000
G01 X26.5115 Y1.9176 Z0.0000
G01 X25.8776 Y1.9274 Z0.0000
G01 X25.2437 Y1.9376 Z0.0000
G01 X24.6098 Y1.9483 Z0.0000
G01 X23.9759 Y1.9594 Z0.0000
G01 X23.3419 Y1.9711 Z0.0000
G01 X22.7080 Y1.9831 Z0.0000
G01 X22.0742 Y1.9956 Z0.0000
G01 X21.4403 Y2.0086 Z0.0000
G01 X20.8064 Y2.0220 Z0.0000
G01 X20.1726 Y2.0359 Z0.0000
G01 X19.5388 Y2.0502 Z0.0000
G01 X18.9049 Y2.0650 Z0.0000
G01 X18.2711 Y2.0802 Z0.0000
G01 X17.6373 Y2.0959 Z0.0000
G01 X17.0035 Y2.1120 Z0.0000
G01 X16.3697 Y2.1287 Z0.0000
G01 X15.7359 Y2.1457 Z0.0000
G01 X15.1022 Y2.1632 Z0.0000
G01 X14.4684 Y2.1812 Z0.0000
G01 X13.8347 Y2.1996 Z0.0000
G01 X13.2010 Y2.2184 Z0.0000
G01 X12.5673 Y2.2377 Z0.0000
G01 X11.9336 Y2.2575 Z0.0000
G01 X11.2999 Y2.2777 Z0.0000
G01 X10.6662 Y2.2984 Z0.0000
G01 X10.0325 Y2.3196 Z0.0000
G01 X9.3989 Y2.3411 Z0.0000
G01 X8.7653 Y2.3632 Z0.0000
G01 X8.1317 Y2.3857 Z0.0000
G01 X7.4981 Y2.4086 Z0.0000
G01 X6.8646 Y2.4320 Z0.0000
G01 X6.2310 Y2.4559 Z0.0000
G01 X5.5975 Y2.4801 Z0.0000
G01 X4.9639 Y2.5049 Z0.0000
G01 X4.3305 Y2.5301 Z0.0000
G01 X4.1385 Y2.5286 Z0.0000
G01 X3.9514 Y2.5241 Z0.0000
G01 X3.7695 Y2.5167 Z0.0000
G01 X3.5925 Y2.5064 Z0.0000
G01 X3.4205 Y2.4934 Z0.0000
G01 X3.2537 Y2.4776 Z0.0000
G01 X3.0915 Y2.4591 Z0.0000
G01 X2.9342 Y2.4380 Z0.0000
G01 X2.7818 Y2.4144 Z0.0000
G01 X2.6340 Y2.3882 Z0.0000
G01 X2.4910 Y2.3597 Z0.0000
G01 X2.3524 Y2.3287 Z0.0000
G01 X2.2186 Y2.2955 Z0.0000
G01 X2.0893 Y2.2600 Z0.0000
G01 X1.9646 Y2.2223 Z0.0000
G01 X1.8440 Y2.1825 Z0.0000
G01 X1.7279 Y2.1406 Z0.0000
G01 X1.6163 Y2.0968 Z0.0000
G01 X1.5087 Y2.0509 Z0.0000
G01 X1.4053 Y2.0032 Z0.0000
G01 X1.3062 Y1.9537 Z0.0000
G01 X1.2114 Y1.9025 Z0.0000
G01 X1.1205 Y1.8496 Z0.0000
G01 X1.0333 Y1.7948 Z0.0000
G01 X0.9503 Y1.7387 Z0.0000
G01 X0.8712 Y1.6810 Z0.0000
G01 X0.7960 Y1.6218 Z0.0000
G01 X0.7247 Y1.5614 Z0.0000
G01 X0.6568 Y1.4994 Z0.0000
G01 X0.5928 Y1.4363 Z0.0000
G01 X0.5325 Y1.3721 Z0.0000
G01 X0.4755 Y1.3064 Z0.0000
G01 X0.4222 Y1.2399 Z0.0000
G01 X0.3724 Y1.1723 Z0.0000
G01 X0.3260 Y1.1037 Z0.0000
G01 X0.2830 Y1.0342 Z0.0000
G01 X0.2433 Y0.9639 Z0.0000
G01 X0.2069 Y0.8927 Z0.0000
G01 X0.1736 Y0.8209 Z0.0000
G01 X0.1436 Y0.7484 Z0.0000
G01 X0.1166 Y0.6753 Z0.0000
G01 X0.0928 Y0.6018 Z0.0000
G01 X0.0718 Y0.5274 Z0.0000
G01 X0.0539 Y0.4529 Z0.0000
G01 X0.0388 Y0.3779 Z0.0000
G01 X0.0267 Y0.3027 Z0.0000
G01 X0.0173 Y0.2272 Z0.0000
G01 X0.0106 Y0.1517 Z0.0000
G01 X0.0067 Y0.0757 Z0.0000
G01 X0.0054 Y0.0000 Z0.0000
M05
G00 X0.0054 Y0.0000 Z0.1000
G00 X0.0000 Y0.0000 Z0.1000
G49
G01 G55 Z0 F20
G00 G55 X0 Y0 Z0
M30
