( Sample-splitboard-top-profile.nc                                             )
( Generated by MonkeyCAM v4.1.0 master@47785ff                                 )
(   at 2025-12-31 14:28:16 PST                                                 )
(                                                                              )
( This GCode program is provided on an "AS IS" BASIS WITHOUT WARRANTIES OR     )
( CONDITIONS OF ANY KIND, either express or implied. You should inspect this   )
( program very carefully to confirm you understand its operation. YOU ARE      )
( RESPONSIBLE FOR ENSURING THIS PROGRAM WILL NOT DAMAGE YOUR MACHINE OR        )
( MATERIALS.                                                                   )
(                                                                              )
( See http://www.github.com/mikemag/MonkeyCAM for License and documentation.   )
(                                                                              )
( * Rapid height: 0.6000"                                                      )
( * Tool: T1, 1.5 Inch Straight, diameter 1.4959"                              )
( * Height baseline [Z=0.0] is the top of the table.                           )
( * XY origin is the left side of the table, Y is center of the part.          )
( * Requires G54 to be the part work coordinate offsets [WCO]. [0, 0] is the   )
(   center of the nose, with the board extending to positive X. The cutter may )
(   move to negative values of X.                                              )
( * Requires G55 to be the machine WCO, with Z above the rapid height.         )
( * Units are inches                                                           )
( * Center of the board in G54:                                                )
(     X=33.8582 Y=0.0000 Z=0.0000                                              )
( * Cutter bounding box in G54:                                                )
(     X0.0000 Y-5.1300 Z0.0787 to X65.5117 Y5.1300 Z0.6000                     )

G90 G20 G17 G40 G49
G43 H1 T1
G00 G54 X0 Y0 Z0.6000

M03
G04 P5
G00 X8.9240 Y-0.5207 Z0.6000
G01 X8.9240 Y-0.5207 Z0.6000 F50
G01 X8.7304 Y-0.5322 Z0.5747
G01 X8.4483 Y-0.5488 Z0.5378
G01 X8.3893 Y-0.5523 Z0.5301
G01 X8.3824 Y-0.5527 Z0.5292
G01 X8.1620 Y-0.5660 Z0.5005
G01 X7.8712 Y-0.5836 Z0.4625
G01 X7.8476 Y-0.5850 Z0.4594
G01 X7.8413 Y-0.5853 Z0.4586
G01 X7.5756 Y-0.6017 Z0.4239
G01 X7.3068 Y-0.6183 Z0.3888
G01 X7.3004 Y-0.6187 Z0.3880
G01 X7.2749 Y-0.6203 Z0.3846
G01 X6.9687 Y-0.6395 Z0.3446
G01 X6.9538 Y-0.6405 Z0.3427
G01 X6.8846 Y-0.6397 Z0.3337
G01 X6.6945 Y-0.6334 Z0.3089
G01 X6.6566 Y-0.6313 Z0.3040
G01 X6.5140 Y-0.6233 Z0.2853
G01 X6.3478 Y-0.6100 Z0.2636
G01 X6.3386 Y-0.6090 Z0.2624
G01 X6.1927 Y-0.5938 Z0.2433
G01 X6.0507 Y-0.5753 Z0.2246
G01 X5.9200 Y-0.5548 Z0.2074
G01 X5.7987 Y-0.5324 Z0.1913
G01 X5.6903 Y-0.5093 Z0.1769
G01 X5.5915 Y-0.4852 Z0.1636
G01 X5.5046 Y-0.4614 Z0.1519
G01 X5.4283 Y-0.4379 Z0.1415
G01 X5.3613 Y-0.4150 Z0.1322
G01 X5.3024 Y-0.3927 Z0.1240
G01 X5.2535 Y-0.3724 Z0.1172
G01 X5.2131 Y-0.3540 Z0.1114
G01 X5.1787 Y-0.3370 Z0.1064
G01 X5.1537 Y-0.3235 Z0.1027
G01 X5.1444 Y-0.3180 Z0.1012
G01 X5.1421 Y-0.3083 Z0.1000
G01 X5.1378 Y-0.2873 Z0.0972
G01 X5.1332 Y-0.2612 Z0.0937
G01 X5.1297 Y-0.2369 Z0.0905
G01 X5.1257 Y-0.2034 Z0.0861
G01 X5.1227 Y-0.1701 Z0.0818
G01 X5.1203 Y-0.1320 Z0.0787
G01 X5.1188 Y-0.0943 Z0.0787
G01 X5.1179 Y-0.0195 Z0.0787
G01 X5.1179 Y-0.0195 Z0.0787 F20
G01 X5.1179 Y-0.0195 Z0.0787 F50
G01 X5.1179 Y0.0166 Z0.0787
G01 X5.1188 Y0.0939 Z0.0787
G01 X5.1203 Y0.1317 Z0.0787
G01 X5.1227 Y0.1701 Z0.0787
G01 X5.1257 Y0.2027 Z0.0787
G01 X5.1297 Y0.2369 Z0.0787
G01 X5.1332 Y0.2612 Z0.0787
G01 X5.1377 Y0.2868 Z0.0787
G01 X5.1421 Y0.3083 Z0.0787
G01 X5.1444 Y0.3180 Z0.0787
G01 X5.1534 Y0.3233 Z0.0787
G01 X5.1787 Y0.3370 Z0.0787
G01 X5.2131 Y0.3540 Z0.0787
G01 X5.2535 Y0.3724 Z0.0787
G01 X5.3024 Y0.3927 Z0.0787
G01 X5.3613 Y0.4150 Z0.0787
G01 X5.4283 Y0.4379 Z0.0787
G01 X5.5046 Y0.4614 Z0.0787
G01 X5.5913 Y0.4852 Z0.0787
G01 X5.6903 Y0.5093 Z0.0787
G01 X5.7987 Y0.5324 Z0.0787
G01 X5.9200 Y0.5548 Z0.0787
G01 X6.0507 Y0.5753 Z0.0787
G01 X6.1927 Y0.5938 Z0.0787
G01 X6.3386 Y0.6090 Z0.0787
G01 X6.3478 Y0.6100 Z0.0787
G01 X6.5140 Y0.6233 Z0.0788
G01 X6.6566 Y0.6313 Z0.0789
G01 X6.6945 Y0.6334 Z0.0790
G01 X6.8846 Y0.6397 Z0.0795
G01 X6.9538 Y0.6405 Z0.0797
G01 X6.9687 Y0.6395 Z0.0797
G01 X7.2749 Y0.6203 Z0.0811
G01 X7.3004 Y0.6187 Z0.0812
G01 X7.3068 Y0.6183 Z0.0812
G01 X7.5756 Y0.6017 Z0.0829
G01 X7.8413 Y0.5853 Z0.0850
G01 X7.8476 Y0.5850 Z0.0850
G01 X7.8712 Y0.5836 Z0.0852
G01 X8.1620 Y0.5660 Z0.0879
G01 X8.3824 Y0.5527 Z0.0903
G01 X8.3893 Y0.5523 Z0.0904
G01 X8.4483 Y0.5488 Z0.0910
G01 X8.7304 Y0.5322 Z0.0946
G01 X8.9240 Y0.5207 Z0.0973
G01 X8.9301 Y0.5204 Z0.0974
G01 X9.0087 Y0.5158 Z0.0985
G01 X9.2835 Y0.4999 Z0.1028
G01 X9.4648 Y0.4894 Z0.1059
G01 X9.4714 Y0.4891 Z0.1060
G01 X9.5550 Y0.4843 Z0.1075
G01 X9.8236 Y0.4691 Z0.1124
G01 X10.0062 Y0.4588 Z0.1160
G01 X10.0126 Y0.4584 Z0.1161
G01 X10.0896 Y0.4541 Z0.1176
G01 X10.3535 Y0.4395 Z0.1231
G01 X10.5473 Y0.4288 Z0.1274
G01 X10.5540 Y0.4285 Z0.1275
G01 X10.6153 Y0.4251 Z0.1288
G01 X10.8756 Y0.4111 Z0.1348
G01 X11.0890 Y0.3996 Z0.1399
G01 X11.0955 Y0.3992 Z0.1400
G01 X11.1346 Y0.3971 Z0.1410
G01 X11.3926 Y0.3835 Z0.1473
G01 X11.6303 Y0.3709 Z0.1533
G01 X11.6365 Y0.3706 Z0.1535
G01 X11.6500 Y0.3699 Z0.1538
G01 X11.9071 Y0.3566 Z0.1604
G01 X12.1641 Y0.3433 Z0.1672
G01 X12.1714 Y0.3430 Z0.1674
G01 X12.1780 Y0.3427 Z0.1675
G01 X12.4215 Y0.3304 Z0.1740
G01 X12.6795 Y0.3174 Z0.1809
G01 X12.7129 Y0.3157 Z0.1818
G01 X12.7194 Y0.3154 Z0.1820
G01 X12.9385 Y0.3046 Z0.1879
G01 X13.1988 Y0.2918 Z0.1948
G01 X13.2542 Y0.2891 Z0.1963
G01 X13.2609 Y0.2888 Z0.1964
G01 X13.4607 Y0.2792 Z0.2018
G01 X13.7245 Y0.2665 Z0.2087
G01 X13.7961 Y0.2631 Z0.2106
G01 X13.8025 Y0.2628 Z0.2107
G01 X13.9905 Y0.2540 Z0.2156
G01 X14.2592 Y0.2415 Z0.2224
G01 X14.3376 Y0.2379 Z0.2244
G01 X14.3442 Y0.2376 Z0.2245
G01 X14.5307 Y0.2291 Z0.2292
G01 X14.8054 Y0.2166 Z0.2358
G01 X14.8792 Y0.2133 Z0.2375
G01 X14.8854 Y0.2130 Z0.2377
G01 X15.0837 Y0.2042 Z0.2423
G01 X15.3658 Y0.1918 Z0.2487
G01 X15.4205 Y0.1894 Z0.2498
G01 X15.4270 Y0.1891 Z0.2500
G01 X15.6521 Y0.1794 Z0.2548
G01 X15.9429 Y0.1669 Z0.2607
G01 X15.9622 Y0.1661 Z0.2611
G01 X15.9687 Y0.1658 Z0.2612
G01 X16.2385 Y0.1546 Z0.2665
G01 X16.5037 Y0.1435 Z0.2713
G01 X16.5103 Y0.1433 Z0.2714
G01 X16.5392 Y0.1421 Z0.2720
G01 X16.8455 Y0.1297 Z0.2772
G01 X17.0457 Y0.1216 Z0.2804
G01 X17.0518 Y0.1213 Z0.2805
G01 X17.1575 Y0.1172 Z0.2821
G01 X17.4756 Y0.1047 Z0.2868
G01 X17.5870 Y0.1003 Z0.2883
G01 X17.5939 Y0.1001 Z0.2883
G01 X17.8001 Y0.0922 Z0.2911
G01 X18.1292 Y0.0798 Z0.2950
G01 X18.1314 Y0.0796 Z0.2950
G01 X18.1353 Y0.0795 Z0.2951
G01 X18.4697 Y0.0672 Z0.2985
G01 X18.6706 Y0.0598 Z0.3004
G01 X18.6771 Y0.0596 Z0.3004
G01 X18.8154 Y0.0547 Z0.3017
G01 X19.1689 Y0.0421 Z0.3044
G01 X19.2124 Y0.0406 Z0.3047
G01 X19.2190 Y0.0403 Z0.3048
G01 X19.5303 Y0.0296 Z0.3067
G01 X19.7543 Y0.0220 Z0.3078
G01 X19.7608 Y0.0218 Z0.3078
G01 X19.9001 Y0.0172 Z0.3085
G01 X20.2787 Y0.0046 Z0.3098
G01 X20.2962 Y0.0041 Z0.3099
G01 X20.3023 Y0.0039 Z0.3099
G01 X20.4259 Y0.0000 Z0.3101
G01 X20.3023 Y-0.0039 Z0.3099
G01 X20.2962 Y-0.0041 Z0.3099
G01 X20.2787 Y-0.0046 Z0.3098
G01 X19.9001 Y-0.0171 Z0.3085
G01 X19.7608 Y-0.0218 Z0.3078
G01 X19.7543 Y-0.0220 Z0.3078
G01 X19.5303 Y-0.0296 Z0.3067
G01 X19.2190 Y-0.0403 Z0.3048
G01 X19.2124 Y-0.0406 Z0.3047
G01 X19.1689 Y-0.0421 Z0.3044
G01 X18.8154 Y-0.0547 Z0.3017
G01 X18.6771 Y-0.0596 Z0.3004
G01 X18.6706 Y-0.0598 Z0.3004
G01 X18.4697 Y-0.0672 Z0.2985
G01 X18.1353 Y-0.0795 Z0.2951
G01 X18.1314 Y-0.0796 Z0.2950
G01 X18.1292 Y-0.0798 Z0.2950
G01 X17.8001 Y-0.0922 Z0.2911
G01 X17.5939 Y-0.1001 Z0.2883
G01 X17.5870 Y-0.1003 Z0.2883
G01 X17.4756 Y-0.1047 Z0.2868
G01 X17.1575 Y-0.1172 Z0.2821
G01 X17.0518 Y-0.1213 Z0.2805
G01 X17.0457 Y-0.1216 Z0.2804
G01 X16.8455 Y-0.1297 Z0.2772
G01 X16.5392 Y-0.1421 Z0.2720
G01 X16.5103 Y-0.1433 Z0.2714
G01 X16.5037 Y-0.1435 Z0.2713
G01 X16.2385 Y-0.1546 Z0.2665
G01 X15.9687 Y-0.1658 Z0.2612
G01 X15.9622 Y-0.1661 Z0.2611
G01 X15.9429 Y-0.1669 Z0.2607
G01 X15.6521 Y-0.1794 Z0.2548
G01 X15.4270 Y-0.1891 Z0.2500
G01 X15.4205 Y-0.1894 Z0.2498
G01 X15.3658 Y-0.1918 Z0.2487
G01 X15.0837 Y-0.2042 Z0.2423
G01 X14.8854 Y-0.2130 Z0.2377
G01 X14.8792 Y-0.2133 Z0.2375
G01 X14.8054 Y-0.2166 Z0.2358
G01 X14.5307 Y-0.2291 Z0.2292
G01 X14.3442 Y-0.2376 Z0.2245
G01 X14.3376 Y-0.2379 Z0.2244
G01 X14.2592 Y-0.2415 Z0.2224
G01 X13.9905 Y-0.2540 Z0.2156
G01 X13.8025 Y-0.2628 Z0.2107
G01 X13.7961 Y-0.2631 Z0.2106
G01 X13.7245 Y-0.2666 Z0.2087
G01 X13.4607 Y-0.2792 Z0.2018
G01 X13.2609 Y-0.2888 Z0.1964
G01 X13.2542 Y-0.2891 Z0.1963
G01 X13.1988 Y-0.2918 Z0.1948
G01 X12.9385 Y-0.3046 Z0.1879
G01 X12.7194 Y-0.3154 Z0.1820
G01 X12.7129 Y-0.3157 Z0.1818
G01 X12.6795 Y-0.3174 Z0.1809
G01 X12.4215 Y-0.3303 Z0.1740
G01 X12.1780 Y-0.3427 Z0.1675
G01 X12.1714 Y-0.3430 Z0.1674
G01 X12.1641 Y-0.3433 Z0.1672
G01 X11.9071 Y-0.3566 Z0.1604
G01 X11.6500 Y-0.3699 Z0.1538
G01 X11.6365 Y-0.3706 Z0.1535
G01 X11.6303 Y-0.3709 Z0.1533
G01 X11.3926 Y-0.3835 Z0.1473
G01 X11.1346 Y-0.3971 Z0.1410
G01 X11.0955 Y-0.3992 Z0.1400
G01 X11.0890 Y-0.3996 Z0.1399
G01 X10.8756 Y-0.4111 Z0.1348
G01 X10.6153 Y-0.4251 Z0.1288
G01 X10.5540 Y-0.4285 Z0.1275
G01 X10.5473 Y-0.4288 Z0.1274
G01 X10.3535 Y-0.4395 Z0.1231
G01 X10.0896 Y-0.4541 Z0.1176
G01 X10.0126 Y-0.4584 Z0.1161
G01 X10.0062 Y-0.4588 Z0.1160
G01 X9.8236 Y-0.4691 Z0.1124
G01 X9.5550 Y-0.4843 Z0.1075
G01 X9.4714 Y-0.4891 Z0.1060
G01 X9.4648 Y-0.4894 Z0.1059
G01 X9.2835 Y-0.4999 Z0.1028
G01 X9.0087 Y-0.5158 Z0.0985
G01 X8.9301 Y-0.5204 Z0.0974
G01 X8.9240 Y-0.5207 Z0.0973
G01 X8.7304 Y-0.5322 Z0.0946
G01 X8.4483 Y-0.5488 Z0.0910
G01 X8.3893 Y-0.5523 Z0.0904
G01 X8.3824 Y-0.5527 Z0.0903
G01 X8.1620 Y-0.5660 Z0.0879
G01 X7.8712 Y-0.5836 Z0.0852
G01 X7.8476 Y-0.5850 Z0.0850
G01 X7.8413 Y-0.5853 Z0.0850
G01 X7.5756 Y-0.6017 Z0.0829
G01 X7.3068 Y-0.6183 Z0.0812
G01 X7.3004 Y-0.6187 Z0.0812
G01 X7.2749 Y-0.6203 Z0.0811
G01 X6.9687 Y-0.6395 Z0.0797
G01 X6.9538 Y-0.6405 Z0.0797
G01 X6.8846 Y-0.6397 Z0.0795
G01 X6.6945 Y-0.6334 Z0.0790
G01 X6.6566 Y-0.6313 Z0.0789
G01 X6.5140 Y-0.6233 Z0.0788
G01 X6.3478 Y-0.6100 Z0.0787
G01 X6.3386 Y-0.6090 Z0.0787
G01 X6.1927 Y-0.5938 Z0.0787
G01 X6.0507 Y-0.5753 Z0.0787
G01 X5.9200 Y-0.5548 Z0.0787
G01 X5.7987 Y-0.5324 Z0.0787
G01 X5.6903 Y-0.5093 Z0.0787
G01 X5.5915 Y-0.4852 Z0.0787
G01 X5.5046 Y-0.4614 Z0.0787
G01 X5.4283 Y-0.4379 Z0.0787
G01 X5.3613 Y-0.4150 Z0.0787
G01 X5.3024 Y-0.3927 Z0.0787
G01 X5.2535 Y-0.3724 Z0.0787
G01 X5.2131 Y-0.3540 Z0.0787
G01 X5.1787 Y-0.3370 Z0.0787
G01 X5.1537 Y-0.3235 Z0.0787
G01 X5.1444 Y-0.3180 Z0.0787
G01 X5.1421 Y-0.3083 Z0.0787
G01 X5.1378 Y-0.2873 Z0.0787
G01 X5.1332 Y-0.2612 Z0.0787
G01 X5.1297 Y-0.2369 Z0.0787
G01 X5.1257 Y-0.2034 Z0.0787
G01 X5.1227 Y-0.1701 Z0.0787
G01 X5.1203 Y-0.1320 Z0.0787
G01 X5.1188 Y-0.0943 Z0.0787
G01 X5.1179 Y-0.0195 Z0.0787
G00 X5.1179 Y-0.0195 Z0.6000
G00 X52.6113 Y-0.1488 Z0.6000
G01 X52.6113 Y-0.1488 Z0.6000
G01 X52.3413 Y-0.1376 Z0.5804
G01 X52.2797 Y-0.1351 Z0.5759
G01 X52.2727 Y-0.1349 Z0.5754
G01 X52.0710 Y-0.1268 Z0.5608
G01 X51.8002 Y-0.1160 Z0.5412
G01 X51.7374 Y-0.1135 Z0.5366
G01 X51.7316 Y-0.1133 Z0.5362
G01 X51.5292 Y-0.1054 Z0.5216
G01 X51.2578 Y-0.0948 Z0.5019
G01 X51.1964 Y-0.0925 Z0.4975
G01 X51.1895 Y-0.0922 Z0.4970
G01 X50.9862 Y-0.0846 Z0.4822
G01 X50.7142 Y-0.0744 Z0.4625
G01 X50.6543 Y-0.0721 Z0.4582
G01 X50.6477 Y-0.0719 Z0.4577
G01 X50.4421 Y-0.0644 Z0.4429
G01 X50.1698 Y-0.0545 Z0.4231
G01 X50.1124 Y-0.0525 Z0.4190
G01 X50.1062 Y-0.0523 Z0.4185
G01 X49.8972 Y-0.0449 Z0.4034
G01 X49.6246 Y-0.0353 Z0.3837
G01 X49.5710 Y-0.0335 Z0.3798
G01 X49.5640 Y-0.0333 Z0.3793
G01 X49.3518 Y-0.0261 Z0.3639
G01 X49.0788 Y-0.0168 Z0.3442
G01 X49.0287 Y-0.0152 Z0.3405
G01 X49.0226 Y-0.0150 Z0.3401
G01 X48.8059 Y-0.0079 Z0.3244
G01 X48.5611 Y0.0000 Z0.3106
G01 X48.5611 Y0.0000 Z0.3106 F20
G01 X48.5611 Y0.0000 Z0.3106 F50
G01 X48.8059 Y0.0079 Z0.3098
G01 X49.0226 Y0.0150 Z0.3088
G01 X49.0287 Y0.0152 Z0.3088
G01 X49.0788 Y0.0168 Z0.3085
G01 X49.3518 Y0.0261 Z0.3067
G01 X49.5640 Y0.0333 Z0.3049
G01 X49.5710 Y0.0335 Z0.3049
G01 X49.6246 Y0.0353 Z0.3044
G01 X49.8972 Y0.0449 Z0.3017
G01 X50.1062 Y0.0523 Z0.2993
G01 X50.1124 Y0.0525 Z0.2992
G01 X50.1698 Y0.0545 Z0.2985
G01 X50.4421 Y0.0644 Z0.2950
G01 X50.6477 Y0.0719 Z0.2920
G01 X50.6543 Y0.0721 Z0.2920
G01 X50.7142 Y0.0744 Z0.2911
G01 X50.9862 Y0.0846 Z0.2868
G01 X51.1895 Y0.0922 Z0.2833
G01 X51.1964 Y0.0925 Z0.2832
G01 X51.2578 Y0.0948 Z0.2821
G01 X51.5292 Y0.1054 Z0.2772
G01 X51.7316 Y0.1133 Z0.2733
G01 X51.7374 Y0.1135 Z0.2732
G01 X51.8002 Y0.1160 Z0.2720
G01 X52.0710 Y0.1268 Z0.2665
G01 X52.2727 Y0.1349 Z0.2622
G01 X52.2797 Y0.1351 Z0.2621
G01 X52.3413 Y0.1376 Z0.2607
G01 X52.6113 Y0.1488 Z0.2548
G01 X52.8148 Y0.1572 Z0.2501
G01 X52.8213 Y0.1575 Z0.2500
G01 X52.8809 Y0.1600 Z0.2487
G01 X53.1500 Y0.1714 Z0.2423
G01 X53.3564 Y0.1802 Z0.2373
G01 X53.3626 Y0.1805 Z0.2372
G01 X53.4187 Y0.1829 Z0.2358
G01 X53.6869 Y0.1946 Z0.2292
G01 X53.8977 Y0.2039 Z0.2238
G01 X53.9042 Y0.2042 Z0.2237
G01 X53.9546 Y0.2064 Z0.2224
G01 X54.2217 Y0.2184 Z0.2156
G01 X54.4393 Y0.2282 Z0.2100
G01 X54.4459 Y0.2285 Z0.2098
G01 X54.4883 Y0.2305 Z0.2087
G01 X54.7542 Y0.2427 Z0.2017
G01 X54.9809 Y0.2533 Z0.1958
G01 X54.9874 Y0.2535 Z0.1957
G01 X55.0196 Y0.2550 Z0.1948
G01 X55.2843 Y0.2676 Z0.1878
G01 X55.5226 Y0.2789 Z0.1816
G01 X55.5288 Y0.2792 Z0.1814
G01 X55.5483 Y0.2801 Z0.1809
G01 X55.8117 Y0.2929 Z0.1740
G01 X56.0637 Y0.3052 Z0.1675
G01 X56.0705 Y0.3056 Z0.1673
G01 X56.0743 Y0.3057 Z0.1672
G01 X56.3362 Y0.3188 Z0.1604
G01 X56.5973 Y0.3319 Z0.1538
G01 X56.6055 Y0.3323 Z0.1536
G01 X56.6117 Y0.3326 Z0.1534
G01 X56.8576 Y0.3452 Z0.1473
G01 X57.1172 Y0.3585 Z0.1410
G01 X57.1466 Y0.3600 Z0.1403
G01 X57.1532 Y0.3603 Z0.1401
G01 X57.3758 Y0.3720 Z0.1348
G01 X57.6336 Y0.3855 Z0.1288
G01 X57.6881 Y0.3883 Z0.1276
G01 X57.6945 Y0.3887 Z0.1275
G01 X57.8904 Y0.3992 Z0.1231
G01 X58.1464 Y0.4129 Z0.1176
G01 X58.2295 Y0.4174 Z0.1159
G01 X58.2362 Y0.4177 Z0.1158
G01 X58.4014 Y0.4268 Z0.1124
G01 X58.6554 Y0.4407 Z0.1074
G01 X58.7709 Y0.4471 Z0.1053
G01 X58.7770 Y0.4474 Z0.1052
G01 X58.9084 Y0.4548 Z0.1028
G01 X59.1604 Y0.4689 Z0.0985
G01 X59.3118 Y0.4774 Z0.0961
G01 X59.3183 Y0.4778 Z0.0961
G01 X59.4114 Y0.4831 Z0.0946
G01 X59.6612 Y0.4974 Z0.0910
G01 X59.8531 Y0.5085 Z0.0886
G01 X59.8600 Y0.5088 Z0.0885
G01 X59.9100 Y0.5118 Z0.0879
G01 X60.1576 Y0.5263 Z0.0851
G01 X60.3947 Y0.5402 Z0.0830
G01 X60.4008 Y0.5406 Z0.0829
G01 X60.4040 Y0.5408 Z0.0829
G01 X60.6494 Y0.5555 Z0.0811
G01 X60.7428 Y0.5611 Z0.0805
G01 X60.8243 Y0.5577 Z0.0801
G01 X60.8934 Y0.5527 Z0.0798
G01 X60.9062 Y0.5519 Z0.0797
G01 X60.9741 Y0.5450 Z0.0795
G01 X60.9818 Y0.5440 Z0.0794
G01 X60.9876 Y0.5125 Z0.0794
G01 X60.9948 Y0.4679 Z0.0794
G01 X61.0020 Y0.4161 Z0.0794
G01 X61.0081 Y0.3628 Z0.0794
G01 X61.0134 Y0.3056 Z0.0793
G01 X61.0176 Y0.2470 Z0.0793
G01 X61.0209 Y0.1813 Z0.0793
G01 X61.0228 Y0.1161 Z0.0793
G01 X61.0237 Y0.0261 Z0.0793
G01 X61.0237 Y-0.0267 Z0.0793
G01 X61.0228 Y-0.1161 Z0.0793
G01 X61.0209 Y-0.1813 Z0.0793
G01 X61.0176 Y-0.2470 Z0.0793
G01 X61.0133 Y-0.3065 Z0.0793
G01 X61.0081 Y-0.3633 Z0.0794
G01 X61.0020 Y-0.4161 Z0.0794
G01 X60.9947 Y-0.4690 Z0.0794
G01 X60.9876 Y-0.5127 Z0.0794
G01 X60.9818 Y-0.5440 Z0.0794
G01 X60.9741 Y-0.5450 Z0.0795
G01 X60.9062 Y-0.5519 Z0.0797
G01 X60.8934 Y-0.5527 Z0.0798
G01 X60.8243 Y-0.5577 Z0.0801
G01 X60.7428 Y-0.5611 Z0.0805
G01 X60.6494 Y-0.5555 Z0.0811
G01 X60.4040 Y-0.5408 Z0.0829
G01 X60.4008 Y-0.5406 Z0.0829
G01 X60.3947 Y-0.5402 Z0.0830
G01 X60.1576 Y-0.5263 Z0.0851
G01 X59.9100 Y-0.5118 Z0.0879
G01 X59.8600 Y-0.5088 Z0.0885
G01 X59.8531 Y-0.5085 Z0.0886
G01 X59.6612 Y-0.4974 Z0.0910
G01 X59.4114 Y-0.4831 Z0.0946
G01 X59.3183 Y-0.4778 Z0.0961
G01 X59.3118 Y-0.4774 Z0.0961
G01 X59.1604 Y-0.4689 Z0.0985
G01 X58.9084 Y-0.4548 Z0.1028
G01 X58.7770 Y-0.4474 Z0.1052
G01 X58.7709 Y-0.4471 Z0.1053
G01 X58.6554 Y-0.4407 Z0.1074
G01 X58.4014 Y-0.4268 Z0.1124
G01 X58.2362 Y-0.4177 Z0.1158
G01 X58.2295 Y-0.4174 Z0.1159
G01 X58.1464 Y-0.4129 Z0.1176
G01 X57.8904 Y-0.3992 Z0.1231
G01 X57.6945 Y-0.3887 Z0.1275
G01 X57.6881 Y-0.3883 Z0.1276
G01 X57.6336 Y-0.3855 Z0.1288
G01 X57.3758 Y-0.3720 Z0.1348
G01 X57.1532 Y-0.3603 Z0.1401
G01 X57.1466 Y-0.3600 Z0.1403
G01 X57.1172 Y-0.3585 Z0.1410
G01 X56.8576 Y-0.3452 Z0.1473
G01 X56.6117 Y-0.3326 Z0.1534
G01 X56.6055 Y-0.3323 Z0.1536
G01 X56.5973 Y-0.3319 Z0.1538
G01 X56.3362 Y-0.3188 Z0.1604
G01 X56.0743 Y-0.3057 Z0.1672
G01 X56.0705 Y-0.3056 Z0.1673
G01 X56.0637 Y-0.3052 Z0.1675
G01 X55.8117 Y-0.2929 Z0.1740
G01 X55.5483 Y-0.2801 Z0.1809
G01 X55.5288 Y-0.2792 Z0.1814
G01 X55.5226 Y-0.2790 Z0.1816
G01 X55.2843 Y-0.2676 Z0.1878
G01 X55.0196 Y-0.2550 Z0.1948
G01 X54.9874 Y-0.2535 Z0.1957
G01 X54.9809 Y-0.2533 Z0.1958
G01 X54.7542 Y-0.2427 Z0.2017
G01 X54.4883 Y-0.2305 Z0.2087
G01 X54.4459 Y-0.2285 Z0.2098
G01 X54.4393 Y-0.2282 Z0.2100
G01 X54.2217 Y-0.2184 Z0.2156
G01 X53.9546 Y-0.2064 Z0.2224
G01 X53.9042 Y-0.2042 Z0.2237
G01 X53.8977 Y-0.2039 Z0.2238
G01 X53.6869 Y-0.1946 Z0.2292
G01 X53.4187 Y-0.1829 Z0.2358
G01 X53.3626 Y-0.1805 Z0.2372
G01 X53.3564 Y-0.1802 Z0.2373
G01 X53.1500 Y-0.1714 Z0.2423
G01 X52.8809 Y-0.1600 Z0.2487
G01 X52.8213 Y-0.1575 Z0.2500
G01 X52.8148 Y-0.1572 Z0.2501
G01 X52.6113 Y-0.1488 Z0.2548
G01 X52.3413 Y-0.1376 Z0.2607
G01 X52.2797 Y-0.1351 Z0.2621
G01 X52.2727 Y-0.1349 Z0.2622
G01 X52.0710 Y-0.1268 Z0.2665
G01 X51.8002 Y-0.1160 Z0.2720
G01 X51.7374 Y-0.1135 Z0.2732
G01 X51.7316 Y-0.1133 Z0.2733
G01 X51.5292 Y-0.1054 Z0.2772
G01 X51.2578 Y-0.0948 Z0.2821
G01 X51.1964 Y-0.0925 Z0.2832
G01 X51.1895 Y-0.0922 Z0.2833
G01 X50.9862 Y-0.0846 Z0.2868
G01 X50.7142 Y-0.0744 Z0.2911
G01 X50.6543 Y-0.0721 Z0.2920
G01 X50.6477 Y-0.0719 Z0.2920
G01 X50.4421 Y-0.0644 Z0.2950
G01 X50.1698 Y-0.0545 Z0.2985
G01 X50.1124 Y-0.0525 Z0.2992
G01 X50.1062 Y-0.0523 Z0.2993
G01 X49.8972 Y-0.0449 Z0.3017
G01 X49.6246 Y-0.0353 Z0.3044
G01 X49.5710 Y-0.0335 Z0.3049
G01 X49.5640 Y-0.0333 Z0.3049
G01 X49.3518 Y-0.0261 Z0.3067
G01 X49.0788 Y-0.0168 Z0.3085
G01 X49.0287 Y-0.0152 Z0.3088
G01 X49.0226 Y-0.0150 Z0.3088
G01 X48.8059 Y-0.0079 Z0.3098
G01 X48.5611 Y0.0000 Z0.3106
G00 X48.5611 Y0.0000 Z0.6000
G00 X7.8712 Y-1.3329 Z0.6000
G01 X7.8712 Y-1.3329 Z0.6000
G01 X7.5756 Y-1.3511 Z0.5613
G01 X7.3528 Y-1.3649 Z0.5322
G01 X7.3473 Y-1.3652 Z0.5315
G01 X7.2749 Y-1.3697 Z0.5221
G01 X6.9728 Y-1.3887 Z0.4826
G01 X6.9687 Y-1.3886 Z0.4821
G01 X6.8696 Y-1.3876 Z0.4692
G01 X6.6588 Y-1.3806 Z0.4417
G01 X6.6566 Y-1.3805 Z0.4414
G01 X6.4656 Y-1.3698 Z0.4165
G01 X6.3386 Y-1.3596 Z0.3999
G01 X6.2777 Y-1.3548 Z0.3919
G01 X6.1060 Y-1.3368 Z0.3694
G01 X5.9445 Y-1.3158 Z0.3482
G01 X5.7931 Y-1.2920 Z0.3282
G01 X5.6537 Y-1.2663 Z0.3098
G01 X5.5232 Y-1.2385 Z0.2924
G01 X5.4042 Y-1.2095 Z0.2764
G01 X5.2951 Y-1.1795 Z0.2616
G01 X5.1976 Y-1.1495 Z0.2483
G01 X5.1078 Y-1.1188 Z0.2360
G01 X5.0270 Y-1.0883 Z0.2248
G01 X4.9551 Y-1.0584 Z0.2146
G01 X4.8918 Y-1.0296 Z0.2055
G01 X4.8344 Y-1.0012 Z0.1972
G01 X4.7868 Y-0.9755 Z0.1901
G01 X4.7435 Y-0.9500 Z0.1836
G01 X4.7058 Y-0.9261 Z0.1777
G01 X4.6756 Y-0.9053 Z0.1730
G01 X4.6472 Y-0.8843 Z0.1684
G01 X4.6255 Y-0.8669 Z0.1648
G01 X4.6048 Y-0.8489 Z0.1612
G01 X4.5885 Y-0.8338 Z0.1583
G01 X4.5735 Y-0.8187 Z0.1555
G01 X4.5615 Y-0.8058 Z0.1532
G01 X4.5485 Y-0.7906 Z0.1506
G01 X4.5388 Y-0.7784 Z0.1486
G01 X4.5291 Y-0.7652 Z0.1464
G01 X4.5190 Y-0.7505 Z0.1441
G01 X4.5094 Y-0.7353 Z0.1418
G01 X4.5003 Y-0.7197 Z0.1394
G01 X4.4909 Y-0.7021 Z0.1368
G01 X4.4807 Y-0.6814 Z0.1338
G01 X4.4704 Y-0.6585 Z0.1305
G01 X4.4611 Y-0.6360 Z0.1274
G01 X4.4504 Y-0.6072 Z0.1234
G01 X4.4403 Y-0.5770 Z0.1192
G01 X4.4303 Y-0.5438 Z0.1147
G01 X4.4209 Y-0.5088 Z0.1100
G01 X4.4114 Y-0.4685 Z0.1046
G01 X4.4027 Y-0.4261 Z0.0989
G01 X4.3949 Y-0.3816 Z0.0931
G01 X4.3879 Y-0.3332 Z0.0867
G01 X4.3818 Y-0.2814 Z0.0799
G01 X4.3769 Y-0.2276 Z0.0787
G01 X4.3732 Y-0.1701 Z0.0787
G01 X4.3710 Y-0.1111 Z0.0787
G01 X4.3699 Y-0.0242 Z0.0787
G01 X4.3699 Y-0.0242 Z0.0787 F20
G01 X4.3699 Y-0.0242 Z0.0787 F50
G01 X4.3699 Y0.0242 Z0.0787
G01 X4.3710 Y0.1111 Z0.0787
G01 X4.3732 Y0.1700 Z0.0787
G01 X4.3769 Y0.2274 Z0.0787
G01 X4.3818 Y0.2814 Z0.0787
G01 X4.3879 Y0.3332 Z0.0787
G01 X4.3949 Y0.3816 Z0.0787
G01 X4.4027 Y0.4261 Z0.0787
G01 X4.4114 Y0.4685 Z0.0787
G01 X4.4209 Y0.5088 Z0.0787
G01 X4.4303 Y0.5438 Z0.0787
G01 X4.4402 Y0.5767 Z0.0787
G01 X4.4504 Y0.6072 Z0.0787
G01 X4.4611 Y0.6360 Z0.0787
G01 X4.4703 Y0.6583 Z0.0787
G01 X4.4805 Y0.6810 Z0.0787
G01 X4.4905 Y0.7012 Z0.0787
G01 X4.5003 Y0.7196 Z0.0787
G01 X4.5093 Y0.7351 Z0.0787
G01 X4.5183 Y0.7494 Z0.0787
G01 X4.5290 Y0.7651 Z0.0787
G01 X4.5385 Y0.7780 Z0.0787
G01 X4.5485 Y0.7906 Z0.0787
G01 X4.5615 Y0.8057 Z0.0787
G01 X4.5735 Y0.8187 Z0.0787
G01 X4.5885 Y0.8338 Z0.0787
G01 X4.6044 Y0.8487 Z0.0787
G01 X4.6254 Y0.8668 Z0.0787
G01 X4.6471 Y0.8842 Z0.0787
G01 X4.6752 Y0.9050 Z0.0787
G01 X4.7058 Y0.9261 Z0.0787
G01 X4.7435 Y0.9500 Z0.0787
G01 X4.7867 Y0.9754 Z0.0787
G01 X4.8344 Y1.0012 Z0.0787
G01 X4.8918 Y1.0296 Z0.0787
G01 X4.9551 Y1.0584 Z0.0787
G01 X5.0270 Y1.0883 Z0.0787
G01 X5.1078 Y1.1188 Z0.0787
G01 X5.1976 Y1.1495 Z0.0787
G01 X5.2951 Y1.1795 Z0.0787
G01 X5.4042 Y1.2095 Z0.0787
G01 X5.5232 Y1.2385 Z0.0787
G01 X5.6537 Y1.2663 Z0.0787
G01 X5.7931 Y1.2920 Z0.0787
G01 X5.9445 Y1.3158 Z0.0787
G01 X6.1060 Y1.3368 Z0.0787
G01 X6.2777 Y1.3548 Z0.0787
G01 X6.3386 Y1.3596 Z0.0787
G01 X6.4656 Y1.3698 Z0.0788
G01 X6.6566 Y1.3805 Z0.0789
G01 X6.6588 Y1.3806 Z0.0789
G01 X6.8696 Y1.3876 Z0.0795
G01 X6.9687 Y1.3886 Z0.0797
G01 X6.9728 Y1.3887 Z0.0798
G01 X7.2749 Y1.3697 Z0.0811
G01 X7.3473 Y1.3652 Z0.0815
G01 X7.3528 Y1.3649 Z0.0815
G01 X7.5756 Y1.3511 Z0.0829
G01 X7.8712 Y1.3329 Z0.0852
G01 X7.8873 Y1.3320 Z0.0853
G01 X7.8927 Y1.3317 Z0.0854
G01 X8.1620 Y1.3154 Z0.0879
G01 X8.4275 Y1.2994 Z0.0908
G01 X8.4334 Y1.2990 Z0.0909
G01 X8.4483 Y1.2981 Z0.0910
G01 X8.7304 Y1.2814 Z0.0946
G01 X8.9681 Y1.2674 Z0.0979
G01 X8.9733 Y1.2671 Z0.0980
G01 X9.0087 Y1.2651 Z0.0985
G01 X9.2835 Y1.2492 Z0.1028
G01 X9.5081 Y1.2362 Z0.1066
G01 X9.5137 Y1.2359 Z0.1068
G01 X9.5550 Y1.2335 Z0.1075
G01 X9.8236 Y1.2183 Z0.1124
G01 X10.0485 Y1.2056 Z0.1168
G01 X10.0540 Y1.2053 Z0.1169
G01 X10.0896 Y1.2033 Z0.1176
G01 X10.3535 Y1.1887 Z0.1231
G01 X10.5887 Y1.1757 Z0.1283
G01 X10.5944 Y1.1754 Z0.1284
G01 X10.6153 Y1.1742 Z0.1288
G01 X10.8756 Y1.1601 Z0.1348
G01 X11.1294 Y1.1464 Z0.1408
G01 X11.1346 Y1.1462 Z0.1410
G01 X11.3926 Y1.1325 Z0.1473
G01 X11.6500 Y1.1189 Z0.1538
G01 X11.6698 Y1.1179 Z0.1543
G01 X11.6751 Y1.1176 Z0.1544
G01 X11.9071 Y1.1056 Z0.1604
G01 X12.1641 Y1.0924 Z0.1672
G01 X12.2100 Y1.0900 Z0.1684
G01 X12.2157 Y1.0897 Z0.1685
G01 X12.4215 Y1.0793 Z0.1740
G01 X12.6795 Y1.0663 Z0.1809
G01 X12.7506 Y1.0627 Z0.1828
G01 X12.7561 Y1.0625 Z0.1829
G01 X12.9385 Y1.0535 Z0.1879
G01 X13.1988 Y1.0407 Z0.1948
G01 X13.2909 Y1.0362 Z0.1972
G01 X13.2967 Y1.0360 Z0.1974
G01 X13.4607 Y1.0281 Z0.2018
G01 X13.7245 Y1.0154 Z0.2087
G01 X13.8318 Y1.0103 Z0.2115
G01 X13.8374 Y1.0100 Z0.2116
G01 X13.9905 Y1.0029 Z0.2156
G01 X14.2592 Y0.9903 Z0.2224
G01 X14.3725 Y0.9851 Z0.2252
G01 X14.3781 Y0.9848 Z0.2254
G01 X14.5307 Y0.9778 Z0.2292
G01 X14.8054 Y0.9653 Z0.2358
G01 X14.9131 Y0.9605 Z0.2383
G01 X14.9184 Y0.9603 Z0.2384
G01 X15.0837 Y0.9529 Z0.2423
G01 X15.3658 Y0.9405 Z0.2487
G01 X15.4535 Y0.9366 Z0.2505
G01 X15.4591 Y0.9364 Z0.2507
G01 X15.6521 Y0.9281 Z0.2548
G01 X15.9429 Y0.9156 Z0.2607
G01 X15.9943 Y0.9134 Z0.2618
G01 X15.9998 Y0.9131 Z0.2619
G01 X16.2385 Y0.9032 Z0.2665
G01 X16.5348 Y0.8908 Z0.2719
G01 X16.5392 Y0.8907 Z0.2720
G01 X16.5405 Y0.8907 Z0.2720
G01 X16.8455 Y0.8783 Z0.2772
G01 X17.0759 Y0.8690 Z0.2809
G01 X17.0811 Y0.8688 Z0.2809
G01 X17.1575 Y0.8657 Z0.2821
G01 X17.4756 Y0.8533 Z0.2868
G01 X17.6164 Y0.8477 Z0.2887
G01 X17.6223 Y0.8475 Z0.2887
G01 X17.8001 Y0.8407 Z0.2911
G01 X18.1314 Y0.8282 Z0.2950
G01 X18.1575 Y0.8272 Z0.2953
G01 X18.1628 Y0.8270 Z0.2953
G01 X18.4697 Y0.8157 Z0.2985
G01 X18.6981 Y0.8073 Z0.3006
G01 X18.7037 Y0.8071 Z0.3007
G01 X18.8154 Y0.8031 Z0.3017
G01 X19.1689 Y0.7906 Z0.3044
G01 X19.2390 Y0.7881 Z0.3049
G01 X19.2446 Y0.7879 Z0.3049
G01 X19.5303 Y0.7781 Z0.3067
G01 X19.7799 Y0.7696 Z0.3079
G01 X19.7855 Y0.7694 Z0.3079
G01 X19.9001 Y0.7655 Z0.3085
G01 X20.2787 Y0.7531 Z0.3098
G01 X20.3209 Y0.7517 Z0.3100
G01 X20.3261 Y0.7515 Z0.3100
G01 X20.6662 Y0.7407 Z0.3107
G01 X20.8612 Y0.7345 Z0.3108
G01 X20.8673 Y0.7344 Z0.3108
G01 X21.0630 Y0.7283 Z0.3110
G01 X21.4028 Y0.7180 Z0.3110
G01 X21.4081 Y0.7178 Z0.3110
G01 X21.9435 Y0.7021 Z0.3110
G01 X21.9491 Y0.7020 Z0.3110
G01 X22.4845 Y0.6869 Z0.3110
G01 X22.4901 Y0.6868 Z0.3110
G01 X23.0255 Y0.6724 Z0.3110
G01 X23.0311 Y0.6722 Z0.3110
G01 X23.5666 Y0.6585 Z0.3110
G01 X23.5719 Y0.6584 Z0.3110
G01 X24.1074 Y0.6453 Z0.3110
G01 X24.1133 Y0.6452 Z0.3110
G01 X24.6488 Y0.6328 Z0.3110
G01 X24.6540 Y0.6327 Z0.3110
G01 X25.1896 Y0.6210 Z0.3110
G01 X25.1952 Y0.6209 Z0.3110
G01 X25.7307 Y0.6098 Z0.3110
G01 X25.7362 Y0.6097 Z0.3110
G01 X26.2716 Y0.5993 Z0.3110
G01 X26.2770 Y0.5992 Z0.3110
G01 X26.8127 Y0.5895 Z0.3110
G01 X26.8186 Y0.5894 Z0.3110
G01 X27.3541 Y0.5803 Z0.3110
G01 X27.3594 Y0.5802 Z0.3110
G01 X27.8950 Y0.5718 Z0.3110
G01 X27.9005 Y0.5717 Z0.3110
G01 X28.4361 Y0.5640 Z0.3110
G01 X28.4420 Y0.5639 Z0.3110
G01 X28.9776 Y0.5568 Z0.3110
G01 X28.9826 Y0.5568 Z0.3110
G01 X29.5182 Y0.5503 Z0.3110
G01 X29.5242 Y0.5503 Z0.3110
G01 X30.0598 Y0.5445 Z0.3110
G01 X30.0653 Y0.5444 Z0.3110
G01 X30.6009 Y0.5394 Z0.3110
G01 X30.6062 Y0.5393 Z0.3110
G01 X31.1418 Y0.5349 Z0.3110
G01 X31.1475 Y0.5348 Z0.3110
G01 X31.6831 Y0.5311 Z0.3110
G01 X31.6887 Y0.5310 Z0.3110
G01 X32.2243 Y0.5279 Z0.3110
G01 X32.2299 Y0.5279 Z0.3110
G01 X32.7655 Y0.5254 Z0.3110
G01 X32.7711 Y0.5254 Z0.3110
G01 X33.3068 Y0.5237 Z0.3110
G01 X33.3124 Y0.5236 Z0.3110
G01 X33.8480 Y0.5225 Z0.3110
G01 X33.8533 Y0.5225 Z0.3110
G01 X34.3888 Y0.5220 Z0.3110
G01 X34.3945 Y0.5220 Z0.3110
G01 X34.9300 Y0.5222 Z0.3110
G01 X34.9356 Y0.5222 Z0.3110
G01 X35.4712 Y0.5231 Z0.3110
G01 X35.4768 Y0.5231 Z0.3110
G01 X36.0125 Y0.5246 Z0.3110
G01 X36.0181 Y0.5247 Z0.3110
G01 X36.5537 Y0.5269 Z0.3110
G01 X36.5593 Y0.5269 Z0.3110
G01 X37.0949 Y0.5298 Z0.3110
G01 X37.1002 Y0.5298 Z0.3110
G01 X37.6359 Y0.5333 Z0.3110
G01 X37.6414 Y0.5333 Z0.3110
G01 X38.1770 Y0.5375 Z0.3110
G01 X38.1827 Y0.5376 Z0.3110
G01 X38.7183 Y0.5424 Z0.3110
G01 X38.7238 Y0.5425 Z0.3110
G01 X39.2594 Y0.5480 Z0.3110
G01 X39.2650 Y0.5481 Z0.3110
G01 X39.8007 Y0.5542 Z0.3110
G01 X39.8063 Y0.5543 Z0.3110
G01 X40.3418 Y0.5611 Z0.3110
G01 X40.3471 Y0.5612 Z0.3110
G01 X40.8827 Y0.5687 Z0.3110
G01 X40.8883 Y0.5688 Z0.3110
G01 X41.4239 Y0.5769 Z0.3110
G01 X41.4295 Y0.5770 Z0.3110
G01 X41.9651 Y0.5858 Z0.3110
G01 X41.9707 Y0.5859 Z0.3110
G01 X42.5063 Y0.5954 Z0.3110
G01 X42.5120 Y0.5955 Z0.3110
G01 X43.0474 Y0.6057 Z0.3110
G01 X43.0529 Y0.6057 Z0.3110
G01 X43.5885 Y0.6166 Z0.3110
G01 X43.5938 Y0.6167 Z0.3110
G01 X44.1292 Y0.6281 Z0.3110
G01 X44.1349 Y0.6283 Z0.3110
G01 X44.6703 Y0.6404 Z0.3110
G01 X44.6762 Y0.6405 Z0.3110
G01 X45.2118 Y0.6534 Z0.3110
G01 X45.2171 Y0.6535 Z0.3110
G01 X45.7525 Y0.6670 Z0.3110
G01 X45.7578 Y0.6671 Z0.3110
G01 X46.2932 Y0.6812 Z0.3110
G01 X46.2991 Y0.6814 Z0.3110
G01 X46.8346 Y0.6962 Z0.3110
G01 X46.8399 Y0.6963 Z0.3110
G01 X47.3753 Y0.7117 Z0.3110
G01 X47.3812 Y0.7119 Z0.3110
G01 X47.9166 Y0.7281 Z0.3110
G01 X47.9218 Y0.7282 Z0.3110
G01 X48.2598 Y0.7388 Z0.3110
G01 X48.4574 Y0.7450 Z0.3107
G01 X48.4631 Y0.7451 Z0.3107
G01 X48.5328 Y0.7474 Z0.3107
G01 X48.8059 Y0.7562 Z0.3098
G01 X48.9983 Y0.7625 Z0.3089
G01 X49.0035 Y0.7627 Z0.3089
G01 X49.0788 Y0.7653 Z0.3085
G01 X49.3518 Y0.7745 Z0.3067
G01 X49.5388 Y0.7808 Z0.3051
G01 X49.5448 Y0.7810 Z0.3051
G01 X49.6246 Y0.7838 Z0.3044
G01 X49.8972 Y0.7934 Z0.3017
G01 X50.0800 Y0.7998 Z0.2996
G01 X50.0853 Y0.8000 Z0.2995
G01 X50.1698 Y0.8030 Z0.2985
G01 X50.4421 Y0.8129 Z0.2950
G01 X50.6206 Y0.8194 Z0.2924
G01 X50.6262 Y0.8196 Z0.2924
G01 X50.7142 Y0.8229 Z0.2911
G01 X50.9862 Y0.8331 Z0.2868
G01 X51.1614 Y0.8397 Z0.2838
G01 X51.1674 Y0.8399 Z0.2837
G01 X51.2578 Y0.8434 Z0.2821
G01 X51.5292 Y0.8539 Z0.2772
G01 X51.7026 Y0.8607 Z0.2738
G01 X51.7075 Y0.8609 Z0.2738
G01 X51.8002 Y0.8646 Z0.2720
G01 X52.0710 Y0.8754 Z0.2665
G01 X52.2429 Y0.8823 Z0.2629
G01 X52.2488 Y0.8825 Z0.2627
G01 X52.3413 Y0.8862 Z0.2607
G01 X52.6113 Y0.8974 Z0.2548
G01 X52.7839 Y0.9046 Z0.2509
G01 X52.7895 Y0.9048 Z0.2507
G01 X52.8809 Y0.9087 Z0.2487
G01 X53.1500 Y0.9201 Z0.2423
G01 X53.3246 Y0.9275 Z0.2381
G01 X53.3299 Y0.9278 Z0.2379
G01 X53.4187 Y0.9316 Z0.2358
G01 X53.6869 Y0.9434 Z0.2292
G01 X53.8650 Y0.9512 Z0.2247
G01 X53.8706 Y0.9514 Z0.2245
G01 X53.9546 Y0.9551 Z0.2224
G01 X54.2217 Y0.9672 Z0.2156
G01 X54.4057 Y0.9755 Z0.2109
G01 X54.4114 Y0.9757 Z0.2107
G01 X54.4883 Y0.9793 Z0.2087
G01 X54.7542 Y0.9916 Z0.2017
G01 X54.9464 Y1.0005 Z0.1967
G01 X54.9520 Y1.0007 Z0.1966
G01 X55.0196 Y1.0039 Z0.1948
G01 X55.2843 Y1.0164 Z0.1878
G01 X55.4871 Y1.0261 Z0.1825
G01 X55.4925 Y1.0263 Z0.1824
G01 X55.5483 Y1.0290 Z0.1809
G01 X55.8117 Y1.0418 Z0.1740
G01 X56.0274 Y1.0524 Z0.1684
G01 X56.0332 Y1.0526 Z0.1683
G01 X56.0743 Y1.0547 Z0.1672
G01 X56.3362 Y1.0677 Z0.1604
G01 X56.5682 Y1.0794 Z0.1545
G01 X56.5735 Y1.0796 Z0.1544
G01 X56.5973 Y1.0808 Z0.1538
G01 X56.8576 Y1.0941 Z0.1473
G01 X57.1084 Y1.1070 Z0.1412
G01 X57.1140 Y1.1073 Z0.1410
G01 X57.1172 Y1.1074 Z0.1410
G01 X57.3758 Y1.1210 Z0.1348
G01 X57.6336 Y1.1345 Z0.1288
G01 X57.6489 Y1.1353 Z0.1285
G01 X57.6545 Y1.1356 Z0.1284
G01 X57.8904 Y1.1483 Z0.1231
G01 X58.1464 Y1.1620 Z0.1176
G01 X58.1895 Y1.1643 Z0.1167
G01 X58.1952 Y1.1646 Z0.1166
G01 X58.4014 Y1.1759 Z0.1124
G01 X58.6554 Y1.1898 Z0.1074
G01 X58.7299 Y1.1940 Z0.1061
G01 X58.7351 Y1.1942 Z0.1060
G01 X58.9084 Y1.2039 Z0.1028
G01 X59.1604 Y1.2181 Z0.0985
G01 X59.2699 Y1.2242 Z0.0968
G01 X59.2755 Y1.2246 Z0.0967
G01 X59.4114 Y1.2323 Z0.0946
G01 X59.6612 Y1.2466 Z0.0910
G01 X59.8102 Y1.2552 Z0.0892
G01 X59.8162 Y1.2556 Z0.0891
G01 X59.9100 Y1.2611 Z0.0879
G01 X60.1576 Y1.2756 Z0.0851
G01 X60.3509 Y1.2870 Z0.0834
G01 X60.3561 Y1.2873 Z0.0833
G01 X60.4040 Y1.2901 Z0.0829
G01 X60.6494 Y1.3048 Z0.0811
G01 X60.7301 Y1.3097 Z0.0806
G01 X60.7526 Y1.3094 Z0.0805
G01 X60.8653 Y1.3046 Z0.0799
G01 X60.8934 Y1.3026 Z0.0798
G01 X60.9706 Y1.2972 Z0.0795
G01 X61.0612 Y1.2880 Z0.0792
G01 X61.1362 Y1.2780 Z0.0789
G01 X61.1462 Y1.2767 Z0.0789
G01 X61.2180 Y1.2648 Z0.0788
G01 X61.2841 Y1.2517 Z0.0788
G01 X61.3388 Y1.2389 Z0.0787
G01 X61.3779 Y1.2283 Z0.0787
G01 X61.3866 Y1.2260 Z0.0787
G01 X61.4267 Y1.2136 Z0.0787
G01 X61.4585 Y1.2025 Z0.0787
G01 X61.4866 Y1.1915 Z0.0787
G01 X61.5060 Y1.1831 Z0.0787
G01 X61.5224 Y1.1753 Z0.0787
G01 X61.5323 Y1.1701 Z0.0787
G01 X61.5407 Y1.1652 Z0.0787
G01 X61.5448 Y1.1627 Z0.0787
G01 X61.5472 Y1.1610 Z0.0787
G01 X61.5483 Y1.1600 Z0.0787
G01 X61.5500 Y1.1578 Z0.0787
G01 X61.5512 Y1.1563 Z0.0787
G01 X61.5564 Y1.1491 Z0.0787
G01 X61.5629 Y1.1396 Z0.0787
G01 X61.5693 Y1.1294 Z0.0787
G01 X61.5776 Y1.1151 Z0.0787
G01 X61.5877 Y1.0964 Z0.0787
G01 X61.5984 Y1.0748 Z0.0787
G01 X61.6098 Y1.0500 Z0.0787
G01 X61.6222 Y1.0205 Z0.0787
G01 X61.6353 Y0.9869 Z0.0787
G01 X61.6482 Y0.9505 Z0.0787
G01 X61.6618 Y0.9085 Z0.0787
G01 X61.6757 Y0.8611 Z0.0787
G01 X61.6885 Y0.8130 Z0.0787
G01 X61.7011 Y0.7600 Z0.0787
G01 X61.7131 Y0.7025 Z0.0787
G01 X61.7245 Y0.6415 Z0.0787
G01 X61.7349 Y0.5770 Z0.0787
G01 X61.7440 Y0.5111 Z0.0787
G01 X61.7522 Y0.4391 Z0.0787
G01 X61.7588 Y0.3680 Z0.0787
G01 X61.7644 Y0.2905 Z0.0787
G01 X61.7683 Y0.2121 Z0.0787
G01 X61.7707 Y0.1320 Z0.0787
G01 X61.7717 Y0.0297 Z0.0787
G01 X61.7717 Y-0.0297 Z0.0787
G01 X61.7707 Y-0.1320 Z0.0787
G01 X61.7683 Y-0.2121 Z0.0787
G01 X61.7644 Y-0.2905 Z0.0787
G01 X61.7588 Y-0.3680 Z0.0787
G01 X61.7522 Y-0.4391 Z0.0787
G01 X61.7439 Y-0.5118 Z0.0787
G01 X61.7347 Y-0.5784 Z0.0787
G01 X61.7245 Y-0.6415 Z0.0787
G01 X61.7129 Y-0.7040 Z0.0787
G01 X61.7009 Y-0.7604 Z0.0787
G01 X61.6885 Y-0.8130 Z0.0787
G01 X61.6757 Y-0.8611 Z0.0787
G01 X61.6618 Y-0.9085 Z0.0787
G01 X61.6482 Y-0.9505 Z0.0787
G01 X61.6353 Y-0.9869 Z0.0787
G01 X61.6222 Y-1.0205 Z0.0787
G01 X61.6098 Y-1.0501 Z0.0787
G01 X61.5984 Y-1.0749 Z0.0787
G01 X61.5872 Y-1.0973 Z0.0787
G01 X61.5776 Y-1.1151 Z0.0787
G01 X61.5693 Y-1.1294 Z0.0787
G01 X61.5627 Y-1.1399 Z0.0787
G01 X61.5564 Y-1.1491 Z0.0787
G01 X61.5512 Y-1.1563 Z0.0787
G01 X61.5500 Y-1.1578 Z0.0787
G01 X61.5481 Y-1.1601 Z0.0787
G01 X61.5475 Y-1.1607 Z0.0787
G01 X61.5448 Y-1.1627 Z0.0787
G01 X61.5407 Y-1.1652 Z0.0787
G01 X61.5323 Y-1.1701 Z0.0787
G01 X61.5222 Y-1.1754 Z0.0787
G01 X61.5060 Y-1.1831 Z0.0787
G01 X61.4866 Y-1.1915 Z0.0787
G01 X61.4585 Y-1.2025 Z0.0787
G01 X61.4267 Y-1.2136 Z0.0787
G01 X61.3866 Y-1.2260 Z0.0787
G01 X61.3779 Y-1.2283 Z0.0787
G01 X61.3388 Y-1.2389 Z0.0787
G01 X61.2841 Y-1.2517 Z0.0788
G01 X61.2180 Y-1.2648 Z0.0788
G01 X61.1462 Y-1.2767 Z0.0789
G01 X61.1362 Y-1.2780 Z0.0789
G01 X61.0612 Y-1.2880 Z0.0792
G01 X60.9706 Y-1.2972 Z0.0795
G01 X60.8934 Y-1.3026 Z0.0798
G01 X60.8653 Y-1.3046 Z0.0799
G01 X60.7526 Y-1.3094 Z0.0805
G01 X60.7301 Y-1.3097 Z0.0806
G01 X60.6494 Y-1.3048 Z0.0811
G01 X60.4040 Y-1.2901 Z0.0829
G01 X60.3561 Y-1.2873 Z0.0833
G01 X60.3509 Y-1.2870 Z0.0834
G01 X60.1576 Y-1.2756 Z0.0851
G01 X59.9100 Y-1.2611 Z0.0879
G01 X59.8162 Y-1.2556 Z0.0891
G01 X59.8102 Y-1.2552 Z0.0892
G01 X59.6612 Y-1.2466 Z0.0910
G01 X59.4114 Y-1.2323 Z0.0946
G01 X59.2755 Y-1.2246 Z0.0967
G01 X59.2699 Y-1.2242 Z0.0968
G01 X59.1604 Y-1.2181 Z0.0985
G01 X58.9084 Y-1.2039 Z0.1028
G01 X58.7351 Y-1.1942 Z0.1060
G01 X58.7299 Y-1.1940 Z0.1061
G01 X58.6554 Y-1.1899 Z0.1074
G01 X58.4014 Y-1.1759 Z0.1124
G01 X58.1952 Y-1.1646 Z0.1166
G01 X58.1895 Y-1.1644 Z0.1167
G01 X58.1464 Y-1.1620 Z0.1176
G01 X57.8904 Y-1.1483 Z0.1231
G01 X57.6545 Y-1.1356 Z0.1284
G01 X57.6489 Y-1.1353 Z0.1285
G01 X57.6336 Y-1.1345 Z0.1288
G01 X57.3758 Y-1.1210 Z0.1348
G01 X57.1172 Y-1.1074 Z0.1410
G01 X57.1140 Y-1.1073 Z0.1410
G01 X57.1084 Y-1.1070 Z0.1412
G01 X56.8576 Y-1.0942 Z0.1473
G01 X56.5973 Y-1.0808 Z0.1538
G01 X56.5735 Y-1.0796 Z0.1544
G01 X56.5682 Y-1.0794 Z0.1545
G01 X56.3362 Y-1.0677 Z0.1604
G01 X56.0743 Y-1.0547 Z0.1672
G01 X56.0332 Y-1.0526 Z0.1683
G01 X56.0274 Y-1.0524 Z0.1684
G01 X55.8117 Y-1.0418 Z0.1740
G01 X55.5483 Y-1.0290 Z0.1809
G01 X55.4925 Y-1.0263 Z0.1824
G01 X55.4871 Y-1.0261 Z0.1825
G01 X55.2843 Y-1.0164 Z0.1878
G01 X55.0196 Y-1.0039 Z0.1948
G01 X54.9520 Y-1.0007 Z0.1966
G01 X54.9464 Y-1.0005 Z0.1967
G01 X54.7542 Y-0.9916 Z0.2017
G01 X54.4883 Y-0.9793 Z0.2087
G01 X54.4114 Y-0.9757 Z0.2107
G01 X54.4057 Y-0.9755 Z0.2109
G01 X54.2217 Y-0.9672 Z0.2156
G01 X53.9546 Y-0.9551 Z0.2224
G01 X53.8706 Y-0.9514 Z0.2245
G01 X53.8650 Y-0.9512 Z0.2247
G01 X53.6869 Y-0.9434 Z0.2292
G01 X53.4187 Y-0.9316 Z0.2358
G01 X53.3299 Y-0.9278 Z0.2379
G01 X53.3246 Y-0.9275 Z0.2381
G01 X53.1500 Y-0.9201 Z0.2423
G01 X52.8809 Y-0.9087 Z0.2487
G01 X52.7895 Y-0.9048 Z0.2507
G01 X52.7839 Y-0.9046 Z0.2509
G01 X52.6113 Y-0.8974 Z0.2548
G01 X52.3413 Y-0.8862 Z0.2607
G01 X52.2488 Y-0.8825 Z0.2627
G01 X52.2429 Y-0.8823 Z0.2629
G01 X52.0710 Y-0.8754 Z0.2665
G01 X51.8002 Y-0.8646 Z0.2720
G01 X51.7075 Y-0.8609 Z0.2738
G01 X51.7026 Y-0.8607 Z0.2738
G01 X51.5292 Y-0.8539 Z0.2772
G01 X51.2578 Y-0.8434 Z0.2821
G01 X51.1674 Y-0.8399 Z0.2837
G01 X51.1614 Y-0.8397 Z0.2838
G01 X50.9862 Y-0.8331 Z0.2868
G01 X50.7142 Y-0.8229 Z0.2911
G01 X50.6262 Y-0.8196 Z0.2924
G01 X50.6206 Y-0.8194 Z0.2924
G01 X50.4421 Y-0.8129 Z0.2950
G01 X50.1698 Y-0.8030 Z0.2985
G01 X50.0853 Y-0.8000 Z0.2995
G01 X50.0800 Y-0.7998 Z0.2996
G01 X49.8972 Y-0.7934 Z0.3017
G01 X49.6246 Y-0.7838 Z0.3044
G01 X49.5448 Y-0.7810 Z0.3051
G01 X49.5388 Y-0.7808 Z0.3051
G01 X49.3518 Y-0.7745 Z0.3067
G01 X49.0788 Y-0.7653 Z0.3085
G01 X49.0035 Y-0.7627 Z0.3089
G01 X48.9983 Y-0.7625 Z0.3089
G01 X48.8059 Y-0.7562 Z0.3098
G01 X48.5328 Y-0.7474 Z0.3107
G01 X48.4631 Y-0.7451 Z0.3107
G01 X48.4574 Y-0.7450 Z0.3107
G01 X48.2598 Y-0.7388 Z0.3110
G01 X47.9218 Y-0.7282 Z0.3110
G01 X47.9166 Y-0.7281 Z0.3110
G01 X47.3812 Y-0.7119 Z0.3110
G01 X47.3753 Y-0.7117 Z0.3110
G01 X46.8399 Y-0.6963 Z0.3110
G01 X46.8346 Y-0.6962 Z0.3110
G01 X46.2991 Y-0.6814 Z0.3110
G01 X46.2932 Y-0.6812 Z0.3110
G01 X45.7578 Y-0.6671 Z0.3110
G01 X45.7525 Y-0.6670 Z0.3110
G01 X45.2171 Y-0.6535 Z0.3110
G01 X45.2118 Y-0.6534 Z0.3110
G01 X44.6762 Y-0.6405 Z0.3110
G01 X44.6703 Y-0.6404 Z0.3110
G01 X44.1349 Y-0.6283 Z0.3110
G01 X44.1292 Y-0.6281 Z0.3110
G01 X43.5938 Y-0.6167 Z0.3110
G01 X43.5885 Y-0.6166 Z0.3110
G01 X43.0529 Y-0.6057 Z0.3110
G01 X43.0474 Y-0.6057 Z0.3110
G01 X42.5120 Y-0.5955 Z0.3110
G01 X42.5063 Y-0.5955 Z0.3110
G01 X41.9707 Y-0.5859 Z0.3110
G01 X41.9651 Y-0.5858 Z0.3110
G01 X41.4295 Y-0.5770 Z0.3110
G01 X41.4239 Y-0.5769 Z0.3110
G01 X40.8883 Y-0.5688 Z0.3110
G01 X40.8827 Y-0.5687 Z0.3110
G01 X40.3471 Y-0.5612 Z0.3110
G01 X40.3418 Y-0.5611 Z0.3110
G01 X39.8063 Y-0.5543 Z0.3110
G01 X39.8007 Y-0.5542 Z0.3110
G01 X39.2650 Y-0.5481 Z0.3110
G01 X39.2594 Y-0.5480 Z0.3110
G01 X38.7238 Y-0.5425 Z0.3110
G01 X38.7183 Y-0.5424 Z0.3110
G01 X38.1827 Y-0.5376 Z0.3110
G01 X38.1770 Y-0.5375 Z0.3110
G01 X37.6414 Y-0.5333 Z0.3110
G01 X37.6359 Y-0.5333 Z0.3110
G01 X37.1002 Y-0.5298 Z0.3110
G01 X37.0949 Y-0.5298 Z0.3110
G01 X36.5593 Y-0.5269 Z0.3110
G01 X36.5537 Y-0.5269 Z0.3110
G01 X36.0181 Y-0.5247 Z0.3110
G01 X36.0125 Y-0.5246 Z0.3110
G01 X35.4768 Y-0.5231 Z0.3110
G01 X35.4712 Y-0.5231 Z0.3110
G01 X34.9356 Y-0.5222 Z0.3110
G01 X34.9300 Y-0.5222 Z0.3110
G01 X34.3945 Y-0.5220 Z0.3110
G01 X34.3888 Y-0.5220 Z0.3110
G01 X33.8533 Y-0.5225 Z0.3110
G01 X33.8480 Y-0.5225 Z0.3110
G01 X33.3124 Y-0.5236 Z0.3110
G01 X33.3068 Y-0.5237 Z0.3110
G01 X32.7711 Y-0.5254 Z0.3110
G01 X32.7655 Y-0.5254 Z0.3110
G01 X32.2299 Y-0.5279 Z0.3110
G01 X32.2243 Y-0.5279 Z0.3110
G01 X31.6887 Y-0.5310 Z0.3110
G01 X31.6831 Y-0.5311 Z0.3110
G01 X31.1475 Y-0.5348 Z0.3110
G01 X31.1418 Y-0.5349 Z0.3110
G01 X30.6062 Y-0.5393 Z0.3110
G01 X30.6009 Y-0.5394 Z0.3110
G01 X30.0653 Y-0.5444 Z0.3110
G01 X30.0598 Y-0.5445 Z0.3110
G01 X29.5242 Y-0.5503 Z0.3110
G01 X29.5182 Y-0.5503 Z0.3110
G01 X28.9826 Y-0.5568 Z0.3110
G01 X28.9776 Y-0.5568 Z0.3110
G01 X28.4420 Y-0.5639 Z0.3110
G01 X28.4361 Y-0.5640 Z0.3110
G01 X27.9005 Y-0.5717 Z0.3110
G01 X27.8950 Y-0.5718 Z0.3110
G01 X27.3594 Y-0.5802 Z0.3110
G01 X27.3541 Y-0.5803 Z0.3110
G01 X26.8186 Y-0.5894 Z0.3110
G01 X26.8127 Y-0.5895 Z0.3110
G01 X26.2770 Y-0.5992 Z0.3110
G01 X26.2716 Y-0.5993 Z0.3110
G01 X25.7362 Y-0.6097 Z0.3110
G01 X25.7307 Y-0.6098 Z0.3110
G01 X25.1952 Y-0.6209 Z0.3110
G01 X25.1896 Y-0.6210 Z0.3110
G01 X24.6540 Y-0.6327 Z0.3110
G01 X24.6488 Y-0.6328 Z0.3110
G01 X24.1133 Y-0.6452 Z0.3110
G01 X24.1074 Y-0.6453 Z0.3110
G01 X23.5719 Y-0.6584 Z0.3110
G01 X23.5666 Y-0.6585 Z0.3110
G01 X23.0311 Y-0.6722 Z0.3110
G01 X23.0255 Y-0.6724 Z0.3110
G01 X22.4901 Y-0.6868 Z0.3110
G01 X22.4845 Y-0.6869 Z0.3110
G01 X21.9491 Y-0.7020 Z0.3110
G01 X21.9435 Y-0.7021 Z0.3110
G01 X21.4081 Y-0.7178 Z0.3110
G01 X21.4028 Y-0.7180 Z0.3110
G01 X21.0630 Y-0.7283 Z0.3110
G01 X20.8673 Y-0.7343 Z0.3108
G01 X20.8612 Y-0.7345 Z0.3108
G01 X20.6662 Y-0.7407 Z0.3107
G01 X20.3261 Y-0.7515 Z0.3100
G01 X20.3209 Y-0.7517 Z0.3100
G01 X20.2787 Y-0.7531 Z0.3098
G01 X19.9001 Y-0.7655 Z0.3085
G01 X19.7855 Y-0.7694 Z0.3079
G01 X19.7799 Y-0.7696 Z0.3079
G01 X19.5303 Y-0.7781 Z0.3067
G01 X19.2446 Y-0.7879 Z0.3049
G01 X19.2390 Y-0.7881 Z0.3049
G01 X19.1689 Y-0.7906 Z0.3044
G01 X18.8154 Y-0.8031 Z0.3017
G01 X18.7037 Y-0.8071 Z0.3007
G01 X18.6981 Y-0.8073 Z0.3006
G01 X18.4697 Y-0.8157 Z0.2985
G01 X18.1628 Y-0.8270 Z0.2953
G01 X18.1575 Y-0.8272 Z0.2953
G01 X18.1314 Y-0.8282 Z0.2950
G01 X17.8001 Y-0.8407 Z0.2911
G01 X17.6223 Y-0.8475 Z0.2887
G01 X17.6164 Y-0.8477 Z0.2887
G01 X17.4756 Y-0.8533 Z0.2868
G01 X17.1575 Y-0.8657 Z0.2821
G01 X17.0811 Y-0.8688 Z0.2809
G01 X17.0759 Y-0.8690 Z0.2809
G01 X16.8455 Y-0.8783 Z0.2772
G01 X16.5405 Y-0.8906 Z0.2720
G01 X16.5392 Y-0.8907 Z0.2720
G01 X16.5348 Y-0.8908 Z0.2719
G01 X16.2385 Y-0.9032 Z0.2665
G01 X15.9998 Y-0.9131 Z0.2619
G01 X15.9943 Y-0.9134 Z0.2618
G01 X15.9429 Y-0.9156 Z0.2607
G01 X15.6521 Y-0.9281 Z0.2548
G01 X15.4591 Y-0.9364 Z0.2507
G01 X15.4535 Y-0.9366 Z0.2505
G01 X15.3658 Y-0.9405 Z0.2487
G01 X15.0837 Y-0.9529 Z0.2423
G01 X14.9184 Y-0.9603 Z0.2384
G01 X14.9131 Y-0.9605 Z0.2383
G01 X14.8054 Y-0.9654 Z0.2358
G01 X14.5307 Y-0.9778 Z0.2292
G01 X14.3781 Y-0.9848 Z0.2254
G01 X14.3725 Y-0.9851 Z0.2252
G01 X14.2592 Y-0.9903 Z0.2224
G01 X13.9905 Y-1.0029 Z0.2156
G01 X13.8374 Y-1.0100 Z0.2116
G01 X13.8318 Y-1.0103 Z0.2115
G01 X13.7245 Y-1.0154 Z0.2087
G01 X13.4607 Y-1.0281 Z0.2018
G01 X13.2967 Y-1.0359 Z0.1974
G01 X13.2909 Y-1.0362 Z0.1972
G01 X13.1988 Y-1.0407 Z0.1948
G01 X12.9385 Y-1.0535 Z0.1879
G01 X12.7561 Y-1.0625 Z0.1829
G01 X12.7506 Y-1.0627 Z0.1828
G01 X12.6795 Y-1.0663 Z0.1809
G01 X12.4215 Y-1.0793 Z0.1740
G01 X12.2157 Y-1.0897 Z0.1685
G01 X12.2100 Y-1.0900 Z0.1684
G01 X12.1641 Y-1.0924 Z0.1672
G01 X11.9071 Y-1.1056 Z0.1604
G01 X11.6751 Y-1.1176 Z0.1544
G01 X11.6698 Y-1.1179 Z0.1543
G01 X11.6500 Y-1.1189 Z0.1538
G01 X11.3926 Y-1.1325 Z0.1473
G01 X11.1350 Y-1.1462 Z0.1410
G01 X11.1294 Y-1.1464 Z0.1408
G01 X10.8756 Y-1.1601 Z0.1348
G01 X10.6153 Y-1.1742 Z0.1288
G01 X10.5944 Y-1.1754 Z0.1284
G01 X10.5887 Y-1.1757 Z0.1283
G01 X10.3535 Y-1.1887 Z0.1231
G01 X10.0896 Y-1.2033 Z0.1176
G01 X10.0540 Y-1.2053 Z0.1169
G01 X10.0485 Y-1.2056 Z0.1168
G01 X9.8236 Y-1.2183 Z0.1124
G01 X9.5550 Y-1.2335 Z0.1075
G01 X9.5137 Y-1.2359 Z0.1068
G01 X9.5081 Y-1.2362 Z0.1066
G01 X9.2835 Y-1.2492 Z0.1028
G01 X9.0087 Y-1.2651 Z0.0985
G01 X8.9733 Y-1.2671 Z0.0980
G01 X8.9681 Y-1.2674 Z0.0979
G01 X8.7304 Y-1.2814 Z0.0946
G01 X8.4483 Y-1.2981 Z0.0910
G01 X8.4334 Y-1.2990 Z0.0909
G01 X8.4275 Y-1.2994 Z0.0908
G01 X8.1620 Y-1.3154 Z0.0879
G01 X7.8927 Y-1.3316 Z0.0854
G01 X7.8873 Y-1.3320 Z0.0853
G01 X7.8712 Y-1.3329 Z0.0852
G01 X7.5756 Y-1.3511 Z0.0829
G01 X7.3528 Y-1.3649 Z0.0815
G01 X7.3473 Y-1.3652 Z0.0815
G01 X7.2749 Y-1.3697 Z0.0811
G01 X6.9728 Y-1.3887 Z0.0798
G01 X6.9687 Y-1.3886 Z0.0797
G01 X6.8696 Y-1.3876 Z0.0795
G01 X6.6588 Y-1.3806 Z0.0789
G01 X6.6566 Y-1.3805 Z0.0789
G01 X6.4656 Y-1.3698 Z0.0788
G01 X6.3386 Y-1.3596 Z0.0787
G01 X6.2777 Y-1.3548 Z0.0787
G01 X6.1060 Y-1.3368 Z0.0787
G01 X5.9445 Y-1.3158 Z0.0787
G01 X5.7931 Y-1.2920 Z0.0787
G01 X5.6537 Y-1.2663 Z0.0787
G01 X5.5232 Y-1.2385 Z0.0787
G01 X5.4042 Y-1.2095 Z0.0787
G01 X5.2951 Y-1.1795 Z0.0787
G01 X5.1976 Y-1.1495 Z0.0787
G01 X5.1078 Y-1.1188 Z0.0787
G01 X5.0270 Y-1.0883 Z0.0787
G01 X4.9551 Y-1.0584 Z0.0787
G01 X4.8918 Y-1.0296 Z0.0787
G01 X4.8344 Y-1.0012 Z0.0787
G01 X4.7868 Y-0.9755 Z0.0787
G01 X4.7435 Y-0.9500 Z0.0787
G01 X4.7058 Y-0.9261 Z0.0787
G01 X4.6756 Y-0.9053 Z0.0787
G01 X4.6472 Y-0.8843 Z0.0787
G01 X4.6255 Y-0.8669 Z0.0787
G01 X4.6048 Y-0.8489 Z0.0787
G01 X4.5885 Y-0.8338 Z0.0787
G01 X4.5735 Y-0.8187 Z0.0787
G01 X4.5615 Y-0.8058 Z0.0787
G01 X4.5485 Y-0.7906 Z0.0787
G01 X4.5388 Y-0.7784 Z0.0787
G01 X4.5291 Y-0.7652 Z0.0787
G01 X4.5190 Y-0.7505 Z0.0787
G01 X4.5094 Y-0.7353 Z0.0787
G01 X4.5003 Y-0.7197 Z0.0787
G01 X4.4909 Y-0.7021 Z0.0787
G01 X4.4807 Y-0.6814 Z0.0787
G01 X4.4704 Y-0.6585 Z0.0787
G01 X4.4611 Y-0.6360 Z0.0787
G01 X4.4504 Y-0.6072 Z0.0787
G01 X4.4403 Y-0.5770 Z0.0787
G01 X4.4303 Y-0.5438 Z0.0787
G01 X4.4209 Y-0.5088 Z0.0787
G01 X4.4114 Y-0.4685 Z0.0787
G01 X4.4027 Y-0.4261 Z0.0787
G01 X4.3949 Y-0.3816 Z0.0787
G01 X4.3879 Y-0.3332 Z0.0787
G01 X4.3818 Y-0.2814 Z0.0787
G01 X4.3769 Y-0.2276 Z0.0787
G01 X4.3732 Y-0.1701 Z0.0787
G01 X4.3710 Y-0.1111 Z0.0787
G01 X4.3699 Y-0.0242 Z0.0787
G01 X3.6219 Y-0.0272 Z0.0787 F20
G01 X3.6219 Y-0.0272 Z0.0787 F50
G01 X3.6219 Y0.0272 Z0.0787
G01 X3.6232 Y0.1315 Z0.0787
G01 X3.6261 Y0.2081 Z0.0787
G01 X3.6310 Y0.2847 Z0.0787
G01 X3.6375 Y0.3572 Z0.0787
G01 X3.6464 Y0.4325 Z0.0787
G01 X3.6562 Y0.4994 Z0.0787
G01 X3.6678 Y0.5660 Z0.0787
G01 X3.6806 Y0.6286 Z0.0787
G01 X3.6954 Y0.6912 Z0.0787
G01 X3.7109 Y0.7488 Z0.0787
G01 X3.7274 Y0.8037 Z0.0787
G01 X3.7454 Y0.8575 Z0.0787
G01 X3.7643 Y0.9082 Z0.0787
G01 X3.7830 Y0.9537 Z0.0787
G01 X3.8033 Y0.9989 Z0.0787
G01 X3.8253 Y1.0437 Z0.0787
G01 X3.8472 Y1.0845 Z0.0787
G01 X3.8691 Y1.1222 Z0.0787
G01 X3.8933 Y1.1606 Z0.0787
G01 X3.9188 Y1.1979 Z0.0787
G01 X3.9447 Y1.2331 Z0.0787
G01 X3.9721 Y1.2675 Z0.0787
G01 X4.0022 Y1.3026 Z0.0787
G01 X4.0339 Y1.3369 Z0.0787
G01 X4.0684 Y1.3715 Z0.0787
G01 X4.1051 Y1.4057 Z0.0787
G01 X4.1473 Y1.4422 Z0.0787
G01 X4.1896 Y1.4761 Z0.0787
G01 X4.2410 Y1.5143 Z0.0787
G01 X4.2928 Y1.5499 Z0.0787
G01 X4.3531 Y1.5882 Z0.0787
G01 X4.4195 Y1.6272 Z0.0787
G01 X4.4906 Y1.6656 Z0.0787
G01 X4.5704 Y1.7052 Z0.0787
G01 X4.6572 Y1.7447 Z0.0787
G01 X4.7511 Y1.7837 Z0.0787
G01 X4.8544 Y1.8227 Z0.0787
G01 X4.9661 Y1.8609 Z0.0787
G01 X5.0861 Y1.8978 Z0.0787
G01 X5.2175 Y1.9339 Z0.0787
G01 X5.3574 Y1.9679 Z0.0787
G01 X5.5060 Y1.9997 Z0.0787
G01 X5.6688 Y2.0297 Z0.0787
G01 X5.8372 Y2.0561 Z0.0787
G01 X6.0192 Y2.0798 Z0.0787
G01 X6.2094 Y2.0997 Z0.0787
G01 X6.3386 Y2.1100 Z0.0787
G01 X6.4138 Y2.1161 Z0.0787
G01 X6.6266 Y2.1280 Z0.0789
G01 X6.6566 Y2.1290 Z0.0789
G01 X6.8527 Y2.1354 Z0.0794
G01 X6.9687 Y2.1367 Z0.0797
G01 X6.9924 Y2.1370 Z0.0798
G01 X7.2749 Y2.1192 Z0.0811
G01 X7.3942 Y2.1117 Z0.0818
G01 X7.3988 Y2.1114 Z0.0818
G01 X7.5756 Y2.1005 Z0.0829
G01 X7.8712 Y2.0823 Z0.0852
G01 X7.9333 Y2.0785 Z0.0857
G01 X7.9378 Y2.0783 Z0.0858
G01 X8.1620 Y2.0648 Z0.0879
G01 X8.4483 Y2.0475 Z0.0910
G01 X8.4726 Y2.0460 Z0.0913
G01 X8.4775 Y2.0457 Z0.0914
G01 X8.7304 Y2.0307 Z0.0946
G01 X9.0087 Y2.0143 Z0.0985
G01 X9.0122 Y2.0141 Z0.0986
G01 X9.0166 Y2.0139 Z0.0987
G01 X9.2835 Y1.9984 Z0.1028
G01 X9.5513 Y1.9829 Z0.1074
G01 X9.5550 Y1.9827 Z0.1075
G01 X9.5559 Y1.9827 Z0.1075
G01 X9.8236 Y1.9675 Z0.1124
G01 X10.0896 Y1.9524 Z0.1176
G01 X10.0907 Y1.9524 Z0.1176
G01 X10.0953 Y1.9521 Z0.1177
G01 X10.3535 Y1.9378 Z0.1231
G01 X10.6153 Y1.9233 Z0.1288
G01 X10.6300 Y1.9225 Z0.1292
G01 X10.6348 Y1.9223 Z0.1293
G01 X10.8756 Y1.9093 Z0.1348
G01 X11.1346 Y1.8953 Z0.1410
G01 X11.1698 Y1.8934 Z0.1418
G01 X11.1744 Y1.8931 Z0.1419
G01 X11.3926 Y1.8816 Z0.1473
G01 X11.6500 Y1.8679 Z0.1538
G01 X11.7093 Y1.8648 Z0.1553
G01 X11.7137 Y1.8646 Z0.1554
G01 X11.9071 Y1.8546 Z0.1604
G01 X12.1641 Y1.8413 Z0.1672
G01 X12.2486 Y1.8370 Z0.1694
G01 X12.2533 Y1.8367 Z0.1695
G01 X12.4215 Y1.8282 Z0.1740
G01 X12.6795 Y1.8152 Z0.1809
G01 X12.7883 Y1.8098 Z0.1838
G01 X12.7929 Y1.8096 Z0.1839
G01 X12.9385 Y1.8024 Z0.1879
G01 X13.1988 Y1.7896 Z0.1948
G01 X13.3277 Y1.7833 Z0.1982
G01 X13.3325 Y1.7831 Z0.1983
G01 X13.4607 Y1.7769 Z0.2018
G01 X13.7245 Y1.7643 Z0.2087
G01 X13.8676 Y1.7574 Z0.2124
G01 X13.8722 Y1.7572 Z0.2125
G01 X13.9905 Y1.7516 Z0.2156
G01 X14.2592 Y1.7391 Z0.2224
G01 X14.4073 Y1.7322 Z0.2261
G01 X14.4120 Y1.7320 Z0.2262
G01 X14.5307 Y1.7266 Z0.2292
G01 X14.8054 Y1.7142 Z0.2358
G01 X14.9471 Y1.7077 Z0.2391
G01 X14.9514 Y1.7075 Z0.2392
G01 X15.0837 Y1.7017 Z0.2423
G01 X15.3658 Y1.6892 Z0.2487
G01 X15.4865 Y1.6839 Z0.2512
G01 X15.4912 Y1.6837 Z0.2513
G01 X15.6521 Y1.6768 Z0.2548
G01 X15.9429 Y1.6642 Z0.2607
G01 X16.0264 Y1.6607 Z0.2624
G01 X16.0310 Y1.6605 Z0.2625
G01 X16.2385 Y1.6518 Z0.2665
G01 X16.5392 Y1.6393 Z0.2720
G01 X16.5660 Y1.6382 Z0.2724
G01 X16.5708 Y1.6381 Z0.2725
G01 X16.8455 Y1.6269 Z0.2772
G01 X17.1061 Y1.6164 Z0.2813
G01 X17.1105 Y1.6162 Z0.2814
G01 X17.1575 Y1.6143 Z0.2821
G01 X17.4756 Y1.6018 Z0.2868
G01 X17.6457 Y1.5951 Z0.2890
G01 X17.6507 Y1.5950 Z0.2891
G01 X17.8001 Y1.5892 Z0.2911
G01 X18.1314 Y1.5767 Z0.2950
G01 X18.1859 Y1.5746 Z0.2956
G01 X18.1903 Y1.5745 Z0.2956
G01 X18.4697 Y1.5642 Z0.2985
G01 X18.7256 Y1.5548 Z0.3009
G01 X18.7302 Y1.5546 Z0.3009
G01 X18.8154 Y1.5516 Z0.3017
G01 X19.1689 Y1.5390 Z0.3044
G01 X19.2655 Y1.5356 Z0.3050
G01 X19.2702 Y1.5355 Z0.3051
G01 X19.5303 Y1.5265 Z0.3067
G01 X19.8055 Y1.5171 Z0.3081
G01 X19.8102 Y1.5170 Z0.3081
G01 X19.9001 Y1.5140 Z0.3085
G01 X20.2787 Y1.5015 Z0.3098
G01 X20.3455 Y1.4993 Z0.3100
G01 X20.3499 Y1.4991 Z0.3100
G01 X20.6662 Y1.4890 Z0.3107
G01 X20.8851 Y1.4821 Z0.3108
G01 X20.8901 Y1.4820 Z0.3108
G01 X21.0630 Y1.4767 Z0.3110
G01 X21.4256 Y1.4656 Z0.3110
G01 X21.4300 Y1.4655 Z0.3110
G01 X21.9654 Y1.4498 Z0.3110
G01 X21.9701 Y1.4496 Z0.3110
G01 X22.5055 Y1.4346 Z0.3110
G01 X22.5101 Y1.4345 Z0.3110
G01 X23.0456 Y1.4201 Z0.3110
G01 X23.0503 Y1.4200 Z0.3110
G01 X23.5857 Y1.4063 Z0.3110
G01 X23.5901 Y1.4062 Z0.3110
G01 X24.1256 Y1.3931 Z0.3110
G01 X24.1305 Y1.3930 Z0.3110
G01 X24.6660 Y1.3806 Z0.3110
G01 X24.6704 Y1.3805 Z0.3110
G01 X25.2059 Y1.3688 Z0.3110
G01 X25.2106 Y1.3687 Z0.3110
G01 X25.7461 Y1.3576 Z0.3110
G01 X25.7508 Y1.3575 Z0.3110
G01 X26.2862 Y1.3472 Z0.3110
G01 X26.2906 Y1.3471 Z0.3110
G01 X26.8263 Y1.3374 Z0.3110
G01 X26.8312 Y1.3373 Z0.3110
G01 X27.3668 Y1.3282 Z0.3110
G01 X27.3712 Y1.3281 Z0.3110
G01 X27.9067 Y1.3197 Z0.3110
G01 X27.9114 Y1.3196 Z0.3110
G01 X28.4469 Y1.3119 Z0.3110
G01 X28.4519 Y1.3118 Z0.3110
G01 X28.9875 Y1.3048 Z0.3110
G01 X28.9916 Y1.3047 Z0.3110
G01 X29.5272 Y1.2983 Z0.3110
G01 X29.5322 Y1.2982 Z0.3110
G01 X30.0678 Y1.2924 Z0.3110
G01 X30.0724 Y1.2924 Z0.3110
G01 X30.6080 Y1.2873 Z0.3110
G01 X30.6124 Y1.2873 Z0.3110
G01 X31.1481 Y1.2828 Z0.3110
G01 X31.1527 Y1.2828 Z0.3110
G01 X31.6883 Y1.2790 Z0.3110
G01 X31.6930 Y1.2790 Z0.3110
G01 X32.2286 Y1.2759 Z0.3110
G01 X32.2333 Y1.2759 Z0.3110
G01 X32.7689 Y1.2734 Z0.3110
G01 X32.7736 Y1.2734 Z0.3110
G01 X33.3092 Y1.2716 Z0.3110
G01 X33.3139 Y1.2716 Z0.3110
G01 X33.8495 Y1.2705 Z0.3110
G01 X33.8539 Y1.2705 Z0.3110
G01 X34.3895 Y1.2700 Z0.3110
G01 X34.3942 Y1.2700 Z0.3110
G01 X34.9297 Y1.2702 Z0.3110
G01 X34.9344 Y1.2702 Z0.3110
G01 X35.4700 Y1.2711 Z0.3110
G01 X35.4747 Y1.2711 Z0.3110
G01 X36.0103 Y1.2726 Z0.3110
G01 X36.0150 Y1.2727 Z0.3110
G01 X36.5506 Y1.2749 Z0.3110
G01 X36.5553 Y1.2749 Z0.3110
G01 X37.0909 Y1.2777 Z0.3110
G01 X37.0953 Y1.2778 Z0.3110
G01 X37.6309 Y1.2813 Z0.3110
G01 X37.6356 Y1.2813 Z0.3110
G01 X38.1712 Y1.2855 Z0.3110
G01 X38.1759 Y1.2855 Z0.3110
G01 X38.7115 Y1.2904 Z0.3110
G01 X38.7162 Y1.2904 Z0.3110
G01 X39.2518 Y1.2959 Z0.3110
G01 X39.2564 Y1.2960 Z0.3110
G01 X39.7920 Y1.3022 Z0.3110
G01 X39.7967 Y1.3022 Z0.3110
G01 X40.3323 Y1.3091 Z0.3110
G01 X40.3367 Y1.3091 Z0.3110
G01 X40.8723 Y1.3166 Z0.3110
G01 X40.8769 Y1.3167 Z0.3110
G01 X41.4125 Y1.3248 Z0.3110
G01 X41.4172 Y1.3249 Z0.3110
G01 X41.9527 Y1.3337 Z0.3110
G01 X41.9574 Y1.3338 Z0.3110
G01 X42.4931 Y1.3433 Z0.3110
G01 X42.4978 Y1.3433 Z0.3110
G01 X43.0332 Y1.3535 Z0.3110
G01 X43.0378 Y1.3536 Z0.3110
G01 X43.5734 Y1.3644 Z0.3110
G01 X43.5778 Y1.3645 Z0.3110
G01 X44.1133 Y1.3760 Z0.3110
G01 X44.1179 Y1.3761 Z0.3110
G01 X44.6534 Y1.3882 Z0.3110
G01 X44.6583 Y1.3883 Z0.3110
G01 X45.1938 Y1.4011 Z0.3110
G01 X45.1983 Y1.4012 Z0.3110
G01 X45.7337 Y1.4147 Z0.3110
G01 X45.7381 Y1.4148 Z0.3110
G01 X46.2735 Y1.4289 Z0.3110
G01 X46.2785 Y1.4290 Z0.3110
G01 X46.8139 Y1.4438 Z0.3110
G01 X46.8183 Y1.4440 Z0.3110
G01 X47.3537 Y1.4594 Z0.3110
G01 X47.3587 Y1.4596 Z0.3110
G01 X47.8941 Y1.4757 Z0.3110
G01 X47.8985 Y1.4759 Z0.3110
G01 X48.2598 Y1.4872 Z0.3110
G01 X48.4335 Y1.4926 Z0.3108
G01 X48.4387 Y1.4927 Z0.3108
G01 X48.5328 Y1.4957 Z0.3107
G01 X48.8059 Y1.5046 Z0.3098
G01 X48.9739 Y1.5101 Z0.3090
G01 X48.9783 Y1.5103 Z0.3090
G01 X49.0788 Y1.5137 Z0.3085
G01 X49.3518 Y1.5229 Z0.3067
G01 X49.5136 Y1.5284 Z0.3053
G01 X49.5185 Y1.5285 Z0.3053
G01 X49.6246 Y1.5322 Z0.3044
G01 X49.8972 Y1.5418 Z0.3017
G01 X50.0538 Y1.5473 Z0.2999
G01 X50.0582 Y1.5475 Z0.2998
G01 X50.1698 Y1.5515 Z0.2985
G01 X50.4421 Y1.5614 Z0.2950
G01 X50.5935 Y1.5669 Z0.2928
G01 X50.5982 Y1.5671 Z0.2927
G01 X50.7142 Y1.5714 Z0.2911
G01 X50.9862 Y1.5816 Z0.2868
G01 X51.1334 Y1.5872 Z0.2843
G01 X51.1384 Y1.5874 Z0.2842
G01 X51.2578 Y1.5920 Z0.2821
G01 X51.5292 Y1.6025 Z0.2772
G01 X51.6736 Y1.6081 Z0.2744
G01 X51.6777 Y1.6083 Z0.2744
G01 X51.8002 Y1.6132 Z0.2720
G01 X52.0710 Y1.6240 Z0.2665
G01 X52.2130 Y1.6297 Z0.2635
G01 X52.2180 Y1.6298 Z0.2634
G01 X52.3413 Y1.6349 Z0.2607
G01 X52.6113 Y1.6461 Z0.2548
G01 X52.7531 Y1.6519 Z0.2516
G01 X52.7577 Y1.6521 Z0.2514
G01 X52.8809 Y1.6574 Z0.2487
G01 X53.1500 Y1.6688 Z0.2423
G01 X53.2929 Y1.6749 Z0.2388
G01 X53.2973 Y1.6751 Z0.2387
G01 X53.4187 Y1.6803 Z0.2358
G01 X53.6869 Y1.6921 Z0.2292
G01 X53.8324 Y1.6985 Z0.2255
G01 X53.8370 Y1.6987 Z0.2254
G01 X53.9546 Y1.7039 Z0.2224
G01 X54.2217 Y1.7159 Z0.2156
G01 X54.3722 Y1.7227 Z0.2117
G01 X54.3768 Y1.7229 Z0.2116
G01 X54.4883 Y1.7280 Z0.2087
G01 X54.7542 Y1.7403 Z0.2017
G01 X54.9119 Y1.7476 Z0.1976
G01 X54.9165 Y1.7479 Z0.1975
G01 X55.0196 Y1.7527 Z0.1948
G01 X55.2843 Y1.7653 Z0.1878
G01 X55.4517 Y1.7733 Z0.1834
G01 X55.4562 Y1.7734 Z0.1833
G01 X55.5483 Y1.7779 Z0.1809
G01 X55.8117 Y1.7907 Z0.1740
G01 X55.9910 Y1.7994 Z0.1693
G01 X55.9959 Y1.7997 Z0.1692
G01 X56.0743 Y1.8036 Z0.1672
G01 X56.3362 Y1.8166 Z0.1604
G01 X56.5309 Y1.8264 Z0.1555
G01 X56.5353 Y1.8266 Z0.1553
G01 X56.5973 Y1.8298 Z0.1538
G01 X56.8576 Y1.8431 Z0.1473
G01 X57.0702 Y1.8540 Z0.1421
G01 X57.0749 Y1.8542 Z0.1420
G01 X57.1172 Y1.8564 Z0.1410
G01 X57.3758 Y1.8700 Z0.1348
G01 X57.6098 Y1.8823 Z0.1294
G01 X57.6144 Y1.8825 Z0.1293
G01 X57.6336 Y1.8835 Z0.1288
G01 X57.8904 Y1.8973 Z0.1231
G01 X58.1464 Y1.9110 Z0.1176
G01 X58.1494 Y1.9112 Z0.1175
G01 X58.1542 Y1.9114 Z0.1174
G01 X58.4014 Y1.9250 Z0.1124
G01 X58.6554 Y1.9390 Z0.1074
G01 X58.6888 Y1.9408 Z0.1068
G01 X58.6932 Y1.9411 Z0.1068
G01 X58.9084 Y1.9531 Z0.1028
G01 X59.1604 Y1.9672 Z0.0985
G01 X59.2280 Y1.9711 Z0.0975
G01 X59.2326 Y1.9713 Z0.0974
G01 X59.4114 Y1.9816 Z0.0946
G01 X59.6612 Y1.9959 Z0.0910
G01 X59.7674 Y2.0020 Z0.0897
G01 X59.7724 Y2.0023 Z0.0896
G01 X59.9100 Y2.0103 Z0.0879
G01 X60.1576 Y2.0249 Z0.0851
G01 X60.3071 Y2.0337 Z0.0838
G01 X60.3114 Y2.0339 Z0.0837
G01 X60.4040 Y2.0394 Z0.0829
G01 X60.6494 Y2.0541 Z0.0811
G01 X60.7129 Y2.0579 Z0.0807
G01 X60.7731 Y2.0571 Z0.0804
G01 X60.8934 Y2.0521 Z0.0798
G01 X60.9090 Y2.0514 Z0.0797
G01 X61.0337 Y2.0426 Z0.0792
G01 X61.1362 Y2.0322 Z0.0789
G01 X61.1485 Y2.0309 Z0.0789
G01 X61.2562 Y2.0166 Z0.0788
G01 X61.3520 Y2.0008 Z0.0787
G01 X61.3779 Y1.9957 Z0.0787
G01 X61.4418 Y1.9829 Z0.0787
G01 X61.5233 Y1.9639 Z0.0787
G01 X61.5946 Y1.9446 Z0.0787
G01 X61.6588 Y1.9248 Z0.0787
G01 X61.7186 Y1.9039 Z0.0787
G01 X61.7714 Y1.8834 Z0.0787
G01 X61.8164 Y1.8638 Z0.0787
G01 X61.8580 Y1.8439 Z0.0787
G01 X61.8930 Y1.8255 Z0.0787
G01 X61.9267 Y1.8060 Z0.0787
G01 X61.9553 Y1.7881 Z0.0787
G01 X61.9831 Y1.7690 Z0.0787
G01 X62.0066 Y1.7515 Z0.0787
G01 X62.0286 Y1.7338 Z0.0787
G01 X62.0501 Y1.7150 Z0.0787
G01 X62.0700 Y1.6963 Z0.0787
G01 X62.0896 Y1.6764 Z0.0787
G01 X62.1099 Y1.6542 Z0.0787
G01 X62.1291 Y1.6315 Z0.0787
G01 X62.1486 Y1.6067 Z0.0787
G01 X62.1682 Y1.5798 Z0.0787
G01 X62.1895 Y1.5483 Z0.0787
G01 X62.2095 Y1.5164 Z0.0787
G01 X62.2306 Y1.4802 Z0.0787
G01 X62.2523 Y1.4397 Z0.0787
G01 X62.2729 Y1.3984 Z0.0787
G01 X62.2944 Y1.3514 Z0.0787
G01 X62.3161 Y1.3001 Z0.0787
G01 X62.3363 Y1.2480 Z0.0787
G01 X62.3567 Y1.1905 Z0.0787
G01 X62.3764 Y1.1294 Z0.0787
G01 X62.3962 Y1.0622 Z0.0787
G01 X62.4140 Y0.9951 Z0.0787
G01 X62.4306 Y0.9251 Z0.0787
G01 X62.4468 Y0.8482 Z0.0787
G01 X62.4613 Y0.7705 Z0.0787
G01 X62.4748 Y0.6872 Z0.0787
G01 X62.4859 Y0.6062 Z0.0787
G01 X62.4962 Y0.5172 Z0.0787
G01 X62.5045 Y0.4278 Z0.0787
G01 X62.5110 Y0.3359 Z0.0787
G01 X62.5157 Y0.2429 Z0.0787
G01 X62.5186 Y0.1459 Z0.0787
G01 X62.5197 Y0.0333 Z0.0787
G01 X62.5197 Y-0.0333 Z0.0787
G01 X62.5186 Y-0.1459 Z0.0787
G01 X62.5157 Y-0.2429 Z0.0787
G01 X62.5110 Y-0.3359 Z0.0787
G01 X62.5045 Y-0.4278 Z0.0787
G01 X62.4962 Y-0.5172 Z0.0787
G01 X62.4859 Y-0.6062 Z0.0787
G01 X62.4748 Y-0.6872 Z0.0787
G01 X62.4613 Y-0.7705 Z0.0787
G01 X62.4468 Y-0.8482 Z0.0787
G01 X62.4306 Y-0.9251 Z0.0787
G01 X62.4140 Y-0.9951 Z0.0787
G01 X62.3962 Y-1.0622 Z0.0787
G01 X62.3764 Y-1.1294 Z0.0787
G01 X62.3567 Y-1.1905 Z0.0787
G01 X62.3363 Y-1.2480 Z0.0787
G01 X62.3161 Y-1.3001 Z0.0787
G01 X62.2944 Y-1.3514 Z0.0787
G01 X62.2729 Y-1.3984 Z0.0787
G01 X62.2523 Y-1.4397 Z0.0787
G01 X62.2306 Y-1.4802 Z0.0787
G01 X62.2092 Y-1.5170 Z0.0787
G01 X62.1895 Y-1.5483 Z0.0787
G01 X62.1682 Y-1.5798 Z0.0787
G01 X62.1486 Y-1.6067 Z0.0787
G01 X62.1286 Y-1.6321 Z0.0787
G01 X62.1099 Y-1.6542 Z0.0787
G01 X62.0896 Y-1.6764 Z0.0787
G01 X62.0700 Y-1.6963 Z0.0787
G01 X62.0501 Y-1.7151 Z0.0787
G01 X62.0286 Y-1.7338 Z0.0787
G01 X62.0065 Y-1.7516 Z0.0787
G01 X61.9828 Y-1.7692 Z0.0787
G01 X61.9553 Y-1.7881 Z0.0787
G01 X61.9264 Y-1.8062 Z0.0787
G01 X61.8930 Y-1.8255 Z0.0787
G01 X61.8580 Y-1.8439 Z0.0787
G01 X61.8164 Y-1.8638 Z0.0787
G01 X61.7712 Y-1.8834 Z0.0787
G01 X61.7186 Y-1.9039 Z0.0787
G01 X61.6588 Y-1.9248 Z0.0787
G01 X61.5946 Y-1.9446 Z0.0787
G01 X61.5233 Y-1.9639 Z0.0787
G01 X61.4418 Y-1.9829 Z0.0787
G01 X61.3779 Y-1.9957 Z0.0787
G01 X61.3520 Y-2.0008 Z0.0787
G01 X61.2562 Y-2.0166 Z0.0788
G01 X61.1485 Y-2.0309 Z0.0789
G01 X61.1362 Y-2.0322 Z0.0789
G01 X61.0337 Y-2.0426 Z0.0792
G01 X60.9090 Y-2.0514 Z0.0797
G01 X60.8934 Y-2.0521 Z0.0798
G01 X60.7731 Y-2.0571 Z0.0804
G01 X60.7129 Y-2.0579 Z0.0807
G01 X60.6494 Y-2.0541 Z0.0811
G01 X60.4040 Y-2.0394 Z0.0829
G01 X60.3114 Y-2.0339 Z0.0837
G01 X60.3071 Y-2.0337 Z0.0838
G01 X60.1576 Y-2.0249 Z0.0851
G01 X59.9100 Y-2.0103 Z0.0879
G01 X59.7724 Y-2.0023 Z0.0896
G01 X59.7674 Y-2.0020 Z0.0897
G01 X59.6612 Y-1.9959 Z0.0910
G01 X59.4114 Y-1.9816 Z0.0946
G01 X59.2326 Y-1.9713 Z0.0974
G01 X59.2280 Y-1.9711 Z0.0975
G01 X59.1604 Y-1.9672 Z0.0985
G01 X58.9084 Y-1.9531 Z0.1028
G01 X58.6932 Y-1.9411 Z0.1068
G01 X58.6888 Y-1.9408 Z0.1068
G01 X58.6554 Y-1.9390 Z0.1074
G01 X58.4014 Y-1.9250 Z0.1124
G01 X58.1542 Y-1.9114 Z0.1174
G01 X58.1494 Y-1.9112 Z0.1175
G01 X58.1464 Y-1.9110 Z0.1176
G01 X57.8904 Y-1.8973 Z0.1231
G01 X57.6336 Y-1.8835 Z0.1288
G01 X57.6144 Y-1.8825 Z0.1293
G01 X57.6098 Y-1.8823 Z0.1294
G01 X57.3758 Y-1.8700 Z0.1348
G01 X57.1172 Y-1.8564 Z0.1410
G01 X57.0749 Y-1.8542 Z0.1420
G01 X57.0702 Y-1.8540 Z0.1421
G01 X56.8576 Y-1.8431 Z0.1473
G01 X56.5973 Y-1.8298 Z0.1538
G01 X56.5353 Y-1.8266 Z0.1553
G01 X56.5309 Y-1.8264 Z0.1555
G01 X56.3362 Y-1.8166 Z0.1604
G01 X56.0743 Y-1.8036 Z0.1672
G01 X55.9959 Y-1.7997 Z0.1692
G01 X55.9910 Y-1.7994 Z0.1693
G01 X55.8117 Y-1.7907 Z0.1740
G01 X55.5483 Y-1.7779 Z0.1809
G01 X55.4562 Y-1.7734 Z0.1833
G01 X55.4517 Y-1.7733 Z0.1834
G01 X55.2843 Y-1.7653 Z0.1878
G01 X55.0196 Y-1.7527 Z0.1948
G01 X54.9165 Y-1.7479 Z0.1975
G01 X54.9119 Y-1.7476 Z0.1976
G01 X54.7542 Y-1.7403 Z0.2017
G01 X54.4883 Y-1.7280 Z0.2087
G01 X54.3768 Y-1.7229 Z0.2116
G01 X54.3722 Y-1.7227 Z0.2117
G01 X54.2217 Y-1.7159 Z0.2156
G01 X53.9546 Y-1.7039 Z0.2224
G01 X53.8370 Y-1.6987 Z0.2254
G01 X53.8324 Y-1.6985 Z0.2255
G01 X53.6869 Y-1.6921 Z0.2292
G01 X53.4187 Y-1.6803 Z0.2358
G01 X53.2973 Y-1.6751 Z0.2387
G01 X53.2929 Y-1.6749 Z0.2388
G01 X53.1500 Y-1.6688 Z0.2423
G01 X52.8809 Y-1.6573 Z0.2487
G01 X52.7577 Y-1.6521 Z0.2514
G01 X52.7531 Y-1.6519 Z0.2516
G01 X52.6113 Y-1.6461 Z0.2548
G01 X52.3413 Y-1.6349 Z0.2607
G01 X52.2180 Y-1.6298 Z0.2634
G01 X52.2130 Y-1.6297 Z0.2635
G01 X52.0710 Y-1.6240 Z0.2665
G01 X51.8002 Y-1.6131 Z0.2720
G01 X51.6777 Y-1.6083 Z0.2744
G01 X51.6736 Y-1.6081 Z0.2744
G01 X51.5292 Y-1.6025 Z0.2772
G01 X51.2578 Y-1.5920 Z0.2821
G01 X51.1384 Y-1.5874 Z0.2842
G01 X51.1334 Y-1.5872 Z0.2843
G01 X50.9862 Y-1.5816 Z0.2868
G01 X50.7142 Y-1.5714 Z0.2911
G01 X50.5982 Y-1.5671 Z0.2927
G01 X50.5935 Y-1.5669 Z0.2928
G01 X50.4421 Y-1.5614 Z0.2950
G01 X50.1698 Y-1.5515 Z0.2985
G01 X50.0582 Y-1.5475 Z0.2998
G01 X50.0538 Y-1.5473 Z0.2999
G01 X49.8972 Y-1.5418 Z0.3017
G01 X49.6246 Y-1.5322 Z0.3044
G01 X49.5185 Y-1.5285 Z0.3053
G01 X49.5136 Y-1.5284 Z0.3053
G01 X49.3518 Y-1.5229 Z0.3067
G01 X49.0788 Y-1.5137 Z0.3085
G01 X48.9783 Y-1.5103 Z0.3090
G01 X48.9739 Y-1.5101 Z0.3090
G01 X48.8059 Y-1.5046 Z0.3098
G01 X48.5328 Y-1.4957 Z0.3107
G01 X48.4387 Y-1.4927 Z0.3108
G01 X48.4335 Y-1.4926 Z0.3108
G01 X48.2598 Y-1.4872 Z0.3110
G01 X47.8985 Y-1.4759 Z0.3110
G01 X47.8941 Y-1.4757 Z0.3110
G01 X47.3587 Y-1.4596 Z0.3110
G01 X47.3537 Y-1.4594 Z0.3110
G01 X46.8183 Y-1.4440 Z0.3110
G01 X46.8139 Y-1.4438 Z0.3110
G01 X46.2785 Y-1.4290 Z0.3110
G01 X46.2735 Y-1.4289 Z0.3110
G01 X45.7381 Y-1.4148 Z0.3110
G01 X45.7337 Y-1.4147 Z0.3110
G01 X45.1983 Y-1.4012 Z0.3110
G01 X45.1938 Y-1.4011 Z0.3110
G01 X44.6583 Y-1.3883 Z0.3110
G01 X44.6534 Y-1.3882 Z0.3110
G01 X44.1179 Y-1.3761 Z0.3110
G01 X44.1133 Y-1.3760 Z0.3110
G01 X43.5778 Y-1.3645 Z0.3110
G01 X43.5734 Y-1.3644 Z0.3110
G01 X43.0378 Y-1.3536 Z0.3110
G01 X43.0332 Y-1.3535 Z0.3110
G01 X42.4978 Y-1.3433 Z0.3110
G01 X42.4931 Y-1.3433 Z0.3110
G01 X41.9574 Y-1.3338 Z0.3110
G01 X41.9527 Y-1.3337 Z0.3110
G01 X41.4172 Y-1.3249 Z0.3110
G01 X41.4125 Y-1.3248 Z0.3110
G01 X40.8769 Y-1.3167 Z0.3110
G01 X40.8723 Y-1.3166 Z0.3110
G01 X40.3367 Y-1.3091 Z0.3110
G01 X40.3323 Y-1.3091 Z0.3110
G01 X39.7967 Y-1.3022 Z0.3110
G01 X39.7920 Y-1.3022 Z0.3110
G01 X39.2564 Y-1.2960 Z0.3110
G01 X39.2518 Y-1.2959 Z0.3110
G01 X38.7162 Y-1.2904 Z0.3110
G01 X38.7115 Y-1.2904 Z0.3110
G01 X38.1759 Y-1.2855 Z0.3110
G01 X38.1712 Y-1.2855 Z0.3110
G01 X37.6356 Y-1.2813 Z0.3110
G01 X37.6309 Y-1.2813 Z0.3110
G01 X37.0953 Y-1.2778 Z0.3110
G01 X37.0909 Y-1.2777 Z0.3110
G01 X36.5553 Y-1.2749 Z0.3110
G01 X36.5506 Y-1.2749 Z0.3110
G01 X36.0150 Y-1.2727 Z0.3110
G01 X36.0103 Y-1.2726 Z0.3110
G01 X35.4747 Y-1.2711 Z0.3110
G01 X35.4700 Y-1.2711 Z0.3110
G01 X34.9344 Y-1.2702 Z0.3110
G01 X34.9297 Y-1.2702 Z0.3110
G01 X34.3942 Y-1.2700 Z0.3110
G01 X34.3895 Y-1.2700 Z0.3110
G01 X33.8539 Y-1.2705 Z0.3110
G01 X33.8495 Y-1.2705 Z0.3110
G01 X33.3139 Y-1.2716 Z0.3110
G01 X33.3092 Y-1.2716 Z0.3110
G01 X32.7736 Y-1.2734 Z0.3110
G01 X32.7689 Y-1.2734 Z0.3110
G01 X32.2333 Y-1.2759 Z0.3110
G01 X32.2286 Y-1.2759 Z0.3110
G01 X31.6930 Y-1.2790 Z0.3110
G01 X31.6883 Y-1.2790 Z0.3110
G01 X31.1527 Y-1.2828 Z0.3110
G01 X31.1481 Y-1.2828 Z0.3110
G01 X30.6124 Y-1.2873 Z0.3110
G01 X30.6080 Y-1.2873 Z0.3110
G01 X30.0724 Y-1.2924 Z0.3110
G01 X30.0678 Y-1.2924 Z0.3110
G01 X29.5322 Y-1.2982 Z0.3110
G01 X29.5272 Y-1.2983 Z0.3110
G01 X28.9916 Y-1.3047 Z0.3110
G01 X28.9875 Y-1.3048 Z0.3110
G01 X28.4519 Y-1.3118 Z0.3110
G01 X28.4469 Y-1.3119 Z0.3110
G01 X27.9114 Y-1.3196 Z0.3110
G01 X27.9067 Y-1.3197 Z0.3110
G01 X27.3712 Y-1.3281 Z0.3110
G01 X27.3668 Y-1.3282 Z0.3110
G01 X26.8312 Y-1.3373 Z0.3110
G01 X26.8263 Y-1.3374 Z0.3110
G01 X26.2906 Y-1.3471 Z0.3110
G01 X26.2862 Y-1.3472 Z0.3110
G01 X25.7508 Y-1.3575 Z0.3110
G01 X25.7461 Y-1.3576 Z0.3110
G01 X25.2106 Y-1.3687 Z0.3110
G01 X25.2059 Y-1.3688 Z0.3110
G01 X24.6704 Y-1.3805 Z0.3110
G01 X24.6660 Y-1.3806 Z0.3110
G01 X24.1305 Y-1.3930 Z0.3110
G01 X24.1256 Y-1.3931 Z0.3110
G01 X23.5901 Y-1.4062 Z0.3110
G01 X23.5857 Y-1.4063 Z0.3110
G01 X23.0503 Y-1.4200 Z0.3110
G01 X23.0456 Y-1.4201 Z0.3110
G01 X22.5101 Y-1.4345 Z0.3110
G01 X22.5055 Y-1.4346 Z0.3110
G01 X21.9701 Y-1.4496 Z0.3110
G01 X21.9654 Y-1.4498 Z0.3110
G01 X21.4300 Y-1.4655 Z0.3110
G01 X21.4256 Y-1.4656 Z0.3110
G01 X21.0630 Y-1.4767 Z0.3110
G01 X20.8901 Y-1.4820 Z0.3108
G01 X20.8851 Y-1.4821 Z0.3108
G01 X20.6662 Y-1.4890 Z0.3107
G01 X20.3499 Y-1.4991 Z0.3100
G01 X20.3455 Y-1.4993 Z0.3100
G01 X20.2787 Y-1.5015 Z0.3098
G01 X19.9001 Y-1.5140 Z0.3085
G01 X19.8102 Y-1.5170 Z0.3081
G01 X19.8055 Y-1.5171 Z0.3081
G01 X19.5303 Y-1.5265 Z0.3067
G01 X19.2702 Y-1.5355 Z0.3051
G01 X19.2655 Y-1.5356 Z0.3050
G01 X19.1689 Y-1.5390 Z0.3044
G01 X18.8154 Y-1.5516 Z0.3017
G01 X18.7302 Y-1.5546 Z0.3009
G01 X18.7256 Y-1.5548 Z0.3009
G01 X18.4697 Y-1.5642 Z0.2985
G01 X18.1903 Y-1.5745 Z0.2956
G01 X18.1859 Y-1.5746 Z0.2956
G01 X18.1314 Y-1.5767 Z0.2950
G01 X17.8001 Y-1.5892 Z0.2911
G01 X17.6507 Y-1.5950 Z0.2891
G01 X17.6457 Y-1.5951 Z0.2890
G01 X17.4756 Y-1.6018 Z0.2868
G01 X17.1575 Y-1.6143 Z0.2821
G01 X17.1105 Y-1.6162 Z0.2814
G01 X17.1061 Y-1.6164 Z0.2813
G01 X16.8455 Y-1.6269 Z0.2772
G01 X16.5708 Y-1.6380 Z0.2725
G01 X16.5660 Y-1.6382 Z0.2724
G01 X16.5392 Y-1.6393 Z0.2720
G01 X16.2385 Y-1.6518 Z0.2665
G01 X16.0310 Y-1.6605 Z0.2625
G01 X16.0264 Y-1.6607 Z0.2624
G01 X15.9429 Y-1.6643 Z0.2607
G01 X15.6521 Y-1.6768 Z0.2548
G01 X15.4912 Y-1.6837 Z0.2513
G01 X15.4865 Y-1.6839 Z0.2512
G01 X15.3658 Y-1.6892 Z0.2487
G01 X15.0837 Y-1.7017 Z0.2423
G01 X14.9514 Y-1.7075 Z0.2392
G01 X14.9471 Y-1.7077 Z0.2391
G01 X14.8054 Y-1.7142 Z0.2358
G01 X14.5307 Y-1.7266 Z0.2292
G01 X14.4120 Y-1.7320 Z0.2262
G01 X14.4073 Y-1.7322 Z0.2261
G01 X14.2592 Y-1.7391 Z0.2224
G01 X13.9905 Y-1.7516 Z0.2156
G01 X13.8722 Y-1.7572 Z0.2125
G01 X13.8676 Y-1.7574 Z0.2124
G01 X13.7245 Y-1.7643 Z0.2087
G01 X13.4607 Y-1.7769 Z0.2018
G01 X13.3325 Y-1.7831 Z0.1983
G01 X13.3277 Y-1.7833 Z0.1982
G01 X13.1988 Y-1.7896 Z0.1948
G01 X12.9385 Y-1.8024 Z0.1879
G01 X12.7929 Y-1.8096 Z0.1839
G01 X12.7883 Y-1.8098 Z0.1838
G01 X12.6795 Y-1.8152 Z0.1809
G01 X12.4215 Y-1.8282 Z0.1740
G01 X12.2533 Y-1.8367 Z0.1695
G01 X12.2486 Y-1.8370 Z0.1694
G01 X12.1641 Y-1.8413 Z0.1672
G01 X11.9071 Y-1.8546 Z0.1604
G01 X11.7137 Y-1.8646 Z0.1554
G01 X11.7093 Y-1.8648 Z0.1553
G01 X11.6500 Y-1.8679 Z0.1538
G01 X11.3926 Y-1.8815 Z0.1473
G01 X11.1744 Y-1.8931 Z0.1419
G01 X11.1698 Y-1.8934 Z0.1418
G01 X11.1346 Y-1.8953 Z0.1410
G01 X10.8756 Y-1.9093 Z0.1348
G01 X10.6348 Y-1.9223 Z0.1293
G01 X10.6300 Y-1.9225 Z0.1292
G01 X10.6153 Y-1.9233 Z0.1288
G01 X10.3535 Y-1.9378 Z0.1231
G01 X10.0953 Y-1.9521 Z0.1177
G01 X10.0907 Y-1.9524 Z0.1176
G01 X10.0896 Y-1.9524 Z0.1176
G01 X9.8236 Y-1.9675 Z0.1124
G01 X9.5559 Y-1.9827 Z0.1075
G01 X9.5550 Y-1.9827 Z0.1075
G01 X9.5513 Y-1.9829 Z0.1074
G01 X9.2835 Y-1.9984 Z0.1028
G01 X9.0166 Y-2.0139 Z0.0987
G01 X9.0122 Y-2.0141 Z0.0986
G01 X9.0087 Y-2.0143 Z0.0985
G01 X8.7304 Y-2.0307 Z0.0946
G01 X8.4775 Y-2.0457 Z0.0914
G01 X8.4726 Y-2.0460 Z0.0913
G01 X8.4483 Y-2.0475 Z0.0910
G01 X8.1620 Y-2.0648 Z0.0879
G01 X7.9378 Y-2.0783 Z0.0858
G01 X7.9333 Y-2.0785 Z0.0857
G01 X7.8712 Y-2.0823 Z0.0852
G01 X7.5756 Y-2.1005 Z0.0829
G01 X7.3988 Y-2.1114 Z0.0818
G01 X7.3942 Y-2.1117 Z0.0818
G01 X7.2749 Y-2.1192 Z0.0811
G01 X6.9924 Y-2.1370 Z0.0798
G01 X6.9687 Y-2.1367 Z0.0797
G01 X6.8527 Y-2.1354 Z0.0794
G01 X6.6566 Y-2.1290 Z0.0789
G01 X6.6266 Y-2.1280 Z0.0789
G01 X6.4138 Y-2.1161 Z0.0787
G01 X6.3386 Y-2.1100 Z0.0787
G01 X6.2094 Y-2.0997 Z0.0787
G01 X6.0192 Y-2.0798 Z0.0787
G01 X5.8372 Y-2.0561 Z0.0787
G01 X5.6688 Y-2.0297 Z0.0787
G01 X5.5060 Y-1.9997 Z0.0787
G01 X5.3574 Y-1.9679 Z0.0787
G01 X5.2175 Y-1.9339 Z0.0787
G01 X5.0861 Y-1.8978 Z0.0787
G01 X4.9661 Y-1.8609 Z0.0787
G01 X4.8544 Y-1.8227 Z0.0787
G01 X4.7511 Y-1.7837 Z0.0787
G01 X4.6572 Y-1.7447 Z0.0787
G01 X4.5704 Y-1.7052 Z0.0787
G01 X4.4906 Y-1.6656 Z0.0787
G01 X4.4199 Y-1.6274 Z0.0787
G01 X4.3531 Y-1.5882 Z0.0787
G01 X4.2928 Y-1.5499 Z0.0787
G01 X4.2410 Y-1.5143 Z0.0787
G01 X4.1898 Y-1.4762 Z0.0787
G01 X4.1473 Y-1.4422 Z0.0787
G01 X4.1051 Y-1.4057 Z0.0787
G01 X4.0684 Y-1.3715 Z0.0787
G01 X4.0339 Y-1.3369 Z0.0787
G01 X4.0022 Y-1.3026 Z0.0787
G01 X3.9721 Y-1.2675 Z0.0787
G01 X3.9447 Y-1.2331 Z0.0787
G01 X3.9191 Y-1.1984 Z0.0787
G01 X3.8935 Y-1.1609 Z0.0787
G01 X3.8691 Y-1.1222 Z0.0787
G01 X3.8472 Y-1.0845 Z0.0787
G01 X3.8256 Y-1.0442 Z0.0787
G01 X3.8033 Y-0.9989 Z0.0787
G01 X3.7831 Y-0.9539 Z0.0787
G01 X3.7643 Y-0.9082 Z0.0787
G01 X3.7454 Y-0.8575 Z0.0787
G01 X3.7274 Y-0.8037 Z0.0787
G01 X3.7109 Y-0.7488 Z0.0787
G01 X3.6955 Y-0.6915 Z0.0787
G01 X3.6807 Y-0.6288 Z0.0787
G01 X3.6678 Y-0.5660 Z0.0787
G01 X3.6562 Y-0.4994 Z0.0787
G01 X3.6464 Y-0.4325 Z0.0787
G01 X3.6375 Y-0.3572 Z0.0787
G01 X3.6310 Y-0.2847 Z0.0787
G01 X3.6261 Y-0.2083 Z0.0787
G01 X3.6232 Y-0.1315 Z0.0787
G01 X3.6219 Y-0.0272 Z0.0787
G01 X2.8739 Y-0.0333 Z0.0787 F20
G01 X2.8739 Y-0.0333 Z0.0787 F50
G01 X2.8739 Y0.0333 Z0.0787
G01 X2.8753 Y0.1488 Z0.0787
G01 X2.8790 Y0.2461 Z0.0787
G01 X2.8852 Y0.3434 Z0.0787
G01 X2.8935 Y0.4344 Z0.0787
G01 X2.9046 Y0.5290 Z0.0787
G01 X2.9176 Y0.6185 Z0.0787
G01 X2.9327 Y0.7048 Z0.0787
G01 X2.9505 Y0.7917 Z0.0787
G01 X2.9695 Y0.8721 Z0.0787
G01 X2.9917 Y0.9551 Z0.0787
G01 X3.0146 Y1.0311 Z0.0787
G01 X3.0394 Y1.1050 Z0.0787
G01 X3.0675 Y1.1805 Z0.0787
G01 X3.0959 Y1.2496 Z0.0787
G01 X3.1263 Y1.3172 Z0.0787
G01 X3.1598 Y1.3852 Z0.0787
G01 X3.1938 Y1.4489 Z0.0787
G01 X3.2298 Y1.5107 Z0.0787
G01 X3.2676 Y1.5707 Z0.0787
G01 X3.3084 Y1.6305 Z0.0787
G01 X3.3507 Y1.6879 Z0.0787
G01 X3.3954 Y1.7441 Z0.0787
G01 X3.4435 Y1.8001 Z0.0787
G01 X3.4938 Y1.8546 Z0.0787
G01 X3.5488 Y1.9098 Z0.0787
G01 X3.6059 Y1.9629 Z0.0787
G01 X3.6675 Y2.0162 Z0.0787
G01 X3.7335 Y2.0691 Z0.0787
G01 X3.8057 Y2.1227 Z0.0787
G01 X3.8803 Y2.1740 Z0.0787
G01 X3.9640 Y2.2272 Z0.0787
G01 X4.0518 Y2.2787 Z0.0787
G01 X4.1472 Y2.3302 Z0.0787
G01 X4.2486 Y2.3806 Z0.0787
G01 X4.3588 Y2.4307 Z0.0787
G01 X4.4753 Y2.4790 Z0.0787
G01 X4.6018 Y2.5268 Z0.0787
G01 X4.7350 Y2.5724 Z0.0787
G01 X4.8778 Y2.6163 Z0.0787
G01 X5.0292 Y2.6579 Z0.0787
G01 X5.1903 Y2.6971 Z0.0787
G01 X5.3608 Y2.7335 Z0.0787
G01 X5.5420 Y2.7669 Z0.0787
G01 X5.7314 Y2.7966 Z0.0787
G01 X5.9322 Y2.8228 Z0.0787
G01 X6.1410 Y2.8446 Z0.0787
G01 X6.3386 Y2.8604 Z0.0787
G01 X6.3620 Y2.8623 Z0.0787
G01 X6.5927 Y2.8752 Z0.0788
G01 X6.6566 Y2.8773 Z0.0789
G01 X6.8377 Y2.8833 Z0.0794
G01 X6.9687 Y2.8848 Z0.0797
G01 X7.0114 Y2.8852 Z0.0799
G01 X7.2749 Y2.8687 Z0.0811
G01 X7.4411 Y2.8582 Z0.0821
G01 X7.4448 Y2.8580 Z0.0821
G01 X7.5756 Y2.8500 Z0.0829
G01 X7.8712 Y2.8317 Z0.0852
G01 X7.9792 Y2.8251 Z0.0862
G01 X7.9829 Y2.8250 Z0.0862
G01 X8.1620 Y2.8141 Z0.0879
G01 X8.4483 Y2.7968 Z0.0910
G01 X8.5177 Y2.7926 Z0.0919
G01 X8.5216 Y2.7924 Z0.0920
G01 X8.7304 Y2.7800 Z0.0946
G01 X9.0087 Y2.7636 Z0.0985
G01 X9.0562 Y2.7608 Z0.0992
G01 X9.0598 Y2.7606 Z0.0993
G01 X9.2835 Y2.7477 Z0.1028
G01 X9.5550 Y2.7320 Z0.1075
G01 X9.5945 Y2.7297 Z0.1082
G01 X9.5982 Y2.7295 Z0.1083
G01 X9.8236 Y2.7167 Z0.1124
G01 X10.0896 Y2.7016 Z0.1176
G01 X10.1330 Y2.6992 Z0.1185
G01 X10.1367 Y2.6990 Z0.1186
G01 X10.3535 Y2.6870 Z0.1231
G01 X10.6153 Y2.6724 Z0.1288
G01 X10.6714 Y2.6694 Z0.1301
G01 X10.6753 Y2.6692 Z0.1302
G01 X10.8756 Y2.6583 Z0.1348
G01 X11.1346 Y2.6443 Z0.1410
G01 X11.2102 Y2.6403 Z0.1428
G01 X11.2139 Y2.6401 Z0.1429
G01 X11.3926 Y2.6306 Z0.1473
G01 X11.6500 Y2.6170 Z0.1538
G01 X11.7488 Y2.6118 Z0.1563
G01 X11.7523 Y2.6116 Z0.1564
G01 X11.9071 Y2.6036 Z0.1604
G01 X12.1641 Y2.5903 Z0.1672
G01 X12.2872 Y2.5840 Z0.1704
G01 X12.2910 Y2.5838 Z0.1705
G01 X12.4215 Y2.5772 Z0.1740
G01 X12.6795 Y2.5642 Z0.1809
G01 X12.8259 Y2.5568 Z0.1848
G01 X12.8296 Y2.5566 Z0.1849
G01 X12.9385 Y2.5512 Z0.1879
G01 X13.1988 Y2.5385 Z0.1948
G01 X13.3644 Y2.5303 Z0.1992
G01 X13.3683 Y2.5302 Z0.1993
G01 X13.4607 Y2.5257 Z0.2018
G01 X13.7245 Y2.5131 Z0.2087
G01 X13.9034 Y2.5046 Z0.2133
G01 X13.9071 Y2.5044 Z0.2135
G01 X13.9905 Y2.5005 Z0.2156
G01 X14.2592 Y2.4879 Z0.2224
G01 X14.4422 Y2.4794 Z0.2270
G01 X14.4459 Y2.4792 Z0.2271
G01 X14.5307 Y2.4754 Z0.2292
G01 X14.8054 Y2.4629 Z0.2358
G01 X14.9810 Y2.4550 Z0.2399
G01 X14.9845 Y2.4548 Z0.2400
G01 X15.0837 Y2.4504 Z0.2423
G01 X15.3658 Y2.4379 Z0.2487
G01 X15.5196 Y2.4311 Z0.2520
G01 X15.5233 Y2.4310 Z0.2520
G01 X15.6521 Y2.4254 Z0.2548
G01 X15.9429 Y2.4129 Z0.2607
G01 X16.0585 Y2.4080 Z0.2630
G01 X16.0622 Y2.4078 Z0.2631
G01 X16.2385 Y2.4005 Z0.2665
G01 X16.5392 Y2.3879 Z0.2720
G01 X16.5972 Y2.3855 Z0.2730
G01 X16.6010 Y2.3854 Z0.2730
G01 X16.8455 Y2.3755 Z0.2772
G01 X17.1364 Y2.3637 Z0.2818
G01 X17.1398 Y2.3636 Z0.2818
G01 X17.1575 Y2.3629 Z0.2821
G01 X17.4756 Y2.3504 Z0.2868
G01 X17.6751 Y2.3426 Z0.2894
G01 X17.6790 Y2.3424 Z0.2895
G01 X17.8001 Y2.3378 Z0.2911
G01 X18.1314 Y2.3252 Z0.2950
G01 X18.2143 Y2.3221 Z0.2959
G01 X18.2178 Y2.3220 Z0.2959
G01 X18.4697 Y2.3127 Z0.2985
G01 X18.7531 Y2.3023 Z0.3011
G01 X18.7568 Y2.3022 Z0.3012
G01 X18.8154 Y2.3001 Z0.3017
G01 X19.1689 Y2.2875 Z0.3044
G01 X19.2921 Y2.2831 Z0.3052
G01 X19.2958 Y2.2830 Z0.3052
G01 X19.5303 Y2.2750 Z0.3067
G01 X19.8311 Y2.2647 Z0.3082
G01 X19.8349 Y2.2645 Z0.3082
G01 X19.9001 Y2.2624 Z0.3085
G01 X20.2787 Y2.2498 Z0.3098
G01 X20.3702 Y2.2468 Z0.3100
G01 X20.3737 Y2.2468 Z0.3101
G01 X20.6662 Y2.2374 Z0.3107
G01 X20.9088 Y2.2297 Z0.3109
G01 X20.9129 Y2.2296 Z0.3109
G01 X21.0630 Y2.2250 Z0.3110
G01 X21.4485 Y2.2133 Z0.3110
G01 X21.4519 Y2.2132 Z0.3110
G01 X21.9874 Y2.1975 Z0.3110
G01 X21.9911 Y2.1974 Z0.3110
G01 X22.5265 Y2.1823 Z0.3110
G01 X22.5302 Y2.1822 Z0.3110
G01 X23.0657 Y2.1678 Z0.3110
G01 X23.0694 Y2.1677 Z0.3110
G01 X23.6049 Y2.1540 Z0.3110
G01 X23.6084 Y2.1540 Z0.3110
G01 X24.1438 Y2.1409 Z0.3110
G01 X24.1478 Y2.1408 Z0.3110
G01 X24.6833 Y2.1284 Z0.3110
G01 X24.6868 Y2.1283 Z0.3110
G01 X25.2223 Y2.1166 Z0.3110
G01 X25.2261 Y2.1165 Z0.3110
G01 X25.7616 Y2.1055 Z0.3110
G01 X25.7653 Y2.1054 Z0.3110
G01 X26.3007 Y2.0950 Z0.3110
G01 X26.3056 Y2.0950 Z0.3110
G01 X26.8399 Y2.0852 Z0.3110
G01 X26.8438 Y2.0851 Z0.3110
G01 X27.3794 Y2.0761 Z0.3110
G01 X27.3829 Y2.0760 Z0.3110
G01 X27.9185 Y2.0676 Z0.3110
G01 X27.9222 Y2.0675 Z0.3110
G01 X28.4578 Y2.0598 Z0.3110
G01 X28.4617 Y2.0598 Z0.3110
G01 X28.9973 Y2.0527 Z0.3110
G01 X29.0006 Y2.0527 Z0.3110
G01 X29.5362 Y2.0462 Z0.3110
G01 X29.5402 Y2.0461 Z0.3110
G01 X30.0758 Y2.0404 Z0.3110
G01 X30.0795 Y2.0403 Z0.3110
G01 X30.6151 Y2.0353 Z0.3110
G01 X30.6187 Y2.0353 Z0.3110
G01 X31.1543 Y2.0308 Z0.3110
G01 X31.1580 Y2.0308 Z0.3110
G01 X31.6936 Y2.0270 Z0.3110
G01 X31.6974 Y2.0270 Z0.3110
G01 X32.2330 Y2.0238 Z0.3110
G01 X32.2367 Y2.0238 Z0.3110
G01 X32.7724 Y2.0214 Z0.3110
G01 X32.7761 Y2.0214 Z0.3110
G01 X33.3117 Y2.0196 Z0.3110
G01 X33.3155 Y2.0196 Z0.3110
G01 X33.8511 Y2.0185 Z0.3110
G01 X33.8546 Y2.0185 Z0.3110
G01 X34.3902 Y2.0180 Z0.3110
G01 X34.3939 Y2.0180 Z0.3110
G01 X34.9294 Y2.0182 Z0.3110
G01 X34.9332 Y2.0182 Z0.3110
G01 X35.4688 Y2.0191 Z0.3110
G01 X35.4725 Y2.0191 Z0.3110
G01 X36.0082 Y2.0206 Z0.3110
G01 X36.0119 Y2.0207 Z0.3110
G01 X36.5475 Y2.0229 Z0.3110
G01 X36.5513 Y2.0229 Z0.3110
G01 X37.0869 Y2.0257 Z0.3110
G01 X37.0904 Y2.0258 Z0.3110
G01 X37.6261 Y2.0293 Z0.3110
G01 X37.6298 Y2.0293 Z0.3110
G01 X38.1654 Y2.0335 Z0.3110
G01 X38.1691 Y2.0335 Z0.3110
G01 X38.7047 Y2.0383 Z0.3110
G01 X38.7085 Y2.0384 Z0.3110
G01 X39.2440 Y2.0439 Z0.3110
G01 X39.2478 Y2.0439 Z0.3110
G01 X39.7834 Y2.0501 Z0.3110
G01 X39.7872 Y2.0501 Z0.3110
G01 X40.3227 Y2.0570 Z0.3110
G01 X40.3262 Y2.0570 Z0.3110
G01 X40.8618 Y2.0645 Z0.3110
G01 X40.8655 Y2.0646 Z0.3110
G01 X41.4011 Y2.0727 Z0.3110
G01 X41.4049 Y2.0728 Z0.3110
G01 X41.9404 Y2.0816 Z0.3110
G01 X41.9442 Y2.0817 Z0.3110
G01 X42.4798 Y2.0912 Z0.3110
G01 X42.4836 Y2.0912 Z0.3110
G01 X43.0190 Y2.1014 Z0.3110
G01 X43.0227 Y2.1014 Z0.3110
G01 X43.5583 Y2.1123 Z0.3110
G01 X43.5618 Y2.1123 Z0.3110
G01 X44.0973 Y2.1238 Z0.3110
G01 X44.1010 Y2.1238 Z0.3110
G01 X44.6365 Y2.1360 Z0.3110
G01 X44.6404 Y2.1361 Z0.3110
G01 X45.1759 Y2.1489 Z0.3110
G01 X45.1794 Y2.1490 Z0.3110
G01 X45.7149 Y2.1625 Z0.3110
G01 X45.7184 Y2.1625 Z0.3110
G01 X46.2538 Y2.1766 Z0.3110
G01 X46.2578 Y2.1768 Z0.3110
G01 X46.7933 Y2.1916 Z0.3110
G01 X46.7968 Y2.1917 Z0.3110
G01 X47.3322 Y2.2071 Z0.3110
G01 X47.3361 Y2.2072 Z0.3110
G01 X47.8715 Y2.2234 Z0.3110
G01 X47.8750 Y2.2235 Z0.3110
G01 X48.2598 Y2.2355 Z0.3110
G01 X48.4105 Y2.2402 Z0.3108
G01 X48.4143 Y2.2403 Z0.3108
G01 X48.5328 Y2.2442 Z0.3107
G01 X48.8059 Y2.2531 Z0.3098
G01 X48.9495 Y2.2577 Z0.3092
G01 X48.9530 Y2.2579 Z0.3091
G01 X49.0788 Y2.2621 Z0.3085
G01 X49.3518 Y2.2713 Z0.3067
G01 X49.4883 Y2.2759 Z0.3055
G01 X49.4923 Y2.2761 Z0.3055
G01 X49.6246 Y2.2807 Z0.3044
G01 X49.8972 Y2.2903 Z0.3017
G01 X50.0276 Y2.2949 Z0.3002
G01 X50.0311 Y2.2950 Z0.3001
G01 X50.1698 Y2.3000 Z0.2985
G01 X50.4421 Y2.3099 Z0.2950
G01 X50.5664 Y2.3144 Z0.2932
G01 X50.5701 Y2.3145 Z0.2931
G01 X50.7142 Y2.3199 Z0.2911
G01 X50.9862 Y2.3301 Z0.2868
G01 X51.1054 Y2.3346 Z0.2848
G01 X51.1093 Y2.3348 Z0.2847
G01 X51.2578 Y2.3405 Z0.2821
G01 X51.5292 Y2.3511 Z0.2772
G01 X51.6446 Y2.3555 Z0.2750
G01 X51.6479 Y2.3557 Z0.2749
G01 X51.8002 Y2.3618 Z0.2720
G01 X52.0710 Y2.3726 Z0.2665
G01 X52.1832 Y2.3771 Z0.2641
G01 X52.1872 Y2.3772 Z0.2640
G01 X52.3413 Y2.3835 Z0.2607
G01 X52.6113 Y2.3947 Z0.2548
G01 X52.7222 Y2.3993 Z0.2523
G01 X52.7260 Y2.3994 Z0.2522
G01 X52.8809 Y2.4060 Z0.2487
G01 X53.1500 Y2.4174 Z0.2423
G01 X53.2611 Y2.4222 Z0.2396
G01 X53.2646 Y2.4223 Z0.2395
G01 X53.4187 Y2.4290 Z0.2358
G01 X53.6869 Y2.4407 Z0.2292
G01 X53.7997 Y2.4457 Z0.2263
G01 X53.8035 Y2.4459 Z0.2262
G01 X53.9546 Y2.4527 Z0.2224
G01 X54.2217 Y2.4647 Z0.2156
G01 X54.3386 Y2.4700 Z0.2126
G01 X54.3423 Y2.4701 Z0.2125
G01 X54.4883 Y2.4768 Z0.2087
G01 X54.7542 Y2.4891 Z0.2017
G01 X54.8774 Y2.4948 Z0.1985
G01 X54.8811 Y2.4950 Z0.1984
G01 X55.0196 Y2.5015 Z0.1948
G01 X55.2843 Y2.5141 Z0.1878
G01 X55.4162 Y2.5204 Z0.1844
G01 X55.4198 Y2.5205 Z0.1843
G01 X55.5483 Y2.5268 Z0.1809
G01 X55.8117 Y2.5396 Z0.1740
G01 X55.9546 Y2.5466 Z0.1703
G01 X55.9586 Y2.5468 Z0.1702
G01 X56.0743 Y2.5525 Z0.1672
G01 X56.3362 Y2.5656 Z0.1604
G01 X56.4936 Y2.5735 Z0.1564
G01 X56.4971 Y2.5737 Z0.1563
G01 X56.5973 Y2.5788 Z0.1538
G01 X56.8576 Y2.5921 Z0.1473
G01 X57.0320 Y2.6010 Z0.1430
G01 X57.0357 Y2.6012 Z0.1429
G01 X57.1172 Y2.6055 Z0.1410
G01 X57.3758 Y2.6190 Z0.1348
G01 X57.5706 Y2.6292 Z0.1303
G01 X57.5743 Y2.6294 Z0.1302
G01 X57.6336 Y2.6326 Z0.1288
G01 X57.8904 Y2.6464 Z0.1231
G01 X58.1093 Y2.6581 Z0.1184
G01 X58.1131 Y2.6583 Z0.1183
G01 X58.1464 Y2.6601 Z0.1176
G01 X58.4014 Y2.6741 Z0.1124
G01 X58.6478 Y2.6877 Z0.1076
G01 X58.6513 Y2.6879 Z0.1075
G01 X58.6554 Y2.6881 Z0.1074
G01 X58.9084 Y2.7022 Z0.1028
G01 X59.1604 Y2.7164 Z0.0985
G01 X59.1861 Y2.7179 Z0.0981
G01 X59.1898 Y2.7181 Z0.0981
G01 X59.4114 Y2.7308 Z0.0946
G01 X59.6612 Y2.7451 Z0.0910
G01 X59.7246 Y2.7488 Z0.0902
G01 X59.7285 Y2.7490 Z0.0902
G01 X59.9100 Y2.7596 Z0.0879
G01 X60.1576 Y2.7742 Z0.0851
G01 X60.2633 Y2.7804 Z0.0842
G01 X60.2667 Y2.7806 Z0.0842
G01 X60.4040 Y2.7888 Z0.0829
G01 X60.6494 Y2.8035 Z0.0811
G01 X60.6956 Y2.8062 Z0.0808
G01 X60.7936 Y2.8049 Z0.0803
G01 X60.8934 Y2.8007 Z0.0798
G01 X60.9513 Y2.7983 Z0.0795
G01 X61.0981 Y2.7879 Z0.0790
G01 X61.1362 Y2.7840 Z0.0789
G01 X61.2357 Y2.7739 Z0.0788
G01 X61.3662 Y2.7566 Z0.0787
G01 X61.3779 Y2.7547 Z0.0787
G01 X61.4859 Y2.7368 Z0.0787
G01 X61.6007 Y2.7140 Z0.0787
G01 X61.7053 Y2.6895 Z0.0787
G01 X61.8027 Y2.6632 Z0.0787
G01 X61.8932 Y2.6352 Z0.0787
G01 X61.9774 Y2.6059 Z0.0787
G01 X62.0556 Y2.5754 Z0.0787
G01 X62.1263 Y2.5448 Z0.0787
G01 X62.1941 Y2.5123 Z0.0787
G01 X62.2549 Y2.4802 Z0.0787
G01 X62.3135 Y2.4464 Z0.0787
G01 X62.3659 Y2.4135 Z0.0787
G01 X62.4172 Y2.3783 Z0.0787
G01 X62.4648 Y2.3429 Z0.0787
G01 X62.5087 Y2.3075 Z0.0787
G01 X62.5530 Y2.2690 Z0.0787
G01 X62.5925 Y2.2317 Z0.0787
G01 X62.6331 Y2.1905 Z0.0787
G01 X62.6716 Y2.1483 Z0.0787
G01 X62.7087 Y2.1046 Z0.0787
G01 X62.7448 Y2.0585 Z0.0787
G01 X62.7807 Y2.0094 Z0.0787
G01 X62.8161 Y1.9570 Z0.0787
G01 X62.8500 Y1.9029 Z0.0787
G01 X62.8836 Y1.8452 Z0.0787
G01 X62.9160 Y1.7850 Z0.0787
G01 X62.9484 Y1.7199 Z0.0787
G01 X62.9790 Y1.6529 Z0.0787
G01 X63.0093 Y1.5814 Z0.0787
G01 X63.0379 Y1.5074 Z0.0787
G01 X63.0651 Y1.4310 Z0.0787
G01 X63.0912 Y1.3503 Z0.0787
G01 X63.1167 Y1.2634 Z0.0787
G01 X63.1394 Y1.1776 Z0.0787
G01 X63.1605 Y1.0892 Z0.0787
G01 X63.1805 Y0.9944 Z0.0787
G01 X63.1987 Y0.8963 Z0.0787
G01 X63.2144 Y0.7993 Z0.0787
G01 X63.2284 Y0.6975 Z0.0787
G01 X63.2401 Y0.5952 Z0.0787
G01 X63.2500 Y0.4894 Z0.0787
G01 X63.2577 Y0.3801 Z0.0787
G01 X63.2632 Y0.2718 Z0.0787
G01 X63.2664 Y0.1618 Z0.0787
G01 X63.2677 Y0.0368 Z0.0787
G01 X63.2677 Y-0.0368 Z0.0787
G01 X63.2664 Y-0.1618 Z0.0787
G01 X63.2632 Y-0.2718 Z0.0787
G01 X63.2577 Y-0.3813 Z0.0787
G01 X63.2500 Y-0.4896 Z0.0787
G01 X63.2401 Y-0.5952 Z0.0787
G01 X63.2284 Y-0.6975 Z0.0787
G01 X63.2142 Y-0.8004 Z0.0787
G01 X63.1987 Y-0.8963 Z0.0787
G01 X63.1805 Y-0.9944 Z0.0787
G01 X63.1603 Y-1.0898 Z0.0787
G01 X63.1394 Y-1.1776 Z0.0787
G01 X63.1167 Y-1.2634 Z0.0787
G01 X63.0912 Y-1.3503 Z0.0787
G01 X63.0651 Y-1.4310 Z0.0787
G01 X63.0379 Y-1.5075 Z0.0787
G01 X63.0093 Y-1.5814 Z0.0787
G01 X62.9790 Y-1.6529 Z0.0787
G01 X62.9484 Y-1.7199 Z0.0787
G01 X62.9155 Y-1.7858 Z0.0787
G01 X62.8836 Y-1.8452 Z0.0787
G01 X62.8500 Y-1.9029 Z0.0787
G01 X62.8161 Y-1.9570 Z0.0787
G01 X62.7807 Y-2.0094 Z0.0787
G01 X62.7448 Y-2.0585 Z0.0787
G01 X62.7087 Y-2.1046 Z0.0787
G01 X62.6716 Y-2.1483 Z0.0787
G01 X62.6331 Y-2.1905 Z0.0787
G01 X62.5925 Y-2.2317 Z0.0787
G01 X62.5530 Y-2.2690 Z0.0787
G01 X62.5087 Y-2.3075 Z0.0787
G01 X62.4648 Y-2.3429 Z0.0787
G01 X62.4171 Y-2.3784 Z0.0787
G01 X62.3659 Y-2.4135 Z0.0787
G01 X62.3135 Y-2.4464 Z0.0787
G01 X62.2549 Y-2.4802 Z0.0787
G01 X62.1941 Y-2.5123 Z0.0787
G01 X62.1263 Y-2.5448 Z0.0787
G01 X62.0554 Y-2.5755 Z0.0787
G01 X61.9774 Y-2.6059 Z0.0787
G01 X61.8932 Y-2.6352 Z0.0787
G01 X61.8027 Y-2.6632 Z0.0787
G01 X61.7053 Y-2.6895 Z0.0787
G01 X61.6007 Y-2.7140 Z0.0787
G01 X61.4859 Y-2.7368 Z0.0787
G01 X61.3779 Y-2.7547 Z0.0787
G01 X61.3662 Y-2.7566 Z0.0787
G01 X61.2357 Y-2.7739 Z0.0788
G01 X61.1362 Y-2.7840 Z0.0789
G01 X61.0981 Y-2.7879 Z0.0790
G01 X60.9513 Y-2.7983 Z0.0795
G01 X60.8934 Y-2.8007 Z0.0798
G01 X60.7936 Y-2.8049 Z0.0803
G01 X60.6956 Y-2.8062 Z0.0808
G01 X60.6494 Y-2.8035 Z0.0811
G01 X60.4040 Y-2.7888 Z0.0829
G01 X60.2667 Y-2.7806 Z0.0842
G01 X60.2633 Y-2.7804 Z0.0842
G01 X60.1576 Y-2.7742 Z0.0851
G01 X59.9100 Y-2.7596 Z0.0879
G01 X59.7285 Y-2.7490 Z0.0902
G01 X59.7246 Y-2.7488 Z0.0902
G01 X59.6612 Y-2.7451 Z0.0910
G01 X59.4114 Y-2.7308 Z0.0946
G01 X59.1898 Y-2.7181 Z0.0981
G01 X59.1861 Y-2.7179 Z0.0981
G01 X59.1604 Y-2.7164 Z0.0985
G01 X58.9084 Y-2.7023 Z0.1028
G01 X58.6554 Y-2.6881 Z0.1074
G01 X58.6513 Y-2.6879 Z0.1075
G01 X58.6478 Y-2.6877 Z0.1076
G01 X58.4014 Y-2.6741 Z0.1124
G01 X58.1464 Y-2.6601 Z0.1176
G01 X58.1131 Y-2.6583 Z0.1183
G01 X58.1093 Y-2.6581 Z0.1184
G01 X57.8904 Y-2.6464 Z0.1231
G01 X57.6336 Y-2.6326 Z0.1288
G01 X57.5743 Y-2.6294 Z0.1302
G01 X57.5706 Y-2.6292 Z0.1303
G01 X57.3758 Y-2.6190 Z0.1348
G01 X57.1172 Y-2.6055 Z0.1410
G01 X57.0357 Y-2.6012 Z0.1429
G01 X57.0320 Y-2.6010 Z0.1430
G01 X56.8576 Y-2.5921 Z0.1473
G01 X56.5973 Y-2.5788 Z0.1538
G01 X56.4971 Y-2.5737 Z0.1563
G01 X56.4936 Y-2.5735 Z0.1564
G01 X56.3362 Y-2.5656 Z0.1604
G01 X56.0743 Y-2.5525 Z0.1672
G01 X55.9586 Y-2.5468 Z0.1702
G01 X55.9546 Y-2.5466 Z0.1703
G01 X55.8117 Y-2.5396 Z0.1740
G01 X55.5483 Y-2.5268 Z0.1809
G01 X55.4198 Y-2.5205 Z0.1843
G01 X55.4162 Y-2.5204 Z0.1844
G01 X55.2843 Y-2.5141 Z0.1878
G01 X55.0196 Y-2.5015 Z0.1948
G01 X54.8811 Y-2.4950 Z0.1984
G01 X54.8774 Y-2.4948 Z0.1985
G01 X54.7542 Y-2.4891 Z0.2017
G01 X54.4883 Y-2.4768 Z0.2087
G01 X54.3423 Y-2.4701 Z0.2125
G01 X54.3386 Y-2.4700 Z0.2126
G01 X54.2217 Y-2.4647 Z0.2156
G01 X53.9546 Y-2.4527 Z0.2224
G01 X53.8035 Y-2.4459 Z0.2262
G01 X53.7997 Y-2.4457 Z0.2263
G01 X53.6869 Y-2.4407 Z0.2292
G01 X53.4187 Y-2.4290 Z0.2358
G01 X53.2646 Y-2.4223 Z0.2395
G01 X53.2611 Y-2.4222 Z0.2396
G01 X53.1500 Y-2.4175 Z0.2423
G01 X52.8809 Y-2.4060 Z0.2487
G01 X52.7260 Y-2.3994 Z0.2522
G01 X52.7222 Y-2.3993 Z0.2523
G01 X52.6113 Y-2.3947 Z0.2548
G01 X52.3413 Y-2.3835 Z0.2607
G01 X52.1872 Y-2.3772 Z0.2640
G01 X52.1832 Y-2.3771 Z0.2641
G01 X52.0710 Y-2.3726 Z0.2665
G01 X51.8002 Y-2.3618 Z0.2720
G01 X51.6479 Y-2.3557 Z0.2749
G01 X51.6446 Y-2.3555 Z0.2750
G01 X51.5292 Y-2.3511 Z0.2772
G01 X51.2578 Y-2.3405 Z0.2821
G01 X51.1093 Y-2.3348 Z0.2847
G01 X51.1054 Y-2.3346 Z0.2848
G01 X50.9862 Y-2.3301 Z0.2868
G01 X50.7142 Y-2.3199 Z0.2911
G01 X50.5701 Y-2.3145 Z0.2931
G01 X50.5664 Y-2.3144 Z0.2932
G01 X50.4421 Y-2.3099 Z0.2950
G01 X50.1698 Y-2.3000 Z0.2985
G01 X50.0311 Y-2.2950 Z0.3001
G01 X50.0276 Y-2.2949 Z0.3002
G01 X49.8972 Y-2.2903 Z0.3017
G01 X49.6246 Y-2.2807 Z0.3044
G01 X49.4923 Y-2.2761 Z0.3055
G01 X49.4883 Y-2.2759 Z0.3055
G01 X49.3518 Y-2.2713 Z0.3067
G01 X49.0788 Y-2.2621 Z0.3085
G01 X48.9530 Y-2.2579 Z0.3091
G01 X48.9495 Y-2.2577 Z0.3092
G01 X48.8059 Y-2.2531 Z0.3098
G01 X48.5328 Y-2.2442 Z0.3107
G01 X48.4143 Y-2.2403 Z0.3108
G01 X48.4105 Y-2.2402 Z0.3108
G01 X48.2598 Y-2.2355 Z0.3110
G01 X47.8750 Y-2.2235 Z0.3110
G01 X47.8715 Y-2.2234 Z0.3110
G01 X47.3361 Y-2.2072 Z0.3110
G01 X47.3322 Y-2.2071 Z0.3110
G01 X46.7968 Y-2.1917 Z0.3110
G01 X46.7933 Y-2.1916 Z0.3110
G01 X46.2578 Y-2.1768 Z0.3110
G01 X46.2538 Y-2.1766 Z0.3110
G01 X45.7184 Y-2.1625 Z0.3110
G01 X45.7149 Y-2.1625 Z0.3110
G01 X45.1794 Y-2.1490 Z0.3110
G01 X45.1759 Y-2.1489 Z0.3110
G01 X44.6404 Y-2.1361 Z0.3110
G01 X44.6365 Y-2.1360 Z0.3110
G01 X44.1010 Y-2.1238 Z0.3110
G01 X44.0973 Y-2.1238 Z0.3110
G01 X43.5618 Y-2.1123 Z0.3110
G01 X43.5583 Y-2.1123 Z0.3110
G01 X43.0227 Y-2.1014 Z0.3110
G01 X43.0190 Y-2.1014 Z0.3110
G01 X42.4836 Y-2.0912 Z0.3110
G01 X42.4798 Y-2.0912 Z0.3110
G01 X41.9442 Y-2.0817 Z0.3110
G01 X41.9404 Y-2.0816 Z0.3110
G01 X41.4049 Y-2.0728 Z0.3110
G01 X41.4011 Y-2.0727 Z0.3110
G01 X40.8655 Y-2.0646 Z0.3110
G01 X40.8618 Y-2.0645 Z0.3110
G01 X40.3262 Y-2.0570 Z0.3110
G01 X40.3227 Y-2.0570 Z0.3110
G01 X39.7872 Y-2.0501 Z0.3110
G01 X39.7834 Y-2.0501 Z0.3110
G01 X39.2478 Y-2.0439 Z0.3110
G01 X39.2440 Y-2.0439 Z0.3110
G01 X38.7085 Y-2.0384 Z0.3110
G01 X38.7047 Y-2.0383 Z0.3110
G01 X38.1691 Y-2.0335 Z0.3110
G01 X38.1654 Y-2.0335 Z0.3110
G01 X37.6298 Y-2.0293 Z0.3110
G01 X37.6261 Y-2.0293 Z0.3110
G01 X37.0904 Y-2.0258 Z0.3110
G01 X37.0869 Y-2.0257 Z0.3110
G01 X36.5513 Y-2.0229 Z0.3110
G01 X36.5475 Y-2.0229 Z0.3110
G01 X36.0119 Y-2.0207 Z0.3110
G01 X36.0082 Y-2.0206 Z0.3110
G01 X35.4725 Y-2.0191 Z0.3110
G01 X35.4688 Y-2.0191 Z0.3110
G01 X34.9332 Y-2.0182 Z0.3110
G01 X34.9294 Y-2.0182 Z0.3110
G01 X34.3939 Y-2.0180 Z0.3110
G01 X34.3902 Y-2.0180 Z0.3110
G01 X33.8546 Y-2.0185 Z0.3110
G01 X33.8511 Y-2.0185 Z0.3110
G01 X33.3155 Y-2.0196 Z0.3110
G01 X33.3117 Y-2.0196 Z0.3110
G01 X32.7761 Y-2.0214 Z0.3110
G01 X32.7724 Y-2.0214 Z0.3110
G01 X32.2367 Y-2.0238 Z0.3110
G01 X32.2330 Y-2.0238 Z0.3110
G01 X31.6974 Y-2.0270 Z0.3110
G01 X31.6936 Y-2.0270 Z0.3110
G01 X31.1580 Y-2.0308 Z0.3110
G01 X31.1543 Y-2.0308 Z0.3110
G01 X30.6187 Y-2.0353 Z0.3110
G01 X30.6151 Y-2.0353 Z0.3110
G01 X30.0795 Y-2.0403 Z0.3110
G01 X30.0758 Y-2.0404 Z0.3110
G01 X29.5402 Y-2.0461 Z0.3110
G01 X29.5362 Y-2.0462 Z0.3110
G01 X29.0006 Y-2.0527 Z0.3110
G01 X28.9973 Y-2.0527 Z0.3110
G01 X28.4617 Y-2.0598 Z0.3110
G01 X28.4578 Y-2.0598 Z0.3110
G01 X27.9222 Y-2.0675 Z0.3110
G01 X27.9185 Y-2.0676 Z0.3110
G01 X27.3829 Y-2.0760 Z0.3110
G01 X27.3794 Y-2.0761 Z0.3110
G01 X26.8438 Y-2.0851 Z0.3110
G01 X26.8399 Y-2.0852 Z0.3110
G01 X26.3056 Y-2.0950 Z0.3110
G01 X26.3007 Y-2.0950 Z0.3110
G01 X25.7653 Y-2.1054 Z0.3110
G01 X25.7616 Y-2.1055 Z0.3110
G01 X25.2261 Y-2.1165 Z0.3110
G01 X25.2223 Y-2.1166 Z0.3110
G01 X24.6868 Y-2.1283 Z0.3110
G01 X24.6833 Y-2.1284 Z0.3110
G01 X24.1478 Y-2.1408 Z0.3110
G01 X24.1438 Y-2.1409 Z0.3110
G01 X23.6084 Y-2.1540 Z0.3110
G01 X23.6049 Y-2.1540 Z0.3110
G01 X23.0694 Y-2.1677 Z0.3110
G01 X23.0657 Y-2.1678 Z0.3110
G01 X22.5302 Y-2.1822 Z0.3110
G01 X22.5265 Y-2.1823 Z0.3110
G01 X21.9911 Y-2.1974 Z0.3110
G01 X21.9874 Y-2.1975 Z0.3110
G01 X21.4519 Y-2.2132 Z0.3110
G01 X21.4485 Y-2.2133 Z0.3110
G01 X21.0630 Y-2.2250 Z0.3110
G01 X20.9129 Y-2.2296 Z0.3109
G01 X20.9088 Y-2.2297 Z0.3109
G01 X20.6662 Y-2.2374 Z0.3107
G01 X20.3737 Y-2.2468 Z0.3101
G01 X20.3702 Y-2.2468 Z0.3100
G01 X20.2787 Y-2.2498 Z0.3098
G01 X19.9001 Y-2.2624 Z0.3085
G01 X19.8349 Y-2.2645 Z0.3082
G01 X19.8311 Y-2.2647 Z0.3082
G01 X19.5303 Y-2.2750 Z0.3067
G01 X19.2958 Y-2.2830 Z0.3052
G01 X19.2921 Y-2.2831 Z0.3052
G01 X19.1689 Y-2.2875 Z0.3044
G01 X18.8154 Y-2.3001 Z0.3017
G01 X18.7568 Y-2.3022 Z0.3012
G01 X18.7531 Y-2.3023 Z0.3011
G01 X18.4697 Y-2.3127 Z0.2985
G01 X18.2178 Y-2.3220 Z0.2959
G01 X18.2143 Y-2.3221 Z0.2959
G01 X18.1314 Y-2.3252 Z0.2950
G01 X17.8001 Y-2.3378 Z0.2911
G01 X17.6790 Y-2.3424 Z0.2895
G01 X17.6751 Y-2.3426 Z0.2894
G01 X17.4756 Y-2.3504 Z0.2868
G01 X17.1575 Y-2.3629 Z0.2821
G01 X17.1398 Y-2.3636 Z0.2818
G01 X17.1364 Y-2.3637 Z0.2818
G01 X16.8455 Y-2.3755 Z0.2772
G01 X16.6010 Y-2.3854 Z0.2730
G01 X16.5972 Y-2.3855 Z0.2730
G01 X16.5392 Y-2.3879 Z0.2720
G01 X16.2385 Y-2.4005 Z0.2665
G01 X16.0622 Y-2.4078 Z0.2631
G01 X16.0585 Y-2.4080 Z0.2630
G01 X15.9429 Y-2.4129 Z0.2607
G01 X15.6521 Y-2.4254 Z0.2548
G01 X15.5233 Y-2.4310 Z0.2520
G01 X15.5196 Y-2.4311 Z0.2520
G01 X15.3658 Y-2.4379 Z0.2487
G01 X15.0837 Y-2.4504 Z0.2423
G01 X14.9845 Y-2.4548 Z0.2400
G01 X14.9810 Y-2.4550 Z0.2399
G01 X14.8054 Y-2.4629 Z0.2358
G01 X14.5307 Y-2.4754 Z0.2292
G01 X14.4459 Y-2.4792 Z0.2271
G01 X14.4422 Y-2.4794 Z0.2270
G01 X14.2592 Y-2.4879 Z0.2224
G01 X13.9905 Y-2.5005 Z0.2156
G01 X13.9071 Y-2.5044 Z0.2135
G01 X13.9034 Y-2.5046 Z0.2133
G01 X13.7245 Y-2.5131 Z0.2087
G01 X13.4607 Y-2.5257 Z0.2018
G01 X13.3683 Y-2.5302 Z0.1993
G01 X13.3644 Y-2.5303 Z0.1992
G01 X13.1988 Y-2.5385 Z0.1948
G01 X12.9385 Y-2.5512 Z0.1879
G01 X12.8296 Y-2.5566 Z0.1849
G01 X12.8259 Y-2.5568 Z0.1848
G01 X12.6795 Y-2.5642 Z0.1809
G01 X12.4215 Y-2.5772 Z0.1740
G01 X12.2910 Y-2.5838 Z0.1705
G01 X12.2872 Y-2.5840 Z0.1704
G01 X12.1641 Y-2.5903 Z0.1672
G01 X11.9071 Y-2.6036 Z0.1604
G01 X11.7523 Y-2.6116 Z0.1564
G01 X11.7488 Y-2.6118 Z0.1563
G01 X11.6500 Y-2.6170 Z0.1538
G01 X11.3926 Y-2.6306 Z0.1473
G01 X11.2139 Y-2.6401 Z0.1429
G01 X11.2102 Y-2.6403 Z0.1428
G01 X11.1346 Y-2.6443 Z0.1410
G01 X10.8756 Y-2.6583 Z0.1348
G01 X10.6753 Y-2.6692 Z0.1302
G01 X10.6714 Y-2.6694 Z0.1301
G01 X10.6153 Y-2.6724 Z0.1288
G01 X10.3535 Y-2.6869 Z0.1231
G01 X10.1367 Y-2.6990 Z0.1186
G01 X10.1330 Y-2.6992 Z0.1185
G01 X10.0896 Y-2.7016 Z0.1176
G01 X9.8236 Y-2.7167 Z0.1124
G01 X9.5982 Y-2.7295 Z0.1083
G01 X9.5945 Y-2.7297 Z0.1082
G01 X9.5550 Y-2.7320 Z0.1075
G01 X9.2835 Y-2.7477 Z0.1028
G01 X9.0598 Y-2.7606 Z0.0993
G01 X9.0562 Y-2.7608 Z0.0992
G01 X9.0087 Y-2.7636 Z0.0985
G01 X8.7304 Y-2.7800 Z0.0946
G01 X8.5216 Y-2.7924 Z0.0920
G01 X8.5177 Y-2.7926 Z0.0919
G01 X8.4483 Y-2.7968 Z0.0910
G01 X8.1620 Y-2.8141 Z0.0879
G01 X7.9829 Y-2.8249 Z0.0862
G01 X7.9792 Y-2.8251 Z0.0862
G01 X7.8712 Y-2.8317 Z0.0852
G01 X7.5756 Y-2.8500 Z0.0829
G01 X7.4448 Y-2.8580 Z0.0821
G01 X7.4411 Y-2.8582 Z0.0821
G01 X7.2749 Y-2.8687 Z0.0811
G01 X7.0114 Y-2.8852 Z0.0799
G01 X6.9687 Y-2.8848 Z0.0797
G01 X6.8377 Y-2.8833 Z0.0794
G01 X6.6566 Y-2.8773 Z0.0789
G01 X6.5927 Y-2.8752 Z0.0788
G01 X6.3620 Y-2.8623 Z0.0787
G01 X6.3386 Y-2.8604 Z0.0787
G01 X6.1410 Y-2.8446 Z0.0787
G01 X5.9322 Y-2.8228 Z0.0787
G01 X5.7314 Y-2.7966 Z0.0787
G01 X5.5420 Y-2.7669 Z0.0787
G01 X5.3608 Y-2.7335 Z0.0787
G01 X5.1903 Y-2.6971 Z0.0787
G01 X5.0292 Y-2.6579 Z0.0787
G01 X4.8778 Y-2.6163 Z0.0787
G01 X4.7350 Y-2.5724 Z0.0787
G01 X4.6018 Y-2.5268 Z0.0787
G01 X4.4753 Y-2.4790 Z0.0787
G01 X4.3588 Y-2.4307 Z0.0787
G01 X4.2486 Y-2.3806 Z0.0787
G01 X4.1472 Y-2.3302 Z0.0787
G01 X4.0518 Y-2.2787 Z0.0787
G01 X3.9640 Y-2.2272 Z0.0787
G01 X3.8803 Y-2.1740 Z0.0787
G01 X3.8057 Y-2.1227 Z0.0787
G01 X3.7335 Y-2.0691 Z0.0787
G01 X3.6675 Y-2.0162 Z0.0787
G01 X3.6059 Y-1.9629 Z0.0787
G01 X3.5488 Y-1.9098 Z0.0787
G01 X3.4938 Y-1.8546 Z0.0787
G01 X3.4435 Y-1.8001 Z0.0787
G01 X3.3956 Y-1.7443 Z0.0787
G01 X3.3507 Y-1.6879 Z0.0787
G01 X3.3084 Y-1.6305 Z0.0787
G01 X3.2678 Y-1.5710 Z0.0787
G01 X3.2298 Y-1.5107 Z0.0787
G01 X3.1938 Y-1.4489 Z0.0787
G01 X3.1598 Y-1.3852 Z0.0787
G01 X3.1263 Y-1.3172 Z0.0787
G01 X3.0961 Y-1.2500 Z0.0787
G01 X3.0675 Y-1.1805 Z0.0787
G01 X3.0398 Y-1.1059 Z0.0787
G01 X3.0146 Y-1.0311 Z0.0787
G01 X2.9917 Y-0.9551 Z0.0787
G01 X2.9696 Y-0.8727 Z0.0787
G01 X2.9505 Y-0.7917 Z0.0787
G01 X2.9327 Y-0.7048 Z0.0787
G01 X2.9176 Y-0.6185 Z0.0787
G01 X2.9046 Y-0.5290 Z0.0787
G01 X2.8935 Y-0.4344 Z0.0787
G01 X2.8853 Y-0.3442 Z0.0787
G01 X2.8790 Y-0.2466 Z0.0787
G01 X2.8753 Y-0.1488 Z0.0787
G01 X2.8739 Y-0.0333 Z0.0787
G01 X2.1259 Y-0.0362 Z0.0787 F20
G01 X2.1259 Y-0.0362 Z0.0787 F50
G01 X2.1259 Y0.0362 Z0.0787
G01 X2.1276 Y0.1691 Z0.0787
G01 X2.1319 Y0.2833 Z0.0787
G01 X2.1392 Y0.3991 Z0.0787
G01 X2.1496 Y0.5131 Z0.0787
G01 X2.1629 Y0.6268 Z0.0787
G01 X2.1787 Y0.7351 Z0.0787
G01 X2.1979 Y0.8449 Z0.0787
G01 X2.2198 Y0.9518 Z0.0787
G01 X2.2443 Y1.0557 Z0.0787
G01 X2.2718 Y1.1585 Z0.0787
G01 X2.3020 Y1.2584 Z0.0787
G01 X2.3346 Y1.3555 Z0.0787
G01 X2.3705 Y1.4521 Z0.0787
G01 X2.4088 Y1.5455 Z0.0787
G01 X2.4496 Y1.6360 Z0.0787
G01 X2.4944 Y1.7272 Z0.0787
G01 X2.5407 Y1.8137 Z0.0787
G01 X2.5898 Y1.8981 Z0.0787
G01 X2.6419 Y1.9807 Z0.0787
G01 X2.6981 Y2.0632 Z0.0787
G01 X2.7567 Y2.1427 Z0.0787
G01 X2.8192 Y2.2212 Z0.0787
G01 X2.8847 Y2.2976 Z0.0787
G01 X2.9543 Y2.3729 Z0.0787
G01 X3.0282 Y2.4470 Z0.0787
G01 X3.1068 Y2.5202 Z0.0787
G01 X3.1894 Y2.5917 Z0.0787
G01 X3.2753 Y2.6605 Z0.0787
G01 X3.3707 Y2.7314 Z0.0787
G01 X3.4678 Y2.7981 Z0.0787
G01 X3.5740 Y2.8656 Z0.0787
G01 X3.6858 Y2.9312 Z0.0787
G01 X3.8020 Y2.9939 Z0.0787
G01 X3.9273 Y3.0561 Z0.0787
G01 X4.0609 Y3.1169 Z0.0787
G01 X4.1992 Y3.1744 Z0.0787
G01 X4.3483 Y3.2307 Z0.0787
G01 X4.5046 Y3.2841 Z0.0787
G01 X4.6676 Y3.3342 Z0.0787
G01 X4.8412 Y3.3819 Z0.0787
G01 X5.0242 Y3.4265 Z0.0787
G01 X5.2147 Y3.4672 Z0.0787
G01 X5.4166 Y3.5044 Z0.0787
G01 X5.6253 Y3.5372 Z0.0787
G01 X5.8438 Y3.5656 Z0.0787
G01 X6.0727 Y3.5895 Z0.0787
G01 X6.3119 Y3.6087 Z0.0787
G01 X6.3386 Y3.6101 Z0.0787
G01 X6.5605 Y3.6226 Z0.0788
G01 X6.6566 Y3.6257 Z0.0789
G01 X6.8190 Y3.6311 Z0.0793
G01 X6.9687 Y3.6327 Z0.0797
G01 X7.0314 Y3.6334 Z0.0800
G01 X7.2749 Y3.6181 Z0.0811
G01 X7.4880 Y3.6048 Z0.0824
G01 X7.4907 Y3.6046 Z0.0824
G01 X7.5756 Y3.5994 Z0.0829
G01 X7.8712 Y3.5811 Z0.0852
G01 X8.0252 Y3.5717 Z0.0866
G01 X8.0287 Y3.5715 Z0.0866
G01 X8.1620 Y3.5635 Z0.0879
G01 X8.4483 Y3.5462 Z0.0910
G01 X8.5627 Y3.5393 Z0.0925
G01 X8.5657 Y3.5391 Z0.0925
G01 X8.7304 Y3.5293 Z0.0946
G01 X9.0087 Y3.5129 Z0.0985
G01 X9.1003 Y3.5075 Z0.1000
G01 X9.1030 Y3.5074 Z0.1000
G01 X9.2835 Y3.4969 Z0.1028
G01 X9.5550 Y3.4812 Z0.1075
G01 X9.6377 Y3.4764 Z0.1090
G01 X9.6405 Y3.4762 Z0.1090
G01 X9.8236 Y3.4659 Z0.1124
G01 X10.0896 Y3.4508 Z0.1176
G01 X10.1753 Y3.4460 Z0.1194
G01 X10.1781 Y3.4458 Z0.1194
G01 X10.3535 Y3.4361 Z0.1231
G01 X10.6153 Y3.4216 Z0.1288
G01 X10.7127 Y3.4162 Z0.1311
G01 X10.7157 Y3.4161 Z0.1311
G01 X10.8756 Y3.4074 Z0.1348
G01 X11.1346 Y3.3934 Z0.1410
G01 X11.2506 Y3.3872 Z0.1438
G01 X11.2534 Y3.3870 Z0.1439
G01 X11.3926 Y3.3796 Z0.1473
G01 X11.6500 Y3.3660 Z0.1538
G01 X11.7883 Y3.3587 Z0.1574
G01 X11.7909 Y3.3586 Z0.1574
G01 X11.9071 Y3.3526 Z0.1604
G01 X12.1641 Y3.3393 Z0.1672
G01 X12.3258 Y3.3310 Z0.1714
G01 X12.3286 Y3.3308 Z0.1715
G01 X12.4215 Y3.3261 Z0.1740
G01 X12.6795 Y3.3131 Z0.1809
G01 X12.8636 Y3.3038 Z0.1858
G01 X12.8664 Y3.3037 Z0.1859
G01 X12.9385 Y3.3001 Z0.1879
G01 X13.1988 Y3.2874 Z0.1948
G01 X13.4012 Y3.2774 Z0.2002
G01 X13.4040 Y3.2773 Z0.2002
G01 X13.4607 Y3.2746 Z0.2018
G01 X13.7245 Y3.2620 Z0.2087
G01 X13.9392 Y3.2517 Z0.2143
G01 X13.9420 Y3.2516 Z0.2144
G01 X13.9905 Y3.2493 Z0.2156
G01 X14.2592 Y3.2367 Z0.2224
G01 X14.4770 Y3.2266 Z0.2279
G01 X14.4798 Y3.2265 Z0.2279
G01 X14.5307 Y3.2242 Z0.2292
G01 X14.8054 Y3.2117 Z0.2358
G01 X15.0149 Y3.2022 Z0.2407
G01 X15.0175 Y3.2021 Z0.2407
G01 X15.0837 Y3.1991 Z0.2423
G01 X15.3658 Y3.1866 Z0.2487
G01 X15.5526 Y3.1784 Z0.2527
G01 X15.5554 Y3.1783 Z0.2527
G01 X15.6521 Y3.1741 Z0.2548
G01 X15.9429 Y3.1616 Z0.2607
G01 X16.0906 Y3.1553 Z0.2636
G01 X16.0934 Y3.1552 Z0.2637
G01 X16.2385 Y3.1491 Z0.2665
G01 X16.5392 Y3.1366 Z0.2720
G01 X16.6284 Y3.1329 Z0.2735
G01 X16.6312 Y3.1328 Z0.2735
G01 X16.8455 Y3.1241 Z0.2772
G01 X17.1575 Y3.1115 Z0.2821
G01 X17.1666 Y3.1111 Z0.2823
G01 X17.1692 Y3.1110 Z0.2823
G01 X17.4756 Y3.0990 Z0.2868
G01 X17.7044 Y3.0900 Z0.2898
G01 X17.7074 Y3.0899 Z0.2898
G01 X17.8001 Y3.0863 Z0.2911
G01 X18.1314 Y3.0738 Z0.2950
G01 X18.2426 Y3.0696 Z0.2962
G01 X18.2453 Y3.0695 Z0.2962
G01 X18.4697 Y3.0612 Z0.2985
G01 X18.7805 Y3.0498 Z0.3014
G01 X18.7833 Y3.0497 Z0.3014
G01 X18.8154 Y3.0485 Z0.3017
G01 X19.1689 Y3.0360 Z0.3044
G01 X19.3186 Y3.0307 Z0.3054
G01 X19.3214 Y3.0305 Z0.3054
G01 X19.5303 Y3.0234 Z0.3067
G01 X19.8568 Y3.0122 Z0.3083
G01 X19.8596 Y3.0121 Z0.3083
G01 X19.9001 Y3.0107 Z0.3085
G01 X20.2787 Y2.9983 Z0.3098
G01 X20.3949 Y2.9944 Z0.3101
G01 X20.3975 Y2.9944 Z0.3101
G01 X20.6662 Y2.9858 Z0.3107
G01 X20.9327 Y2.9773 Z0.3109
G01 X20.9368 Y2.9772 Z0.3109
G01 X21.0630 Y2.9734 Z0.3110
G01 X21.4712 Y2.9609 Z0.3110
G01 X21.4739 Y2.9609 Z0.3110
G01 X22.0093 Y2.9451 Z0.3110
G01 X22.0121 Y2.9450 Z0.3110
G01 X22.5475 Y2.9300 Z0.3110
G01 X22.5503 Y2.9300 Z0.3110
G01 X23.0857 Y2.9156 Z0.3110
G01 X23.0885 Y2.9155 Z0.3110
G01 X23.6240 Y2.9018 Z0.3110
G01 X23.6266 Y2.9017 Z0.3110
G01 X24.1621 Y2.8887 Z0.3110
G01 X24.1651 Y2.8886 Z0.3110
G01 X24.7005 Y2.8762 Z0.3110
G01 X24.7032 Y2.8762 Z0.3110
G01 X25.2387 Y2.8644 Z0.3110
G01 X25.2415 Y2.8644 Z0.3110
G01 X25.7770 Y2.8533 Z0.3110
G01 X25.7798 Y2.8533 Z0.3110
G01 X26.3152 Y2.8429 Z0.3110
G01 X26.3179 Y2.8429 Z0.3110
G01 X26.8535 Y2.8331 Z0.3110
G01 X26.8565 Y2.8330 Z0.3110
G01 X27.3920 Y2.8240 Z0.3110
G01 X27.3947 Y2.8239 Z0.3110
G01 X27.9302 Y2.8155 Z0.3110
G01 X27.9331 Y2.8155 Z0.3110
G01 X28.4686 Y2.8077 Z0.3110
G01 X28.4716 Y2.8077 Z0.3110
G01 X29.0072 Y2.8006 Z0.3110
G01 X29.0096 Y2.8006 Z0.3110
G01 X29.5453 Y2.7941 Z0.3110
G01 X29.5482 Y2.7941 Z0.3110
G01 X30.0838 Y2.7883 Z0.3110
G01 X30.0866 Y2.7883 Z0.3110
G01 X30.6222 Y2.7833 Z0.3110
G01 X30.6249 Y2.7832 Z0.3110
G01 X31.1605 Y2.7788 Z0.3110
G01 X31.1633 Y2.7787 Z0.3110
G01 X31.6989 Y2.7750 Z0.3110
G01 X31.7017 Y2.7750 Z0.3110
G01 X32.2373 Y2.7718 Z0.3110
G01 X32.2401 Y2.7718 Z0.3110
G01 X32.7757 Y2.7694 Z0.3110
G01 X32.7785 Y2.7694 Z0.3110
G01 X33.3142 Y2.7676 Z0.3110
G01 X33.3170 Y2.7676 Z0.3110
G01 X33.8526 Y2.7665 Z0.3110
G01 X33.8553 Y2.7665 Z0.3110
G01 X34.3909 Y2.7660 Z0.3110
G01 X34.3937 Y2.7660 Z0.3110
G01 X34.9292 Y2.7662 Z0.3110
G01 X34.9320 Y2.7662 Z0.3110
G01 X35.4676 Y2.7671 Z0.3110
G01 X35.4704 Y2.7671 Z0.3110
G01 X36.0060 Y2.7686 Z0.3110
G01 X36.0088 Y2.7686 Z0.3110
G01 X36.5445 Y2.7708 Z0.3110
G01 X36.5473 Y2.7709 Z0.3110
G01 X37.0829 Y2.7737 Z0.3110
