( Sample-snowboard-core-insert-holes.nc                                        )
( Generated by MonkeyCAM v4.0 at 2013-09-20 01:23:03                           )
(                                                                              )
( This GCode program is provided on an 'AS IS' BASIS WITHOUT WARRANTIES OR     )
( CONDITIONS OF ANY KIND, either express or implied. You should inspect this   )
( program very carefully to confirm you understand its operation. YOU ARE      )
( RESPONSIBLE FOR ENSURING THIS PROGRAM WILL NOT DAMAGE YOUR MACHINE OR        )
( MATERIALS.                                                                   )
(                                                                              )
( See http://www.github.com/MonkeyCAM for License and documentation.           )
(                                                                              )
( * Rapid height: 0.1000" (0.2540cm)                                           )
( * Tool: T1, Quarter Inch Upcut Spiral, diameter 0.2469" (0.6273cm)           )
( * Height basline (Z=0.0) is the top of the material.                         )
( * XY origin is the left side of the table, Y is center of the part.          )
( * Requires G54 to be the part work coordinate offsets (WCO). (0, 0) is the   )
(   center of the nose, with the board extending to positive X. The cutter may )
(   move to negative values of X.                                              )
( * Requires G55 to be the machine WCO, with Z above the rapid height.         )
( * Units are inches                                                           )
( * Cutter bounding box in G54:                                                )
(     X0.0000 Y-1.0388 Z-0.3750 to X46.7081 Y1.0388 Z0.1000)                   )

G90 G20 G17 G40 G49
G00 G55 X0 Y0 Z0
G43 H1 T1
G00 G54 X0.0000 Y0.0000 Z0.1000

M03
G04 P5
G00 G54 X21.2598 Y-0.7874 Z0.1000
( A single insert                                                              )
(   Outter rim diameter = 0.7500"                                              )
(   Outter rim depth    = -0.0450"                                             )
(   Shaft diameter      = 0.3729"                                              )
(   Shaft depth         = -0.3750"                                             )
G01 G54 X21.2598 Y-0.7874 Z0.0000 F70
G91
G01 G54 X0.0000 Y0.2514 Z-0.0450
G02 G54 X0.2514 Y-0.2514 Z0.0000 R0.2514
G02 G54 X-0.2514 Y-0.2514 Z0.0000 R0.2514
G02 G54 X-0.2514 Y0.2514 Z0.0000 R0.2514
G02 G54 X0.2514 Y0.2514 Z0.0000 R0.2514
G01 G54 X0.0000 Y-0.0285 Z-0.0069
G02 G54 X0.2229 Y-0.2229 Z0.0000 R0.2229
G02 G54 X-0.2229 Y-0.2229 Z0.0000 R0.2229
G02 G54 X-0.2229 Y0.2229 Z0.0000 R0.2229
G02 G54 X0.2229 Y0.2229 Z0.0000 R0.2229
G01 G54 X0.0000 Y-0.0261 Z-0.0064
G02 G54 X0.1966 Y-0.1966 Z0.0000 R0.1966
G02 G54 X-0.1966 Y-0.1966 Z0.0000 R0.1966
G02 G54 X-0.1966 Y0.1966 Z0.0000 R0.1966
G02 G54 X0.1966 Y0.1966 Z0.0000 R0.1966
G01 G54 X0.0000 Y-0.0262 Z-0.0058
G02 G54 X0.1703 Y-0.1703 Z0.0000 R0.1703
G02 G54 X-0.1703 Y-0.1703 Z0.0000 R0.1703
G02 G54 X-0.1703 Y0.1703 Z0.0000 R0.1703
G02 G54 X0.1703 Y0.1703 Z0.0000 R0.1703
G01 G54 X0.0000 Y-0.0264 Z-0.0053
G02 G54 X0.1438 Y-0.1438 Z0.0000 R0.1438
G02 G54 X-0.1438 Y-0.1438 Z0.0000 R0.1438
G02 G54 X-0.1438 Y0.1438 Z0.0000 R0.1438
G02 G54 X0.1438 Y0.1438 Z0.0000 R0.1438
G01 G54 X0.0000 Y-0.0264 Z-0.0048
G02 G54 X0.1174 Y-0.1174 Z0.0000 R0.1174
G02 G54 X-0.1174 Y-0.1174 Z0.0000 R0.1174
G02 G54 X-0.1174 Y0.1174 Z0.0000 R0.1174
G02 G54 X0.1174 Y0.1174 Z0.0000 R0.1174
G01 G54 X0.0000 Y-0.0266 Z-0.0043
G02 G54 X0.0907 Y-0.0907 Z0.0000 R0.0907
G02 G54 X-0.0907 Y-0.0907 Z0.0000 R0.0907
G02 G54 X-0.0907 Y0.0907 Z0.0000 R0.0907
G02 G54 X0.0907 Y0.0907 Z0.0000 R0.0907
G01 G54 X0.0000 Y-0.0266 Z-0.0038
G02 G54 X0.0640 Y-0.0640 Z0.0000 R0.0640
G02 G54 X-0.0640 Y-0.0640 Z0.0000 R0.0640
G02 G54 X-0.0640 Y0.0640 Z0.0000 R0.0640
G02 G54 X0.0640 Y0.0640 Z0.0000 R0.0640
G90
G01 G54 X21.2598 Y-0.7874 Z0.0000
( Incremental hole: depth = -0.3750, diameter = 0.3729                         )
G91
G01 G54 X0.0000 Y0.0629 Z0.0000
G01 G54 X0.0000 Y0.0000 Z-0.1250
G02 G54 X0.0629 Y-0.0629 Z0.0000 R0.0629
G02 G54 X-0.0629 Y-0.0629 Z0.0000 R0.0629
G02 G54 X-0.0629 Y0.0629 Z0.0000 R0.0629
G02 G54 X0.0629 Y0.0629 Z0.0000 R0.0629
G01 G54 X0.0000 Y0.0000 Z-0.1250
G02 G54 X0.0629 Y-0.0629 Z0.0000 R0.0629
G02 G54 X-0.0629 Y-0.0629 Z0.0000 R0.0629
G02 G54 X-0.0629 Y0.0629 Z0.0000 R0.0629
G02 G54 X0.0629 Y0.0629 Z0.0000 R0.0629
G01 G54 X0.0000 Y0.0000 Z-0.1250
G02 G54 X0.0629 Y-0.0629 Z0.0000 R0.0629
G02 G54 X-0.0629 Y-0.0629 Z0.0000 R0.0629
G02 G54 X-0.0629 Y0.0629 Z0.0000 R0.0629
G02 G54 X0.0629 Y0.0629 Z0.0000 R0.0629
G02 G54 X0.0629 Y-0.0629 Z0.0000 R0.0629
G02 G54 X-0.0629 Y-0.0629 Z0.0000 R0.0629
G02 G54 X-0.0629 Y0.0629 Z0.0000 R0.0629
G02 G54 X0.0629 Y0.0629 Z0.0000 R0.0629
G02 G54 X0.0629 Y-0.0629 Z0.0000 R0.0629
G02 G54 X-0.0629 Y-0.0629 Z0.0000 R0.0629
G02 G54 X-0.0629 Y0.0629 Z0.0000 R0.0629
G02 G54 X0.0629 Y0.0629 Z0.0000 R0.0629
G02 G54 X0.0629 Y-0.0629 Z0.0000 R0.0629
G02 G54 X-0.0629 Y-0.0629 Z0.0000 R0.0629
G02 G54 X-0.0629 Y0.0629 Z0.0000 R0.0629
G02 G54 X0.0629 Y0.0629 Z0.0000 R0.0629
G01 G54 X0.0000 Y-0.0629 Z0.0000
G90
G01 G54 X21.2598 Y-0.7874 Z0.0000
G91
G01 G54 X0.0000 Y0.2514 Z-0.0450
G02 G54 X0.2514 Y-0.2514 Z0.0000 R0.2514
G02 G54 X-0.2514 Y-0.2514 Z0.0000 R0.2514
G02 G54 X-0.2514 Y0.2514 Z0.0000 R0.2514
G02 G54 X0.2514 Y0.2514 Z0.0000 R0.2514
G01 G54 X0.0000 Y-0.0285 Z-0.0069
G02 G54 X0.2229 Y-0.2229 Z0.0000 R0.2229
G02 G54 X-0.2229 Y-0.2229 Z0.0000 R0.2229
G02 G54 X-0.2229 Y0.2229 Z0.0000 R0.2229
G02 G54 X0.2229 Y0.2229 Z0.0000 R0.2229
G01 G54 X0.0000 Y-0.0261 Z-0.0064
G02 G54 X0.1966 Y-0.1966 Z0.0000 R0.1966
G02 G54 X-0.1966 Y-0.1966 Z0.0000 R0.1966
G02 G54 X-0.1966 Y0.1966 Z0.0000 R0.1966
G02 G54 X0.1966 Y0.1966 Z0.0000 R0.1966
G01 G54 X0.0000 Y-0.0262 Z-0.0058
G02 G54 X0.1703 Y-0.1703 Z0.0000 R0.1703
G02 G54 X-0.1703 Y-0.1703 Z0.0000 R0.1703
G02 G54 X-0.1703 Y0.1703 Z0.0000 R0.1703
G02 G54 X0.1703 Y0.1703 Z0.0000 R0.1703
G01 G54 X0.0000 Y-0.0264 Z-0.0053
G02 G54 X0.1438 Y-0.1438 Z0.0000 R0.1438
G02 G54 X-0.1438 Y-0.1438 Z0.0000 R0.1438
G02 G54 X-0.1438 Y0.1438 Z0.0000 R0.1438
G02 G54 X0.1438 Y0.1438 Z0.0000 R0.1438
G01 G54 X0.0000 Y-0.0264 Z-0.0048
G02 G54 X0.1174 Y-0.1174 Z0.0000 R0.1174
G02 G54 X-0.1174 Y-0.1174 Z0.0000 R0.1174
G02 G54 X-0.1174 Y0.1174 Z0.0000 R0.1174
G02 G54 X0.1174 Y0.1174 Z0.0000 R0.1174
G01 G54 X0.0000 Y-0.0266 Z-0.0043
G02 G54 X0.0907 Y-0.0907 Z0.0000 R0.0907
G02 G54 X-0.0907 Y-0.0907 Z0.0000 R0.0907
G02 G54 X-0.0907 Y0.0907 Z0.0000 R0.0907
G02 G54 X0.0907 Y0.0907 Z0.0000 R0.0907
G01 G54 X0.0000 Y-0.0266 Z-0.0038
G02 G54 X0.0640 Y-0.0640 Z0.0000 R0.0640
G02 G54 X-0.0640 Y-0.0640 Z0.0000 R0.0640
G02 G54 X-0.0640 Y0.0640 Z0.0000 R0.0640
G02 G54 X0.0640 Y0.0640 Z0.0000 R0.0640
G90
G00 G54 X21.2598 Y-0.7233 Z0.1000
G00 G54 X21.2598 Y-0.7874 Z0.1000
G00 G54 X21.2598 Y0.7874 Z0.1000
( A single insert                                                              )
(   Outter rim diameter = 0.7500"                                              )
(   Outter rim depth    = -0.0450"                                             )
(   Shaft diameter      = 0.3729"                                              )
(   Shaft depth         = -0.3750"                                             )
G01 G54 X21.2598 Y0.7874 Z0.0000
G91
G01 G54 X0.0000 Y0.2514 Z-0.0450
G02 G54 X0.2514 Y-0.2514 Z0.0000 R0.2514
G02 G54 X-0.2514 Y-0.2514 Z0.0000 R0.2514
G02 G54 X-0.2514 Y0.2514 Z0.0000 R0.2514
G02 G54 X0.2514 Y0.2514 Z0.0000 R0.2514
G01 G54 X0.0000 Y-0.0285 Z-0.0069
G02 G54 X0.2229 Y-0.2229 Z0.0000 R0.2229
G02 G54 X-0.2229 Y-0.2229 Z0.0000 R0.2229
G02 G54 X-0.2229 Y0.2229 Z0.0000 R0.2229
G02 G54 X0.2229 Y0.2229 Z0.0000 R0.2229
G01 G54 X0.0000 Y-0.0261 Z-0.0064
G02 G54 X0.1966 Y-0.1966 Z0.0000 R0.1966
G02 G54 X-0.1966 Y-0.1966 Z0.0000 R0.1966
G02 G54 X-0.1966 Y0.1966 Z0.0000 R0.1966
G02 G54 X0.1966 Y0.1966 Z0.0000 R0.1966
G01 G54 X0.0000 Y-0.0262 Z-0.0058
G02 G54 X0.1703 Y-0.1703 Z0.0000 R0.1703
G02 G54 X-0.1703 Y-0.1703 Z0.0000 R0.1703
G02 G54 X-0.1703 Y0.1703 Z0.0000 R0.1703
G02 G54 X0.1703 Y0.1703 Z0.0000 R0.1703
G01 G54 X0.0000 Y-0.0264 Z-0.0053
G02 G54 X0.1438 Y-0.1438 Z0.0000 R0.1438
G02 G54 X-0.1438 Y-0.1438 Z0.0000 R0.1438
G02 G54 X-0.1438 Y0.1438 Z0.0000 R0.1438
G02 G54 X0.1438 Y0.1438 Z0.0000 R0.1438
G01 G54 X0.0000 Y-0.0264 Z-0.0048
G02 G54 X0.1174 Y-0.1174 Z0.0000 R0.1174
G02 G54 X-0.1174 Y-0.1174 Z0.0000 R0.1174
G02 G54 X-0.1174 Y0.1174 Z0.0000 R0.1174
G02 G54 X0.1174 Y0.1174 Z0.0000 R0.1174
G01 G54 X0.0000 Y-0.0266 Z-0.0043
G02 G54 X0.0907 Y-0.0907 Z0.0000 R0.0907
G02 G54 X-0.0907 Y-0.0907 Z0.0000 R0.0907
G02 G54 X-0.0907 Y0.0907 Z0.0000 R0.0907
G02 G54 X0.0907 Y0.0907 Z0.0000 R0.0907
G01 G54 X0.0000 Y-0.0266 Z-0.0038
G02 G54 X0.0640 Y-0.0640 Z0.0000 R0.0640
G02 G54 X-0.0640 Y-0.0640 Z0.0000 R0.0640
G02 G54 X-0.0640 Y0.0640 Z0.0000 R0.0640
G02 G54 X0.0640 Y0.0640 Z0.0000 R0.0640
G90
G01 G54 X21.2598 Y0.7874 Z0.0000
( Incremental hole: depth = -0.3750, diameter = 0.3729                         )
G91
G01 G54 X0.0000 Y0.0629 Z0.0000
G01 G54 X0.0000 Y0.0000 Z-0.1250
G02 G54 X0.0629 Y-0.0629 Z0.0000 R0.0629
G02 G54 X-0.0629 Y-0.0629 Z0.0000 R0.0629
G02 G54 X-0.0629 Y0.0629 Z0.0000 R0.0629
G02 G54 X0.0629 Y0.0629 Z0.0000 R0.0629
G01 G54 X0.0000 Y0.0000 Z-0.1250
G02 G54 X0.0629 Y-0.0629 Z0.0000 R0.0629
G02 G54 X-0.0629 Y-0.0629 Z0.0000 R0.0629
G02 G54 X-0.0629 Y0.0629 Z0.0000 R0.0629
G02 G54 X0.0629 Y0.0629 Z0.0000 R0.0629
G01 G54 X0.0000 Y0.0000 Z-0.1250
G02 G54 X0.0629 Y-0.0629 Z0.0000 R0.0629
G02 G54 X-0.0629 Y-0.0629 Z0.0000 R0.0629
G02 G54 X-0.0629 Y0.0629 Z0.0000 R0.0629
G02 G54 X0.0629 Y0.0629 Z0.0000 R0.0629
G02 G54 X0.0629 Y-0.0629 Z0.0000 R0.0629
G02 G54 X-0.0629 Y-0.0629 Z0.0000 R0.0629
G02 G54 X-0.0629 Y0.0629 Z0.0000 R0.0629
G02 G54 X0.0629 Y0.0629 Z0.0000 R0.0629
G02 G54 X0.0629 Y-0.0629 Z0.0000 R0.0629
G02 G54 X-0.0629 Y-0.0629 Z0.0000 R0.0629
G02 G54 X-0.0629 Y0.0629 Z0.0000 R0.0629
G02 G54 X0.0629 Y0.0629 Z0.0000 R0.0629
G02 G54 X0.0629 Y-0.0629 Z0.0000 R0.0629
G02 G54 X-0.0629 Y-0.0629 Z0.0000 R0.0629
G02 G54 X-0.0629 Y0.0629 Z0.0000 R0.0629
G02 G54 X0.0629 Y0.0629 Z0.0000 R0.0629
G01 G54 X0.0000 Y-0.0629 Z0.0000
G90
G01 G54 X21.2598 Y0.7874 Z0.0000
G91
G01 G54 X0.0000 Y0.2514 Z-0.0450
G02 G54 X0.2514 Y-0.2514 Z0.0000 R0.2514
G02 G54 X-0.2514 Y-0.2514 Z0.0000 R0.2514
G02 G54 X-0.2514 Y0.2514 Z0.0000 R0.2514
G02 G54 X0.2514 Y0.2514 Z0.0000 R0.2514
G01 G54 X0.0000 Y-0.0285 Z-0.0069
G02 G54 X0.2229 Y-0.2229 Z0.0000 R0.2229
G02 G54 X-0.2229 Y-0.2229 Z0.0000 R0.2229
G02 G54 X-0.2229 Y0.2229 Z0.0000 R0.2229
G02 G54 X0.2229 Y0.2229 Z0.0000 R0.2229
G01 G54 X0.0000 Y-0.0261 Z-0.0064
G02 G54 X0.1966 Y-0.1966 Z0.0000 R0.1966
G02 G54 X-0.1966 Y-0.1966 Z0.0000 R0.1966
G02 G54 X-0.1966 Y0.1966 Z0.0000 R0.1966
G02 G54 X0.1966 Y0.1966 Z0.0000 R0.1966
G01 G54 X0.0000 Y-0.0262 Z-0.0058
G02 G54 X0.1703 Y-0.1703 Z0.0000 R0.1703
G02 G54 X-0.1703 Y-0.1703 Z0.0000 R0.1703
G02 G54 X-0.1703 Y0.1703 Z0.0000 R0.1703
G02 G54 X0.1703 Y0.1703 Z0.0000 R0.1703
G01 G54 X0.0000 Y-0.0264 Z-0.0053
G02 G54 X0.1438 Y-0.1438 Z0.0000 R0.1438
G02 G54 X-0.1438 Y-0.1438 Z0.0000 R0.1438
G02 G54 X-0.1438 Y0.1438 Z0.0000 R0.1438
G02 G54 X0.1438 Y0.1438 Z0.0000 R0.1438
G01 G54 X0.0000 Y-0.0264 Z-0.0048
G02 G54 X0.1174 Y-0.1174 Z0.0000 R0.1174
G02 G54 X-0.1174 Y-0.1174 Z0.0000 R0.1174
G02 G54 X-0.1174 Y0.1174 Z0.0000 R0.1174
G02 G54 X0.1174 Y0.1174 Z0.0000 R0.1174
G01 G54 X0.0000 Y-0.0266 Z-0.0043
G02 G54 X0.0907 Y-0.0907 Z0.0000 R0.0907
G02 G54 X-0.0907 Y-0.0907 Z0.0000 R0.0907
G02 G54 X-0.0907 Y0.0907 Z0.0000 R0.0907
G02 G54 X0.0907 Y0.0907 Z0.0000 R0.0907
G01 G54 X0.0000 Y-0.0266 Z-0.0038
G02 G54 X0.0640 Y-0.0640 Z0.0000 R0.0640
G02 G54 X-0.0640 Y-0.0640 Z0.0000 R0.0640
G02 G54 X-0.0640 Y0.0640 Z0.0000 R0.0640
G02 G54 X0.0640 Y0.0640 Z0.0000 R0.0640
G90
G00 G54 X21.2598 Y0.8514 Z0.1000
G00 G54 X21.2598 Y0.7874 Z0.1000
G00 G54 X22.8346 Y-0.7874 Z0.1000
( A single insert                                                              )
(   Outter rim diameter = 0.7500"                                              )
(   Outter rim depth    = -0.0450"                                             )
(   Shaft diameter      = 0.3729"                                              )
(   Shaft depth         = -0.3750"                                             )
G01 G54 X22.8346 Y-0.7874 Z0.0000
G91
G01 G54 X0.0000 Y0.2514 Z-0.0450
G02 G54 X0.2514 Y-0.2514 Z0.0000 R0.2514
G02 G54 X-0.2514 Y-0.2514 Z0.0000 R0.2514
G02 G54 X-0.2514 Y0.2514 Z0.0000 R0.2514
G02 G54 X0.2514 Y0.2514 Z0.0000 R0.2514
G01 G54 X0.0000 Y-0.0285 Z-0.0069
G02 G54 X0.2229 Y-0.2229 Z0.0000 R0.2229
G02 G54 X-0.2229 Y-0.2229 Z0.0000 R0.2229
G02 G54 X-0.2229 Y0.2229 Z0.0000 R0.2229
G02 G54 X0.2229 Y0.2229 Z0.0000 R0.2229
G01 G54 X0.0000 Y-0.0261 Z-0.0064
G02 G54 X0.1966 Y-0.1966 Z0.0000 R0.1966
G02 G54 X-0.1966 Y-0.1966 Z0.0000 R0.1966
G02 G54 X-0.1966 Y0.1966 Z0.0000 R0.1966
G02 G54 X0.1966 Y0.1966 Z0.0000 R0.1966
G01 G54 X0.0000 Y-0.0262 Z-0.0058
G02 G54 X0.1703 Y-0.1703 Z0.0000 R0.1703
G02 G54 X-0.1703 Y-0.1703 Z0.0000 R0.1703
G02 G54 X-0.1703 Y0.1703 Z0.0000 R0.1703
G02 G54 X0.1703 Y0.1703 Z0.0000 R0.1703
G01 G54 X0.0000 Y-0.0264 Z-0.0053
G02 G54 X0.1438 Y-0.1438 Z0.0000 R0.1438
G02 G54 X-0.1438 Y-0.1438 Z0.0000 R0.1438
G02 G54 X-0.1438 Y0.1438 Z0.0000 R0.1438
G02 G54 X0.1438 Y0.1438 Z0.0000 R0.1438
G01 G54 X0.0000 Y-0.0264 Z-0.0048
G02 G54 X0.1174 Y-0.1174 Z0.0000 R0.1174
G02 G54 X-0.1174 Y-0.1174 Z0.0000 R0.1174
G02 G54 X-0.1174 Y0.1174 Z0.0000 R0.1174
G02 G54 X0.1174 Y0.1174 Z0.0000 R0.1174
G01 G54 X0.0000 Y-0.0266 Z-0.0043
G02 G54 X0.0907 Y-0.0907 Z0.0000 R0.0907
G02 G54 X-0.0907 Y-0.0907 Z0.0000 R0.0907
G02 G54 X-0.0907 Y0.0907 Z0.0000 R0.0907
G02 G54 X0.0907 Y0.0907 Z0.0000 R0.0907
G01 G54 X0.0000 Y-0.0266 Z-0.0038
G02 G54 X0.0640 Y-0.0640 Z0.0000 R0.0640
G02 G54 X-0.0640 Y-0.0640 Z0.0000 R0.0640
G02 G54 X-0.0640 Y0.0640 Z0.0000 R0.0640
G02 G54 X0.0640 Y0.0640 Z0.0000 R0.0640
G90
G01 G54 X22.8346 Y-0.7874 Z0.0000
( Incremental hole: depth = -0.3750, diameter = 0.3729                         )
G91
G01 G54 X0.0000 Y0.0629 Z0.0000
G01 G54 X0.0000 Y0.0000 Z-0.1250
G02 G54 X0.0629 Y-0.0629 Z0.0000 R0.0629
G02 G54 X-0.0629 Y-0.0629 Z0.0000 R0.0629
G02 G54 X-0.0629 Y0.0629 Z0.0000 R0.0629
G02 G54 X0.0629 Y0.0629 Z0.0000 R0.0629
G01 G54 X0.0000 Y0.0000 Z-0.1250
G02 G54 X0.0629 Y-0.0629 Z0.0000 R0.0629
G02 G54 X-0.0629 Y-0.0629 Z0.0000 R0.0629
G02 G54 X-0.0629 Y0.0629 Z0.0000 R0.0629
G02 G54 X0.0629 Y0.0629 Z0.0000 R0.0629
G01 G54 X0.0000 Y0.0000 Z-0.1250
G02 G54 X0.0629 Y-0.0629 Z0.0000 R0.0629
G02 G54 X-0.0629 Y-0.0629 Z0.0000 R0.0629
G02 G54 X-0.0629 Y0.0629 Z0.0000 R0.0629
G02 G54 X0.0629 Y0.0629 Z0.0000 R0.0629
G02 G54 X0.0629 Y-0.0629 Z0.0000 R0.0629
G02 G54 X-0.0629 Y-0.0629 Z0.0000 R0.0629
G02 G54 X-0.0629 Y0.0629 Z0.0000 R0.0629
G02 G54 X0.0629 Y0.0629 Z0.0000 R0.0629
G02 G54 X0.0629 Y-0.0629 Z0.0000 R0.0629
G02 G54 X-0.0629 Y-0.0629 Z0.0000 R0.0629
G02 G54 X-0.0629 Y0.0629 Z0.0000 R0.0629
G02 G54 X0.0629 Y0.0629 Z0.0000 R0.0629
G02 G54 X0.0629 Y-0.0629 Z0.0000 R0.0629
G02 G54 X-0.0629 Y-0.0629 Z0.0000 R0.0629
G02 G54 X-0.0629 Y0.0629 Z0.0000 R0.0629
G02 G54 X0.0629 Y0.0629 Z0.0000 R0.0629
G01 G54 X0.0000 Y-0.0629 Z0.0000
G90
G01 G54 X22.8346 Y-0.7874 Z0.0000
G91
G01 G54 X0.0000 Y0.2514 Z-0.0450
G02 G54 X0.2514 Y-0.2514 Z0.0000 R0.2514
G02 G54 X-0.2514 Y-0.2514 Z0.0000 R0.2514
G02 G54 X-0.2514 Y0.2514 Z0.0000 R0.2514
G02 G54 X0.2514 Y0.2514 Z0.0000 R0.2514
G01 G54 X0.0000 Y-0.0285 Z-0.0069
G02 G54 X0.2229 Y-0.2229 Z0.0000 R0.2229
G02 G54 X-0.2229 Y-0.2229 Z0.0000 R0.2229
G02 G54 X-0.2229 Y0.2229 Z0.0000 R0.2229
G02 G54 X0.2229 Y0.2229 Z0.0000 R0.2229
G01 G54 X0.0000 Y-0.0261 Z-0.0064
G02 G54 X0.1966 Y-0.1966 Z0.0000 R0.1966
G02 G54 X-0.1966 Y-0.1966 Z0.0000 R0.1966
G02 G54 X-0.1966 Y0.1966 Z0.0000 R0.1966
G02 G54 X0.1966 Y0.1966 Z0.0000 R0.1966
G01 G54 X0.0000 Y-0.0262 Z-0.0058
G02 G54 X0.1703 Y-0.1703 Z0.0000 R0.1703
G02 G54 X-0.1703 Y-0.1703 Z0.0000 R0.1703
G02 G54 X-0.1703 Y0.1703 Z0.0000 R0.1703
G02 G54 X0.1703 Y0.1703 Z0.0000 R0.1703
G01 G54 X0.0000 Y-0.0264 Z-0.0053
G02 G54 X0.1438 Y-0.1438 Z0.0000 R0.1438
G02 G54 X-0.1438 Y-0.1438 Z0.0000 R0.1438
G02 G54 X-0.1438 Y0.1438 Z0.0000 R0.1438
G02 G54 X0.1438 Y0.1438 Z0.0000 R0.1438
G01 G54 X0.0000 Y-0.0264 Z-0.0048
G02 G54 X0.1174 Y-0.1174 Z0.0000 R0.1174
G02 G54 X-0.1174 Y-0.1174 Z0.0000 R0.1174
G02 G54 X-0.1174 Y0.1174 Z0.0000 R0.1174
G02 G54 X0.1174 Y0.1174 Z0.0000 R0.1174
G01 G54 X0.0000 Y-0.0266 Z-0.0043
G02 G54 X0.0907 Y-0.0907 Z0.0000 R0.0907
G02 G54 X-0.0907 Y-0.0907 Z0.0000 R0.0907
G02 G54 X-0.0907 Y0.0907 Z0.0000 R0.0907
G02 G54 X0.0907 Y0.0907 Z0.0000 R0.0907
G01 G54 X0.0000 Y-0.0266 Z-0.0038
G02 G54 X0.0640 Y-0.0640 Z0.0000 R0.0640
G02 G54 X-0.0640 Y-0.0640 Z0.0000 R0.0640
G02 G54 X-0.0640 Y0.0640 Z0.0000 R0.0640
G02 G54 X0.0640 Y0.0640 Z0.0000 R0.0640
G90
G00 G54 X22.8346 Y-0.7233 Z0.1000
G00 G54 X22.8346 Y-0.7874 Z0.1000
G00 G54 X22.8346 Y0.7874 Z0.1000
( A single insert                                                              )
(   Outter rim diameter = 0.7500"                                              )
(   Outter rim depth    = -0.0450"                                             )
(   Shaft diameter      = 0.3729"                                              )
(   Shaft depth         = -0.3750"                                             )
G01 G54 X22.8346 Y0.7874 Z0.0000
G91
G01 G54 X0.0000 Y0.2514 Z-0.0450
G02 G54 X0.2514 Y-0.2514 Z0.0000 R0.2514
G02 G54 X-0.2514 Y-0.2514 Z0.0000 R0.2514
G02 G54 X-0.2514 Y0.2514 Z0.0000 R0.2514
G02 G54 X0.2514 Y0.2514 Z0.0000 R0.2514
G01 G54 X0.0000 Y-0.0285 Z-0.0069
G02 G54 X0.2229 Y-0.2229 Z0.0000 R0.2229
G02 G54 X-0.2229 Y-0.2229 Z0.0000 R0.2229
G02 G54 X-0.2229 Y0.2229 Z0.0000 R0.2229
G02 G54 X0.2229 Y0.2229 Z0.0000 R0.2229
G01 G54 X0.0000 Y-0.0261 Z-0.0064
G02 G54 X0.1966 Y-0.1966 Z0.0000 R0.1966
G02 G54 X-0.1966 Y-0.1966 Z0.0000 R0.1966
G02 G54 X-0.1966 Y0.1966 Z0.0000 R0.1966
G02 G54 X0.1966 Y0.1966 Z0.0000 R0.1966
G01 G54 X0.0000 Y-0.0262 Z-0.0058
G02 G54 X0.1703 Y-0.1703 Z0.0000 R0.1703
G02 G54 X-0.1703 Y-0.1703 Z0.0000 R0.1703
G02 G54 X-0.1703 Y0.1703 Z0.0000 R0.1703
G02 G54 X0.1703 Y0.1703 Z0.0000 R0.1703
G01 G54 X0.0000 Y-0.0264 Z-0.0053
G02 G54 X0.1438 Y-0.1438 Z0.0000 R0.1438
G02 G54 X-0.1438 Y-0.1438 Z0.0000 R0.1438
G02 G54 X-0.1438 Y0.1438 Z0.0000 R0.1438
G02 G54 X0.1438 Y0.1438 Z0.0000 R0.1438
G01 G54 X0.0000 Y-0.0264 Z-0.0048
G02 G54 X0.1174 Y-0.1174 Z0.0000 R0.1174
G02 G54 X-0.1174 Y-0.1174 Z0.0000 R0.1174
G02 G54 X-0.1174 Y0.1174 Z0.0000 R0.1174
G02 G54 X0.1174 Y0.1174 Z0.0000 R0.1174
G01 G54 X0.0000 Y-0.0266 Z-0.0043
G02 G54 X0.0907 Y-0.0907 Z0.0000 R0.0907
G02 G54 X-0.0907 Y-0.0907 Z0.0000 R0.0907
G02 G54 X-0.0907 Y0.0907 Z0.0000 R0.0907
G02 G54 X0.0907 Y0.0907 Z0.0000 R0.0907
G01 G54 X0.0000 Y-0.0266 Z-0.0038
G02 G54 X0.0640 Y-0.0640 Z0.0000 R0.0640
G02 G54 X-0.0640 Y-0.0640 Z0.0000 R0.0640
G02 G54 X-0.0640 Y0.0640 Z0.0000 R0.0640
G02 G54 X0.0640 Y0.0640 Z0.0000 R0.0640
G90
G01 G54 X22.8346 Y0.7874 Z0.0000
( Incremental hole: depth = -0.3750, diameter = 0.3729                         )
G91
G01 G54 X0.0000 Y0.0629 Z0.0000
G01 G54 X0.0000 Y0.0000 Z-0.1250
G02 G54 X0.0629 Y-0.0629 Z0.0000 R0.0629
G02 G54 X-0.0629 Y-0.0629 Z0.0000 R0.0629
G02 G54 X-0.0629 Y0.0629 Z0.0000 R0.0629
G02 G54 X0.0629 Y0.0629 Z0.0000 R0.0629
G01 G54 X0.0000 Y0.0000 Z-0.1250
G02 G54 X0.0629 Y-0.0629 Z0.0000 R0.0629
G02 G54 X-0.0629 Y-0.0629 Z0.0000 R0.0629
G02 G54 X-0.0629 Y0.0629 Z0.0000 R0.0629
G02 G54 X0.0629 Y0.0629 Z0.0000 R0.0629
G01 G54 X0.0000 Y0.0000 Z-0.1250
G02 G54 X0.0629 Y-0.0629 Z0.0000 R0.0629
G02 G54 X-0.0629 Y-0.0629 Z0.0000 R0.0629
G02 G54 X-0.0629 Y0.0629 Z0.0000 R0.0629
G02 G54 X0.0629 Y0.0629 Z0.0000 R0.0629
G02 G54 X0.0629 Y-0.0629 Z0.0000 R0.0629
G02 G54 X-0.0629 Y-0.0629 Z0.0000 R0.0629
G02 G54 X-0.0629 Y0.0629 Z0.0000 R0.0629
G02 G54 X0.0629 Y0.0629 Z0.0000 R0.0629
G02 G54 X0.0629 Y-0.0629 Z0.0000 R0.0629
G02 G54 X-0.0629 Y-0.0629 Z0.0000 R0.0629
G02 G54 X-0.0629 Y0.0629 Z0.0000 R0.0629
G02 G54 X0.0629 Y0.0629 Z0.0000 R0.0629
G02 G54 X0.0629 Y-0.0629 Z0.0000 R0.0629
G02 G54 X-0.0629 Y-0.0629 Z0.0000 R0.0629
G02 G54 X-0.0629 Y0.0629 Z0.0000 R0.0629
G02 G54 X0.0629 Y0.0629 Z0.0000 R0.0629
G01 G54 X0.0000 Y-0.0629 Z0.0000
G90
G01 G54 X22.8346 Y0.7874 Z0.0000
G91
G01 G54 X0.0000 Y0.2514 Z-0.0450
G02 G54 X0.2514 Y-0.2514 Z0.0000 R0.2514
G02 G54 X-0.2514 Y-0.2514 Z0.0000 R0.2514
G02 G54 X-0.2514 Y0.2514 Z0.0000 R0.2514
G02 G54 X0.2514 Y0.2514 Z0.0000 R0.2514
G01 G54 X0.0000 Y-0.0285 Z-0.0069
G02 G54 X0.2229 Y-0.2229 Z0.0000 R0.2229
G02 G54 X-0.2229 Y-0.2229 Z0.0000 R0.2229
G02 G54 X-0.2229 Y0.2229 Z0.0000 R0.2229
G02 G54 X0.2229 Y0.2229 Z0.0000 R0.2229
G01 G54 X0.0000 Y-0.0261 Z-0.0064
G02 G54 X0.1966 Y-0.1966 Z0.0000 R0.1966
G02 G54 X-0.1966 Y-0.1966 Z0.0000 R0.1966
G02 G54 X-0.1966 Y0.1966 Z0.0000 R0.1966
G02 G54 X0.1966 Y0.1966 Z0.0000 R0.1966
G01 G54 X0.0000 Y-0.0262 Z-0.0058
G02 G54 X0.1703 Y-0.1703 Z0.0000 R0.1703
G02 G54 X-0.1703 Y-0.1703 Z0.0000 R0.1703
G02 G54 X-0.1703 Y0.1703 Z0.0000 R0.1703
G02 G54 X0.1703 Y0.1703 Z0.0000 R0.1703
G01 G54 X0.0000 Y-0.0264 Z-0.0053
G02 G54 X0.1438 Y-0.1438 Z0.0000 R0.1438
G02 G54 X-0.1438 Y-0.1438 Z0.0000 R0.1438
G02 G54 X-0.1438 Y0.1438 Z0.0000 R0.1438
G02 G54 X0.1438 Y0.1438 Z0.0000 R0.1438
G01 G54 X0.0000 Y-0.0264 Z-0.0048
G02 G54 X0.1174 Y-0.1174 Z0.0000 R0.1174
G02 G54 X-0.1174 Y-0.1174 Z0.0000 R0.1174
G02 G54 X-0.1174 Y0.1174 Z0.0000 R0.1174
G02 G54 X0.1174 Y0.1174 Z0.0000 R0.1174
G01 G54 X0.0000 Y-0.0266 Z-0.0043
G02 G54 X0.0907 Y-0.0907 Z0.0000 R0.0907
G02 G54 X-0.0907 Y-0.0907 Z0.0000 R0.0907
G02 G54 X-0.0907 Y0.0907 Z0.0000 R0.0907
G02 G54 X0.0907 Y0.0907 Z0.0000 R0.0907
G01 G54 X0.0000 Y-0.0266 Z-0.0038
G02 G54 X0.0640 Y-0.0640 Z0.0000 R0.0640
G02 G54 X-0.0640 Y-0.0640 Z0.0000 R0.0640
G02 G54 X-0.0640 Y0.0640 Z0.0000 R0.0640
G02 G54 X0.0640 Y0.0640 Z0.0000 R0.0640
G90
G00 G54 X22.8346 Y0.8514 Z0.1000
G00 G54 X22.8346 Y0.7874 Z0.1000
G00 G54 X24.4094 Y-0.7874 Z0.1000
( A single insert                                                              )
(   Outter rim diameter = 0.7500"                                              )
(   Outter rim depth    = -0.0450"                                             )
(   Shaft diameter      = 0.3729"                                              )
(   Shaft depth         = -0.3750"                                             )
G01 G54 X24.4094 Y-0.7874 Z0.0000
G91
G01 G54 X0.0000 Y0.2514 Z-0.0450
G02 G54 X0.2514 Y-0.2514 Z0.0000 R0.2514
G02 G54 X-0.2514 Y-0.2514 Z0.0000 R0.2514
G02 G54 X-0.2514 Y0.2514 Z0.0000 R0.2514
G02 G54 X0.2514 Y0.2514 Z0.0000 R0.2514
G01 G54 X0.0000 Y-0.0285 Z-0.0069
G02 G54 X0.2229 Y-0.2229 Z0.0000 R0.2229
G02 G54 X-0.2229 Y-0.2229 Z0.0000 R0.2229
G02 G54 X-0.2229 Y0.2229 Z0.0000 R0.2229
G02 G54 X0.2229 Y0.2229 Z0.0000 R0.2229
G01 G54 X0.0000 Y-0.0261 Z-0.0064
G02 G54 X0.1966 Y-0.1966 Z0.0000 R0.1966
G02 G54 X-0.1966 Y-0.1966 Z0.0000 R0.1966
G02 G54 X-0.1966 Y0.1966 Z0.0000 R0.1966
G02 G54 X0.1966 Y0.1966 Z0.0000 R0.1966
G01 G54 X0.0000 Y-0.0262 Z-0.0058
G02 G54 X0.1703 Y-0.1703 Z0.0000 R0.1703
G02 G54 X-0.1703 Y-0.1703 Z0.0000 R0.1703
G02 G54 X-0.1703 Y0.1703 Z0.0000 R0.1703
G02 G54 X0.1703 Y0.1703 Z0.0000 R0.1703
G01 G54 X0.0000 Y-0.0264 Z-0.0053
G02 G54 X0.1438 Y-0.1438 Z0.0000 R0.1438
G02 G54 X-0.1438 Y-0.1438 Z0.0000 R0.1438
G02 G54 X-0.1438 Y0.1438 Z0.0000 R0.1438
G02 G54 X0.1438 Y0.1438 Z0.0000 R0.1438
G01 G54 X0.0000 Y-0.0264 Z-0.0048
G02 G54 X0.1174 Y-0.1174 Z0.0000 R0.1174
G02 G54 X-0.1174 Y-0.1174 Z0.0000 R0.1174
G02 G54 X-0.1174 Y0.1174 Z0.0000 R0.1174
G02 G54 X0.1174 Y0.1174 Z0.0000 R0.1174
G01 G54 X0.0000 Y-0.0266 Z-0.0043
G02 G54 X0.0907 Y-0.0907 Z0.0000 R0.0907
G02 G54 X-0.0907 Y-0.0907 Z0.0000 R0.0907
G02 G54 X-0.0907 Y0.0907 Z0.0000 R0.0907
G02 G54 X0.0907 Y0.0907 Z0.0000 R0.0907
G01 G54 X0.0000 Y-0.0266 Z-0.0038
G02 G54 X0.0640 Y-0.0640 Z0.0000 R0.0640
G02 G54 X-0.0640 Y-0.0640 Z0.0000 R0.0640
G02 G54 X-0.0640 Y0.0640 Z0.0000 R0.0640
G02 G54 X0.0640 Y0.0640 Z0.0000 R0.0640
G90
G01 G54 X24.4094 Y-0.7874 Z0.0000
( Incremental hole: depth = -0.3750, diameter = 0.3729                         )
G91
G01 G54 X0.0000 Y0.0629 Z0.0000
G01 G54 X0.0000 Y0.0000 Z-0.1250
G02 G54 X0.0629 Y-0.0629 Z0.0000 R0.0629
G02 G54 X-0.0629 Y-0.0629 Z0.0000 R0.0629
G02 G54 X-0.0629 Y0.0629 Z0.0000 R0.0629
G02 G54 X0.0629 Y0.0629 Z0.0000 R0.0629
G01 G54 X0.0000 Y0.0000 Z-0.1250
G02 G54 X0.0629 Y-0.0629 Z0.0000 R0.0629
G02 G54 X-0.0629 Y-0.0629 Z0.0000 R0.0629
G02 G54 X-0.0629 Y0.0629 Z0.0000 R0.0629
G02 G54 X0.0629 Y0.0629 Z0.0000 R0.0629
G01 G54 X0.0000 Y0.0000 Z-0.1250
G02 G54 X0.0629 Y-0.0629 Z0.0000 R0.0629
G02 G54 X-0.0629 Y-0.0629 Z0.0000 R0.0629
G02 G54 X-0.0629 Y0.0629 Z0.0000 R0.0629
G02 G54 X0.0629 Y0.0629 Z0.0000 R0.0629
G02 G54 X0.0629 Y-0.0629 Z0.0000 R0.0629
G02 G54 X-0.0629 Y-0.0629 Z0.0000 R0.0629
G02 G54 X-0.0629 Y0.0629 Z0.0000 R0.0629
G02 G54 X0.0629 Y0.0629 Z0.0000 R0.0629
G02 G54 X0.0629 Y-0.0629 Z0.0000 R0.0629
G02 G54 X-0.0629 Y-0.0629 Z0.0000 R0.0629
G02 G54 X-0.0629 Y0.0629 Z0.0000 R0.0629
G02 G54 X0.0629 Y0.0629 Z0.0000 R0.0629
G02 G54 X0.0629 Y-0.0629 Z0.0000 R0.0629
G02 G54 X-0.0629 Y-0.0629 Z0.0000 R0.0629
G02 G54 X-0.0629 Y0.0629 Z0.0000 R0.0629
G02 G54 X0.0629 Y0.0629 Z0.0000 R0.0629
G01 G54 X0.0000 Y-0.0629 Z0.0000
G90
G01 G54 X24.4094 Y-0.7874 Z0.0000
G91
G01 G54 X0.0000 Y0.2514 Z-0.0450
G02 G54 X0.2514 Y-0.2514 Z0.0000 R0.2514
G02 G54 X-0.2514 Y-0.2514 Z0.0000 R0.2514
G02 G54 X-0.2514 Y0.2514 Z0.0000 R0.2514
G02 G54 X0.2514 Y0.2514 Z0.0000 R0.2514
G01 G54 X0.0000 Y-0.0285 Z-0.0069
G02 G54 X0.2229 Y-0.2229 Z0.0000 R0.2229
G02 G54 X-0.2229 Y-0.2229 Z0.0000 R0.2229
G02 G54 X-0.2229 Y0.2229 Z0.0000 R0.2229
G02 G54 X0.2229 Y0.2229 Z0.0000 R0.2229
G01 G54 X0.0000 Y-0.0261 Z-0.0064
G02 G54 X0.1966 Y-0.1966 Z0.0000 R0.1966
G02 G54 X-0.1966 Y-0.1966 Z0.0000 R0.1966
G02 G54 X-0.1966 Y0.1966 Z0.0000 R0.1966
G02 G54 X0.1966 Y0.1966 Z0.0000 R0.1966
G01 G54 X0.0000 Y-0.0262 Z-0.0058
G02 G54 X0.1703 Y-0.1703 Z0.0000 R0.1703
G02 G54 X-0.1703 Y-0.1703 Z0.0000 R0.1703
G02 G54 X-0.1703 Y0.1703 Z0.0000 R0.1703
G02 G54 X0.1703 Y0.1703 Z0.0000 R0.1703
G01 G54 X0.0000 Y-0.0264 Z-0.0053
G02 G54 X0.1438 Y-0.1438 Z0.0000 R0.1438
G02 G54 X-0.1438 Y-0.1438 Z0.0000 R0.1438
G02 G54 X-0.1438 Y0.1438 Z0.0000 R0.1438
G02 G54 X0.1438 Y0.1438 Z0.0000 R0.1438
G01 G54 X0.0000 Y-0.0264 Z-0.0048
G02 G54 X0.1174 Y-0.1174 Z0.0000 R0.1174
G02 G54 X-0.1174 Y-0.1174 Z0.0000 R0.1174
G02 G54 X-0.1174 Y0.1174 Z0.0000 R0.1174
G02 G54 X0.1174 Y0.1174 Z0.0000 R0.1174
G01 G54 X0.0000 Y-0.0266 Z-0.0043
G02 G54 X0.0907 Y-0.0907 Z0.0000 R0.0907
G02 G54 X-0.0907 Y-0.0907 Z0.0000 R0.0907
G02 G54 X-0.0907 Y0.0907 Z0.0000 R0.0907
G02 G54 X0.0907 Y0.0907 Z0.0000 R0.0907
G01 G54 X0.0000 Y-0.0266 Z-0.0038
G02 G54 X0.0640 Y-0.0640 Z0.0000 R0.0640
G02 G54 X-0.0640 Y-0.0640 Z0.0000 R0.0640
G02 G54 X-0.0640 Y0.0640 Z0.0000 R0.0640
G02 G54 X0.0640 Y0.0640 Z0.0000 R0.0640
G90
G00 G54 X24.4094 Y-0.7233 Z0.1000
G00 G54 X24.4094 Y-0.7874 Z0.1000
G00 G54 X24.4094 Y0.7874 Z0.1000
( A single insert                                                              )
(   Outter rim diameter = 0.7500"                                              )
(   Outter rim depth    = -0.0450"                                             )
(   Shaft diameter      = 0.3729"                                              )
(   Shaft depth         = -0.3750"                                             )
G01 G54 X24.4094 Y0.7874 Z0.0000
G91
G01 G54 X0.0000 Y0.2514 Z-0.0450
G02 G54 X0.2514 Y-0.2514 Z0.0000 R0.2514
G02 G54 X-0.2514 Y-0.2514 Z0.0000 R0.2514
G02 G54 X-0.2514 Y0.2514 Z0.0000 R0.2514
G02 G54 X0.2514 Y0.2514 Z0.0000 R0.2514
G01 G54 X0.0000 Y-0.0285 Z-0.0069
G02 G54 X0.2229 Y-0.2229 Z0.0000 R0.2229
G02 G54 X-0.2229 Y-0.2229 Z0.0000 R0.2229
G02 G54 X-0.2229 Y0.2229 Z0.0000 R0.2229
G02 G54 X0.2229 Y0.2229 Z0.0000 R0.2229
G01 G54 X0.0000 Y-0.0261 Z-0.0064
G02 G54 X0.1966 Y-0.1966 Z0.0000 R0.1966
G02 G54 X-0.1966 Y-0.1966 Z0.0000 R0.1966
G02 G54 X-0.1966 Y0.1966 Z0.0000 R0.1966
G02 G54 X0.1966 Y0.1966 Z0.0000 R0.1966
G01 G54 X0.0000 Y-0.0262 Z-0.0058
G02 G54 X0.1703 Y-0.1703 Z0.0000 R0.1703
G02 G54 X-0.1703 Y-0.1703 Z0.0000 R0.1703
G02 G54 X-0.1703 Y0.1703 Z0.0000 R0.1703
G02 G54 X0.1703 Y0.1703 Z0.0000 R0.1703
G01 G54 X0.0000 Y-0.0264 Z-0.0053
G02 G54 X0.1438 Y-0.1438 Z0.0000 R0.1438
G02 G54 X-0.1438 Y-0.1438 Z0.0000 R0.1438
G02 G54 X-0.1438 Y0.1438 Z0.0000 R0.1438
G02 G54 X0.1438 Y0.1438 Z0.0000 R0.1438
G01 G54 X0.0000 Y-0.0264 Z-0.0048
G02 G54 X0.1174 Y-0.1174 Z0.0000 R0.1174
G02 G54 X-0.1174 Y-0.1174 Z0.0000 R0.1174
G02 G54 X-0.1174 Y0.1174 Z0.0000 R0.1174
G02 G54 X0.1174 Y0.1174 Z0.0000 R0.1174
G01 G54 X0.0000 Y-0.0266 Z-0.0043
G02 G54 X0.0907 Y-0.0907 Z0.0000 R0.0907
G02 G54 X-0.0907 Y-0.0907 Z0.0000 R0.0907
G02 G54 X-0.0907 Y0.0907 Z0.0000 R0.0907
G02 G54 X0.0907 Y0.0907 Z0.0000 R0.0907
G01 G54 X0.0000 Y-0.0266 Z-0.0038
G02 G54 X0.0640 Y-0.0640 Z0.0000 R0.0640
G02 G54 X-0.0640 Y-0.0640 Z0.0000 R0.0640
G02 G54 X-0.0640 Y0.0640 Z0.0000 R0.0640
G02 G54 X0.0640 Y0.0640 Z0.0000 R0.0640
G90
G01 G54 X24.4094 Y0.7874 Z0.0000
( Incremental hole: depth = -0.3750, diameter = 0.3729                         )
G91
G01 G54 X0.0000 Y0.0629 Z0.0000
G01 G54 X0.0000 Y0.0000 Z-0.1250
G02 G54 X0.0629 Y-0.0629 Z0.0000 R0.0629
G02 G54 X-0.0629 Y-0.0629 Z0.0000 R0.0629
G02 G54 X-0.0629 Y0.0629 Z0.0000 R0.0629
G02 G54 X0.0629 Y0.0629 Z0.0000 R0.0629
G01 G54 X0.0000 Y0.0000 Z-0.1250
G02 G54 X0.0629 Y-0.0629 Z0.0000 R0.0629
G02 G54 X-0.0629 Y-0.0629 Z0.0000 R0.0629
G02 G54 X-0.0629 Y0.0629 Z0.0000 R0.0629
G02 G54 X0.0629 Y0.0629 Z0.0000 R0.0629
G01 G54 X0.0000 Y0.0000 Z-0.1250
G02 G54 X0.0629 Y-0.0629 Z0.0000 R0.0629
G02 G54 X-0.0629 Y-0.0629 Z0.0000 R0.0629
G02 G54 X-0.0629 Y0.0629 Z0.0000 R0.0629
G02 G54 X0.0629 Y0.0629 Z0.0000 R0.0629
G02 G54 X0.0629 Y-0.0629 Z0.0000 R0.0629
G02 G54 X-0.0629 Y-0.0629 Z0.0000 R0.0629
G02 G54 X-0.0629 Y0.0629 Z0.0000 R0.0629
G02 G54 X0.0629 Y0.0629 Z0.0000 R0.0629
G02 G54 X0.0629 Y-0.0629 Z0.0000 R0.0629
G02 G54 X-0.0629 Y-0.0629 Z0.0000 R0.0629
G02 G54 X-0.0629 Y0.0629 Z0.0000 R0.0629
G02 G54 X0.0629 Y0.0629 Z0.0000 R0.0629
G02 G54 X0.0629 Y-0.0629 Z0.0000 R0.0629
G02 G54 X-0.0629 Y-0.0629 Z0.0000 R0.0629
G02 G54 X-0.0629 Y0.0629 Z0.0000 R0.0629
G02 G54 X0.0629 Y0.0629 Z0.0000 R0.0629
G01 G54 X0.0000 Y-0.0629 Z0.0000
G90
G01 G54 X24.4094 Y0.7874 Z0.0000
G91
G01 G54 X0.0000 Y0.2514 Z-0.0450
G02 G54 X0.2514 Y-0.2514 Z0.0000 R0.2514
G02 G54 X-0.2514 Y-0.2514 Z0.0000 R0.2514
G02 G54 X-0.2514 Y0.2514 Z0.0000 R0.2514
G02 G54 X0.2514 Y0.2514 Z0.0000 R0.2514
G01 G54 X0.0000 Y-0.0285 Z-0.0069
G02 G54 X0.2229 Y-0.2229 Z0.0000 R0.2229
G02 G54 X-0.2229 Y-0.2229 Z0.0000 R0.2229
G02 G54 X-0.2229 Y0.2229 Z0.0000 R0.2229
G02 G54 X0.2229 Y0.2229 Z0.0000 R0.2229
G01 G54 X0.0000 Y-0.0261 Z-0.0064
G02 G54 X0.1966 Y-0.1966 Z0.0000 R0.1966
G02 G54 X-0.1966 Y-0.1966 Z0.0000 R0.1966
G02 G54 X-0.1966 Y0.1966 Z0.0000 R0.1966
G02 G54 X0.1966 Y0.1966 Z0.0000 R0.1966
G01 G54 X0.0000 Y-0.0262 Z-0.0058
G02 G54 X0.1703 Y-0.1703 Z0.0000 R0.1703
G02 G54 X-0.1703 Y-0.1703 Z0.0000 R0.1703
G02 G54 X-0.1703 Y0.1703 Z0.0000 R0.1703
G02 G54 X0.1703 Y0.1703 Z0.0000 R0.1703
G01 G54 X0.0000 Y-0.0264 Z-0.0053
G02 G54 X0.1438 Y-0.1438 Z0.0000 R0.1438
G02 G54 X-0.1438 Y-0.1438 Z0.0000 R0.1438
G02 G54 X-0.1438 Y0.1438 Z0.0000 R0.1438
G02 G54 X0.1438 Y0.1438 Z0.0000 R0.1438
G01 G54 X0.0000 Y-0.0264 Z-0.0048
G02 G54 X0.1174 Y-0.1174 Z0.0000 R0.1174
G02 G54 X-0.1174 Y-0.1174 Z0.0000 R0.1174
G02 G54 X-0.1174 Y0.1174 Z0.0000 R0.1174
G02 G54 X0.1174 Y0.1174 Z0.0000 R0.1174
G01 G54 X0.0000 Y-0.0266 Z-0.0043
G02 G54 X0.0907 Y-0.0907 Z0.0000 R0.0907
G02 G54 X-0.0907 Y-0.0907 Z0.0000 R0.0907
G02 G54 X-0.0907 Y0.0907 Z0.0000 R0.0907
G02 G54 X0.0907 Y0.0907 Z0.0000 R0.0907
G01 G54 X0.0000 Y-0.0266 Z-0.0038
G02 G54 X0.0640 Y-0.0640 Z0.0000 R0.0640
G02 G54 X-0.0640 Y-0.0640 Z0.0000 R0.0640
G02 G54 X-0.0640 Y0.0640 Z0.0000 R0.0640
G02 G54 X0.0640 Y0.0640 Z0.0000 R0.0640
G90
G00 G54 X24.4094 Y0.8514 Z0.1000
G00 G54 X24.4094 Y0.7874 Z0.1000
G00 G54 X25.9842 Y-0.7874 Z0.1000
( A single insert                                                              )
(   Outter rim diameter = 0.7500"                                              )
(   Outter rim depth    = -0.0450"                                             )
(   Shaft diameter      = 0.3729"                                              )
(   Shaft depth         = -0.3750"                                             )
G01 G54 X25.9842 Y-0.7874 Z0.0000
G91
G01 G54 X0.0000 Y0.2514 Z-0.0450
G02 G54 X0.2514 Y-0.2514 Z0.0000 R0.2514
G02 G54 X-0.2514 Y-0.2514 Z0.0000 R0.2514
G02 G54 X-0.2514 Y0.2514 Z0.0000 R0.2514
G02 G54 X0.2514 Y0.2514 Z0.0000 R0.2514
G01 G54 X0.0000 Y-0.0285 Z-0.0069
G02 G54 X0.2229 Y-0.2229 Z0.0000 R0.2229
G02 G54 X-0.2229 Y-0.2229 Z0.0000 R0.2229
G02 G54 X-0.2229 Y0.2229 Z0.0000 R0.2229
G02 G54 X0.2229 Y0.2229 Z0.0000 R0.2229
G01 G54 X0.0000 Y-0.0261 Z-0.0064
G02 G54 X0.1966 Y-0.1966 Z0.0000 R0.1966
G02 G54 X-0.1966 Y-0.1966 Z0.0000 R0.1966
G02 G54 X-0.1966 Y0.1966 Z0.0000 R0.1966
G02 G54 X0.1966 Y0.1966 Z0.0000 R0.1966
G01 G54 X0.0000 Y-0.0262 Z-0.0058
G02 G54 X0.1703 Y-0.1703 Z0.0000 R0.1703
G02 G54 X-0.1703 Y-0.1703 Z0.0000 R0.1703
G02 G54 X-0.1703 Y0.1703 Z0.0000 R0.1703
G02 G54 X0.1703 Y0.1703 Z0.0000 R0.1703
G01 G54 X0.0000 Y-0.0264 Z-0.0053
G02 G54 X0.1438 Y-0.1438 Z0.0000 R0.1438
G02 G54 X-0.1438 Y-0.1438 Z0.0000 R0.1438
G02 G54 X-0.1438 Y0.1438 Z0.0000 R0.1438
G02 G54 X0.1438 Y0.1438 Z0.0000 R0.1438
G01 G54 X0.0000 Y-0.0264 Z-0.0048
G02 G54 X0.1174 Y-0.1174 Z0.0000 R0.1174
G02 G54 X-0.1174 Y-0.1174 Z0.0000 R0.1174
G02 G54 X-0.1174 Y0.1174 Z0.0000 R0.1174
G02 G54 X0.1174 Y0.1174 Z0.0000 R0.1174
G01 G54 X0.0000 Y-0.0266 Z-0.0043
G02 G54 X0.0907 Y-0.0907 Z0.0000 R0.0907
G02 G54 X-0.0907 Y-0.0907 Z0.0000 R0.0907
G02 G54 X-0.0907 Y0.0907 Z0.0000 R0.0907
G02 G54 X0.0907 Y0.0907 Z0.0000 R0.0907
G01 G54 X0.0000 Y-0.0266 Z-0.0038
G02 G54 X0.0640 Y-0.0640 Z0.0000 R0.0640
G02 G54 X-0.0640 Y-0.0640 Z0.0000 R0.0640
G02 G54 X-0.0640 Y0.0640 Z0.0000 R0.0640
G02 G54 X0.0640 Y0.0640 Z0.0000 R0.0640
G90
G01 G54 X25.9842 Y-0.7874 Z0.0000
( Incremental hole: depth = -0.3750, diameter = 0.3729                         )
G91
G01 G54 X0.0000 Y0.0629 Z0.0000
G01 G54 X0.0000 Y0.0000 Z-0.1250
G02 G54 X0.0629 Y-0.0629 Z0.0000 R0.0629
G02 G54 X-0.0629 Y-0.0629 Z0.0000 R0.0629
G02 G54 X-0.0629 Y0.0629 Z0.0000 R0.0629
G02 G54 X0.0629 Y0.0629 Z0.0000 R0.0629
G01 G54 X0.0000 Y0.0000 Z-0.1250
G02 G54 X0.0629 Y-0.0629 Z0.0000 R0.0629
G02 G54 X-0.0629 Y-0.0629 Z0.0000 R0.0629
G02 G54 X-0.0629 Y0.0629 Z0.0000 R0.0629
G02 G54 X0.0629 Y0.0629 Z0.0000 R0.0629
G01 G54 X0.0000 Y0.0000 Z-0.1250
G02 G54 X0.0629 Y-0.0629 Z0.0000 R0.0629
G02 G54 X-0.0629 Y-0.0629 Z0.0000 R0.0629
G02 G54 X-0.0629 Y0.0629 Z0.0000 R0.0629
G02 G54 X0.0629 Y0.0629 Z0.0000 R0.0629
G02 G54 X0.0629 Y-0.0629 Z0.0000 R0.0629
G02 G54 X-0.0629 Y-0.0629 Z0.0000 R0.0629
G02 G54 X-0.0629 Y0.0629 Z0.0000 R0.0629
G02 G54 X0.0629 Y0.0629 Z0.0000 R0.0629
G02 G54 X0.0629 Y-0.0629 Z0.0000 R0.0629
G02 G54 X-0.0629 Y-0.0629 Z0.0000 R0.0629
G02 G54 X-0.0629 Y0.0629 Z0.0000 R0.0629
G02 G54 X0.0629 Y0.0629 Z0.0000 R0.0629
G02 G54 X0.0629 Y-0.0629 Z0.0000 R0.0629
G02 G54 X-0.0629 Y-0.0629 Z0.0000 R0.0629
G02 G54 X-0.0629 Y0.0629 Z0.0000 R0.0629
G02 G54 X0.0629 Y0.0629 Z0.0000 R0.0629
G01 G54 X0.0000 Y-0.0629 Z0.0000
G90
G01 G54 X25.9842 Y-0.7874 Z0.0000
G91
G01 G54 X0.0000 Y0.2514 Z-0.0450
G02 G54 X0.2514 Y-0.2514 Z0.0000 R0.2514
G02 G54 X-0.2514 Y-0.2514 Z0.0000 R0.2514
G02 G54 X-0.2514 Y0.2514 Z0.0000 R0.2514
G02 G54 X0.2514 Y0.2514 Z0.0000 R0.2514
G01 G54 X0.0000 Y-0.0285 Z-0.0069
G02 G54 X0.2229 Y-0.2229 Z0.0000 R0.2229
G02 G54 X-0.2229 Y-0.2229 Z0.0000 R0.2229
G02 G54 X-0.2229 Y0.2229 Z0.0000 R0.2229
G02 G54 X0.2229 Y0.2229 Z0.0000 R0.2229
G01 G54 X0.0000 Y-0.0261 Z-0.0064
G02 G54 X0.1966 Y-0.1966 Z0.0000 R0.1966
G02 G54 X-0.1966 Y-0.1966 Z0.0000 R0.1966
G02 G54 X-0.1966 Y0.1966 Z0.0000 R0.1966
G02 G54 X0.1966 Y0.1966 Z0.0000 R0.1966
G01 G54 X0.0000 Y-0.0262 Z-0.0058
G02 G54 X0.1703 Y-0.1703 Z0.0000 R0.1703
G02 G54 X-0.1703 Y-0.1703 Z0.0000 R0.1703
G02 G54 X-0.1703 Y0.1703 Z0.0000 R0.1703
G02 G54 X0.1703 Y0.1703 Z0.0000 R0.1703
G01 G54 X0.0000 Y-0.0264 Z-0.0053
G02 G54 X0.1438 Y-0.1438 Z0.0000 R0.1438
G02 G54 X-0.1438 Y-0.1438 Z0.0000 R0.1438
G02 G54 X-0.1438 Y0.1438 Z0.0000 R0.1438
G02 G54 X0.1438 Y0.1438 Z0.0000 R0.1438
G01 G54 X0.0000 Y-0.0264 Z-0.0048
G02 G54 X0.1174 Y-0.1174 Z0.0000 R0.1174
G02 G54 X-0.1174 Y-0.1174 Z0.0000 R0.1174
G02 G54 X-0.1174 Y0.1174 Z0.0000 R0.1174
G02 G54 X0.1174 Y0.1174 Z0.0000 R0.1174
G01 G54 X0.0000 Y-0.0266 Z-0.0043
G02 G54 X0.0907 Y-0.0907 Z0.0000 R0.0907
G02 G54 X-0.0907 Y-0.0907 Z0.0000 R0.0907
G02 G54 X-0.0907 Y0.0907 Z0.0000 R0.0907
G02 G54 X0.0907 Y0.0907 Z0.0000 R0.0907
G01 G54 X0.0000 Y-0.0266 Z-0.0038
G02 G54 X0.0640 Y-0.0640 Z0.0000 R0.0640
G02 G54 X-0.0640 Y-0.0640 Z0.0000 R0.0640
G02 G54 X-0.0640 Y0.0640 Z0.0000 R0.0640
G02 G54 X0.0640 Y0.0640 Z0.0000 R0.0640
G90
G00 G54 X25.9842 Y-0.7233 Z0.1000
G00 G54 X25.9842 Y-0.7874 Z0.1000
G00 G54 X25.9842 Y0.7874 Z0.1000
( A single insert                                                              )
(   Outter rim diameter = 0.7500"                                              )
(   Outter rim depth    = -0.0450"                                             )
(   Shaft diameter      = 0.3729"                                              )
(   Shaft depth         = -0.3750"                                             )
G01 G54 X25.9842 Y0.7874 Z0.0000
G91
G01 G54 X0.0000 Y0.2514 Z-0.0450
G02 G54 X0.2514 Y-0.2514 Z0.0000 R0.2514
G02 G54 X-0.2514 Y-0.2514 Z0.0000 R0.2514
G02 G54 X-0.2514 Y0.2514 Z0.0000 R0.2514
G02 G54 X0.2514 Y0.2514 Z0.0000 R0.2514
G01 G54 X0.0000 Y-0.0285 Z-0.0069
G02 G54 X0.2229 Y-0.2229 Z0.0000 R0.2229
G02 G54 X-0.2229 Y-0.2229 Z0.0000 R0.2229
G02 G54 X-0.2229 Y0.2229 Z0.0000 R0.2229
G02 G54 X0.2229 Y0.2229 Z0.0000 R0.2229
G01 G54 X0.0000 Y-0.0261 Z-0.0064
G02 G54 X0.1966 Y-0.1966 Z0.0000 R0.1966
G02 G54 X-0.1966 Y-0.1966 Z0.0000 R0.1966
G02 G54 X-0.1966 Y0.1966 Z0.0000 R0.1966
G02 G54 X0.1966 Y0.1966 Z0.0000 R0.1966
G01 G54 X0.0000 Y-0.0262 Z-0.0058
G02 G54 X0.1703 Y-0.1703 Z0.0000 R0.1703
G02 G54 X-0.1703 Y-0.1703 Z0.0000 R0.1703
G02 G54 X-0.1703 Y0.1703 Z0.0000 R0.1703
G02 G54 X0.1703 Y0.1703 Z0.0000 R0.1703
G01 G54 X0.0000 Y-0.0264 Z-0.0053
G02 G54 X0.1438 Y-0.1438 Z0.0000 R0.1438
G02 G54 X-0.1438 Y-0.1438 Z0.0000 R0.1438
G02 G54 X-0.1438 Y0.1438 Z0.0000 R0.1438
G02 G54 X0.1438 Y0.1438 Z0.0000 R0.1438
G01 G54 X0.0000 Y-0.0264 Z-0.0048
G02 G54 X0.1174 Y-0.1174 Z0.0000 R0.1174
G02 G54 X-0.1174 Y-0.1174 Z0.0000 R0.1174
G02 G54 X-0.1174 Y0.1174 Z0.0000 R0.1174
G02 G54 X0.1174 Y0.1174 Z0.0000 R0.1174
G01 G54 X0.0000 Y-0.0266 Z-0.0043
G02 G54 X0.0907 Y-0.0907 Z0.0000 R0.0907
G02 G54 X-0.0907 Y-0.0907 Z0.0000 R0.0907
G02 G54 X-0.0907 Y0.0907 Z0.0000 R0.0907
G02 G54 X0.0907 Y0.0907 Z0.0000 R0.0907
G01 G54 X0.0000 Y-0.0266 Z-0.0038
G02 G54 X0.0640 Y-0.0640 Z0.0000 R0.0640
G02 G54 X-0.0640 Y-0.0640 Z0.0000 R0.0640
G02 G54 X-0.0640 Y0.0640 Z0.0000 R0.0640
G02 G54 X0.0640 Y0.0640 Z0.0000 R0.0640
G90
G01 G54 X25.9842 Y0.7874 Z0.0000
( Incremental hole: depth = -0.3750, diameter = 0.3729                         )
G91
G01 G54 X0.0000 Y0.0629 Z0.0000
G01 G54 X0.0000 Y0.0000 Z-0.1250
G02 G54 X0.0629 Y-0.0629 Z0.0000 R0.0629
G02 G54 X-0.0629 Y-0.0629 Z0.0000 R0.0629
G02 G54 X-0.0629 Y0.0629 Z0.0000 R0.0629
G02 G54 X0.0629 Y0.0629 Z0.0000 R0.0629
G01 G54 X0.0000 Y0.0000 Z-0.1250
G02 G54 X0.0629 Y-0.0629 Z0.0000 R0.0629
G02 G54 X-0.0629 Y-0.0629 Z0.0000 R0.0629
G02 G54 X-0.0629 Y0.0629 Z0.0000 R0.0629
G02 G54 X0.0629 Y0.0629 Z0.0000 R0.0629
G01 G54 X0.0000 Y0.0000 Z-0.1250
G02 G54 X0.0629 Y-0.0629 Z0.0000 R0.0629
G02 G54 X-0.0629 Y-0.0629 Z0.0000 R0.0629
G02 G54 X-0.0629 Y0.0629 Z0.0000 R0.0629
G02 G54 X0.0629 Y0.0629 Z0.0000 R0.0629
G02 G54 X0.0629 Y-0.0629 Z0.0000 R0.0629
G02 G54 X-0.0629 Y-0.0629 Z0.0000 R0.0629
G02 G54 X-0.0629 Y0.0629 Z0.0000 R0.0629
G02 G54 X0.0629 Y0.0629 Z0.0000 R0.0629
G02 G54 X0.0629 Y-0.0629 Z0.0000 R0.0629
G02 G54 X-0.0629 Y-0.0629 Z0.0000 R0.0629
G02 G54 X-0.0629 Y0.0629 Z0.0000 R0.0629
G02 G54 X0.0629 Y0.0629 Z0.0000 R0.0629
G02 G54 X0.0629 Y-0.0629 Z0.0000 R0.0629
G02 G54 X-0.0629 Y-0.0629 Z0.0000 R0.0629
G02 G54 X-0.0629 Y0.0629 Z0.0000 R0.0629
G02 G54 X0.0629 Y0.0629 Z0.0000 R0.0629
G01 G54 X0.0000 Y-0.0629 Z0.0000
G90
G01 G54 X25.9842 Y0.7874 Z0.0000
G91
G01 G54 X0.0000 Y0.2514 Z-0.0450
G02 G54 X0.2514 Y-0.2514 Z0.0000 R0.2514
G02 G54 X-0.2514 Y-0.2514 Z0.0000 R0.2514
G02 G54 X-0.2514 Y0.2514 Z0.0000 R0.2514
G02 G54 X0.2514 Y0.2514 Z0.0000 R0.2514
G01 G54 X0.0000 Y-0.0285 Z-0.0069
G02 G54 X0.2229 Y-0.2229 Z0.0000 R0.2229
G02 G54 X-0.2229 Y-0.2229 Z0.0000 R0.2229
G02 G54 X-0.2229 Y0.2229 Z0.0000 R0.2229
G02 G54 X0.2229 Y0.2229 Z0.0000 R0.2229
G01 G54 X0.0000 Y-0.0261 Z-0.0064
G02 G54 X0.1966 Y-0.1966 Z0.0000 R0.1966
G02 G54 X-0.1966 Y-0.1966 Z0.0000 R0.1966
G02 G54 X-0.1966 Y0.1966 Z0.0000 R0.1966
G02 G54 X0.1966 Y0.1966 Z0.0000 R0.1966
G01 G54 X0.0000 Y-0.0262 Z-0.0058
G02 G54 X0.1703 Y-0.1703 Z0.0000 R0.1703
G02 G54 X-0.1703 Y-0.1703 Z0.0000 R0.1703
G02 G54 X-0.1703 Y0.1703 Z0.0000 R0.1703
G02 G54 X0.1703 Y0.1703 Z0.0000 R0.1703
G01 G54 X0.0000 Y-0.0264 Z-0.0053
G02 G54 X0.1438 Y-0.1438 Z0.0000 R0.1438
G02 G54 X-0.1438 Y-0.1438 Z0.0000 R0.1438
G02 G54 X-0.1438 Y0.1438 Z0.0000 R0.1438
G02 G54 X0.1438 Y0.1438 Z0.0000 R0.1438
G01 G54 X0.0000 Y-0.0264 Z-0.0048
G02 G54 X0.1174 Y-0.1174 Z0.0000 R0.1174
G02 G54 X-0.1174 Y-0.1174 Z0.0000 R0.1174
G02 G54 X-0.1174 Y0.1174 Z0.0000 R0.1174
G02 G54 X0.1174 Y0.1174 Z0.0000 R0.1174
G01 G54 X0.0000 Y-0.0266 Z-0.0043
G02 G54 X0.0907 Y-0.0907 Z0.0000 R0.0907
G02 G54 X-0.0907 Y-0.0907 Z0.0000 R0.0907
G02 G54 X-0.0907 Y0.0907 Z0.0000 R0.0907
G02 G54 X0.0907 Y0.0907 Z0.0000 R0.0907
G01 G54 X0.0000 Y-0.0266 Z-0.0038
G02 G54 X0.0640 Y-0.0640 Z0.0000 R0.0640
G02 G54 X-0.0640 Y-0.0640 Z0.0000 R0.0640
G02 G54 X-0.0640 Y0.0640 Z0.0000 R0.0640
G02 G54 X0.0640 Y0.0640 Z0.0000 R0.0640
G90
G00 G54 X25.9842 Y0.8514 Z0.1000
G00 G54 X25.9842 Y0.7874 Z0.1000
G00 G54 X27.5590 Y0.0000 Z0.1000
( A single insert                                                              )
(   Outter rim diameter = 0.7500"                                              )
(   Outter rim depth    = -0.0450"                                             )
(   Shaft diameter      = 0.3729"                                              )
(   Shaft depth         = -0.3750"                                             )
G01 G54 X27.5590 Y0.0000 Z0.0000
G91
G01 G54 X0.0000 Y0.2514 Z-0.0450
G02 G54 X0.2514 Y-0.2514 Z0.0000 R0.2514
G02 G54 X-0.2514 Y-0.2514 Z0.0000 R0.2514
G02 G54 X-0.2514 Y0.2514 Z0.0000 R0.2514
G02 G54 X0.2514 Y0.2514 Z0.0000 R0.2514
G01 G54 X0.0000 Y-0.0285 Z-0.0069
G02 G54 X0.2229 Y-0.2229 Z0.0000 R0.2229
G02 G54 X-0.2229 Y-0.2229 Z0.0000 R0.2229
G02 G54 X-0.2229 Y0.2229 Z0.0000 R0.2229
G02 G54 X0.2229 Y0.2229 Z0.0000 R0.2229
G01 G54 X0.0000 Y-0.0261 Z-0.0064
G02 G54 X0.1966 Y-0.1966 Z0.0000 R0.1966
G02 G54 X-0.1966 Y-0.1966 Z0.0000 R0.1966
G02 G54 X-0.1966 Y0.1966 Z0.0000 R0.1966
G02 G54 X0.1966 Y0.1966 Z0.0000 R0.1966
G01 G54 X0.0000 Y-0.0262 Z-0.0058
G02 G54 X0.1703 Y-0.1703 Z0.0000 R0.1703
G02 G54 X-0.1703 Y-0.1703 Z0.0000 R0.1703
G02 G54 X-0.1703 Y0.1703 Z0.0000 R0.1703
G02 G54 X0.1703 Y0.1703 Z0.0000 R0.1703
G01 G54 X0.0000 Y-0.0264 Z-0.0053
G02 G54 X0.1438 Y-0.1438 Z0.0000 R0.1438
G02 G54 X-0.1438 Y-0.1438 Z0.0000 R0.1438
G02 G54 X-0.1438 Y0.1438 Z0.0000 R0.1438
G02 G54 X0.1438 Y0.1438 Z0.0000 R0.1438
G01 G54 X0.0000 Y-0.0264 Z-0.0048
G02 G54 X0.1174 Y-0.1174 Z0.0000 R0.1174
G02 G54 X-0.1174 Y-0.1174 Z0.0000 R0.1174
G02 G54 X-0.1174 Y0.1174 Z0.0000 R0.1174
G02 G54 X0.1174 Y0.1174 Z0.0000 R0.1174
G01 G54 X0.0000 Y-0.0266 Z-0.0043
G02 G54 X0.0907 Y-0.0907 Z0.0000 R0.0907
G02 G54 X-0.0907 Y-0.0907 Z0.0000 R0.0907
G02 G54 X-0.0907 Y0.0907 Z0.0000 R0.0907
G02 G54 X0.0907 Y0.0907 Z0.0000 R0.0907
G01 G54 X0.0000 Y-0.0266 Z-0.0038
G02 G54 X0.0640 Y-0.0640 Z0.0000 R0.0640
G02 G54 X-0.0640 Y-0.0640 Z0.0000 R0.0640
G02 G54 X-0.0640 Y0.0640 Z0.0000 R0.0640
G02 G54 X0.0640 Y0.0640 Z0.0000 R0.0640
G90
G01 G54 X27.5590 Y0.0000 Z0.0000
( Incremental hole: depth = -0.3750, diameter = 0.3729                         )
G91
G01 G54 X0.0000 Y0.0629 Z0.0000
G01 G54 X0.0000 Y0.0000 Z-0.1250
G02 G54 X0.0629 Y-0.0629 Z0.0000 R0.0629
G02 G54 X-0.0629 Y-0.0629 Z0.0000 R0.0629
G02 G54 X-0.0629 Y0.0629 Z0.0000 R0.0629
G02 G54 X0.0629 Y0.0629 Z0.0000 R0.0629
G01 G54 X0.0000 Y0.0000 Z-0.1250
G02 G54 X0.0629 Y-0.0629 Z0.0000 R0.0629
G02 G54 X-0.0629 Y-0.0629 Z0.0000 R0.0629
G02 G54 X-0.0629 Y0.0629 Z0.0000 R0.0629
G02 G54 X0.0629 Y0.0629 Z0.0000 R0.0629
G01 G54 X0.0000 Y0.0000 Z-0.1250
G02 G54 X0.0629 Y-0.0629 Z0.0000 R0.0629
G02 G54 X-0.0629 Y-0.0629 Z0.0000 R0.0629
G02 G54 X-0.0629 Y0.0629 Z0.0000 R0.0629
G02 G54 X0.0629 Y0.0629 Z0.0000 R0.0629
G02 G54 X0.0629 Y-0.0629 Z0.0000 R0.0629
G02 G54 X-0.0629 Y-0.0629 Z0.0000 R0.0629
G02 G54 X-0.0629 Y0.0629 Z0.0000 R0.0629
G02 G54 X0.0629 Y0.0629 Z0.0000 R0.0629
G02 G54 X0.0629 Y-0.0629 Z0.0000 R0.0629
G02 G54 X-0.0629 Y-0.0629 Z0.0000 R0.0629
G02 G54 X-0.0629 Y0.0629 Z0.0000 R0.0629
G02 G54 X0.0629 Y0.0629 Z0.0000 R0.0629
G02 G54 X0.0629 Y-0.0629 Z0.0000 R0.0629
G02 G54 X-0.0629 Y-0.0629 Z0.0000 R0.0629
G02 G54 X-0.0629 Y0.0629 Z0.0000 R0.0629
G02 G54 X0.0629 Y0.0629 Z0.0000 R0.0629
G01 G54 X0.0000 Y-0.0629 Z0.0000
G90
G01 G54 X27.5590 Y0.0000 Z0.0000
G91
G01 G54 X0.0000 Y0.2514 Z-0.0450
G02 G54 X0.2514 Y-0.2514 Z0.0000 R0.2514
G02 G54 X-0.2514 Y-0.2514 Z0.0000 R0.2514
G02 G54 X-0.2514 Y0.2514 Z0.0000 R0.2514
G02 G54 X0.2514 Y0.2514 Z0.0000 R0.2514
G01 G54 X0.0000 Y-0.0285 Z-0.0069
G02 G54 X0.2229 Y-0.2229 Z0.0000 R0.2229
G02 G54 X-0.2229 Y-0.2229 Z0.0000 R0.2229
G02 G54 X-0.2229 Y0.2229 Z0.0000 R0.2229
G02 G54 X0.2229 Y0.2229 Z0.0000 R0.2229
G01 G54 X0.0000 Y-0.0261 Z-0.0064
G02 G54 X0.1966 Y-0.1966 Z0.0000 R0.1966
G02 G54 X-0.1966 Y-0.1966 Z0.0000 R0.1966
G02 G54 X-0.1966 Y0.1966 Z0.0000 R0.1966
G02 G54 X0.1966 Y0.1966 Z0.0000 R0.1966
G01 G54 X0.0000 Y-0.0262 Z-0.0058
G02 G54 X0.1703 Y-0.1703 Z0.0000 R0.1703
G02 G54 X-0.1703 Y-0.1703 Z0.0000 R0.1703
G02 G54 X-0.1703 Y0.1703 Z0.0000 R0.1703
G02 G54 X0.1703 Y0.1703 Z0.0000 R0.1703
G01 G54 X0.0000 Y-0.0264 Z-0.0053
G02 G54 X0.1438 Y-0.1438 Z0.0000 R0.1438
G02 G54 X-0.1438 Y-0.1438 Z0.0000 R0.1438
G02 G54 X-0.1438 Y0.1438 Z0.0000 R0.1438
G02 G54 X0.1438 Y0.1438 Z0.0000 R0.1438
G01 G54 X0.0000 Y-0.0264 Z-0.0048
G02 G54 X0.1174 Y-0.1174 Z0.0000 R0.1174
G02 G54 X-0.1174 Y-0.1174 Z0.0000 R0.1174
G02 G54 X-0.1174 Y0.1174 Z0.0000 R0.1174
G02 G54 X0.1174 Y0.1174 Z0.0000 R0.1174
G01 G54 X0.0000 Y-0.0266 Z-0.0043
G02 G54 X0.0907 Y-0.0907 Z0.0000 R0.0907
G02 G54 X-0.0907 Y-0.0907 Z0.0000 R0.0907
G02 G54 X-0.0907 Y0.0907 Z0.0000 R0.0907
G02 G54 X0.0907 Y0.0907 Z0.0000 R0.0907
G01 G54 X0.0000 Y-0.0266 Z-0.0038
G02 G54 X0.0640 Y-0.0640 Z0.0000 R0.0640
G02 G54 X-0.0640 Y-0.0640 Z0.0000 R0.0640
G02 G54 X-0.0640 Y0.0640 Z0.0000 R0.0640
G02 G54 X0.0640 Y0.0640 Z0.0000 R0.0640
G90
G00 G54 X27.5590 Y0.0640 Z0.1000
G00 G54 X27.5590 Y0.0000 Z0.1000
G00 G54 X40.1574 Y0.0000 Z0.1000
( A single insert                                                              )
(   Outter rim diameter = 0.7500"                                              )
(   Outter rim depth    = -0.0450"                                             )
(   Shaft diameter      = 0.3729"                                              )
(   Shaft depth         = -0.3750"                                             )
G01 G54 X40.1574 Y0.0000 Z0.0000
G91
G01 G54 X0.0000 Y0.2514 Z-0.0450
G02 G54 X0.2514 Y-0.2514 Z0.0000 R0.2514
G02 G54 X-0.2514 Y-0.2514 Z0.0000 R0.2514
G02 G54 X-0.2514 Y0.2514 Z0.0000 R0.2514
G02 G54 X0.2514 Y0.2514 Z0.0000 R0.2514
G01 G54 X0.0000 Y-0.0285 Z-0.0069
G02 G54 X0.2229 Y-0.2229 Z0.0000 R0.2229
G02 G54 X-0.2229 Y-0.2229 Z0.0000 R0.2229
G02 G54 X-0.2229 Y0.2229 Z0.0000 R0.2229
G02 G54 X0.2229 Y0.2229 Z0.0000 R0.2229
G01 G54 X0.0000 Y-0.0261 Z-0.0064
G02 G54 X0.1966 Y-0.1966 Z0.0000 R0.1966
G02 G54 X-0.1966 Y-0.1966 Z0.0000 R0.1966
G02 G54 X-0.1966 Y0.1966 Z0.0000 R0.1966
G02 G54 X0.1966 Y0.1966 Z0.0000 R0.1966
G01 G54 X0.0000 Y-0.0262 Z-0.0058
G02 G54 X0.1703 Y-0.1703 Z0.0000 R0.1703
G02 G54 X-0.1703 Y-0.1703 Z0.0000 R0.1703
G02 G54 X-0.1703 Y0.1703 Z0.0000 R0.1703
G02 G54 X0.1703 Y0.1703 Z0.0000 R0.1703
G01 G54 X0.0000 Y-0.0264 Z-0.0053
G02 G54 X0.1438 Y-0.1438 Z0.0000 R0.1438
G02 G54 X-0.1438 Y-0.1438 Z0.0000 R0.1438
G02 G54 X-0.1438 Y0.1438 Z0.0000 R0.1438
G02 G54 X0.1438 Y0.1438 Z0.0000 R0.1438
G01 G54 X0.0000 Y-0.0264 Z-0.0048
G02 G54 X0.1174 Y-0.1174 Z0.0000 R0.1174
G02 G54 X-0.1174 Y-0.1174 Z0.0000 R0.1174
G02 G54 X-0.1174 Y0.1174 Z0.0000 R0.1174
G02 G54 X0.1174 Y0.1174 Z0.0000 R0.1174
G01 G54 X0.0000 Y-0.0266 Z-0.0043
G02 G54 X0.0907 Y-0.0907 Z0.0000 R0.0907
G02 G54 X-0.0907 Y-0.0907 Z0.0000 R0.0907
G02 G54 X-0.0907 Y0.0907 Z0.0000 R0.0907
G02 G54 X0.0907 Y0.0907 Z0.0000 R0.0907
G01 G54 X0.0000 Y-0.0266 Z-0.0038
G02 G54 X0.0640 Y-0.0640 Z0.0000 R0.0640
G02 G54 X-0.0640 Y-0.0640 Z0.0000 R0.0640
G02 G54 X-0.0640 Y0.0640 Z0.0000 R0.0640
G02 G54 X0.0640 Y0.0640 Z0.0000 R0.0640
G90
G01 G54 X40.1574 Y0.0000 Z0.0000
( Incremental hole: depth = -0.3750, diameter = 0.3729                         )
G91
G01 G54 X0.0000 Y0.0629 Z0.0000
G01 G54 X0.0000 Y0.0000 Z-0.1250
G02 G54 X0.0629 Y-0.0629 Z0.0000 R0.0629
G02 G54 X-0.0629 Y-0.0629 Z0.0000 R0.0629
G02 G54 X-0.0629 Y0.0629 Z0.0000 R0.0629
G02 G54 X0.0629 Y0.0629 Z0.0000 R0.0629
G01 G54 X0.0000 Y0.0000 Z-0.1250
G02 G54 X0.0629 Y-0.0629 Z0.0000 R0.0629
G02 G54 X-0.0629 Y-0.0629 Z0.0000 R0.0629
G02 G54 X-0.0629 Y0.0629 Z0.0000 R0.0629
G02 G54 X0.0629 Y0.0629 Z0.0000 R0.0629
G01 G54 X0.0000 Y0.0000 Z-0.1250
G02 G54 X0.0629 Y-0.0629 Z0.0000 R0.0629
G02 G54 X-0.0629 Y-0.0629 Z0.0000 R0.0629
G02 G54 X-0.0629 Y0.0629 Z0.0000 R0.0629
G02 G54 X0.0629 Y0.0629 Z0.0000 R0.0629
G02 G54 X0.0629 Y-0.0629 Z0.0000 R0.0629
G02 G54 X-0.0629 Y-0.0629 Z0.0000 R0.0629
G02 G54 X-0.0629 Y0.0629 Z0.0000 R0.0629
G02 G54 X0.0629 Y0.0629 Z0.0000 R0.0629
G02 G54 X0.0629 Y-0.0629 Z0.0000 R0.0629
G02 G54 X-0.0629 Y-0.0629 Z0.0000 R0.0629
G02 G54 X-0.0629 Y0.0629 Z0.0000 R0.0629
G02 G54 X0.0629 Y0.0629 Z0.0000 R0.0629
G02 G54 X0.0629 Y-0.0629 Z0.0000 R0.0629
G02 G54 X-0.0629 Y-0.0629 Z0.0000 R0.0629
G02 G54 X-0.0629 Y0.0629 Z0.0000 R0.0629
G02 G54 X0.0629 Y0.0629 Z0.0000 R0.0629
G01 G54 X0.0000 Y-0.0629 Z0.0000
G90
G01 G54 X40.1574 Y0.0000 Z0.0000
G91
G01 G54 X0.0000 Y0.2514 Z-0.0450
G02 G54 X0.2514 Y-0.2514 Z0.0000 R0.2514
G02 G54 X-0.2514 Y-0.2514 Z0.0000 R0.2514
G02 G54 X-0.2514 Y0.2514 Z0.0000 R0.2514
G02 G54 X0.2514 Y0.2514 Z0.0000 R0.2514
G01 G54 X0.0000 Y-0.0285 Z-0.0069
G02 G54 X0.2229 Y-0.2229 Z0.0000 R0.2229
G02 G54 X-0.2229 Y-0.2229 Z0.0000 R0.2229
G02 G54 X-0.2229 Y0.2229 Z0.0000 R0.2229
G02 G54 X0.2229 Y0.2229 Z0.0000 R0.2229
G01 G54 X0.0000 Y-0.0261 Z-0.0064
G02 G54 X0.1966 Y-0.1966 Z0.0000 R0.1966
G02 G54 X-0.1966 Y-0.1966 Z0.0000 R0.1966
G02 G54 X-0.1966 Y0.1966 Z0.0000 R0.1966
G02 G54 X0.1966 Y0.1966 Z0.0000 R0.1966
G01 G54 X0.0000 Y-0.0262 Z-0.0058
G02 G54 X0.1703 Y-0.1703 Z0.0000 R0.1703
G02 G54 X-0.1703 Y-0.1703 Z0.0000 R0.1703
G02 G54 X-0.1703 Y0.1703 Z0.0000 R0.1703
G02 G54 X0.1703 Y0.1703 Z0.0000 R0.1703
G01 G54 X0.0000 Y-0.0264 Z-0.0053
G02 G54 X0.1438 Y-0.1438 Z0.0000 R0.1438
G02 G54 X-0.1438 Y-0.1438 Z0.0000 R0.1438
G02 G54 X-0.1438 Y0.1438 Z0.0000 R0.1438
G02 G54 X0.1438 Y0.1438 Z0.0000 R0.1438
G01 G54 X0.0000 Y-0.0264 Z-0.0048
G02 G54 X0.1174 Y-0.1174 Z0.0000 R0.1174
G02 G54 X-0.1174 Y-0.1174 Z0.0000 R0.1174
G02 G54 X-0.1174 Y0.1174 Z0.0000 R0.1174
G02 G54 X0.1174 Y0.1174 Z0.0000 R0.1174
G01 G54 X0.0000 Y-0.0266 Z-0.0043
G02 G54 X0.0907 Y-0.0907 Z0.0000 R0.0907
G02 G54 X-0.0907 Y-0.0907 Z0.0000 R0.0907
G02 G54 X-0.0907 Y0.0907 Z0.0000 R0.0907
G02 G54 X0.0907 Y0.0907 Z0.0000 R0.0907
G01 G54 X0.0000 Y-0.0266 Z-0.0038
G02 G54 X0.0640 Y-0.0640 Z0.0000 R0.0640
G02 G54 X-0.0640 Y-0.0640 Z0.0000 R0.0640
G02 G54 X-0.0640 Y0.0640 Z0.0000 R0.0640
G02 G54 X0.0640 Y0.0640 Z0.0000 R0.0640
G90
G00 G54 X40.1574 Y0.0640 Z0.1000
G00 G54 X40.1574 Y0.0000 Z0.1000
G00 G54 X41.7322 Y-0.7874 Z0.1000
( A single insert                                                              )
(   Outter rim diameter = 0.7500"                                              )
(   Outter rim depth    = -0.0450"                                             )
(   Shaft diameter      = 0.3729"                                              )
(   Shaft depth         = -0.3750"                                             )
G01 G54 X41.7322 Y-0.7874 Z0.0000
G91
G01 G54 X0.0000 Y0.2514 Z-0.0450
G02 G54 X0.2514 Y-0.2514 Z0.0000 R0.2514
G02 G54 X-0.2514 Y-0.2514 Z0.0000 R0.2514
G02 G54 X-0.2514 Y0.2514 Z0.0000 R0.2514
G02 G54 X0.2514 Y0.2514 Z0.0000 R0.2514
G01 G54 X0.0000 Y-0.0285 Z-0.0069
G02 G54 X0.2229 Y-0.2229 Z0.0000 R0.2229
G02 G54 X-0.2229 Y-0.2229 Z0.0000 R0.2229
G02 G54 X-0.2229 Y0.2229 Z0.0000 R0.2229
G02 G54 X0.2229 Y0.2229 Z0.0000 R0.2229
G01 G54 X0.0000 Y-0.0261 Z-0.0064
G02 G54 X0.1966 Y-0.1966 Z0.0000 R0.1966
G02 G54 X-0.1966 Y-0.1966 Z0.0000 R0.1966
G02 G54 X-0.1966 Y0.1966 Z0.0000 R0.1966
G02 G54 X0.1966 Y0.1966 Z0.0000 R0.1966
G01 G54 X0.0000 Y-0.0262 Z-0.0058
G02 G54 X0.1703 Y-0.1703 Z0.0000 R0.1703
G02 G54 X-0.1703 Y-0.1703 Z0.0000 R0.1703
G02 G54 X-0.1703 Y0.1703 Z0.0000 R0.1703
G02 G54 X0.1703 Y0.1703 Z0.0000 R0.1703
G01 G54 X0.0000 Y-0.0264 Z-0.0053
G02 G54 X0.1438 Y-0.1438 Z0.0000 R0.1438
G02 G54 X-0.1438 Y-0.1438 Z0.0000 R0.1438
G02 G54 X-0.1438 Y0.1438 Z0.0000 R0.1438
G02 G54 X0.1438 Y0.1438 Z0.0000 R0.1438
G01 G54 X0.0000 Y-0.0264 Z-0.0048
G02 G54 X0.1174 Y-0.1174 Z0.0000 R0.1174
G02 G54 X-0.1174 Y-0.1174 Z0.0000 R0.1174
G02 G54 X-0.1174 Y0.1174 Z0.0000 R0.1174
G02 G54 X0.1174 Y0.1174 Z0.0000 R0.1174
G01 G54 X0.0000 Y-0.0266 Z-0.0043
G02 G54 X0.0907 Y-0.0907 Z0.0000 R0.0907
G02 G54 X-0.0907 Y-0.0907 Z0.0000 R0.0907
G02 G54 X-0.0907 Y0.0907 Z0.0000 R0.0907
G02 G54 X0.0907 Y0.0907 Z0.0000 R0.0907
G01 G54 X0.0000 Y-0.0266 Z-0.0038
G02 G54 X0.0640 Y-0.0640 Z0.0000 R0.0640
G02 G54 X-0.0640 Y-0.0640 Z0.0000 R0.0640
G02 G54 X-0.0640 Y0.0640 Z0.0000 R0.0640
G02 G54 X0.0640 Y0.0640 Z0.0000 R0.0640
G90
G01 G54 X41.7322 Y-0.7874 Z0.0000
( Incremental hole: depth = -0.3750, diameter = 0.3729                         )
G91
G01 G54 X0.0000 Y0.0629 Z0.0000
G01 G54 X0.0000 Y0.0000 Z-0.1250
G02 G54 X0.0629 Y-0.0629 Z0.0000 R0.0629
G02 G54 X-0.0629 Y-0.0629 Z0.0000 R0.0629
G02 G54 X-0.0629 Y0.0629 Z0.0000 R0.0629
G02 G54 X0.0629 Y0.0629 Z0.0000 R0.0629
G01 G54 X0.0000 Y0.0000 Z-0.1250
G02 G54 X0.0629 Y-0.0629 Z0.0000 R0.0629
G02 G54 X-0.0629 Y-0.0629 Z0.0000 R0.0629
G02 G54 X-0.0629 Y0.0629 Z0.0000 R0.0629
G02 G54 X0.0629 Y0.0629 Z0.0000 R0.0629
G01 G54 X0.0000 Y0.0000 Z-0.1250
G02 G54 X0.0629 Y-0.0629 Z0.0000 R0.0629
G02 G54 X-0.0629 Y-0.0629 Z0.0000 R0.0629
G02 G54 X-0.0629 Y0.0629 Z0.0000 R0.0629
G02 G54 X0.0629 Y0.0629 Z0.0000 R0.0629
G02 G54 X0.0629 Y-0.0629 Z0.0000 R0.0629
G02 G54 X-0.0629 Y-0.0629 Z0.0000 R0.0629
G02 G54 X-0.0629 Y0.0629 Z0.0000 R0.0629
G02 G54 X0.0629 Y0.0629 Z0.0000 R0.0629
G02 G54 X0.0629 Y-0.0629 Z0.0000 R0.0629
G02 G54 X-0.0629 Y-0.0629 Z0.0000 R0.0629
G02 G54 X-0.0629 Y0.0629 Z0.0000 R0.0629
G02 G54 X0.0629 Y0.0629 Z0.0000 R0.0629
G02 G54 X0.0629 Y-0.0629 Z0.0000 R0.0629
G02 G54 X-0.0629 Y-0.0629 Z0.0000 R0.0629
G02 G54 X-0.0629 Y0.0629 Z0.0000 R0.0629
G02 G54 X0.0629 Y0.0629 Z0.0000 R0.0629
G01 G54 X0.0000 Y-0.0629 Z0.0000
G90
G01 G54 X41.7322 Y-0.7874 Z0.0000
G91
G01 G54 X0.0000 Y0.2514 Z-0.0450
G02 G54 X0.2514 Y-0.2514 Z0.0000 R0.2514
G02 G54 X-0.2514 Y-0.2514 Z0.0000 R0.2514
G02 G54 X-0.2514 Y0.2514 Z0.0000 R0.2514
G02 G54 X0.2514 Y0.2514 Z0.0000 R0.2514
G01 G54 X0.0000 Y-0.0285 Z-0.0069
G02 G54 X0.2229 Y-0.2229 Z0.0000 R0.2229
G02 G54 X-0.2229 Y-0.2229 Z0.0000 R0.2229
G02 G54 X-0.2229 Y0.2229 Z0.0000 R0.2229
G02 G54 X0.2229 Y0.2229 Z0.0000 R0.2229
G01 G54 X0.0000 Y-0.0261 Z-0.0064
G02 G54 X0.1966 Y-0.1966 Z0.0000 R0.1966
G02 G54 X-0.1966 Y-0.1966 Z0.0000 R0.1966
G02 G54 X-0.1966 Y0.1966 Z0.0000 R0.1966
G02 G54 X0.1966 Y0.1966 Z0.0000 R0.1966
G01 G54 X0.0000 Y-0.0262 Z-0.0058
G02 G54 X0.1703 Y-0.1703 Z0.0000 R0.1703
G02 G54 X-0.1703 Y-0.1703 Z0.0000 R0.1703
G02 G54 X-0.1703 Y0.1703 Z0.0000 R0.1703
G02 G54 X0.1703 Y0.1703 Z0.0000 R0.1703
G01 G54 X0.0000 Y-0.0264 Z-0.0053
G02 G54 X0.1438 Y-0.1438 Z0.0000 R0.1438
G02 G54 X-0.1438 Y-0.1438 Z0.0000 R0.1438
G02 G54 X-0.1438 Y0.1438 Z0.0000 R0.1438
G02 G54 X0.1438 Y0.1438 Z0.0000 R0.1438
G01 G54 X0.0000 Y-0.0264 Z-0.0048
G02 G54 X0.1174 Y-0.1174 Z0.0000 R0.1174
G02 G54 X-0.1174 Y-0.1174 Z0.0000 R0.1174
G02 G54 X-0.1174 Y0.1174 Z0.0000 R0.1174
G02 G54 X0.1174 Y0.1174 Z0.0000 R0.1174
G01 G54 X0.0000 Y-0.0266 Z-0.0043
G02 G54 X0.0907 Y-0.0907 Z0.0000 R0.0907
G02 G54 X-0.0907 Y-0.0907 Z0.0000 R0.0907
G02 G54 X-0.0907 Y0.0907 Z0.0000 R0.0907
G02 G54 X0.0907 Y0.0907 Z0.0000 R0.0907
G01 G54 X0.0000 Y-0.0266 Z-0.0038
G02 G54 X0.0640 Y-0.0640 Z0.0000 R0.0640
G02 G54 X-0.0640 Y-0.0640 Z0.0000 R0.0640
G02 G54 X-0.0640 Y0.0640 Z0.0000 R0.0640
G02 G54 X0.0640 Y0.0640 Z0.0000 R0.0640
G90
G00 G54 X41.7322 Y-0.7233 Z0.1000
G00 G54 X41.7322 Y-0.7874 Z0.1000
G00 G54 X41.7322 Y0.7874 Z0.1000
( A single insert                                                              )
(   Outter rim diameter = 0.7500"                                              )
(   Outter rim depth    = -0.0450"                                             )
(   Shaft diameter      = 0.3729"                                              )
(   Shaft depth         = -0.3750"                                             )
G01 G54 X41.7322 Y0.7874 Z0.0000
G91
G01 G54 X0.0000 Y0.2514 Z-0.0450
G02 G54 X0.2514 Y-0.2514 Z0.0000 R0.2514
G02 G54 X-0.2514 Y-0.2514 Z0.0000 R0.2514
G02 G54 X-0.2514 Y0.2514 Z0.0000 R0.2514
G02 G54 X0.2514 Y0.2514 Z0.0000 R0.2514
G01 G54 X0.0000 Y-0.0285 Z-0.0069
G02 G54 X0.2229 Y-0.2229 Z0.0000 R0.2229
G02 G54 X-0.2229 Y-0.2229 Z0.0000 R0.2229
G02 G54 X-0.2229 Y0.2229 Z0.0000 R0.2229
G02 G54 X0.2229 Y0.2229 Z0.0000 R0.2229
G01 G54 X0.0000 Y-0.0261 Z-0.0064
G02 G54 X0.1966 Y-0.1966 Z0.0000 R0.1966
G02 G54 X-0.1966 Y-0.1966 Z0.0000 R0.1966
G02 G54 X-0.1966 Y0.1966 Z0.0000 R0.1966
G02 G54 X0.1966 Y0.1966 Z0.0000 R0.1966
G01 G54 X0.0000 Y-0.0262 Z-0.0058
G02 G54 X0.1703 Y-0.1703 Z0.0000 R0.1703
G02 G54 X-0.1703 Y-0.1703 Z0.0000 R0.1703
G02 G54 X-0.1703 Y0.1703 Z0.0000 R0.1703
G02 G54 X0.1703 Y0.1703 Z0.0000 R0.1703
G01 G54 X0.0000 Y-0.0264 Z-0.0053
G02 G54 X0.1438 Y-0.1438 Z0.0000 R0.1438
G02 G54 X-0.1438 Y-0.1438 Z0.0000 R0.1438
G02 G54 X-0.1438 Y0.1438 Z0.0000 R0.1438
G02 G54 X0.1438 Y0.1438 Z0.0000 R0.1438
G01 G54 X0.0000 Y-0.0264 Z-0.0048
G02 G54 X0.1174 Y-0.1174 Z0.0000 R0.1174
G02 G54 X-0.1174 Y-0.1174 Z0.0000 R0.1174
G02 G54 X-0.1174 Y0.1174 Z0.0000 R0.1174
G02 G54 X0.1174 Y0.1174 Z0.0000 R0.1174
G01 G54 X0.0000 Y-0.0266 Z-0.0043
G02 G54 X0.0907 Y-0.0907 Z0.0000 R0.0907
G02 G54 X-0.0907 Y-0.0907 Z0.0000 R0.0907
G02 G54 X-0.0907 Y0.0907 Z0.0000 R0.0907
G02 G54 X0.0907 Y0.0907 Z0.0000 R0.0907
G01 G54 X0.0000 Y-0.0266 Z-0.0038
G02 G54 X0.0640 Y-0.0640 Z0.0000 R0.0640
G02 G54 X-0.0640 Y-0.0640 Z0.0000 R0.0640
G02 G54 X-0.0640 Y0.0640 Z0.0000 R0.0640
G02 G54 X0.0640 Y0.0640 Z0.0000 R0.0640
G90
G01 G54 X41.7322 Y0.7874 Z0.0000
( Incremental hole: depth = -0.3750, diameter = 0.3729                         )
G91
G01 G54 X0.0000 Y0.0629 Z0.0000
G01 G54 X0.0000 Y0.0000 Z-0.1250
G02 G54 X0.0629 Y-0.0629 Z0.0000 R0.0629
G02 G54 X-0.0629 Y-0.0629 Z0.0000 R0.0629
G02 G54 X-0.0629 Y0.0629 Z0.0000 R0.0629
G02 G54 X0.0629 Y0.0629 Z0.0000 R0.0629
G01 G54 X0.0000 Y0.0000 Z-0.1250
G02 G54 X0.0629 Y-0.0629 Z0.0000 R0.0629
G02 G54 X-0.0629 Y-0.0629 Z0.0000 R0.0629
G02 G54 X-0.0629 Y0.0629 Z0.0000 R0.0629
G02 G54 X0.0629 Y0.0629 Z0.0000 R0.0629
G01 G54 X0.0000 Y0.0000 Z-0.1250
G02 G54 X0.0629 Y-0.0629 Z0.0000 R0.0629
G02 G54 X-0.0629 Y-0.0629 Z0.0000 R0.0629
G02 G54 X-0.0629 Y0.0629 Z0.0000 R0.0629
G02 G54 X0.0629 Y0.0629 Z0.0000 R0.0629
G02 G54 X0.0629 Y-0.0629 Z0.0000 R0.0629
G02 G54 X-0.0629 Y-0.0629 Z0.0000 R0.0629
G02 G54 X-0.0629 Y0.0629 Z0.0000 R0.0629
G02 G54 X0.0629 Y0.0629 Z0.0000 R0.0629
G02 G54 X0.0629 Y-0.0629 Z0.0000 R0.0629
G02 G54 X-0.0629 Y-0.0629 Z0.0000 R0.0629
G02 G54 X-0.0629 Y0.0629 Z0.0000 R0.0629
G02 G54 X0.0629 Y0.0629 Z0.0000 R0.0629
G02 G54 X0.0629 Y-0.0629 Z0.0000 R0.0629
G02 G54 X-0.0629 Y-0.0629 Z0.0000 R0.0629
G02 G54 X-0.0629 Y0.0629 Z0.0000 R0.0629
G02 G54 X0.0629 Y0.0629 Z0.0000 R0.0629
G01 G54 X0.0000 Y-0.0629 Z0.0000
G90
G01 G54 X41.7322 Y0.7874 Z0.0000
G91
G01 G54 X0.0000 Y0.2514 Z-0.0450
G02 G54 X0.2514 Y-0.2514 Z0.0000 R0.2514
G02 G54 X-0.2514 Y-0.2514 Z0.0000 R0.2514
G02 G54 X-0.2514 Y0.2514 Z0.0000 R0.2514
G02 G54 X0.2514 Y0.2514 Z0.0000 R0.2514
G01 G54 X0.0000 Y-0.0285 Z-0.0069
G02 G54 X0.2229 Y-0.2229 Z0.0000 R0.2229
G02 G54 X-0.2229 Y-0.2229 Z0.0000 R0.2229
G02 G54 X-0.2229 Y0.2229 Z0.0000 R0.2229
G02 G54 X0.2229 Y0.2229 Z0.0000 R0.2229
G01 G54 X0.0000 Y-0.0261 Z-0.0064
G02 G54 X0.1966 Y-0.1966 Z0.0000 R0.1966
G02 G54 X-0.1966 Y-0.1966 Z0.0000 R0.1966
G02 G54 X-0.1966 Y0.1966 Z0.0000 R0.1966
G02 G54 X0.1966 Y0.1966 Z0.0000 R0.1966
G01 G54 X0.0000 Y-0.0262 Z-0.0058
G02 G54 X0.1703 Y-0.1703 Z0.0000 R0.1703
G02 G54 X-0.1703 Y-0.1703 Z0.0000 R0.1703
G02 G54 X-0.1703 Y0.1703 Z0.0000 R0.1703
G02 G54 X0.1703 Y0.1703 Z0.0000 R0.1703
G01 G54 X0.0000 Y-0.0264 Z-0.0053
G02 G54 X0.1438 Y-0.1438 Z0.0000 R0.1438
G02 G54 X-0.1438 Y-0.1438 Z0.0000 R0.1438
G02 G54 X-0.1438 Y0.1438 Z0.0000 R0.1438
G02 G54 X0.1438 Y0.1438 Z0.0000 R0.1438
G01 G54 X0.0000 Y-0.0264 Z-0.0048
G02 G54 X0.1174 Y-0.1174 Z0.0000 R0.1174
G02 G54 X-0.1174 Y-0.1174 Z0.0000 R0.1174
G02 G54 X-0.1174 Y0.1174 Z0.0000 R0.1174
G02 G54 X0.1174 Y0.1174 Z0.0000 R0.1174
G01 G54 X0.0000 Y-0.0266 Z-0.0043
G02 G54 X0.0907 Y-0.0907 Z0.0000 R0.0907
G02 G54 X-0.0907 Y-0.0907 Z0.0000 R0.0907
G02 G54 X-0.0907 Y0.0907 Z0.0000 R0.0907
G02 G54 X0.0907 Y0.0907 Z0.0000 R0.0907
G01 G54 X0.0000 Y-0.0266 Z-0.0038
G02 G54 X0.0640 Y-0.0640 Z0.0000 R0.0640
G02 G54 X-0.0640 Y-0.0640 Z0.0000 R0.0640
G02 G54 X-0.0640 Y0.0640 Z0.0000 R0.0640
G02 G54 X0.0640 Y0.0640 Z0.0000 R0.0640
G90
G00 G54 X41.7322 Y0.8514 Z0.1000
G00 G54 X41.7322 Y0.7874 Z0.1000
G00 G54 X43.3070 Y-0.7874 Z0.1000
( A single insert                                                              )
(   Outter rim diameter = 0.7500"                                              )
(   Outter rim depth    = -0.0450"                                             )
(   Shaft diameter      = 0.3729"                                              )
(   Shaft depth         = -0.3750"                                             )
G01 G54 X43.3070 Y-0.7874 Z0.0000
G91
G01 G54 X0.0000 Y0.2514 Z-0.0450
G02 G54 X0.2514 Y-0.2514 Z0.0000 R0.2514
G02 G54 X-0.2514 Y-0.2514 Z0.0000 R0.2514
G02 G54 X-0.2514 Y0.2514 Z0.0000 R0.2514
G02 G54 X0.2514 Y0.2514 Z0.0000 R0.2514
G01 G54 X0.0000 Y-0.0285 Z-0.0069
G02 G54 X0.2229 Y-0.2229 Z0.0000 R0.2229
G02 G54 X-0.2229 Y-0.2229 Z0.0000 R0.2229
G02 G54 X-0.2229 Y0.2229 Z0.0000 R0.2229
G02 G54 X0.2229 Y0.2229 Z0.0000 R0.2229
G01 G54 X0.0000 Y-0.0261 Z-0.0064
G02 G54 X0.1966 Y-0.1966 Z0.0000 R0.1966
G02 G54 X-0.1966 Y-0.1966 Z0.0000 R0.1966
G02 G54 X-0.1966 Y0.1966 Z0.0000 R0.1966
G02 G54 X0.1966 Y0.1966 Z0.0000 R0.1966
G01 G54 X0.0000 Y-0.0262 Z-0.0058
G02 G54 X0.1703 Y-0.1703 Z0.0000 R0.1703
G02 G54 X-0.1703 Y-0.1703 Z0.0000 R0.1703
G02 G54 X-0.1703 Y0.1703 Z0.0000 R0.1703
G02 G54 X0.1703 Y0.1703 Z0.0000 R0.1703
G01 G54 X0.0000 Y-0.0264 Z-0.0053
G02 G54 X0.1438 Y-0.1438 Z0.0000 R0.1438
G02 G54 X-0.1438 Y-0.1438 Z0.0000 R0.1438
G02 G54 X-0.1438 Y0.1438 Z0.0000 R0.1438
G02 G54 X0.1438 Y0.1438 Z0.0000 R0.1438
G01 G54 X0.0000 Y-0.0264 Z-0.0048
G02 G54 X0.1174 Y-0.1174 Z0.0000 R0.1174
G02 G54 X-0.1174 Y-0.1174 Z0.0000 R0.1174
G02 G54 X-0.1174 Y0.1174 Z0.0000 R0.1174
G02 G54 X0.1174 Y0.1174 Z0.0000 R0.1174
G01 G54 X0.0000 Y-0.0266 Z-0.0043
G02 G54 X0.0907 Y-0.0907 Z0.0000 R0.0907
G02 G54 X-0.0907 Y-0.0907 Z0.0000 R0.0907
G02 G54 X-0.0907 Y0.0907 Z0.0000 R0.0907
G02 G54 X0.0907 Y0.0907 Z0.0000 R0.0907
G01 G54 X0.0000 Y-0.0266 Z-0.0038
G02 G54 X0.0640 Y-0.0640 Z0.0000 R0.0640
G02 G54 X-0.0640 Y-0.0640 Z0.0000 R0.0640
G02 G54 X-0.0640 Y0.0640 Z0.0000 R0.0640
G02 G54 X0.0640 Y0.0640 Z0.0000 R0.0640
G90
G01 G54 X43.3070 Y-0.7874 Z0.0000
( Incremental hole: depth = -0.3750, diameter = 0.3729                         )
G91
G01 G54 X0.0000 Y0.0629 Z0.0000
G01 G54 X0.0000 Y0.0000 Z-0.1250
G02 G54 X0.0629 Y-0.0629 Z0.0000 R0.0629
G02 G54 X-0.0629 Y-0.0629 Z0.0000 R0.0629
G02 G54 X-0.0629 Y0.0629 Z0.0000 R0.0629
G02 G54 X0.0629 Y0.0629 Z0.0000 R0.0629
G01 G54 X0.0000 Y0.0000 Z-0.1250
G02 G54 X0.0629 Y-0.0629 Z0.0000 R0.0629
G02 G54 X-0.0629 Y-0.0629 Z0.0000 R0.0629
G02 G54 X-0.0629 Y0.0629 Z0.0000 R0.0629
G02 G54 X0.0629 Y0.0629 Z0.0000 R0.0629
G01 G54 X0.0000 Y0.0000 Z-0.1250
G02 G54 X0.0629 Y-0.0629 Z0.0000 R0.0629
G02 G54 X-0.0629 Y-0.0629 Z0.0000 R0.0629
G02 G54 X-0.0629 Y0.0629 Z0.0000 R0.0629
G02 G54 X0.0629 Y0.0629 Z0.0000 R0.0629
G02 G54 X0.0629 Y-0.0629 Z0.0000 R0.0629
G02 G54 X-0.0629 Y-0.0629 Z0.0000 R0.0629
G02 G54 X-0.0629 Y0.0629 Z0.0000 R0.0629
G02 G54 X0.0629 Y0.0629 Z0.0000 R0.0629
G02 G54 X0.0629 Y-0.0629 Z0.0000 R0.0629
G02 G54 X-0.0629 Y-0.0629 Z0.0000 R0.0629
G02 G54 X-0.0629 Y0.0629 Z0.0000 R0.0629
G02 G54 X0.0629 Y0.0629 Z0.0000 R0.0629
G02 G54 X0.0629 Y-0.0629 Z0.0000 R0.0629
G02 G54 X-0.0629 Y-0.0629 Z0.0000 R0.0629
G02 G54 X-0.0629 Y0.0629 Z0.0000 R0.0629
G02 G54 X0.0629 Y0.0629 Z0.0000 R0.0629
G01 G54 X0.0000 Y-0.0629 Z0.0000
G90
G01 G54 X43.3070 Y-0.7874 Z0.0000
G91
G01 G54 X0.0000 Y0.2514 Z-0.0450
G02 G54 X0.2514 Y-0.2514 Z0.0000 R0.2514
G02 G54 X-0.2514 Y-0.2514 Z0.0000 R0.2514
G02 G54 X-0.2514 Y0.2514 Z0.0000 R0.2514
G02 G54 X0.2514 Y0.2514 Z0.0000 R0.2514
G01 G54 X0.0000 Y-0.0285 Z-0.0069
G02 G54 X0.2229 Y-0.2229 Z0.0000 R0.2229
G02 G54 X-0.2229 Y-0.2229 Z0.0000 R0.2229
G02 G54 X-0.2229 Y0.2229 Z0.0000 R0.2229
G02 G54 X0.2229 Y0.2229 Z0.0000 R0.2229
G01 G54 X0.0000 Y-0.0261 Z-0.0064
G02 G54 X0.1966 Y-0.1966 Z0.0000 R0.1966
G02 G54 X-0.1966 Y-0.1966 Z0.0000 R0.1966
G02 G54 X-0.1966 Y0.1966 Z0.0000 R0.1966
G02 G54 X0.1966 Y0.1966 Z0.0000 R0.1966
G01 G54 X0.0000 Y-0.0262 Z-0.0058
G02 G54 X0.1703 Y-0.1703 Z0.0000 R0.1703
G02 G54 X-0.1703 Y-0.1703 Z0.0000 R0.1703
G02 G54 X-0.1703 Y0.1703 Z0.0000 R0.1703
G02 G54 X0.1703 Y0.1703 Z0.0000 R0.1703
G01 G54 X0.0000 Y-0.0264 Z-0.0053
G02 G54 X0.1438 Y-0.1438 Z0.0000 R0.1438
G02 G54 X-0.1438 Y-0.1438 Z0.0000 R0.1438
G02 G54 X-0.1438 Y0.1438 Z0.0000 R0.1438
G02 G54 X0.1438 Y0.1438 Z0.0000 R0.1438
G01 G54 X0.0000 Y-0.0264 Z-0.0048
G02 G54 X0.1174 Y-0.1174 Z0.0000 R0.1174
G02 G54 X-0.1174 Y-0.1174 Z0.0000 R0.1174
G02 G54 X-0.1174 Y0.1174 Z0.0000 R0.1174
G02 G54 X0.1174 Y0.1174 Z0.0000 R0.1174
G01 G54 X0.0000 Y-0.0266 Z-0.0043
G02 G54 X0.0907 Y-0.0907 Z0.0000 R0.0907
G02 G54 X-0.0907 Y-0.0907 Z0.0000 R0.0907
G02 G54 X-0.0907 Y0.0907 Z0.0000 R0.0907
G02 G54 X0.0907 Y0.0907 Z0.0000 R0.0907
G01 G54 X0.0000 Y-0.0266 Z-0.0038
G02 G54 X0.0640 Y-0.0640 Z0.0000 R0.0640
G02 G54 X-0.0640 Y-0.0640 Z0.0000 R0.0640
G02 G54 X-0.0640 Y0.0640 Z0.0000 R0.0640
G02 G54 X0.0640 Y0.0640 Z0.0000 R0.0640
G90
G00 G54 X43.3070 Y-0.7233 Z0.1000
G00 G54 X43.3070 Y-0.7874 Z0.1000
G00 G54 X43.3070 Y0.7874 Z0.1000
( A single insert                                                              )
(   Outter rim diameter = 0.7500"                                              )
(   Outter rim depth    = -0.0450"                                             )
(   Shaft diameter      = 0.3729"                                              )
(   Shaft depth         = -0.3750"                                             )
G01 G54 X43.3070 Y0.7874 Z0.0000
G91
G01 G54 X0.0000 Y0.2514 Z-0.0450
G02 G54 X0.2514 Y-0.2514 Z0.0000 R0.2514
G02 G54 X-0.2514 Y-0.2514 Z0.0000 R0.2514
G02 G54 X-0.2514 Y0.2514 Z0.0000 R0.2514
G02 G54 X0.2514 Y0.2514 Z0.0000 R0.2514
G01 G54 X0.0000 Y-0.0285 Z-0.0069
G02 G54 X0.2229 Y-0.2229 Z0.0000 R0.2229
G02 G54 X-0.2229 Y-0.2229 Z0.0000 R0.2229
G02 G54 X-0.2229 Y0.2229 Z0.0000 R0.2229
G02 G54 X0.2229 Y0.2229 Z0.0000 R0.2229
G01 G54 X0.0000 Y-0.0261 Z-0.0064
G02 G54 X0.1966 Y-0.1966 Z0.0000 R0.1966
G02 G54 X-0.1966 Y-0.1966 Z0.0000 R0.1966
G02 G54 X-0.1966 Y0.1966 Z0.0000 R0.1966
G02 G54 X0.1966 Y0.1966 Z0.0000 R0.1966
G01 G54 X0.0000 Y-0.0262 Z-0.0058
G02 G54 X0.1703 Y-0.1703 Z0.0000 R0.1703
G02 G54 X-0.1703 Y-0.1703 Z0.0000 R0.1703
G02 G54 X-0.1703 Y0.1703 Z0.0000 R0.1703
G02 G54 X0.1703 Y0.1703 Z0.0000 R0.1703
G01 G54 X0.0000 Y-0.0264 Z-0.0053
G02 G54 X0.1438 Y-0.1438 Z0.0000 R0.1438
G02 G54 X-0.1438 Y-0.1438 Z0.0000 R0.1438
G02 G54 X-0.1438 Y0.1438 Z0.0000 R0.1438
G02 G54 X0.1438 Y0.1438 Z0.0000 R0.1438
G01 G54 X0.0000 Y-0.0264 Z-0.0048
G02 G54 X0.1174 Y-0.1174 Z0.0000 R0.1174
G02 G54 X-0.1174 Y-0.1174 Z0.0000 R0.1174
G02 G54 X-0.1174 Y0.1174 Z0.0000 R0.1174
G02 G54 X0.1174 Y0.1174 Z0.0000 R0.1174
G01 G54 X0.0000 Y-0.0266 Z-0.0043
G02 G54 X0.0907 Y-0.0907 Z0.0000 R0.0907
G02 G54 X-0.0907 Y-0.0907 Z0.0000 R0.0907
G02 G54 X-0.0907 Y0.0907 Z0.0000 R0.0907
G02 G54 X0.0907 Y0.0907 Z0.0000 R0.0907
G01 G54 X0.0000 Y-0.0266 Z-0.0038
G02 G54 X0.0640 Y-0.0640 Z0.0000 R0.0640
G02 G54 X-0.0640 Y-0.0640 Z0.0000 R0.0640
G02 G54 X-0.0640 Y0.0640 Z0.0000 R0.0640
G02 G54 X0.0640 Y0.0640 Z0.0000 R0.0640
G90
G01 G54 X43.3070 Y0.7874 Z0.0000
( Incremental hole: depth = -0.3750, diameter = 0.3729                         )
G91
G01 G54 X0.0000 Y0.0629 Z0.0000
G01 G54 X0.0000 Y0.0000 Z-0.1250
G02 G54 X0.0629 Y-0.0629 Z0.0000 R0.0629
G02 G54 X-0.0629 Y-0.0629 Z0.0000 R0.0629
G02 G54 X-0.0629 Y0.0629 Z0.0000 R0.0629
G02 G54 X0.0629 Y0.0629 Z0.0000 R0.0629
G01 G54 X0.0000 Y0.0000 Z-0.1250
G02 G54 X0.0629 Y-0.0629 Z0.0000 R0.0629
G02 G54 X-0.0629 Y-0.0629 Z0.0000 R0.0629
G02 G54 X-0.0629 Y0.0629 Z0.0000 R0.0629
G02 G54 X0.0629 Y0.0629 Z0.0000 R0.0629
G01 G54 X0.0000 Y0.0000 Z-0.1250
G02 G54 X0.0629 Y-0.0629 Z0.0000 R0.0629
G02 G54 X-0.0629 Y-0.0629 Z0.0000 R0.0629
G02 G54 X-0.0629 Y0.0629 Z0.0000 R0.0629
G02 G54 X0.0629 Y0.0629 Z0.0000 R0.0629
G02 G54 X0.0629 Y-0.0629 Z0.0000 R0.0629
G02 G54 X-0.0629 Y-0.0629 Z0.0000 R0.0629
G02 G54 X-0.0629 Y0.0629 Z0.0000 R0.0629
G02 G54 X0.0629 Y0.0629 Z0.0000 R0.0629
G02 G54 X0.0629 Y-0.0629 Z0.0000 R0.0629
G02 G54 X-0.0629 Y-0.0629 Z0.0000 R0.0629
G02 G54 X-0.0629 Y0.0629 Z0.0000 R0.0629
G02 G54 X0.0629 Y0.0629 Z0.0000 R0.0629
G02 G54 X0.0629 Y-0.0629 Z0.0000 R0.0629
G02 G54 X-0.0629 Y-0.0629 Z0.0000 R0.0629
G02 G54 X-0.0629 Y0.0629 Z0.0000 R0.0629
G02 G54 X0.0629 Y0.0629 Z0.0000 R0.0629
G01 G54 X0.0000 Y-0.0629 Z0.0000
G90
G01 G54 X43.3070 Y0.7874 Z0.0000
G91
G01 G54 X0.0000 Y0.2514 Z-0.0450
G02 G54 X0.2514 Y-0.2514 Z0.0000 R0.2514
G02 G54 X-0.2514 Y-0.2514 Z0.0000 R0.2514
G02 G54 X-0.2514 Y0.2514 Z0.0000 R0.2514
G02 G54 X0.2514 Y0.2514 Z0.0000 R0.2514
G01 G54 X0.0000 Y-0.0285 Z-0.0069
G02 G54 X0.2229 Y-0.2229 Z0.0000 R0.2229
G02 G54 X-0.2229 Y-0.2229 Z0.0000 R0.2229
G02 G54 X-0.2229 Y0.2229 Z0.0000 R0.2229
G02 G54 X0.2229 Y0.2229 Z0.0000 R0.2229
G01 G54 X0.0000 Y-0.0261 Z-0.0064
G02 G54 X0.1966 Y-0.1966 Z0.0000 R0.1966
G02 G54 X-0.1966 Y-0.1966 Z0.0000 R0.1966
G02 G54 X-0.1966 Y0.1966 Z0.0000 R0.1966
G02 G54 X0.1966 Y0.1966 Z0.0000 R0.1966
G01 G54 X0.0000 Y-0.0262 Z-0.0058
G02 G54 X0.1703 Y-0.1703 Z0.0000 R0.1703
G02 G54 X-0.1703 Y-0.1703 Z0.0000 R0.1703
G02 G54 X-0.1703 Y0.1703 Z0.0000 R0.1703
G02 G54 X0.1703 Y0.1703 Z0.0000 R0.1703
G01 G54 X0.0000 Y-0.0264 Z-0.0053
G02 G54 X0.1438 Y-0.1438 Z0.0000 R0.1438
G02 G54 X-0.1438 Y-0.1438 Z0.0000 R0.1438
G02 G54 X-0.1438 Y0.1438 Z0.0000 R0.1438
G02 G54 X0.1438 Y0.1438 Z0.0000 R0.1438
G01 G54 X0.0000 Y-0.0264 Z-0.0048
G02 G54 X0.1174 Y-0.1174 Z0.0000 R0.1174
G02 G54 X-0.1174 Y-0.1174 Z0.0000 R0.1174
G02 G54 X-0.1174 Y0.1174 Z0.0000 R0.1174
G02 G54 X0.1174 Y0.1174 Z0.0000 R0.1174
G01 G54 X0.0000 Y-0.0266 Z-0.0043
G02 G54 X0.0907 Y-0.0907 Z0.0000 R0.0907
G02 G54 X-0.0907 Y-0.0907 Z0.0000 R0.0907
G02 G54 X-0.0907 Y0.0907 Z0.0000 R0.0907
G02 G54 X0.0907 Y0.0907 Z0.0000 R0.0907
G01 G54 X0.0000 Y-0.0266 Z-0.0038
G02 G54 X0.0640 Y-0.0640 Z0.0000 R0.0640
G02 G54 X-0.0640 Y-0.0640 Z0.0000 R0.0640
G02 G54 X-0.0640 Y0.0640 Z0.0000 R0.0640
G02 G54 X0.0640 Y0.0640 Z0.0000 R0.0640
G90
G00 G54 X43.3070 Y0.8514 Z0.1000
G00 G54 X43.3070 Y0.7874 Z0.1000
G00 G54 X44.8818 Y-0.7874 Z0.1000
( A single insert                                                              )
(   Outter rim diameter = 0.7500"                                              )
(   Outter rim depth    = -0.0450"                                             )
(   Shaft diameter      = 0.3729"                                              )
(   Shaft depth         = -0.3750"                                             )
G01 G54 X44.8818 Y-0.7874 Z0.0000
G91
G01 G54 X0.0000 Y0.2514 Z-0.0450
G02 G54 X0.2514 Y-0.2514 Z0.0000 R0.2514
G02 G54 X-0.2514 Y-0.2514 Z0.0000 R0.2514
G02 G54 X-0.2514 Y0.2514 Z0.0000 R0.2514
G02 G54 X0.2514 Y0.2514 Z0.0000 R0.2514
G01 G54 X0.0000 Y-0.0285 Z-0.0069
G02 G54 X0.2229 Y-0.2229 Z0.0000 R0.2229
G02 G54 X-0.2229 Y-0.2229 Z0.0000 R0.2229
G02 G54 X-0.2229 Y0.2229 Z0.0000 R0.2229
G02 G54 X0.2229 Y0.2229 Z0.0000 R0.2229
G01 G54 X0.0000 Y-0.0261 Z-0.0064
G02 G54 X0.1966 Y-0.1966 Z0.0000 R0.1966
G02 G54 X-0.1966 Y-0.1966 Z0.0000 R0.1966
G02 G54 X-0.1966 Y0.1966 Z0.0000 R0.1966
G02 G54 X0.1966 Y0.1966 Z0.0000 R0.1966
G01 G54 X0.0000 Y-0.0262 Z-0.0058
G02 G54 X0.1703 Y-0.1703 Z0.0000 R0.1703
G02 G54 X-0.1703 Y-0.1703 Z0.0000 R0.1703
G02 G54 X-0.1703 Y0.1703 Z0.0000 R0.1703
G02 G54 X0.1703 Y0.1703 Z0.0000 R0.1703
G01 G54 X0.0000 Y-0.0264 Z-0.0053
G02 G54 X0.1438 Y-0.1438 Z0.0000 R0.1438
G02 G54 X-0.1438 Y-0.1438 Z0.0000 R0.1438
G02 G54 X-0.1438 Y0.1438 Z0.0000 R0.1438
G02 G54 X0.1438 Y0.1438 Z0.0000 R0.1438
G01 G54 X0.0000 Y-0.0264 Z-0.0048
G02 G54 X0.1174 Y-0.1174 Z0.0000 R0.1174
G02 G54 X-0.1174 Y-0.1174 Z0.0000 R0.1174
G02 G54 X-0.1174 Y0.1174 Z0.0000 R0.1174
G02 G54 X0.1174 Y0.1174 Z0.0000 R0.1174
G01 G54 X0.0000 Y-0.0266 Z-0.0043
G02 G54 X0.0907 Y-0.0907 Z0.0000 R0.0907
G02 G54 X-0.0907 Y-0.0907 Z0.0000 R0.0907
G02 G54 X-0.0907 Y0.0907 Z0.0000 R0.0907
G02 G54 X0.0907 Y0.0907 Z0.0000 R0.0907
G01 G54 X0.0000 Y-0.0266 Z-0.0038
G02 G54 X0.0640 Y-0.0640 Z0.0000 R0.0640
G02 G54 X-0.0640 Y-0.0640 Z0.0000 R0.0640
G02 G54 X-0.0640 Y0.0640 Z0.0000 R0.0640
G02 G54 X0.0640 Y0.0640 Z0.0000 R0.0640
G90
G01 G54 X44.8818 Y-0.7874 Z0.0000
( Incremental hole: depth = -0.3750, diameter = 0.3729                         )
G91
G01 G54 X0.0000 Y0.0629 Z0.0000
G01 G54 X0.0000 Y0.0000 Z-0.1250
G02 G54 X0.0629 Y-0.0629 Z0.0000 R0.0629
G02 G54 X-0.0629 Y-0.0629 Z0.0000 R0.0629
G02 G54 X-0.0629 Y0.0629 Z0.0000 R0.0629
G02 G54 X0.0629 Y0.0629 Z0.0000 R0.0629
G01 G54 X0.0000 Y0.0000 Z-0.1250
G02 G54 X0.0629 Y-0.0629 Z0.0000 R0.0629
G02 G54 X-0.0629 Y-0.0629 Z0.0000 R0.0629
G02 G54 X-0.0629 Y0.0629 Z0.0000 R0.0629
G02 G54 X0.0629 Y0.0629 Z0.0000 R0.0629
G01 G54 X0.0000 Y0.0000 Z-0.1250
G02 G54 X0.0629 Y-0.0629 Z0.0000 R0.0629
G02 G54 X-0.0629 Y-0.0629 Z0.0000 R0.0629
G02 G54 X-0.0629 Y0.0629 Z0.0000 R0.0629
G02 G54 X0.0629 Y0.0629 Z0.0000 R0.0629
G02 G54 X0.0629 Y-0.0629 Z0.0000 R0.0629
G02 G54 X-0.0629 Y-0.0629 Z0.0000 R0.0629
G02 G54 X-0.0629 Y0.0629 Z0.0000 R0.0629
G02 G54 X0.0629 Y0.0629 Z0.0000 R0.0629
G02 G54 X0.0629 Y-0.0629 Z0.0000 R0.0629
G02 G54 X-0.0629 Y-0.0629 Z0.0000 R0.0629
G02 G54 X-0.0629 Y0.0629 Z0.0000 R0.0629
G02 G54 X0.0629 Y0.0629 Z0.0000 R0.0629
G02 G54 X0.0629 Y-0.0629 Z0.0000 R0.0629
G02 G54 X-0.0629 Y-0.0629 Z0.0000 R0.0629
G02 G54 X-0.0629 Y0.0629 Z0.0000 R0.0629
G02 G54 X0.0629 Y0.0629 Z0.0000 R0.0629
G01 G54 X0.0000 Y-0.0629 Z0.0000
G90
G01 G54 X44.8818 Y-0.7874 Z0.0000
G91
G01 G54 X0.0000 Y0.2514 Z-0.0450
G02 G54 X0.2514 Y-0.2514 Z0.0000 R0.2514
G02 G54 X-0.2514 Y-0.2514 Z0.0000 R0.2514
G02 G54 X-0.2514 Y0.2514 Z0.0000 R0.2514
G02 G54 X0.2514 Y0.2514 Z0.0000 R0.2514
G01 G54 X0.0000 Y-0.0285 Z-0.0069
G02 G54 X0.2229 Y-0.2229 Z0.0000 R0.2229
G02 G54 X-0.2229 Y-0.2229 Z0.0000 R0.2229
G02 G54 X-0.2229 Y0.2229 Z0.0000 R0.2229
G02 G54 X0.2229 Y0.2229 Z0.0000 R0.2229
G01 G54 X0.0000 Y-0.0261 Z-0.0064
G02 G54 X0.1966 Y-0.1966 Z0.0000 R0.1966
G02 G54 X-0.1966 Y-0.1966 Z0.0000 R0.1966
G02 G54 X-0.1966 Y0.1966 Z0.0000 R0.1966
G02 G54 X0.1966 Y0.1966 Z0.0000 R0.1966
G01 G54 X0.0000 Y-0.0262 Z-0.0058
G02 G54 X0.1703 Y-0.1703 Z0.0000 R0.1703
G02 G54 X-0.1703 Y-0.1703 Z0.0000 R0.1703
G02 G54 X-0.1703 Y0.1703 Z0.0000 R0.1703
G02 G54 X0.1703 Y0.1703 Z0.0000 R0.1703
G01 G54 X0.0000 Y-0.0264 Z-0.0053
G02 G54 X0.1438 Y-0.1438 Z0.0000 R0.1438
G02 G54 X-0.1438 Y-0.1438 Z0.0000 R0.1438
G02 G54 X-0.1438 Y0.1438 Z0.0000 R0.1438
G02 G54 X0.1438 Y0.1438 Z0.0000 R0.1438
G01 G54 X0.0000 Y-0.0264 Z-0.0048
G02 G54 X0.1174 Y-0.1174 Z0.0000 R0.1174
G02 G54 X-0.1174 Y-0.1174 Z0.0000 R0.1174
G02 G54 X-0.1174 Y0.1174 Z0.0000 R0.1174
G02 G54 X0.1174 Y0.1174 Z0.0000 R0.1174
G01 G54 X0.0000 Y-0.0266 Z-0.0043
G02 G54 X0.0907 Y-0.0907 Z0.0000 R0.0907
G02 G54 X-0.0907 Y-0.0907 Z0.0000 R0.0907
G02 G54 X-0.0907 Y0.0907 Z0.0000 R0.0907
G02 G54 X0.0907 Y0.0907 Z0.0000 R0.0907
G01 G54 X0.0000 Y-0.0266 Z-0.0038
G02 G54 X0.0640 Y-0.0640 Z0.0000 R0.0640
G02 G54 X-0.0640 Y-0.0640 Z0.0000 R0.0640
G02 G54 X-0.0640 Y0.0640 Z0.0000 R0.0640
G02 G54 X0.0640 Y0.0640 Z0.0000 R0.0640
G90
G00 G54 X44.8818 Y-0.7233 Z0.1000
G00 G54 X44.8818 Y-0.7874 Z0.1000
G00 G54 X44.8818 Y0.7874 Z0.1000
( A single insert                                                              )
(   Outter rim diameter = 0.7500"                                              )
(   Outter rim depth    = -0.0450"                                             )
(   Shaft diameter      = 0.3729"                                              )
(   Shaft depth         = -0.3750"                                             )
G01 G54 X44.8818 Y0.7874 Z0.0000
G91
G01 G54 X0.0000 Y0.2514 Z-0.0450
G02 G54 X0.2514 Y-0.2514 Z0.0000 R0.2514
G02 G54 X-0.2514 Y-0.2514 Z0.0000 R0.2514
G02 G54 X-0.2514 Y0.2514 Z0.0000 R0.2514
G02 G54 X0.2514 Y0.2514 Z0.0000 R0.2514
G01 G54 X0.0000 Y-0.0285 Z-0.0069
G02 G54 X0.2229 Y-0.2229 Z0.0000 R0.2229
G02 G54 X-0.2229 Y-0.2229 Z0.0000 R0.2229
G02 G54 X-0.2229 Y0.2229 Z0.0000 R0.2229
G02 G54 X0.2229 Y0.2229 Z0.0000 R0.2229
G01 G54 X0.0000 Y-0.0261 Z-0.0064
G02 G54 X0.1966 Y-0.1966 Z0.0000 R0.1966
G02 G54 X-0.1966 Y-0.1966 Z0.0000 R0.1966
G02 G54 X-0.1966 Y0.1966 Z0.0000 R0.1966
G02 G54 X0.1966 Y0.1966 Z0.0000 R0.1966
G01 G54 X0.0000 Y-0.0262 Z-0.0058
G02 G54 X0.1703 Y-0.1703 Z0.0000 R0.1703
G02 G54 X-0.1703 Y-0.1703 Z0.0000 R0.1703
G02 G54 X-0.1703 Y0.1703 Z0.0000 R0.1703
G02 G54 X0.1703 Y0.1703 Z0.0000 R0.1703
G01 G54 X0.0000 Y-0.0264 Z-0.0053
G02 G54 X0.1438 Y-0.1438 Z0.0000 R0.1438
G02 G54 X-0.1438 Y-0.1438 Z0.0000 R0.1438
G02 G54 X-0.1438 Y0.1438 Z0.0000 R0.1438
G02 G54 X0.1438 Y0.1438 Z0.0000 R0.1438
G01 G54 X0.0000 Y-0.0264 Z-0.0048
G02 G54 X0.1174 Y-0.1174 Z0.0000 R0.1174
G02 G54 X-0.1174 Y-0.1174 Z0.0000 R0.1174
G02 G54 X-0.1174 Y0.1174 Z0.0000 R0.1174
G02 G54 X0.1174 Y0.1174 Z0.0000 R0.1174
G01 G54 X0.0000 Y-0.0266 Z-0.0043
G02 G54 X0.0907 Y-0.0907 Z0.0000 R0.0907
G02 G54 X-0.0907 Y-0.0907 Z0.0000 R0.0907
G02 G54 X-0.0907 Y0.0907 Z0.0000 R0.0907
G02 G54 X0.0907 Y0.0907 Z0.0000 R0.0907
G01 G54 X0.0000 Y-0.0266 Z-0.0038
G02 G54 X0.0640 Y-0.0640 Z0.0000 R0.0640
G02 G54 X-0.0640 Y-0.0640 Z0.0000 R0.0640
G02 G54 X-0.0640 Y0.0640 Z0.0000 R0.0640
G02 G54 X0.0640 Y0.0640 Z0.0000 R0.0640
G90
G01 G54 X44.8818 Y0.7874 Z0.0000
( Incremental hole: depth = -0.3750, diameter = 0.3729                         )
G91
G01 G54 X0.0000 Y0.0629 Z0.0000
G01 G54 X0.0000 Y0.0000 Z-0.1250
G02 G54 X0.0629 Y-0.0629 Z0.0000 R0.0629
G02 G54 X-0.0629 Y-0.0629 Z0.0000 R0.0629
G02 G54 X-0.0629 Y0.0629 Z0.0000 R0.0629
G02 G54 X0.0629 Y0.0629 Z0.0000 R0.0629
G01 G54 X0.0000 Y0.0000 Z-0.1250
G02 G54 X0.0629 Y-0.0629 Z0.0000 R0.0629
G02 G54 X-0.0629 Y-0.0629 Z0.0000 R0.0629
G02 G54 X-0.0629 Y0.0629 Z0.0000 R0.0629
G02 G54 X0.0629 Y0.0629 Z0.0000 R0.0629
G01 G54 X0.0000 Y0.0000 Z-0.1250
G02 G54 X0.0629 Y-0.0629 Z0.0000 R0.0629
G02 G54 X-0.0629 Y-0.0629 Z0.0000 R0.0629
G02 G54 X-0.0629 Y0.0629 Z0.0000 R0.0629
G02 G54 X0.0629 Y0.0629 Z0.0000 R0.0629
G02 G54 X0.0629 Y-0.0629 Z0.0000 R0.0629
G02 G54 X-0.0629 Y-0.0629 Z0.0000 R0.0629
G02 G54 X-0.0629 Y0.0629 Z0.0000 R0.0629
G02 G54 X0.0629 Y0.0629 Z0.0000 R0.0629
G02 G54 X0.0629 Y-0.0629 Z0.0000 R0.0629
G02 G54 X-0.0629 Y-0.0629 Z0.0000 R0.0629
G02 G54 X-0.0629 Y0.0629 Z0.0000 R0.0629
G02 G54 X0.0629 Y0.0629 Z0.0000 R0.0629
G02 G54 X0.0629 Y-0.0629 Z0.0000 R0.0629
G02 G54 X-0.0629 Y-0.0629 Z0.0000 R0.0629
G02 G54 X-0.0629 Y0.0629 Z0.0000 R0.0629
G02 G54 X0.0629 Y0.0629 Z0.0000 R0.0629
G01 G54 X0.0000 Y-0.0629 Z0.0000
G90
G01 G54 X44.8818 Y0.7874 Z0.0000
G91
G01 G54 X0.0000 Y0.2514 Z-0.0450
G02 G54 X0.2514 Y-0.2514 Z0.0000 R0.2514
G02 G54 X-0.2514 Y-0.2514 Z0.0000 R0.2514
G02 G54 X-0.2514 Y0.2514 Z0.0000 R0.2514
G02 G54 X0.2514 Y0.2514 Z0.0000 R0.2514
G01 G54 X0.0000 Y-0.0285 Z-0.0069
G02 G54 X0.2229 Y-0.2229 Z0.0000 R0.2229
G02 G54 X-0.2229 Y-0.2229 Z0.0000 R0.2229
G02 G54 X-0.2229 Y0.2229 Z0.0000 R0.2229
G02 G54 X0.2229 Y0.2229 Z0.0000 R0.2229
G01 G54 X0.0000 Y-0.0261 Z-0.0064
G02 G54 X0.1966 Y-0.1966 Z0.0000 R0.1966
G02 G54 X-0.1966 Y-0.1966 Z0.0000 R0.1966
G02 G54 X-0.1966 Y0.1966 Z0.0000 R0.1966
G02 G54 X0.1966 Y0.1966 Z0.0000 R0.1966
G01 G54 X0.0000 Y-0.0262 Z-0.0058
G02 G54 X0.1703 Y-0.1703 Z0.0000 R0.1703
G02 G54 X-0.1703 Y-0.1703 Z0.0000 R0.1703
G02 G54 X-0.1703 Y0.1703 Z0.0000 R0.1703
G02 G54 X0.1703 Y0.1703 Z0.0000 R0.1703
G01 G54 X0.0000 Y-0.0264 Z-0.0053
G02 G54 X0.1438 Y-0.1438 Z0.0000 R0.1438
G02 G54 X-0.1438 Y-0.1438 Z0.0000 R0.1438
G02 G54 X-0.1438 Y0.1438 Z0.0000 R0.1438
G02 G54 X0.1438 Y0.1438 Z0.0000 R0.1438
G01 G54 X0.0000 Y-0.0264 Z-0.0048
G02 G54 X0.1174 Y-0.1174 Z0.0000 R0.1174
G02 G54 X-0.1174 Y-0.1174 Z0.0000 R0.1174
G02 G54 X-0.1174 Y0.1174 Z0.0000 R0.1174
G02 G54 X0.1174 Y0.1174 Z0.0000 R0.1174
G01 G54 X0.0000 Y-0.0266 Z-0.0043
G02 G54 X0.0907 Y-0.0907 Z0.0000 R0.0907
G02 G54 X-0.0907 Y-0.0907 Z0.0000 R0.0907
G02 G54 X-0.0907 Y0.0907 Z0.0000 R0.0907
G02 G54 X0.0907 Y0.0907 Z0.0000 R0.0907
G01 G54 X0.0000 Y-0.0266 Z-0.0038
G02 G54 X0.0640 Y-0.0640 Z0.0000 R0.0640
G02 G54 X-0.0640 Y-0.0640 Z0.0000 R0.0640
G02 G54 X-0.0640 Y0.0640 Z0.0000 R0.0640
G02 G54 X0.0640 Y0.0640 Z0.0000 R0.0640
G90
G00 G54 X44.8818 Y0.8514 Z0.1000
G00 G54 X44.8818 Y0.7874 Z0.1000
G00 G54 X46.4566 Y-0.7874 Z0.1000
( A single insert                                                              )
(   Outter rim diameter = 0.7500"                                              )
(   Outter rim depth    = -0.0450"                                             )
(   Shaft diameter      = 0.3729"                                              )
(   Shaft depth         = -0.3750"                                             )
G01 G54 X46.4566 Y-0.7874 Z0.0000
G91
G01 G54 X0.0000 Y0.2514 Z-0.0450
G02 G54 X0.2514 Y-0.2514 Z0.0000 R0.2514
G02 G54 X-0.2514 Y-0.2514 Z0.0000 R0.2514
G02 G54 X-0.2514 Y0.2514 Z0.0000 R0.2514
G02 G54 X0.2514 Y0.2514 Z0.0000 R0.2514
G01 G54 X0.0000 Y-0.0285 Z-0.0069
G02 G54 X0.2229 Y-0.2229 Z0.0000 R0.2229
G02 G54 X-0.2229 Y-0.2229 Z0.0000 R0.2229
G02 G54 X-0.2229 Y0.2229 Z0.0000 R0.2229
G02 G54 X0.2229 Y0.2229 Z0.0000 R0.2229
G01 G54 X0.0000 Y-0.0261 Z-0.0064
G02 G54 X0.1966 Y-0.1966 Z0.0000 R0.1966
G02 G54 X-0.1966 Y-0.1966 Z0.0000 R0.1966
G02 G54 X-0.1966 Y0.1966 Z0.0000 R0.1966
G02 G54 X0.1966 Y0.1966 Z0.0000 R0.1966
G01 G54 X0.0000 Y-0.0262 Z-0.0058
G02 G54 X0.1703 Y-0.1703 Z0.0000 R0.1703
G02 G54 X-0.1703 Y-0.1703 Z0.0000 R0.1703
G02 G54 X-0.1703 Y0.1703 Z0.0000 R0.1703
G02 G54 X0.1703 Y0.1703 Z0.0000 R0.1703
G01 G54 X0.0000 Y-0.0264 Z-0.0053
G02 G54 X0.1438 Y-0.1438 Z0.0000 R0.1438
G02 G54 X-0.1438 Y-0.1438 Z0.0000 R0.1438
G02 G54 X-0.1438 Y0.1438 Z0.0000 R0.1438
G02 G54 X0.1438 Y0.1438 Z0.0000 R0.1438
G01 G54 X0.0000 Y-0.0264 Z-0.0048
G02 G54 X0.1174 Y-0.1174 Z0.0000 R0.1174
G02 G54 X-0.1174 Y-0.1174 Z0.0000 R0.1174
G02 G54 X-0.1174 Y0.1174 Z0.0000 R0.1174
G02 G54 X0.1174 Y0.1174 Z0.0000 R0.1174
G01 G54 X0.0000 Y-0.0266 Z-0.0043
G02 G54 X0.0907 Y-0.0907 Z0.0000 R0.0907
G02 G54 X-0.0907 Y-0.0907 Z0.0000 R0.0907
G02 G54 X-0.0907 Y0.0907 Z0.0000 R0.0907
G02 G54 X0.0907 Y0.0907 Z0.0000 R0.0907
G01 G54 X0.0000 Y-0.0266 Z-0.0038
G02 G54 X0.0640 Y-0.0640 Z0.0000 R0.0640
G02 G54 X-0.0640 Y-0.0640 Z0.0000 R0.0640
G02 G54 X-0.0640 Y0.0640 Z0.0000 R0.0640
G02 G54 X0.0640 Y0.0640 Z0.0000 R0.0640
G90
G01 G54 X46.4566 Y-0.7874 Z0.0000
( Incremental hole: depth = -0.3750, diameter = 0.3729                         )
G91
G01 G54 X0.0000 Y0.0629 Z0.0000
G01 G54 X0.0000 Y0.0000 Z-0.1250
G02 G54 X0.0629 Y-0.0629 Z0.0000 R0.0629
G02 G54 X-0.0629 Y-0.0629 Z0.0000 R0.0629
G02 G54 X-0.0629 Y0.0629 Z0.0000 R0.0629
G02 G54 X0.0629 Y0.0629 Z0.0000 R0.0629
G01 G54 X0.0000 Y0.0000 Z-0.1250
G02 G54 X0.0629 Y-0.0629 Z0.0000 R0.0629
G02 G54 X-0.0629 Y-0.0629 Z0.0000 R0.0629
G02 G54 X-0.0629 Y0.0629 Z0.0000 R0.0629
G02 G54 X0.0629 Y0.0629 Z0.0000 R0.0629
G01 G54 X0.0000 Y0.0000 Z-0.1250
G02 G54 X0.0629 Y-0.0629 Z0.0000 R0.0629
G02 G54 X-0.0629 Y-0.0629 Z0.0000 R0.0629
G02 G54 X-0.0629 Y0.0629 Z0.0000 R0.0629
G02 G54 X0.0629 Y0.0629 Z0.0000 R0.0629
G02 G54 X0.0629 Y-0.0629 Z0.0000 R0.0629
G02 G54 X-0.0629 Y-0.0629 Z0.0000 R0.0629
G02 G54 X-0.0629 Y0.0629 Z0.0000 R0.0629
G02 G54 X0.0629 Y0.0629 Z0.0000 R0.0629
G02 G54 X0.0629 Y-0.0629 Z0.0000 R0.0629
G02 G54 X-0.0629 Y-0.0629 Z0.0000 R0.0629
G02 G54 X-0.0629 Y0.0629 Z0.0000 R0.0629
G02 G54 X0.0629 Y0.0629 Z0.0000 R0.0629
G02 G54 X0.0629 Y-0.0629 Z0.0000 R0.0629
G02 G54 X-0.0629 Y-0.0629 Z0.0000 R0.0629
G02 G54 X-0.0629 Y0.0629 Z0.0000 R0.0629
G02 G54 X0.0629 Y0.0629 Z0.0000 R0.0629
G01 G54 X0.0000 Y-0.0629 Z0.0000
G90
G01 G54 X46.4566 Y-0.7874 Z0.0000
G91
G01 G54 X0.0000 Y0.2514 Z-0.0450
G02 G54 X0.2514 Y-0.2514 Z0.0000 R0.2514
G02 G54 X-0.2514 Y-0.2514 Z0.0000 R0.2514
G02 G54 X-0.2514 Y0.2514 Z0.0000 R0.2514
G02 G54 X0.2514 Y0.2514 Z0.0000 R0.2514
G01 G54 X0.0000 Y-0.0285 Z-0.0069
G02 G54 X0.2229 Y-0.2229 Z0.0000 R0.2229
G02 G54 X-0.2229 Y-0.2229 Z0.0000 R0.2229
G02 G54 X-0.2229 Y0.2229 Z0.0000 R0.2229
G02 G54 X0.2229 Y0.2229 Z0.0000 R0.2229
G01 G54 X0.0000 Y-0.0261 Z-0.0064
G02 G54 X0.1966 Y-0.1966 Z0.0000 R0.1966
G02 G54 X-0.1966 Y-0.1966 Z0.0000 R0.1966
G02 G54 X-0.1966 Y0.1966 Z0.0000 R0.1966
G02 G54 X0.1966 Y0.1966 Z0.0000 R0.1966
G01 G54 X0.0000 Y-0.0262 Z-0.0058
G02 G54 X0.1703 Y-0.1703 Z0.0000 R0.1703
G02 G54 X-0.1703 Y-0.1703 Z0.0000 R0.1703
G02 G54 X-0.1703 Y0.1703 Z0.0000 R0.1703
G02 G54 X0.1703 Y0.1703 Z0.0000 R0.1703
G01 G54 X0.0000 Y-0.0264 Z-0.0053
G02 G54 X0.1438 Y-0.1438 Z0.0000 R0.1438
G02 G54 X-0.1438 Y-0.1438 Z0.0000 R0.1438
G02 G54 X-0.1438 Y0.1438 Z0.0000 R0.1438
G02 G54 X0.1438 Y0.1438 Z0.0000 R0.1438
G01 G54 X0.0000 Y-0.0264 Z-0.0048
G02 G54 X0.1174 Y-0.1174 Z0.0000 R0.1174
G02 G54 X-0.1174 Y-0.1174 Z0.0000 R0.1174
G02 G54 X-0.1174 Y0.1174 Z0.0000 R0.1174
G02 G54 X0.1174 Y0.1174 Z0.0000 R0.1174
G01 G54 X0.0000 Y-0.0266 Z-0.0043
G02 G54 X0.0907 Y-0.0907 Z0.0000 R0.0907
G02 G54 X-0.0907 Y-0.0907 Z0.0000 R0.0907
G02 G54 X-0.0907 Y0.0907 Z0.0000 R0.0907
G02 G54 X0.0907 Y0.0907 Z0.0000 R0.0907
G01 G54 X0.0000 Y-0.0266 Z-0.0038
G02 G54 X0.0640 Y-0.0640 Z0.0000 R0.0640
G02 G54 X-0.0640 Y-0.0640 Z0.0000 R0.0640
G02 G54 X-0.0640 Y0.0640 Z0.0000 R0.0640
G02 G54 X0.0640 Y0.0640 Z0.0000 R0.0640
G90
G00 G54 X46.4566 Y-0.7233 Z0.1000
G00 G54 X46.4566 Y-0.7874 Z0.1000
G00 G54 X46.4566 Y0.7874 Z0.1000
( A single insert                                                              )
(   Outter rim diameter = 0.7500"                                              )
(   Outter rim depth    = -0.0450"                                             )
(   Shaft diameter      = 0.3729"                                              )
(   Shaft depth         = -0.3750"                                             )
G01 G54 X46.4566 Y0.7874 Z0.0000
G91
G01 G54 X0.0000 Y0.2514 Z-0.0450
G02 G54 X0.2514 Y-0.2514 Z0.0000 R0.2514
G02 G54 X-0.2514 Y-0.2514 Z0.0000 R0.2514
G02 G54 X-0.2514 Y0.2514 Z0.0000 R0.2514
G02 G54 X0.2514 Y0.2514 Z0.0000 R0.2514
G01 G54 X0.0000 Y-0.0285 Z-0.0069
G02 G54 X0.2229 Y-0.2229 Z0.0000 R0.2229
G02 G54 X-0.2229 Y-0.2229 Z0.0000 R0.2229
G02 G54 X-0.2229 Y0.2229 Z0.0000 R0.2229
G02 G54 X0.2229 Y0.2229 Z0.0000 R0.2229
G01 G54 X0.0000 Y-0.0261 Z-0.0064
G02 G54 X0.1966 Y-0.1966 Z0.0000 R0.1966
G02 G54 X-0.1966 Y-0.1966 Z0.0000 R0.1966
G02 G54 X-0.1966 Y0.1966 Z0.0000 R0.1966
G02 G54 X0.1966 Y0.1966 Z0.0000 R0.1966
G01 G54 X0.0000 Y-0.0262 Z-0.0058
G02 G54 X0.1703 Y-0.1703 Z0.0000 R0.1703
G02 G54 X-0.1703 Y-0.1703 Z0.0000 R0.1703
G02 G54 X-0.1703 Y0.1703 Z0.0000 R0.1703
G02 G54 X0.1703 Y0.1703 Z0.0000 R0.1703
G01 G54 X0.0000 Y-0.0264 Z-0.0053
G02 G54 X0.1438 Y-0.1438 Z0.0000 R0.1438
G02 G54 X-0.1438 Y-0.1438 Z0.0000 R0.1438
G02 G54 X-0.1438 Y0.1438 Z0.0000 R0.1438
G02 G54 X0.1438 Y0.1438 Z0.0000 R0.1438
G01 G54 X0.0000 Y-0.0264 Z-0.0048
G02 G54 X0.1174 Y-0.1174 Z0.0000 R0.1174
G02 G54 X-0.1174 Y-0.1174 Z0.0000 R0.1174
G02 G54 X-0.1174 Y0.1174 Z0.0000 R0.1174
G02 G54 X0.1174 Y0.1174 Z0.0000 R0.1174
G01 G54 X0.0000 Y-0.0266 Z-0.0043
G02 G54 X0.0907 Y-0.0907 Z0.0000 R0.0907
G02 G54 X-0.0907 Y-0.0907 Z0.0000 R0.0907
G02 G54 X-0.0907 Y0.0907 Z0.0000 R0.0907
G02 G54 X0.0907 Y0.0907 Z0.0000 R0.0907
G01 G54 X0.0000 Y-0.0266 Z-0.0038
G02 G54 X0.0640 Y-0.0640 Z0.0000 R0.0640
G02 G54 X-0.0640 Y-0.0640 Z0.0000 R0.0640
G02 G54 X-0.0640 Y0.0640 Z0.0000 R0.0640
G02 G54 X0.0640 Y0.0640 Z0.0000 R0.0640
G90
G01 G54 X46.4566 Y0.7874 Z0.0000
( Incremental hole: depth = -0.3750, diameter = 0.3729                         )
G91
G01 G54 X0.0000 Y0.0629 Z0.0000
G01 G54 X0.0000 Y0.0000 Z-0.1250
G02 G54 X0.0629 Y-0.0629 Z0.0000 R0.0629
G02 G54 X-0.0629 Y-0.0629 Z0.0000 R0.0629
G02 G54 X-0.0629 Y0.0629 Z0.0000 R0.0629
G02 G54 X0.0629 Y0.0629 Z0.0000 R0.0629
G01 G54 X0.0000 Y0.0000 Z-0.1250
G02 G54 X0.0629 Y-0.0629 Z0.0000 R0.0629
G02 G54 X-0.0629 Y-0.0629 Z0.0000 R0.0629
G02 G54 X-0.0629 Y0.0629 Z0.0000 R0.0629
G02 G54 X0.0629 Y0.0629 Z0.0000 R0.0629
G01 G54 X0.0000 Y0.0000 Z-0.1250
G02 G54 X0.0629 Y-0.0629 Z0.0000 R0.0629
G02 G54 X-0.0629 Y-0.0629 Z0.0000 R0.0629
G02 G54 X-0.0629 Y0.0629 Z0.0000 R0.0629
G02 G54 X0.0629 Y0.0629 Z0.0000 R0.0629
G02 G54 X0.0629 Y-0.0629 Z0.0000 R0.0629
G02 G54 X-0.0629 Y-0.0629 Z0.0000 R0.0629
G02 G54 X-0.0629 Y0.0629 Z0.0000 R0.0629
G02 G54 X0.0629 Y0.0629 Z0.0000 R0.0629
G02 G54 X0.0629 Y-0.0629 Z0.0000 R0.0629
G02 G54 X-0.0629 Y-0.0629 Z0.0000 R0.0629
G02 G54 X-0.0629 Y0.0629 Z0.0000 R0.0629
G02 G54 X0.0629 Y0.0629 Z0.0000 R0.0629
G02 G54 X0.0629 Y-0.0629 Z0.0000 R0.0629
G02 G54 X-0.0629 Y-0.0629 Z0.0000 R0.0629
G02 G54 X-0.0629 Y0.0629 Z0.0000 R0.0629
G02 G54 X0.0629 Y0.0629 Z0.0000 R0.0629
G01 G54 X0.0000 Y-0.0629 Z0.0000
G90
G01 G54 X46.4566 Y0.7874 Z0.0000
G91
G01 G54 X0.0000 Y0.2514 Z-0.0450
G02 G54 X0.2514 Y-0.2514 Z0.0000 R0.2514
G02 G54 X-0.2514 Y-0.2514 Z0.0000 R0.2514
G02 G54 X-0.2514 Y0.2514 Z0.0000 R0.2514
G02 G54 X0.2514 Y0.2514 Z0.0000 R0.2514
G01 G54 X0.0000 Y-0.0285 Z-0.0069
G02 G54 X0.2229 Y-0.2229 Z0.0000 R0.2229
G02 G54 X-0.2229 Y-0.2229 Z0.0000 R0.2229
G02 G54 X-0.2229 Y0.2229 Z0.0000 R0.2229
G02 G54 X0.2229 Y0.2229 Z0.0000 R0.2229
G01 G54 X0.0000 Y-0.0261 Z-0.0064
G02 G54 X0.1966 Y-0.1966 Z0.0000 R0.1966
G02 G54 X-0.1966 Y-0.1966 Z0.0000 R0.1966
G02 G54 X-0.1966 Y0.1966 Z0.0000 R0.1966
G02 G54 X0.1966 Y0.1966 Z0.0000 R0.1966
G01 G54 X0.0000 Y-0.0262 Z-0.0058
G02 G54 X0.1703 Y-0.1703 Z0.0000 R0.1703
G02 G54 X-0.1703 Y-0.1703 Z0.0000 R0.1703
G02 G54 X-0.1703 Y0.1703 Z0.0000 R0.1703
G02 G54 X0.1703 Y0.1703 Z0.0000 R0.1703
G01 G54 X0.0000 Y-0.0264 Z-0.0053
G02 G54 X0.1438 Y-0.1438 Z0.0000 R0.1438
G02 G54 X-0.1438 Y-0.1438 Z0.0000 R0.1438
G02 G54 X-0.1438 Y0.1438 Z0.0000 R0.1438
G02 G54 X0.1438 Y0.1438 Z0.0000 R0.1438
G01 G54 X0.0000 Y-0.0264 Z-0.0048
G02 G54 X0.1174 Y-0.1174 Z0.0000 R0.1174
G02 G54 X-0.1174 Y-0.1174 Z0.0000 R0.1174
G02 G54 X-0.1174 Y0.1174 Z0.0000 R0.1174
G02 G54 X0.1174 Y0.1174 Z0.0000 R0.1174
G01 G54 X0.0000 Y-0.0266 Z-0.0043
G02 G54 X0.0907 Y-0.0907 Z0.0000 R0.0907
G02 G54 X-0.0907 Y-0.0907 Z0.0000 R0.0907
G02 G54 X-0.0907 Y0.0907 Z0.0000 R0.0907
G02 G54 X0.0907 Y0.0907 Z0.0000 R0.0907
G01 G54 X0.0000 Y-0.0266 Z-0.0038
G02 G54 X0.0640 Y-0.0640 Z0.0000 R0.0640
G02 G54 X-0.0640 Y-0.0640 Z0.0000 R0.0640
G02 G54 X-0.0640 Y0.0640 Z0.0000 R0.0640
G02 G54 X0.0640 Y0.0640 Z0.0000 R0.0640
G90
G00 G54 X46.4566 Y0.8514 Z0.1000
G00 G54 X46.4566 Y0.7874 Z0.1000
M05
G00 G54 X0.0000 Y0.0000 Z0.1000
G49
G01 G55 Z0 F20
G00 G55 X0 Y0 Z0
M30
