( Sample-splitboard-splitboard-center-trench.nc                                )
( Generated by MonkeyCAM v4.0.7 master@2f43be8                                 )
(   at 2019-04-20 12:50:28 PDT                                                 )
(                                                                              )
( This GCode program is provided on an "AS IS" BASIS WITHOUT WARRANTIES OR     )
( CONDITIONS OF ANY KIND, either express or implied. You should inspect this   )
( program very carefully to confirm you understand its operation. YOU ARE      )
( RESPONSIBLE FOR ENSURING THIS PROGRAM WILL NOT DAMAGE YOUR MACHINE OR        )
( MATERIALS.                                                                   )
(                                                                              )
( See http://www.github.com/mikemag/MonkeyCAM for License and documentation.   )
(                                                                              )
( * Rapid height: 0.6000" [1.5240cm]                                           )
( * Tool: T1, Quarter Inch Upcut Spiral, diameter 0.2469" [0.6273cm]           )
( * Height baseline [Z=0.0] is the top of the table.                           )
( * XY origin is the left side of the table, Y is center of the part.          )
( * Requires G54 to be the part work coordinate offsets [WCO]. [0, 0] is the   )
(   center of the nose, with the board extending to positive X. The cutter may )
(   move to negative values of X.                                              )
( * Requires G55 to be the machine WCO, with Z above the rapid height.         )
( * Units are inches                                                           )
( * Center of the board in G54:                                                )
(     X=33.8582 Y=0.0000 Z=0.0000                                              )
( * Cutter bounding box in G54:                                                )
(     X0.0000 Y-0.1265 Z0.0000 to X65.3543 Y0.1265 Z0.6000                     )

G90 G20 G17 G40 G49
G43 H1 T1
G00 G54 X0 Y0 Z0.6000

G00 X0.7874 Y-0.1265 Z0.6000
M03
G04 P5
G01 X0.7874 Y-0.1265 Z0.2800 F80
G01 X0.7874 Y0.1265 Z0.2800
G01 X65.3543 Y0.1265 Z0.2800
G01 X65.3543 Y-0.1265 Z0.2800
G01 X0.7874 Y-0.1265 Z0.2800
G01 X0.7874 Y-0.1265 Z0.1400
G01 X0.7874 Y0.1265 Z0.1400
G01 X65.3543 Y0.1265 Z0.1400
G01 X65.3543 Y-0.1265 Z0.1400
G01 X0.7874 Y-0.1265 Z0.1400
G01 X0.7874 Y-0.1265 Z0.0000
G01 X0.7874 Y0.1265 Z0.0000
G01 X65.3543 Y0.1265 Z0.0000
G01 X65.3543 Y-0.1265 Z0.0000
G01 X0.7874 Y-0.1265 Z0.0000
G00 X0.7874 Y-0.1265 Z0.6000
M05
G00 X0.0000 Y0.0000 Z0.6000
G49
G01 G55 Z0 F20
G00 G55 X0 Y0 Z0
M30
