( Sample-snowboard-top-profile.nc                                              )
( Generated by MonkeyCAM v4.0.2 at 2014-10-11 16:01:44 PDT                     )
(                                                                              )
( This GCode program is provided on an "AS IS" BASIS WITHOUT WARRANTIES OR     )
( CONDITIONS OF ANY KIND, either express or implied. You should inspect this   )
( program very carefully to confirm you understand its operation. YOU ARE      )
( RESPONSIBLE FOR ENSURING THIS PROGRAM WILL NOT DAMAGE YOUR MACHINE OR        )
( MATERIALS.                                                                   )
(                                                                              )
( See http://www.github.com/mikemag/MonkeyCAM for License and documentation.   )
(                                                                              )
( * Rapid height: 0.6000" [1.5240cm]                                           )
( * Tool: T1, 1.5 Inch Straight, diameter 1.4959" [3.7998cm]                   )
( * Height baseline [Z=0.0] is the top of the table.                           )
( * XY origin is the left side of the table, Y is center of the part.          )
( * Requires G54 to be the part work coordinate offsets [WCO]. [0, 0] is the   )
(   center of the nose, with the board extending to positive X. The cutter may )
(   move to negative values of X.                                              )
( * Requires G55 to be the machine WCO, with Z above the rapid height.         )
( * Units are inches                                                           )
( * Center of the board in G54:                                                )
(     X=33.8582 Y=0.0000 Z=0.0000                                              )
( * Cutter bounding box in G54:                                                )
(     X0.0000 Y-5.0800 Z0.0787 to X65.5116 Y5.0800 Z0.6000                     )

G90 G20 G17 G40 G49
G43 H1 T1
G00 G54 X0 Y0 Z0.6000

M03
G04 P5
G00 X8.9240 Y-0.4707 Z0.6000
G01 X8.9240 Y-0.4707 Z0.6000 F50
G01 X8.7304 Y-0.4822 Z0.5747
G01 X8.4483 Y-0.4988 Z0.5378
G01 X8.3893 Y-0.5023 Z0.5301
G01 X8.3824 Y-0.5027 Z0.5292
G01 X8.1620 Y-0.5160 Z0.5005
G01 X7.8712 Y-0.5336 Z0.4625
G01 X7.8476 Y-0.5350 Z0.4594
G01 X7.8413 Y-0.5353 Z0.4586
G01 X7.5756 Y-0.5517 Z0.4239
G01 X7.3068 Y-0.5683 Z0.3888
G01 X7.3004 Y-0.5687 Z0.3880
G01 X7.2749 Y-0.5703 Z0.3846
G01 X6.9687 Y-0.5895 Z0.3446
G01 X6.9538 Y-0.5905 Z0.3427
G01 X6.8846 Y-0.5897 Z0.3337
G01 X6.6945 Y-0.5834 Z0.3089
G01 X6.6566 Y-0.5813 Z0.3040
G01 X6.5140 Y-0.5733 Z0.2853
G01 X6.3478 Y-0.5600 Z0.2636
G01 X6.3386 Y-0.5590 Z0.2624
G01 X6.1927 Y-0.5438 Z0.2433
G01 X6.0507 Y-0.5253 Z0.2246
G01 X5.9200 Y-0.5048 Z0.2074
G01 X5.7987 Y-0.4824 Z0.1913
G01 X5.6903 Y-0.4593 Z0.1769
G01 X5.5915 Y-0.4352 Z0.1636
G01 X5.5046 Y-0.4114 Z0.1519
G01 X5.4283 Y-0.3879 Z0.1415
G01 X5.3613 Y-0.3650 Z0.1322
G01 X5.3024 Y-0.3427 Z0.1240
G01 X5.2535 Y-0.3224 Z0.1172
G01 X5.2131 Y-0.3040 Z0.1114
G01 X5.1787 Y-0.2870 Z0.1064
G01 X5.1537 Y-0.2735 Z0.1027
G01 X5.1444 Y-0.2680 Z0.1012
G01 X5.1421 Y-0.2583 Z0.1000
G01 X5.1378 Y-0.2373 Z0.0972
G01 X5.1333 Y-0.2118 Z0.0938
G01 X5.1297 Y-0.1869 Z0.0905
G01 X5.1257 Y-0.1527 Z0.0860
G01 X5.1227 Y-0.1201 Z0.0818
G01 X5.1203 Y-0.0820 Z0.0787
G01 X5.1188 Y-0.0439 Z0.0787
G01 X5.1183 Y-0.0014 Z0.0787
G01 X5.1183 Y-0.0014 Z0.0787 F20
G01 X5.1183 Y-0.0014 Z0.0787 F50
G01 X5.1188 Y0.0425 Z0.0787
G01 X5.1203 Y0.0817 Z0.0787
G01 X5.1227 Y0.1201 Z0.0787
G01 X5.1256 Y0.1523 Z0.0787
G01 X5.1297 Y0.1869 Z0.0787
G01 X5.1332 Y0.2112 Z0.0787
G01 X5.1377 Y0.2366 Z0.0787
G01 X5.1421 Y0.2583 Z0.0787
G01 X5.1444 Y0.2680 Z0.0787
G01 X5.1534 Y0.2733 Z0.0787
G01 X5.1787 Y0.2870 Z0.0787
G01 X5.2131 Y0.3040 Z0.0787
G01 X5.2535 Y0.3224 Z0.0787
G01 X5.3024 Y0.3427 Z0.0787
G01 X5.3613 Y0.3650 Z0.0787
G01 X5.4283 Y0.3879 Z0.0787
G01 X5.5046 Y0.4114 Z0.0787
G01 X5.5913 Y0.4352 Z0.0787
G01 X5.6903 Y0.4593 Z0.0787
G01 X5.7987 Y0.4824 Z0.0787
G01 X5.9200 Y0.5048 Z0.0787
G01 X6.0507 Y0.5253 Z0.0787
G01 X6.1927 Y0.5438 Z0.0787
G01 X6.3386 Y0.5590 Z0.0787
G01 X6.3478 Y0.5600 Z0.0787
G01 X6.5140 Y0.5733 Z0.0788
G01 X6.6566 Y0.5813 Z0.0789
G01 X6.6945 Y0.5834 Z0.0790
G01 X6.8846 Y0.5897 Z0.0795
G01 X6.9538 Y0.5905 Z0.0797
G01 X6.9687 Y0.5895 Z0.0797
G01 X7.2749 Y0.5703 Z0.0811
G01 X7.3004 Y0.5687 Z0.0812
G01 X7.3068 Y0.5683 Z0.0812
G01 X7.5756 Y0.5517 Z0.0829
G01 X7.8413 Y0.5353 Z0.0850
G01 X7.8476 Y0.5350 Z0.0850
G01 X7.8712 Y0.5336 Z0.0852
G01 X8.1620 Y0.5160 Z0.0879
G01 X8.3824 Y0.5027 Z0.0903
G01 X8.3893 Y0.5023 Z0.0904
G01 X8.4483 Y0.4988 Z0.0910
G01 X8.7304 Y0.4822 Z0.0946
G01 X8.9240 Y0.4707 Z0.0973
G01 X8.9301 Y0.4704 Z0.0974
G01 X9.0087 Y0.4658 Z0.0985
G01 X9.2835 Y0.4499 Z0.1028
G01 X9.4648 Y0.4394 Z0.1059
G01 X9.4714 Y0.4391 Z0.1060
G01 X9.5550 Y0.4343 Z0.1075
G01 X9.8236 Y0.4191 Z0.1124
G01 X10.0062 Y0.4088 Z0.1160
G01 X10.0126 Y0.4084 Z0.1161
G01 X10.0896 Y0.4041 Z0.1176
G01 X10.3535 Y0.3895 Z0.1231
G01 X10.5473 Y0.3788 Z0.1274
G01 X10.5540 Y0.3785 Z0.1275
G01 X10.6153 Y0.3751 Z0.1288
G01 X10.8756 Y0.3611 Z0.1348
G01 X11.0890 Y0.3496 Z0.1399
G01 X11.0955 Y0.3492 Z0.1400
G01 X11.1346 Y0.3471 Z0.1410
G01 X11.3926 Y0.3335 Z0.1473
G01 X11.6303 Y0.3209 Z0.1533
G01 X11.6365 Y0.3206 Z0.1535
G01 X11.6500 Y0.3199 Z0.1538
G01 X11.9071 Y0.3066 Z0.1604
G01 X12.1641 Y0.2933 Z0.1672
G01 X12.1714 Y0.2930 Z0.1674
G01 X12.1780 Y0.2927 Z0.1675
G01 X12.4215 Y0.2804 Z0.1740
G01 X12.6795 Y0.2674 Z0.1809
G01 X12.7129 Y0.2657 Z0.1818
G01 X12.7194 Y0.2654 Z0.1820
G01 X12.9385 Y0.2546 Z0.1879
G01 X13.1988 Y0.2418 Z0.1948
G01 X13.2542 Y0.2391 Z0.1963
G01 X13.2609 Y0.2388 Z0.1964
G01 X13.4607 Y0.2292 Z0.2017
G01 X13.7245 Y0.2165 Z0.2087
G01 X13.7961 Y0.2131 Z0.2106
G01 X13.8025 Y0.2128 Z0.2107
G01 X13.9905 Y0.2040 Z0.2156
G01 X14.2592 Y0.1915 Z0.2224
G01 X14.3376 Y0.1879 Z0.2244
G01 X14.3442 Y0.1876 Z0.2245
G01 X14.5307 Y0.1791 Z0.2292
G01 X14.8054 Y0.1666 Z0.2358
G01 X14.8792 Y0.1633 Z0.2375
G01 X14.8854 Y0.1630 Z0.2377
G01 X15.0837 Y0.1542 Z0.2423
G01 X15.3658 Y0.1418 Z0.2487
G01 X15.4205 Y0.1394 Z0.2498
G01 X15.4270 Y0.1391 Z0.2500
G01 X15.6521 Y0.1294 Z0.2548
G01 X15.9429 Y0.1169 Z0.2607
G01 X15.9622 Y0.1161 Z0.2611
G01 X15.9687 Y0.1158 Z0.2612
G01 X16.2385 Y0.1046 Z0.2665
G01 X16.5037 Y0.0935 Z0.2713
G01 X16.5103 Y0.0933 Z0.2714
G01 X16.5392 Y0.0921 Z0.2720
G01 X16.8455 Y0.0797 Z0.2772
G01 X17.0457 Y0.0716 Z0.2804
G01 X17.0518 Y0.0713 Z0.2805
G01 X17.1575 Y0.0672 Z0.2821
G01 X17.4756 Y0.0547 Z0.2868
G01 X17.5870 Y0.0503 Z0.2883
G01 X17.5939 Y0.0501 Z0.2883
G01 X17.8001 Y0.0422 Z0.2911
G01 X18.1292 Y0.0298 Z0.2950
G01 X18.1314 Y0.0296 Z0.2950
G01 X18.1353 Y0.0295 Z0.2951
G01 X18.4697 Y0.0172 Z0.2985
G01 X18.6706 Y0.0098 Z0.3004
G01 X18.6771 Y0.0096 Z0.3004
G01 X18.8154 Y0.0047 Z0.3017
G01 X18.9487 Y0.0000 Z0.3027
G01 X18.8154 Y-0.0047 Z0.3017
G01 X18.6771 Y-0.0096 Z0.3004
G01 X18.6706 Y-0.0098 Z0.3004
G01 X18.4697 Y-0.0172 Z0.2985
G01 X18.1353 Y-0.0295 Z0.2951
G01 X18.1314 Y-0.0296 Z0.2950
G01 X18.1292 Y-0.0298 Z0.2950
G01 X17.8001 Y-0.0422 Z0.2911
G01 X17.5939 Y-0.0501 Z0.2883
G01 X17.5870 Y-0.0503 Z0.2883
G01 X17.4756 Y-0.0547 Z0.2868
G01 X17.1575 Y-0.0672 Z0.2821
G01 X17.0518 Y-0.0713 Z0.2805
G01 X17.0457 Y-0.0716 Z0.2804
G01 X16.8455 Y-0.0797 Z0.2772
G01 X16.5392 Y-0.0921 Z0.2720
G01 X16.5103 Y-0.0933 Z0.2714
G01 X16.5037 Y-0.0935 Z0.2713
G01 X16.2385 Y-0.1046 Z0.2665
G01 X15.9687 Y-0.1158 Z0.2612
G01 X15.9622 Y-0.1161 Z0.2611
G01 X15.9429 Y-0.1169 Z0.2607
G01 X15.6521 Y-0.1294 Z0.2548
G01 X15.4270 Y-0.1391 Z0.2500
G01 X15.4205 Y-0.1394 Z0.2498
G01 X15.3658 Y-0.1418 Z0.2487
G01 X15.0837 Y-0.1542 Z0.2423
G01 X14.8854 Y-0.1630 Z0.2377
G01 X14.8792 Y-0.1633 Z0.2375
G01 X14.8054 Y-0.1666 Z0.2358
G01 X14.5307 Y-0.1791 Z0.2292
G01 X14.3442 Y-0.1876 Z0.2245
G01 X14.3376 Y-0.1879 Z0.2244
G01 X14.2592 Y-0.1915 Z0.2224
G01 X13.9905 Y-0.2040 Z0.2156
G01 X13.8025 Y-0.2128 Z0.2107
G01 X13.7961 Y-0.2131 Z0.2106
G01 X13.7245 Y-0.2166 Z0.2087
G01 X13.4607 Y-0.2292 Z0.2017
G01 X13.2609 Y-0.2388 Z0.1964
G01 X13.2542 Y-0.2391 Z0.1963
G01 X13.1988 Y-0.2418 Z0.1948
G01 X12.9385 Y-0.2546 Z0.1879
G01 X12.7194 Y-0.2654 Z0.1820
G01 X12.7129 Y-0.2657 Z0.1818
G01 X12.6795 Y-0.2674 Z0.1809
G01 X12.4215 Y-0.2803 Z0.1740
G01 X12.1780 Y-0.2927 Z0.1675
G01 X12.1714 Y-0.2930 Z0.1674
G01 X12.1641 Y-0.2933 Z0.1672
G01 X11.9071 Y-0.3066 Z0.1604
G01 X11.6500 Y-0.3199 Z0.1538
G01 X11.6365 Y-0.3206 Z0.1535
G01 X11.6303 Y-0.3209 Z0.1533
G01 X11.3926 Y-0.3335 Z0.1473
G01 X11.1346 Y-0.3471 Z0.1410
G01 X11.0955 Y-0.3492 Z0.1400
G01 X11.0890 Y-0.3496 Z0.1399
G01 X10.8756 Y-0.3611 Z0.1348
G01 X10.6153 Y-0.3751 Z0.1288
G01 X10.5540 Y-0.3785 Z0.1275
G01 X10.5473 Y-0.3788 Z0.1274
G01 X10.3535 Y-0.3895 Z0.1231
G01 X10.0896 Y-0.4041 Z0.1176
G01 X10.0126 Y-0.4084 Z0.1161
G01 X10.0062 Y-0.4088 Z0.1160
G01 X9.8236 Y-0.4191 Z0.1124
G01 X9.5550 Y-0.4343 Z0.1075
G01 X9.4714 Y-0.4391 Z0.1060
G01 X9.4648 Y-0.4394 Z0.1059
G01 X9.2835 Y-0.4499 Z0.1028
G01 X9.0087 Y-0.4658 Z0.0985
G01 X8.9301 Y-0.4704 Z0.0974
G01 X8.9240 Y-0.4707 Z0.0973
G01 X8.7304 Y-0.4822 Z0.0946
G01 X8.4483 Y-0.4988 Z0.0910
G01 X8.3893 Y-0.5023 Z0.0904
G01 X8.3824 Y-0.5027 Z0.0903
G01 X8.1620 Y-0.5160 Z0.0879
G01 X7.8712 Y-0.5336 Z0.0852
G01 X7.8476 Y-0.5350 Z0.0850
G01 X7.8413 Y-0.5353 Z0.0850
G01 X7.5756 Y-0.5517 Z0.0829
G01 X7.3068 Y-0.5683 Z0.0812
G01 X7.3004 Y-0.5687 Z0.0812
G01 X7.2749 Y-0.5703 Z0.0811
G01 X6.9687 Y-0.5895 Z0.0797
G01 X6.9538 Y-0.5905 Z0.0797
G01 X6.8846 Y-0.5897 Z0.0795
G01 X6.6945 Y-0.5834 Z0.0790
G01 X6.6566 Y-0.5813 Z0.0789
G01 X6.5140 Y-0.5733 Z0.0788
G01 X6.3478 Y-0.5600 Z0.0787
G01 X6.3386 Y-0.5590 Z0.0787
G01 X6.1927 Y-0.5438 Z0.0787
G01 X6.0507 Y-0.5253 Z0.0787
G01 X5.9200 Y-0.5048 Z0.0787
G01 X5.7987 Y-0.4824 Z0.0787
G01 X5.6903 Y-0.4593 Z0.0787
G01 X5.5915 Y-0.4352 Z0.0787
G01 X5.5046 Y-0.4114 Z0.0787
G01 X5.4283 Y-0.3879 Z0.0787
G01 X5.3613 Y-0.3650 Z0.0787
G01 X5.3024 Y-0.3427 Z0.0787
G01 X5.2535 Y-0.3224 Z0.0787
G01 X5.2131 Y-0.3040 Z0.0787
G01 X5.1787 Y-0.2870 Z0.0787
G01 X5.1537 Y-0.2735 Z0.0787
G01 X5.1444 Y-0.2680 Z0.0787
G01 X5.1421 Y-0.2583 Z0.0787
G01 X5.1378 Y-0.2373 Z0.0787
G01 X5.1333 Y-0.2118 Z0.0787
G01 X5.1297 Y-0.1869 Z0.0787
G01 X5.1257 Y-0.1527 Z0.0787
G01 X5.1227 Y-0.1201 Z0.0787
G01 X5.1203 Y-0.0820 Z0.0787
G01 X5.1188 Y-0.0439 Z0.0787
G01 X5.1183 Y-0.0014 Z0.0787
G00 X5.1183 Y-0.0014 Z0.6000
G00 X54.2557 Y-0.1700 Z0.6000
G01 X54.2557 Y-0.1700 Z0.6000
G01 X53.9919 Y-0.1581 Z0.5794
G01 X53.9042 Y-0.1542 Z0.5726
G01 X53.8977 Y-0.1539 Z0.5721
G01 X53.7259 Y-0.1464 Z0.5587
G01 X53.4572 Y-0.1346 Z0.5379
G01 X53.3626 Y-0.1305 Z0.5305
G01 X53.3564 Y-0.1302 Z0.5300
G01 X53.1857 Y-0.1229 Z0.5168
G01 X52.9110 Y-0.1112 Z0.4954
G01 X52.8213 Y-0.1075 Z0.4885
G01 X52.8148 Y-0.1072 Z0.4879
G01 X52.6327 Y-0.0997 Z0.4738
G01 X52.3506 Y-0.0880 Z0.4518
G01 X52.2797 Y-0.0851 Z0.4464
G01 X52.2727 Y-0.0849 Z0.4458
G01 X52.0643 Y-0.0765 Z0.4296
G01 X51.7735 Y-0.0649 Z0.4070
G01 X51.7374 Y-0.0635 Z0.4042
G01 X51.7316 Y-0.0633 Z0.4038
G01 X51.4779 Y-0.0534 Z0.3840
G01 X51.1964 Y-0.0425 Z0.3622
G01 X51.1895 Y-0.0422 Z0.3616
G01 X51.1772 Y-0.0417 Z0.3607
G01 X50.8709 Y-0.0302 Z0.3369
G01 X50.6543 Y-0.0221 Z0.3201
G01 X50.6477 Y-0.0219 Z0.3196
G01 X50.5589 Y-0.0187 Z0.3126
G01 X50.2409 Y-0.0071 Z0.2879
G01 X50.1124 Y-0.0025 Z0.2885
G01 X50.1062 Y-0.0023 Z0.2886
G01 X50.0400 Y0.0000 Z0.2894
G01 X50.0400 Y0.0000 Z0.2894 F20
G01 X50.0400 Y0.0000 Z0.2894 F50
G01 X50.1062 Y0.0023 Z0.2886
G01 X50.1124 Y0.0025 Z0.2885
G01 X50.2409 Y0.0071 Z0.2868
G01 X50.5589 Y0.0187 Z0.2821
G01 X50.6477 Y0.0219 Z0.2807
G01 X50.6543 Y0.0221 Z0.2806
G01 X50.8709 Y0.0302 Z0.2772
G01 X51.1772 Y0.0417 Z0.2720
G01 X51.1895 Y0.0422 Z0.2718
G01 X51.1964 Y0.0425 Z0.2716
G01 X51.4779 Y0.0534 Z0.2665
G01 X51.7316 Y0.0633 Z0.2616
G01 X51.7374 Y0.0635 Z0.2614
G01 X51.7735 Y0.0649 Z0.2608
G01 X52.0643 Y0.0765 Z0.2548
G01 X52.2727 Y0.0849 Z0.2503
G01 X52.2797 Y0.0851 Z0.2501
G01 X52.3506 Y0.0880 Z0.2487
G01 X52.6327 Y0.0996 Z0.2423
G01 X52.8148 Y0.1072 Z0.2381
G01 X52.8213 Y0.1075 Z0.2379
G01 X52.9110 Y0.1112 Z0.2358
G01 X53.1857 Y0.1229 Z0.2292
G01 X53.3564 Y0.1302 Z0.2249
G01 X53.3626 Y0.1305 Z0.2248
G01 X53.4572 Y0.1346 Z0.2224
G01 X53.7259 Y0.1464 Z0.2156
G01 X53.8977 Y0.1539 Z0.2111
G01 X53.9042 Y0.1542 Z0.2110
G01 X53.9919 Y0.1581 Z0.2087
G01 X54.2557 Y0.1700 Z0.2017
G01 X54.4393 Y0.1782 Z0.1969
G01 X54.4459 Y0.1785 Z0.1967
G01 X54.5176 Y0.1818 Z0.1948
G01 X54.7779 Y0.1938 Z0.1879
G01 X54.9809 Y0.2033 Z0.1824
G01 X54.9874 Y0.2035 Z0.1822
G01 X55.0369 Y0.2059 Z0.1809
G01 X55.2949 Y0.2181 Z0.1740
G01 X55.5226 Y0.2289 Z0.1679
G01 X55.5288 Y0.2292 Z0.1678
G01 X55.5523 Y0.2303 Z0.1672
G01 X55.8094 Y0.2428 Z0.1604
G01 X56.0637 Y0.2552 Z0.1538
G01 X56.0664 Y0.2553 Z0.1538
G01 X56.0705 Y0.2556 Z0.1537
G01 X56.3238 Y0.2682 Z0.1473
G01 X56.5818 Y0.2811 Z0.1410
G01 X56.6055 Y0.2823 Z0.1404
G01 X56.6117 Y0.2826 Z0.1402
G01 X56.8408 Y0.2943 Z0.1348
G01 X57.1011 Y0.3076 Z0.1288
G01 X57.1466 Y0.3100 Z0.1278
G01 X57.1532 Y0.3103 Z0.1277
G01 X57.3629 Y0.3213 Z0.1231
G01 X57.6268 Y0.3351 Z0.1176
G01 X57.6881 Y0.3383 Z0.1164
G01 X57.6945 Y0.3387 Z0.1163
G01 X57.8928 Y0.3493 Z0.1124
G01 X58.1614 Y0.3637 Z0.1075
G01 X58.2295 Y0.3674 Z0.1063
G01 X58.2362 Y0.3677 Z0.1062
G01 X58.4330 Y0.3785 Z0.1028
G01 X58.7077 Y0.3936 Z0.0985
G01 X58.7709 Y0.3971 Z0.0976
G01 X58.7770 Y0.3974 Z0.0975
G01 X58.9860 Y0.4091 Z0.0946
G01 X59.2681 Y0.4250 Z0.0911
G01 X59.3118 Y0.4274 Z0.0905
G01 X59.3183 Y0.4278 Z0.0905
G01 X59.5544 Y0.4413 Z0.0879
G01 X59.8452 Y0.4580 Z0.0852
G01 X59.8531 Y0.4585 Z0.0851
G01 X59.8600 Y0.4588 Z0.0851
G01 X60.1408 Y0.4753 Z0.0829
G01 X60.3947 Y0.4902 Z0.0814
G01 X60.4008 Y0.4906 Z0.0813
G01 X60.4415 Y0.4930 Z0.0811
G01 X60.7428 Y0.5111 Z0.0798
G01 X60.7477 Y0.5109 Z0.0798
G01 X60.8243 Y0.5077 Z0.0795
G01 X60.9062 Y0.5019 Z0.0793
G01 X60.9741 Y0.4950 Z0.0791
G01 X60.9818 Y0.4940 Z0.0791
G01 X60.9876 Y0.4625 Z0.0791
G01 X60.9948 Y0.4179 Z0.0791
G01 X61.0020 Y0.3661 Z0.0790
G01 X61.0081 Y0.3128 Z0.0790
G01 X61.0134 Y0.2556 Z0.0790
G01 X61.0176 Y0.1970 Z0.0790
G01 X61.0209 Y0.1307 Z0.0790
G01 X61.0228 Y0.0657 Z0.0790
G01 X61.0235 Y-0.0014 Z0.0790
G01 X61.0228 Y-0.0661 Z0.0790
G01 X61.0209 Y-0.1313 Z0.0790
G01 X61.0176 Y-0.1970 Z0.0790
G01 X61.0133 Y-0.2565 Z0.0790
G01 X61.0081 Y-0.3133 Z0.0790
G01 X61.0020 Y-0.3661 Z0.0790
G01 X60.9947 Y-0.4190 Z0.0791
G01 X60.9876 Y-0.4627 Z0.0791
G01 X60.9818 Y-0.4940 Z0.0791
G01 X60.9741 Y-0.4950 Z0.0791
G01 X60.9062 Y-0.5019 Z0.0793
G01 X60.8243 Y-0.5077 Z0.0795
G01 X60.7477 Y-0.5109 Z0.0798
G01 X60.7428 Y-0.5111 Z0.0798
G01 X60.4415 Y-0.4930 Z0.0811
G01 X60.4008 Y-0.4906 Z0.0813
G01 X60.3947 Y-0.4902 Z0.0814
G01 X60.1408 Y-0.4753 Z0.0829
G01 X59.8600 Y-0.4588 Z0.0851
G01 X59.8531 Y-0.4585 Z0.0851
G01 X59.8452 Y-0.4580 Z0.0852
G01 X59.5544 Y-0.4413 Z0.0879
G01 X59.3183 Y-0.4278 Z0.0905
G01 X59.3118 Y-0.4274 Z0.0905
G01 X59.2681 Y-0.4250 Z0.0911
G01 X58.9860 Y-0.4091 Z0.0946
G01 X58.7770 Y-0.3974 Z0.0975
G01 X58.7709 Y-0.3971 Z0.0976
G01 X58.7077 Y-0.3936 Z0.0985
G01 X58.4330 Y-0.3785 Z0.1028
G01 X58.2362 Y-0.3677 Z0.1062
G01 X58.2295 Y-0.3674 Z0.1063
G01 X58.1614 Y-0.3637 Z0.1075
G01 X57.8928 Y-0.3493 Z0.1124
G01 X57.6945 Y-0.3387 Z0.1163
G01 X57.6881 Y-0.3383 Z0.1164
G01 X57.6268 Y-0.3351 Z0.1176
G01 X57.3629 Y-0.3213 Z0.1231
G01 X57.1532 Y-0.3103 Z0.1277
G01 X57.1466 Y-0.3100 Z0.1278
G01 X57.1011 Y-0.3076 Z0.1288
G01 X56.8408 Y-0.2943 Z0.1348
G01 X56.6117 Y-0.2826 Z0.1402
G01 X56.6055 Y-0.2823 Z0.1404
G01 X56.5818 Y-0.2811 Z0.1410
G01 X56.3238 Y-0.2682 Z0.1473
G01 X56.0705 Y-0.2556 Z0.1537
G01 X56.0664 Y-0.2553 Z0.1538
G01 X56.0637 Y-0.2552 Z0.1538
G01 X55.8094 Y-0.2428 Z0.1604
G01 X55.5523 Y-0.2303 Z0.1672
G01 X55.5288 Y-0.2292 Z0.1678
G01 X55.5226 Y-0.2290 Z0.1679
G01 X55.2949 Y-0.2181 Z0.1740
G01 X55.0369 Y-0.2059 Z0.1809
G01 X54.9874 Y-0.2035 Z0.1822
G01 X54.9809 Y-0.2033 Z0.1824
G01 X54.7779 Y-0.1938 Z0.1879
G01 X54.5176 Y-0.1818 Z0.1948
G01 X54.4459 Y-0.1785 Z0.1967
G01 X54.4393 Y-0.1782 Z0.1969
G01 X54.2557 Y-0.1700 Z0.2017
G01 X53.9919 Y-0.1581 Z0.2087
G01 X53.9042 Y-0.1542 Z0.2110
G01 X53.8977 Y-0.1539 Z0.2111
G01 X53.7259 Y-0.1464 Z0.2156
G01 X53.4572 Y-0.1346 Z0.2224
G01 X53.3626 Y-0.1305 Z0.2248
G01 X53.3564 Y-0.1302 Z0.2249
G01 X53.1857 Y-0.1229 Z0.2292
G01 X52.9110 Y-0.1112 Z0.2358
G01 X52.8213 Y-0.1075 Z0.2379
G01 X52.8148 Y-0.1072 Z0.2381
G01 X52.6327 Y-0.0997 Z0.2423
G01 X52.3506 Y-0.0880 Z0.2487
G01 X52.2797 Y-0.0851 Z0.2501
G01 X52.2727 Y-0.0849 Z0.2503
G01 X52.0643 Y-0.0765 Z0.2548
G01 X51.7735 Y-0.0649 Z0.2608
G01 X51.7374 Y-0.0635 Z0.2614
G01 X51.7316 Y-0.0633 Z0.2616
G01 X51.4779 Y-0.0534 Z0.2665
G01 X51.1964 Y-0.0425 Z0.2716
G01 X51.1895 Y-0.0422 Z0.2718
G01 X51.1772 Y-0.0417 Z0.2720
G01 X50.8709 Y-0.0302 Z0.2772
G01 X50.6543 Y-0.0221 Z0.2806
G01 X50.6477 Y-0.0219 Z0.2807
G01 X50.5589 Y-0.0187 Z0.2821
G01 X50.2409 Y-0.0071 Z0.2868
G01 X50.1124 Y-0.0025 Z0.2885
G01 X50.1062 Y-0.0023 Z0.2886
G01 X50.0400 Y0.0000 Z0.2894
G00 X50.0400 Y0.0000 Z0.6000
G00 X7.8712 Y-1.2829 Z0.6000
G01 X7.8712 Y-1.2829 Z0.6000
G01 X7.5756 Y-1.3011 Z0.5613
G01 X7.3528 Y-1.3149 Z0.5322
G01 X7.3473 Y-1.3152 Z0.5315
G01 X7.2749 Y-1.3197 Z0.5221
G01 X6.9728 Y-1.3387 Z0.4826
G01 X6.9687 Y-1.3386 Z0.4821
G01 X6.8696 Y-1.3376 Z0.4692
G01 X6.6588 Y-1.3306 Z0.4417
G01 X6.6566 Y-1.3305 Z0.4414
G01 X6.4656 Y-1.3198 Z0.4165
G01 X6.3386 Y-1.3096 Z0.3999
G01 X6.2777 Y-1.3048 Z0.3919
G01 X6.1060 Y-1.2868 Z0.3694
G01 X5.9445 Y-1.2658 Z0.3482
G01 X5.7931 Y-1.2420 Z0.3282
G01 X5.6537 Y-1.2163 Z0.3098
G01 X5.5232 Y-1.1885 Z0.2924
G01 X5.4042 Y-1.1595 Z0.2764
G01 X5.2951 Y-1.1295 Z0.2616
G01 X5.1976 Y-1.0995 Z0.2483
G01 X5.1078 Y-1.0688 Z0.2360
G01 X5.0270 Y-1.0383 Z0.2248
G01 X4.9551 Y-1.0084 Z0.2146
G01 X4.8918 Y-0.9796 Z0.2055
G01 X4.8344 Y-0.9512 Z0.1972
G01 X4.7868 Y-0.9255 Z0.1901
G01 X4.7435 Y-0.9000 Z0.1836
G01 X4.7058 Y-0.8761 Z0.1777
G01 X4.6756 Y-0.8553 Z0.1730
G01 X4.6472 Y-0.8343 Z0.1684
G01 X4.6255 Y-0.8169 Z0.1648
G01 X4.6048 Y-0.7989 Z0.1612
G01 X4.5885 Y-0.7838 Z0.1583
G01 X4.5735 Y-0.7687 Z0.1555
G01 X4.5615 Y-0.7558 Z0.1532
G01 X4.5485 Y-0.7406 Z0.1506
G01 X4.5388 Y-0.7284 Z0.1486
G01 X4.5291 Y-0.7152 Z0.1464
G01 X4.5190 Y-0.7005 Z0.1441
G01 X4.5094 Y-0.6853 Z0.1418
G01 X4.5003 Y-0.6697 Z0.1394
G01 X4.4909 Y-0.6521 Z0.1368
G01 X4.4807 Y-0.6314 Z0.1338
G01 X4.4704 Y-0.6085 Z0.1305
G01 X4.4611 Y-0.5860 Z0.1274
G01 X4.4504 Y-0.5572 Z0.1234
G01 X4.4403 Y-0.5270 Z0.1192
G01 X4.4303 Y-0.4938 Z0.1147
G01 X4.4209 Y-0.4588 Z0.1100
G01 X4.4114 Y-0.4185 Z0.1046
G01 X4.4027 Y-0.3761 Z0.0989
G01 X4.3949 Y-0.3316 Z0.0931
G01 X4.3879 Y-0.2832 Z0.0867
G01 X4.3818 Y-0.2314 Z0.0799
G01 X4.3769 Y-0.1776 Z0.0787
G01 X4.3732 Y-0.1201 Z0.0787
G01 X4.3710 Y-0.0611 Z0.0787
G01 X4.3702 Y-0.0011 Z0.0787
G01 X4.3702 Y-0.0011 Z0.0787 F20
G01 X4.3702 Y-0.0011 Z0.0787 F50
G01 X4.3710 Y0.0611 Z0.0787
G01 X4.3732 Y0.1200 Z0.0787
G01 X4.3769 Y0.1774 Z0.0787
G01 X4.3818 Y0.2314 Z0.0787
G01 X4.3879 Y0.2832 Z0.0787
G01 X4.3949 Y0.3316 Z0.0787
G01 X4.4027 Y0.3761 Z0.0787
G01 X4.4114 Y0.4185 Z0.0787
G01 X4.4209 Y0.4588 Z0.0787
G01 X4.4303 Y0.4938 Z0.0787
G01 X4.4402 Y0.5267 Z0.0787
G01 X4.4504 Y0.5572 Z0.0787
G01 X4.4611 Y0.5860 Z0.0787
G01 X4.4703 Y0.6083 Z0.0787
G01 X4.4805 Y0.6310 Z0.0787
G01 X4.4905 Y0.6512 Z0.0787
G01 X4.5003 Y0.6696 Z0.0787
G01 X4.5093 Y0.6851 Z0.0787
G01 X4.5183 Y0.6994 Z0.0787
G01 X4.5290 Y0.7151 Z0.0787
G01 X4.5385 Y0.7280 Z0.0787
G01 X4.5485 Y0.7406 Z0.0787
G01 X4.5615 Y0.7557 Z0.0787
G01 X4.5735 Y0.7687 Z0.0787
G01 X4.5885 Y0.7838 Z0.0787
G01 X4.6044 Y0.7987 Z0.0787
G01 X4.6254 Y0.8168 Z0.0787
G01 X4.6471 Y0.8342 Z0.0787
G01 X4.6752 Y0.8550 Z0.0787
G01 X4.7058 Y0.8761 Z0.0787
G01 X4.7435 Y0.9000 Z0.0787
G01 X4.7867 Y0.9254 Z0.0787
G01 X4.8344 Y0.9512 Z0.0787
G01 X4.8918 Y0.9796 Z0.0787
G01 X4.9551 Y1.0084 Z0.0787
G01 X5.0270 Y1.0383 Z0.0787
G01 X5.1078 Y1.0688 Z0.0787
G01 X5.1976 Y1.0995 Z0.0787
G01 X5.2951 Y1.1295 Z0.0787
G01 X5.4042 Y1.1595 Z0.0787
G01 X5.5232 Y1.1885 Z0.0787
G01 X5.6537 Y1.2163 Z0.0787
G01 X5.7931 Y1.2420 Z0.0787
G01 X5.9445 Y1.2658 Z0.0787
G01 X6.1060 Y1.2868 Z0.0787
G01 X6.2777 Y1.3048 Z0.0787
G01 X6.3386 Y1.3096 Z0.0787
G01 X6.4656 Y1.3198 Z0.0788
G01 X6.6566 Y1.3305 Z0.0789
G01 X6.6588 Y1.3306 Z0.0789
G01 X6.8696 Y1.3376 Z0.0795
G01 X6.9687 Y1.3386 Z0.0797
G01 X6.9728 Y1.3387 Z0.0798
G01 X7.2749 Y1.3197 Z0.0811
G01 X7.3473 Y1.3152 Z0.0815
G01 X7.3528 Y1.3149 Z0.0815
G01 X7.5756 Y1.3011 Z0.0829
G01 X7.8712 Y1.2829 Z0.0852
G01 X7.8873 Y1.2820 Z0.0853
G01 X7.8927 Y1.2817 Z0.0854
G01 X8.1620 Y1.2654 Z0.0879
G01 X8.4275 Y1.2494 Z0.0908
G01 X8.4334 Y1.2490 Z0.0909
G01 X8.4483 Y1.2481 Z0.0910
G01 X8.7304 Y1.2314 Z0.0946
G01 X8.9681 Y1.2174 Z0.0979
G01 X8.9733 Y1.2171 Z0.0980
G01 X9.0087 Y1.2151 Z0.0985
G01 X9.2835 Y1.1992 Z0.1028
G01 X9.5081 Y1.1862 Z0.1066
G01 X9.5137 Y1.1859 Z0.1068
G01 X9.5550 Y1.1835 Z0.1075
G01 X9.8236 Y1.1683 Z0.1124
G01 X10.0485 Y1.1556 Z0.1168
G01 X10.0540 Y1.1553 Z0.1169
G01 X10.0896 Y1.1533 Z0.1176
G01 X10.3535 Y1.1387 Z0.1231
G01 X10.5887 Y1.1257 Z0.1283
G01 X10.5944 Y1.1254 Z0.1284
G01 X10.6153 Y1.1242 Z0.1288
G01 X10.8756 Y1.1101 Z0.1348
G01 X11.1294 Y1.0964 Z0.1408
G01 X11.1346 Y1.0962 Z0.1410
G01 X11.3926 Y1.0825 Z0.1473
G01 X11.6500 Y1.0689 Z0.1538
G01 X11.6698 Y1.0679 Z0.1543
G01 X11.6751 Y1.0676 Z0.1544
G01 X11.9071 Y1.0556 Z0.1604
G01 X12.1641 Y1.0424 Z0.1672
G01 X12.2100 Y1.0400 Z0.1684
G01 X12.2157 Y1.0397 Z0.1685
G01 X12.4215 Y1.0293 Z0.1740
G01 X12.6795 Y1.0163 Z0.1809
G01 X12.7506 Y1.0127 Z0.1828
G01 X12.7561 Y1.0125 Z0.1829
G01 X12.9385 Y1.0035 Z0.1879
G01 X13.1988 Y0.9907 Z0.1948
G01 X13.2909 Y0.9862 Z0.1972
G01 X13.2967 Y0.9860 Z0.1974
G01 X13.4607 Y0.9781 Z0.2017
G01 X13.7245 Y0.9654 Z0.2087
G01 X13.8318 Y0.9603 Z0.2115
G01 X13.8374 Y0.9600 Z0.2116
G01 X13.9905 Y0.9529 Z0.2156
G01 X14.2592 Y0.9403 Z0.2224
G01 X14.3725 Y0.9351 Z0.2252
G01 X14.3781 Y0.9348 Z0.2254
G01 X14.5307 Y0.9278 Z0.2292
G01 X14.8054 Y0.9153 Z0.2358
G01 X14.9131 Y0.9105 Z0.2383
G01 X14.9184 Y0.9103 Z0.2384
G01 X15.0837 Y0.9029 Z0.2423
G01 X15.3658 Y0.8905 Z0.2487
G01 X15.4535 Y0.8866 Z0.2505
G01 X15.4591 Y0.8864 Z0.2507
G01 X15.6521 Y0.8781 Z0.2548
G01 X15.9429 Y0.8656 Z0.2607
G01 X15.9943 Y0.8634 Z0.2618
G01 X15.9998 Y0.8631 Z0.2619
G01 X16.2385 Y0.8532 Z0.2665
G01 X16.5348 Y0.8408 Z0.2719
G01 X16.5392 Y0.8407 Z0.2720
G01 X16.5405 Y0.8407 Z0.2720
G01 X16.8455 Y0.8283 Z0.2772
G01 X17.0759 Y0.8190 Z0.2809
G01 X17.0811 Y0.8188 Z0.2809
G01 X17.1575 Y0.8157 Z0.2821
G01 X17.4756 Y0.8033 Z0.2868
G01 X17.6164 Y0.7977 Z0.2887
G01 X17.6223 Y0.7975 Z0.2887
G01 X17.8001 Y0.7907 Z0.2911
G01 X18.1314 Y0.7782 Z0.2950
G01 X18.1575 Y0.7772 Z0.2953
G01 X18.1628 Y0.7770 Z0.2953
G01 X18.4697 Y0.7657 Z0.2985
G01 X18.6981 Y0.7573 Z0.3006
G01 X18.7037 Y0.7571 Z0.3007
G01 X18.8154 Y0.7531 Z0.3017
G01 X19.1689 Y0.7406 Z0.3044
G01 X19.2390 Y0.7381 Z0.3049
G01 X19.2446 Y0.7379 Z0.3049
G01 X19.5303 Y0.7281 Z0.3067
G01 X19.7799 Y0.7196 Z0.3079
G01 X19.7855 Y0.7194 Z0.3079
G01 X19.9001 Y0.7155 Z0.3085
G01 X20.2787 Y0.7031 Z0.3098
G01 X20.3209 Y0.7017 Z0.3100
G01 X20.3261 Y0.7015 Z0.3100
G01 X20.6662 Y0.6907 Z0.3107
G01 X20.8612 Y0.6845 Z0.3108
G01 X20.8673 Y0.6844 Z0.3108
G01 X21.0630 Y0.6783 Z0.3110
G01 X21.4028 Y0.6680 Z0.3110
G01 X21.4081 Y0.6678 Z0.3110
G01 X21.9435 Y0.6521 Z0.3110
G01 X21.9491 Y0.6520 Z0.3110
G01 X22.4845 Y0.6369 Z0.3110
G01 X22.4901 Y0.6368 Z0.3110
G01 X23.0255 Y0.6224 Z0.3110
G01 X23.0311 Y0.6222 Z0.3110
G01 X23.5666 Y0.6085 Z0.3110
G01 X23.5719 Y0.6084 Z0.3110
G01 X24.1074 Y0.5953 Z0.3110
G01 X24.1133 Y0.5952 Z0.3110
G01 X24.6488 Y0.5828 Z0.3110
G01 X24.6540 Y0.5827 Z0.3110
G01 X25.1896 Y0.5710 Z0.3110
G01 X25.1952 Y0.5709 Z0.3110
G01 X25.7307 Y0.5598 Z0.3110
G01 X25.7362 Y0.5597 Z0.3110
G01 X26.2716 Y0.5493 Z0.3110
G01 X26.2770 Y0.5492 Z0.3110
G01 X26.8127 Y0.5395 Z0.3110
G01 X26.8186 Y0.5394 Z0.3110
G01 X27.3541 Y0.5303 Z0.3110
G01 X27.3594 Y0.5302 Z0.3110
G01 X27.8950 Y0.5218 Z0.3110
G01 X27.9005 Y0.5217 Z0.3110
G01 X28.4361 Y0.5140 Z0.3110
G01 X28.4420 Y0.5139 Z0.3110
G01 X28.9776 Y0.5068 Z0.3110
G01 X28.9826 Y0.5068 Z0.3110
G01 X29.5182 Y0.5003 Z0.3110
G01 X29.5242 Y0.5003 Z0.3110
G01 X30.0598 Y0.4945 Z0.3110
G01 X30.0653 Y0.4944 Z0.3110
G01 X30.6009 Y0.4894 Z0.3110
G01 X30.6062 Y0.4893 Z0.3110
G01 X31.1418 Y0.4849 Z0.3110
G01 X31.1475 Y0.4848 Z0.3110
G01 X31.6831 Y0.4811 Z0.3110
G01 X31.6887 Y0.4810 Z0.3110
G01 X32.2243 Y0.4779 Z0.3110
G01 X32.2299 Y0.4779 Z0.3110
G01 X32.7655 Y0.4754 Z0.3110
G01 X32.7711 Y0.4754 Z0.3110
G01 X33.3068 Y0.4737 Z0.3110
G01 X33.3124 Y0.4736 Z0.3110
G01 X33.8480 Y0.4725 Z0.3110
G01 X33.8533 Y0.4725 Z0.3110
G01 X34.3888 Y0.4720 Z0.3110
G01 X34.3945 Y0.4720 Z0.3110
G01 X34.9300 Y0.4722 Z0.3110
G01 X34.9356 Y0.4722 Z0.3110
G01 X35.4712 Y0.4731 Z0.3110
G01 X35.4768 Y0.4731 Z0.3110
G01 X36.0125 Y0.4746 Z0.3110
G01 X36.0181 Y0.4747 Z0.3110
G01 X36.5537 Y0.4769 Z0.3110
G01 X36.5593 Y0.4769 Z0.3110
G01 X37.0949 Y0.4798 Z0.3110
G01 X37.1002 Y0.4798 Z0.3110
G01 X37.6359 Y0.4833 Z0.3110
G01 X37.6414 Y0.4833 Z0.3110
G01 X38.1770 Y0.4875 Z0.3110
G01 X38.1827 Y0.4876 Z0.3110
G01 X38.7183 Y0.4924 Z0.3110
G01 X38.7238 Y0.4925 Z0.3110
G01 X39.2594 Y0.4980 Z0.3110
G01 X39.2650 Y0.4981 Z0.3110
G01 X39.8007 Y0.5042 Z0.3110
G01 X39.8063 Y0.5043 Z0.3110
G01 X40.3418 Y0.5111 Z0.3110
G01 X40.3471 Y0.5112 Z0.3110
G01 X40.8827 Y0.5187 Z0.3110
G01 X40.8883 Y0.5188 Z0.3110
G01 X41.4239 Y0.5269 Z0.3110
G01 X41.4295 Y0.5270 Z0.3110
G01 X41.9651 Y0.5358 Z0.3110
G01 X41.9707 Y0.5359 Z0.3110
G01 X42.5063 Y0.5454 Z0.3110
G01 X42.5120 Y0.5455 Z0.3110
G01 X43.0474 Y0.5557 Z0.3110
G01 X43.0529 Y0.5557 Z0.3110
G01 X43.5885 Y0.5666 Z0.3110
G01 X43.5938 Y0.5667 Z0.3110
G01 X44.1292 Y0.5781 Z0.3110
G01 X44.1349 Y0.5783 Z0.3110
G01 X44.6703 Y0.5904 Z0.3110
G01 X44.6762 Y0.5905 Z0.3110
G01 X45.2118 Y0.6034 Z0.3110
G01 X45.2171 Y0.6035 Z0.3110
G01 X45.7525 Y0.6170 Z0.3110
G01 X45.7578 Y0.6171 Z0.3110
G01 X46.2932 Y0.6312 Z0.3110
G01 X46.2991 Y0.6314 Z0.3110
G01 X46.6535 Y0.6411 Z0.3110
G01 X46.8346 Y0.6462 Z0.3108
G01 X46.8399 Y0.6463 Z0.3108
G01 X47.0502 Y0.6523 Z0.3107
G01 X47.3753 Y0.6617 Z0.3100
G01 X47.3812 Y0.6619 Z0.3100
G01 X47.4377 Y0.6636 Z0.3098
G01 X47.8162 Y0.6750 Z0.3085
G01 X47.9166 Y0.6781 Z0.3080
G01 X47.9218 Y0.6782 Z0.3080
G01 X48.1861 Y0.6865 Z0.3067
G01 X48.4574 Y0.6950 Z0.3050
G01 X48.4631 Y0.6951 Z0.3050
G01 X48.5475 Y0.6978 Z0.3044
G01 X48.9010 Y0.7094 Z0.3017
G01 X48.9983 Y0.7125 Z0.3008
G01 X49.0035 Y0.7127 Z0.3008
G01 X49.2467 Y0.7209 Z0.2985
G01 X49.5388 Y0.7308 Z0.2955
G01 X49.5448 Y0.7310 Z0.2954
G01 X49.5850 Y0.7324 Z0.2950
G01 X49.9163 Y0.7440 Z0.2911
G01 X50.0800 Y0.7498 Z0.2889
G01 X50.0853 Y0.7500 Z0.2888
G01 X50.2409 Y0.7556 Z0.2868
G01 X50.5589 Y0.7672 Z0.2821
G01 X50.6206 Y0.7694 Z0.2812
G01 X50.6262 Y0.7696 Z0.2811
G01 X50.8709 Y0.7788 Z0.2772
G01 X51.1614 Y0.7897 Z0.2722
G01 X51.1674 Y0.7899 Z0.2722
G01 X51.1772 Y0.7903 Z0.2720
G01 X51.4779 Y0.8020 Z0.2665
G01 X51.7026 Y0.8107 Z0.2622
G01 X51.7075 Y0.8109 Z0.2620
G01 X51.7735 Y0.8135 Z0.2608
G01 X52.0643 Y0.8251 Z0.2548
G01 X52.2429 Y0.8323 Z0.2510
G01 X52.2488 Y0.8325 Z0.2508
G01 X52.3506 Y0.8366 Z0.2487
G01 X52.6327 Y0.8483 Z0.2423
G01 X52.7839 Y0.8546 Z0.2388
G01 X52.7895 Y0.8548 Z0.2387
G01 X52.9110 Y0.8600 Z0.2358
G01 X53.1857 Y0.8716 Z0.2292
G01 X53.3246 Y0.8775 Z0.2257
G01 X53.3299 Y0.8778 Z0.2256
G01 X53.4572 Y0.8833 Z0.2224
G01 X53.7259 Y0.8951 Z0.2156
G01 X53.8650 Y0.9012 Z0.2120
G01 X53.8706 Y0.9014 Z0.2118
G01 X53.9919 Y0.9068 Z0.2087
G01 X54.2557 Y0.9187 Z0.2017
G01 X54.4057 Y0.9255 Z0.1978
G01 X54.4114 Y0.9257 Z0.1976
G01 X54.5176 Y0.9306 Z0.1948
G01 X54.7779 Y0.9426 Z0.1879
G01 X54.9464 Y0.9505 Z0.1833
G01 X54.9520 Y0.9507 Z0.1832
G01 X55.0369 Y0.9547 Z0.1809
G01 X55.2949 Y0.9670 Z0.1740
G01 X55.4871 Y0.9761 Z0.1689
G01 X55.4925 Y0.9763 Z0.1688
G01 X55.5523 Y0.9792 Z0.1672
G01 X55.8094 Y0.9917 Z0.1604
G01 X56.0274 Y1.0024 Z0.1548
G01 X56.0332 Y1.0026 Z0.1546
G01 X56.0664 Y1.0043 Z0.1538
G01 X56.3238 Y1.0171 Z0.1473
G01 X56.5682 Y1.0294 Z0.1413
G01 X56.5735 Y1.0296 Z0.1412
G01 X56.5818 Y1.0300 Z0.1410
G01 X56.8408 Y1.0433 Z0.1348
G01 X57.1011 Y1.0566 Z0.1288
G01 X57.1084 Y1.0570 Z0.1287
G01 X57.1140 Y1.0573 Z0.1285
G01 X57.3629 Y1.0703 Z0.1231
G01 X57.6268 Y1.0841 Z0.1176
G01 X57.6489 Y1.0853 Z0.1172
G01 X57.6545 Y1.0856 Z0.1171
G01 X57.8928 Y1.0984 Z0.1124
G01 X58.1614 Y1.1128 Z0.1075
G01 X58.1895 Y1.1143 Z0.1070
G01 X58.1952 Y1.1146 Z0.1069
G01 X58.4330 Y1.1276 Z0.1028
G01 X58.7077 Y1.1427 Z0.0985
G01 X58.7299 Y1.1440 Z0.0982
G01 X58.7351 Y1.1442 Z0.0981
G01 X58.9860 Y1.1583 Z0.0946
G01 X59.2681 Y1.1741 Z0.0911
G01 X59.2699 Y1.1742 Z0.0910
G01 X59.2755 Y1.1746 Z0.0909
G01 X59.5544 Y1.1905 Z0.0879
G01 X59.8102 Y1.2052 Z0.0855
G01 X59.8162 Y1.2056 Z0.0854
G01 X59.8452 Y1.2073 Z0.0852
G01 X60.1408 Y1.2246 Z0.0829
G01 X60.3509 Y1.2370 Z0.0816
G01 X60.3561 Y1.2373 Z0.0816
G01 X60.4415 Y1.2424 Z0.0811
G01 X60.7301 Y1.2597 Z0.0798
G01 X60.7477 Y1.2594 Z0.0798
G01 X60.7526 Y1.2594 Z0.0797
G01 X60.8653 Y1.2546 Z0.0794
G01 X60.9706 Y1.2472 Z0.0792
G01 X61.0598 Y1.2381 Z0.0789
G01 X61.0612 Y1.2380 Z0.0789
G01 X61.1462 Y1.2267 Z0.0788
G01 X61.2180 Y1.2148 Z0.0788
G01 X61.2841 Y1.2017 Z0.0787
G01 X61.3388 Y1.1889 Z0.0787
G01 X61.3779 Y1.1783 Z0.0787
G01 X61.3866 Y1.1760 Z0.0787
G01 X61.4267 Y1.1636 Z0.0787
G01 X61.4585 Y1.1525 Z0.0787
G01 X61.4866 Y1.1415 Z0.0787
G01 X61.5060 Y1.1331 Z0.0787
G01 X61.5224 Y1.1253 Z0.0787
G01 X61.5323 Y1.1201 Z0.0787
G01 X61.5407 Y1.1152 Z0.0787
G01 X61.5448 Y1.1127 Z0.0787
G01 X61.5472 Y1.1110 Z0.0787
G01 X61.5483 Y1.1100 Z0.0787
G01 X61.5500 Y1.1078 Z0.0787
G01 X61.5512 Y1.1063 Z0.0787
G01 X61.5564 Y1.0991 Z0.0787
G01 X61.5629 Y1.0896 Z0.0787
G01 X61.5693 Y1.0794 Z0.0787
G01 X61.5776 Y1.0651 Z0.0787
G01 X61.5877 Y1.0464 Z0.0787
G01 X61.5984 Y1.0248 Z0.0787
G01 X61.6098 Y1.0000 Z0.0787
G01 X61.6222 Y0.9705 Z0.0787
G01 X61.6353 Y0.9369 Z0.0787
G01 X61.6482 Y0.9005 Z0.0787
G01 X61.6618 Y0.8585 Z0.0787
G01 X61.6757 Y0.8111 Z0.0787
G01 X61.6885 Y0.7630 Z0.0787
G01 X61.7011 Y0.7100 Z0.0787
G01 X61.7131 Y0.6525 Z0.0787
G01 X61.7245 Y0.5915 Z0.0787
G01 X61.7349 Y0.5270 Z0.0787
G01 X61.7440 Y0.4611 Z0.0787
G01 X61.7522 Y0.3891 Z0.0787
G01 X61.7588 Y0.3180 Z0.0787
G01 X61.7644 Y0.2405 Z0.0787
G01 X61.7683 Y0.1621 Z0.0787
G01 X61.7707 Y0.0820 Z0.0787
G01 X61.7715 Y-0.0011 Z0.0787
G01 X61.7707 Y-0.0820 Z0.0787
G01 X61.7683 Y-0.1621 Z0.0787
G01 X61.7644 Y-0.2405 Z0.0787
G01 X61.7588 Y-0.3180 Z0.0787
G01 X61.7522 Y-0.3891 Z0.0787
G01 X61.7439 Y-0.4618 Z0.0787
G01 X61.7347 Y-0.5284 Z0.0787
G01 X61.7245 Y-0.5915 Z0.0787
G01 X61.7129 Y-0.6540 Z0.0787
G01 X61.7009 Y-0.7104 Z0.0787
G01 X61.6885 Y-0.7630 Z0.0787
G01 X61.6757 Y-0.8111 Z0.0787
G01 X61.6618 Y-0.8585 Z0.0787
G01 X61.6482 Y-0.9005 Z0.0787
G01 X61.6353 Y-0.9369 Z0.0787
G01 X61.6222 Y-0.9705 Z0.0787
G01 X61.6098 Y-1.0001 Z0.0787
G01 X61.5984 Y-1.0249 Z0.0787
G01 X61.5872 Y-1.0473 Z0.0787
G01 X61.5776 Y-1.0651 Z0.0787
G01 X61.5693 Y-1.0794 Z0.0787
G01 X61.5627 Y-1.0899 Z0.0787
G01 X61.5564 Y-1.0991 Z0.0787
G01 X61.5512 Y-1.1063 Z0.0787
G01 X61.5500 Y-1.1078 Z0.0787
G01 X61.5481 Y-1.1101 Z0.0787
G01 X61.5475 Y-1.1107 Z0.0787
G01 X61.5448 Y-1.1127 Z0.0787
G01 X61.5407 Y-1.1152 Z0.0787
G01 X61.5323 Y-1.1201 Z0.0787
G01 X61.5222 Y-1.1254 Z0.0787
G01 X61.5060 Y-1.1331 Z0.0787
G01 X61.4866 Y-1.1415 Z0.0787
G01 X61.4585 Y-1.1525 Z0.0787
G01 X61.4267 Y-1.1636 Z0.0787
G01 X61.3866 Y-1.1760 Z0.0787
G01 X61.3779 Y-1.1783 Z0.0787
G01 X61.3388 Y-1.1889 Z0.0787
G01 X61.2841 Y-1.2017 Z0.0787
G01 X61.2180 Y-1.2148 Z0.0788
G01 X61.1462 Y-1.2267 Z0.0788
G01 X61.0612 Y-1.2380 Z0.0789
G01 X61.0598 Y-1.2381 Z0.0789
G01 X60.9706 Y-1.2472 Z0.0792
G01 X60.8653 Y-1.2546 Z0.0794
G01 X60.7526 Y-1.2594 Z0.0797
G01 X60.7477 Y-1.2594 Z0.0798
G01 X60.7301 Y-1.2597 Z0.0798
G01 X60.4415 Y-1.2424 Z0.0811
G01 X60.3561 Y-1.2373 Z0.0816
G01 X60.3509 Y-1.2370 Z0.0816
G01 X60.1408 Y-1.2246 Z0.0829
G01 X59.8452 Y-1.2073 Z0.0852
G01 X59.8162 Y-1.2056 Z0.0854
G01 X59.8102 Y-1.2052 Z0.0855
G01 X59.5544 Y-1.1905 Z0.0879
G01 X59.2755 Y-1.1746 Z0.0909
G01 X59.2699 Y-1.1742 Z0.0910
G01 X59.2681 Y-1.1741 Z0.0911
G01 X58.9860 Y-1.1583 Z0.0946
G01 X58.7351 Y-1.1442 Z0.0981
G01 X58.7299 Y-1.1440 Z0.0982
G01 X58.7077 Y-1.1427 Z0.0985
G01 X58.4330 Y-1.1276 Z0.1028
G01 X58.1952 Y-1.1146 Z0.1069
G01 X58.1895 Y-1.1144 Z0.1070
G01 X58.1614 Y-1.1128 Z0.1075
G01 X57.8928 Y-1.0984 Z0.1124
G01 X57.6545 Y-1.0856 Z0.1171
G01 X57.6489 Y-1.0853 Z0.1172
G01 X57.6268 Y-1.0841 Z0.1176
G01 X57.3629 Y-1.0703 Z0.1231
G01 X57.1140 Y-1.0573 Z0.1285
G01 X57.1084 Y-1.0570 Z0.1287
G01 X57.1011 Y-1.0566 Z0.1288
G01 X56.8408 Y-1.0433 Z0.1348
G01 X56.5818 Y-1.0300 Z0.1410
G01 X56.5735 Y-1.0296 Z0.1412
G01 X56.5682 Y-1.0294 Z0.1413
G01 X56.3238 Y-1.0171 Z0.1473
G01 X56.0664 Y-1.0043 Z0.1538
G01 X56.0332 Y-1.0026 Z0.1546
G01 X56.0274 Y-1.0024 Z0.1548
G01 X55.8094 Y-0.9917 Z0.1604
G01 X55.5523 Y-0.9792 Z0.1672
G01 X55.4925 Y-0.9763 Z0.1688
G01 X55.4871 Y-0.9761 Z0.1689
G01 X55.2949 Y-0.9670 Z0.1740
G01 X55.0369 Y-0.9547 Z0.1809
G01 X54.9520 Y-0.9507 Z0.1832
G01 X54.9464 Y-0.9505 Z0.1833
G01 X54.7779 Y-0.9427 Z0.1879
G01 X54.5176 Y-0.9306 Z0.1948
G01 X54.4114 Y-0.9257 Z0.1976
G01 X54.4057 Y-0.9255 Z0.1978
G01 X54.2557 Y-0.9187 Z0.2017
G01 X53.9919 Y-0.9068 Z0.2087
G01 X53.8706 Y-0.9014 Z0.2118
G01 X53.8650 Y-0.9012 Z0.2120
G01 X53.7259 Y-0.8951 Z0.2156
G01 X53.4572 Y-0.8833 Z0.2224
G01 X53.3299 Y-0.8778 Z0.2256
G01 X53.3246 Y-0.8775 Z0.2257
G01 X53.1857 Y-0.8716 Z0.2292
G01 X52.9110 Y-0.8599 Z0.2358
G01 X52.7895 Y-0.8548 Z0.2387
G01 X52.7839 Y-0.8546 Z0.2388
G01 X52.6327 Y-0.8483 Z0.2423
G01 X52.3506 Y-0.8366 Z0.2487
G01 X52.2488 Y-0.8325 Z0.2508
G01 X52.2429 Y-0.8323 Z0.2510
G01 X52.0643 Y-0.8251 Z0.2548
G01 X51.7735 Y-0.8135 Z0.2608
G01 X51.7075 Y-0.8109 Z0.2620
G01 X51.7026 Y-0.8107 Z0.2622
G01 X51.4779 Y-0.8020 Z0.2665
G01 X51.1772 Y-0.7903 Z0.2720
G01 X51.1674 Y-0.7899 Z0.2722
G01 X51.1614 Y-0.7897 Z0.2722
G01 X50.8709 Y-0.7788 Z0.2772
G01 X50.6262 Y-0.7696 Z0.2811
G01 X50.6206 Y-0.7694 Z0.2812
G01 X50.5589 Y-0.7672 Z0.2821
G01 X50.2409 Y-0.7556 Z0.2868
G01 X50.0853 Y-0.7500 Z0.2888
G01 X50.0800 Y-0.7498 Z0.2889
G01 X49.9163 Y-0.7440 Z0.2911
G01 X49.5850 Y-0.7324 Z0.2950
G01 X49.5448 Y-0.7310 Z0.2954
G01 X49.5388 Y-0.7308 Z0.2955
G01 X49.2467 Y-0.7209 Z0.2985
G01 X49.0035 Y-0.7127 Z0.3008
G01 X48.9983 Y-0.7125 Z0.3008
G01 X48.9010 Y-0.7094 Z0.3017
G01 X48.5475 Y-0.6978 Z0.3044
G01 X48.4631 Y-0.6951 Z0.3050
G01 X48.4574 Y-0.6950 Z0.3050
G01 X48.1861 Y-0.6865 Z0.3067
G01 X47.9218 Y-0.6782 Z0.3080
G01 X47.9166 Y-0.6781 Z0.3080
G01 X47.8162 Y-0.6750 Z0.3085
G01 X47.4377 Y-0.6636 Z0.3098
G01 X47.3812 Y-0.6619 Z0.3100
G01 X47.3753 Y-0.6617 Z0.3100
G01 X47.0502 Y-0.6523 Z0.3107
G01 X46.8399 Y-0.6463 Z0.3108
G01 X46.8346 Y-0.6462 Z0.3108
G01 X46.6535 Y-0.6411 Z0.3110
G01 X46.2991 Y-0.6314 Z0.3110
G01 X46.2932 Y-0.6312 Z0.3110
G01 X45.7578 Y-0.6171 Z0.3110
G01 X45.7525 Y-0.6170 Z0.3110
G01 X45.2171 Y-0.6035 Z0.3110
G01 X45.2118 Y-0.6034 Z0.3110
G01 X44.6762 Y-0.5905 Z0.3110
G01 X44.6703 Y-0.5904 Z0.3110
G01 X44.1349 Y-0.5783 Z0.3110
G01 X44.1292 Y-0.5781 Z0.3110
G01 X43.5938 Y-0.5667 Z0.3110
G01 X43.5885 Y-0.5666 Z0.3110
G01 X43.0529 Y-0.5557 Z0.3110
G01 X43.0474 Y-0.5557 Z0.3110
G01 X42.5120 Y-0.5455 Z0.3110
G01 X42.5063 Y-0.5455 Z0.3110
G01 X41.9707 Y-0.5359 Z0.3110
G01 X41.9651 Y-0.5358 Z0.3110
G01 X41.4295 Y-0.5270 Z0.3110
G01 X41.4239 Y-0.5269 Z0.3110
G01 X40.8883 Y-0.5188 Z0.3110
G01 X40.8827 Y-0.5187 Z0.3110
G01 X40.3471 Y-0.5112 Z0.3110
G01 X40.3418 Y-0.5111 Z0.3110
G01 X39.8063 Y-0.5043 Z0.3110
G01 X39.8007 Y-0.5042 Z0.3110
G01 X39.2650 Y-0.4981 Z0.3110
G01 X39.2594 Y-0.4980 Z0.3110
G01 X38.7238 Y-0.4925 Z0.3110
G01 X38.7183 Y-0.4924 Z0.3110
G01 X38.1827 Y-0.4876 Z0.3110
G01 X38.1770 Y-0.4875 Z0.3110
G01 X37.6414 Y-0.4833 Z0.3110
G01 X37.6359 Y-0.4833 Z0.3110
G01 X37.1002 Y-0.4798 Z0.3110
G01 X37.0949 Y-0.4798 Z0.3110
G01 X36.5593 Y-0.4769 Z0.3110
G01 X36.5537 Y-0.4769 Z0.3110
G01 X36.0181 Y-0.4747 Z0.3110
G01 X36.0125 Y-0.4746 Z0.3110
G01 X35.4768 Y-0.4731 Z0.3110
G01 X35.4712 Y-0.4731 Z0.3110
G01 X34.9356 Y-0.4722 Z0.3110
G01 X34.9300 Y-0.4722 Z0.3110
G01 X34.3945 Y-0.4720 Z0.3110
G01 X34.3888 Y-0.4720 Z0.3110
G01 X33.8533 Y-0.4725 Z0.3110
G01 X33.8480 Y-0.4725 Z0.3110
G01 X33.3124 Y-0.4736 Z0.3110
G01 X33.3068 Y-0.4737 Z0.3110
G01 X32.7711 Y-0.4754 Z0.3110
G01 X32.7655 Y-0.4754 Z0.3110
G01 X32.2299 Y-0.4779 Z0.3110
G01 X32.2243 Y-0.4779 Z0.3110
G01 X31.6887 Y-0.4810 Z0.3110
G01 X31.6831 Y-0.4811 Z0.3110
G01 X31.1475 Y-0.4848 Z0.3110
G01 X31.1418 Y-0.4849 Z0.3110
G01 X30.6062 Y-0.4893 Z0.3110
G01 X30.6009 Y-0.4894 Z0.3110
G01 X30.0653 Y-0.4944 Z0.3110
G01 X30.0598 Y-0.4945 Z0.3110
G01 X29.5242 Y-0.5003 Z0.3110
G01 X29.5182 Y-0.5003 Z0.3110
G01 X28.9826 Y-0.5068 Z0.3110
G01 X28.9776 Y-0.5068 Z0.3110
G01 X28.4420 Y-0.5139 Z0.3110
G01 X28.4361 Y-0.5140 Z0.3110
G01 X27.9005 Y-0.5217 Z0.3110
G01 X27.8950 Y-0.5218 Z0.3110
G01 X27.3594 Y-0.5302 Z0.3110
G01 X27.3541 Y-0.5303 Z0.3110
G01 X26.8186 Y-0.5394 Z0.3110
G01 X26.8127 Y-0.5395 Z0.3110
G01 X26.2770 Y-0.5492 Z0.3110
G01 X26.2716 Y-0.5493 Z0.3110
G01 X25.7362 Y-0.5597 Z0.3110
G01 X25.7307 Y-0.5598 Z0.3110
G01 X25.1952 Y-0.5709 Z0.3110
G01 X25.1896 Y-0.5710 Z0.3110
G01 X24.6540 Y-0.5827 Z0.3110
G01 X24.6488 Y-0.5828 Z0.3110
G01 X24.1133 Y-0.5952 Z0.3110
G01 X24.1074 Y-0.5953 Z0.3110
G01 X23.5719 Y-0.6084 Z0.3110
G01 X23.5666 Y-0.6085 Z0.3110
G01 X23.0311 Y-0.6222 Z0.3110
G01 X23.0255 Y-0.6224 Z0.3110
G01 X22.4901 Y-0.6368 Z0.3110
G01 X22.4845 Y-0.6369 Z0.3110
G01 X21.9491 Y-0.6520 Z0.3110
G01 X21.9435 Y-0.6521 Z0.3110
G01 X21.4081 Y-0.6678 Z0.3110
G01 X21.4028 Y-0.6680 Z0.3110
G01 X21.0630 Y-0.6783 Z0.3110
G01 X20.8673 Y-0.6843 Z0.3108
G01 X20.8612 Y-0.6845 Z0.3108
G01 X20.6662 Y-0.6907 Z0.3107
G01 X20.3261 Y-0.7015 Z0.3100
G01 X20.3209 Y-0.7017 Z0.3100
G01 X20.2787 Y-0.7031 Z0.3098
G01 X19.9001 Y-0.7155 Z0.3085
G01 X19.7855 Y-0.7194 Z0.3079
G01 X19.7799 Y-0.7196 Z0.3079
G01 X19.5303 Y-0.7281 Z0.3067
G01 X19.2446 Y-0.7379 Z0.3049
G01 X19.2390 Y-0.7381 Z0.3049
G01 X19.1689 Y-0.7406 Z0.3044
G01 X18.8154 Y-0.7531 Z0.3017
G01 X18.7037 Y-0.7571 Z0.3007
G01 X18.6981 Y-0.7573 Z0.3006
G01 X18.4697 Y-0.7657 Z0.2985
G01 X18.1628 Y-0.7770 Z0.2953
G01 X18.1575 Y-0.7772 Z0.2953
G01 X18.1314 Y-0.7782 Z0.2950
G01 X17.8001 Y-0.7907 Z0.2911
G01 X17.6223 Y-0.7975 Z0.2887
G01 X17.6164 Y-0.7977 Z0.2887
G01 X17.4756 Y-0.8033 Z0.2868
G01 X17.1575 Y-0.8157 Z0.2821
G01 X17.0811 Y-0.8188 Z0.2809
G01 X17.0759 Y-0.8190 Z0.2809
G01 X16.8455 Y-0.8283 Z0.2772
G01 X16.5405 Y-0.8406 Z0.2720
G01 X16.5392 Y-0.8407 Z0.2720
G01 X16.5348 Y-0.8408 Z0.2719
G01 X16.2385 Y-0.8532 Z0.2665
G01 X15.9998 Y-0.8631 Z0.2619
G01 X15.9943 Y-0.8634 Z0.2618
G01 X15.9429 Y-0.8656 Z0.2607
G01 X15.6521 Y-0.8781 Z0.2548
G01 X15.4591 Y-0.8864 Z0.2507
G01 X15.4535 Y-0.8866 Z0.2505
G01 X15.3658 Y-0.8905 Z0.2487
G01 X15.0837 Y-0.9029 Z0.2423
G01 X14.9184 Y-0.9103 Z0.2384
G01 X14.9131 Y-0.9105 Z0.2383
G01 X14.8054 Y-0.9154 Z0.2358
G01 X14.5307 Y-0.9278 Z0.2292
G01 X14.3781 Y-0.9348 Z0.2254
G01 X14.3725 Y-0.9351 Z0.2252
G01 X14.2592 Y-0.9403 Z0.2224
G01 X13.9905 Y-0.9529 Z0.2156
G01 X13.8374 Y-0.9600 Z0.2116
G01 X13.8318 Y-0.9603 Z0.2115
G01 X13.7245 Y-0.9654 Z0.2087
G01 X13.4607 Y-0.9781 Z0.2017
G01 X13.2967 Y-0.9859 Z0.1974
G01 X13.2909 Y-0.9862 Z0.1972
G01 X13.1988 Y-0.9907 Z0.1948
G01 X12.9385 Y-1.0035 Z0.1879
G01 X12.7561 Y-1.0125 Z0.1829
G01 X12.7506 Y-1.0127 Z0.1828
G01 X12.6795 Y-1.0163 Z0.1809
G01 X12.4215 Y-1.0293 Z0.1740
G01 X12.2157 Y-1.0397 Z0.1685
G01 X12.2100 Y-1.0400 Z0.1684
G01 X12.1641 Y-1.0424 Z0.1672
G01 X11.9071 Y-1.0556 Z0.1604
G01 X11.6751 Y-1.0676 Z0.1544
G01 X11.6698 Y-1.0679 Z0.1543
G01 X11.6500 Y-1.0689 Z0.1538
G01 X11.3926 Y-1.0825 Z0.1473
G01 X11.1350 Y-1.0962 Z0.1410
G01 X11.1294 Y-1.0964 Z0.1408
G01 X10.8756 Y-1.1101 Z0.1348
G01 X10.6153 Y-1.1242 Z0.1288
G01 X10.5944 Y-1.1254 Z0.1284
G01 X10.5887 Y-1.1257 Z0.1283
G01 X10.3535 Y-1.1387 Z0.1231
G01 X10.0896 Y-1.1533 Z0.1176
G01 X10.0540 Y-1.1553 Z0.1169
G01 X10.0485 Y-1.1556 Z0.1168
G01 X9.8236 Y-1.1683 Z0.1124
G01 X9.5550 Y-1.1835 Z0.1075
G01 X9.5137 Y-1.1859 Z0.1068
G01 X9.5081 Y-1.1862 Z0.1066
G01 X9.2835 Y-1.1992 Z0.1028
G01 X9.0087 Y-1.2151 Z0.0985
G01 X8.9733 Y-1.2171 Z0.0980
G01 X8.9681 Y-1.2174 Z0.0979
G01 X8.7304 Y-1.2314 Z0.0946
G01 X8.4483 Y-1.2481 Z0.0910
G01 X8.4334 Y-1.2490 Z0.0909
G01 X8.4275 Y-1.2494 Z0.0908
G01 X8.1620 Y-1.2654 Z0.0879
G01 X7.8927 Y-1.2816 Z0.0854
G01 X7.8873 Y-1.2820 Z0.0853
G01 X7.8712 Y-1.2829 Z0.0852
G01 X7.5756 Y-1.3011 Z0.0829
G01 X7.3528 Y-1.3149 Z0.0815
G01 X7.3473 Y-1.3152 Z0.0815
G01 X7.2749 Y-1.3197 Z0.0811
G01 X6.9728 Y-1.3387 Z0.0798
G01 X6.9687 Y-1.3386 Z0.0797
G01 X6.8696 Y-1.3376 Z0.0795
G01 X6.6588 Y-1.3306 Z0.0789
G01 X6.6566 Y-1.3305 Z0.0789
G01 X6.4656 Y-1.3198 Z0.0788
G01 X6.3386 Y-1.3096 Z0.0787
G01 X6.2777 Y-1.3048 Z0.0787
G01 X6.1060 Y-1.2868 Z0.0787
G01 X5.9445 Y-1.2658 Z0.0787
G01 X5.7931 Y-1.2420 Z0.0787
G01 X5.6537 Y-1.2163 Z0.0787
G01 X5.5232 Y-1.1885 Z0.0787
G01 X5.4042 Y-1.1595 Z0.0787
G01 X5.2951 Y-1.1295 Z0.0787
G01 X5.1976 Y-1.0995 Z0.0787
G01 X5.1078 Y-1.0688 Z0.0787
G01 X5.0270 Y-1.0383 Z0.0787
G01 X4.9551 Y-1.0084 Z0.0787
G01 X4.8918 Y-0.9796 Z0.0787
G01 X4.8344 Y-0.9512 Z0.0787
G01 X4.7868 Y-0.9255 Z0.0787
G01 X4.7435 Y-0.9000 Z0.0787
G01 X4.7058 Y-0.8761 Z0.0787
G01 X4.6756 Y-0.8553 Z0.0787
G01 X4.6472 Y-0.8343 Z0.0787
G01 X4.6255 Y-0.8169 Z0.0787
G01 X4.6048 Y-0.7989 Z0.0787
G01 X4.5885 Y-0.7838 Z0.0787
G01 X4.5735 Y-0.7687 Z0.0787
G01 X4.5615 Y-0.7558 Z0.0787
G01 X4.5485 Y-0.7406 Z0.0787
G01 X4.5388 Y-0.7284 Z0.0787
G01 X4.5291 Y-0.7152 Z0.0787
G01 X4.5190 Y-0.7005 Z0.0787
G01 X4.5094 Y-0.6853 Z0.0787
G01 X4.5003 Y-0.6697 Z0.0787
G01 X4.4909 Y-0.6521 Z0.0787
G01 X4.4807 Y-0.6314 Z0.0787
G01 X4.4704 Y-0.6085 Z0.0787
G01 X4.4611 Y-0.5860 Z0.0787
G01 X4.4504 Y-0.5572 Z0.0787
G01 X4.4403 Y-0.5270 Z0.0787
G01 X4.4303 Y-0.4938 Z0.0787
G01 X4.4209 Y-0.4588 Z0.0787
G01 X4.4114 Y-0.4185 Z0.0787
G01 X4.4027 Y-0.3761 Z0.0787
G01 X4.3949 Y-0.3316 Z0.0787
G01 X4.3879 Y-0.2832 Z0.0787
G01 X4.3818 Y-0.2314 Z0.0787
G01 X4.3769 Y-0.1776 Z0.0787
G01 X4.3732 Y-0.1201 Z0.0787
G01 X4.3710 Y-0.0611 Z0.0787
G01 X4.3702 Y-0.0011 Z0.0787
G01 X3.6222 Y0.0000 Z0.0787 F20
G01 X3.6222 Y0.0000 Z0.0787 F50
G01 X3.6232 Y0.0815 Z0.0787
G01 X3.6261 Y0.1581 Z0.0787
G01 X3.6310 Y0.2347 Z0.0787
G01 X3.6375 Y0.3072 Z0.0787
G01 X3.6464 Y0.3825 Z0.0787
G01 X3.6562 Y0.4494 Z0.0787
G01 X3.6678 Y0.5160 Z0.0787
G01 X3.6806 Y0.5786 Z0.0787
G01 X3.6954 Y0.6412 Z0.0787
G01 X3.7109 Y0.6988 Z0.0787
G01 X3.7274 Y0.7537 Z0.0787
G01 X3.7454 Y0.8075 Z0.0787
G01 X3.7643 Y0.8582 Z0.0787
G01 X3.7830 Y0.9037 Z0.0787
G01 X3.8033 Y0.9489 Z0.0787
G01 X3.8253 Y0.9937 Z0.0787
G01 X3.8472 Y1.0345 Z0.0787
G01 X3.8691 Y1.0722 Z0.0787
G01 X3.8933 Y1.1106 Z0.0787
G01 X3.9188 Y1.1479 Z0.0787
G01 X3.9447 Y1.1831 Z0.0787
G01 X3.9721 Y1.2175 Z0.0787
G01 X4.0022 Y1.2526 Z0.0787
G01 X4.0339 Y1.2869 Z0.0787
G01 X4.0684 Y1.3215 Z0.0787
G01 X4.1051 Y1.3557 Z0.0787
G01 X4.1473 Y1.3922 Z0.0787
G01 X4.1896 Y1.4261 Z0.0787
G01 X4.2410 Y1.4643 Z0.0787
G01 X4.2928 Y1.4999 Z0.0787
G01 X4.3531 Y1.5382 Z0.0787
G01 X4.4195 Y1.5772 Z0.0787
G01 X4.4906 Y1.6156 Z0.0787
G01 X4.5704 Y1.6552 Z0.0787
G01 X4.6572 Y1.6947 Z0.0787
G01 X4.7511 Y1.7337 Z0.0787
G01 X4.8544 Y1.7727 Z0.0787
G01 X4.9661 Y1.8109 Z0.0787
G01 X5.0861 Y1.8478 Z0.0787
G01 X5.2175 Y1.8839 Z0.0787
G01 X5.3574 Y1.9179 Z0.0787
G01 X5.5060 Y1.9497 Z0.0787
G01 X5.6688 Y1.9797 Z0.0787
G01 X5.8372 Y2.0061 Z0.0787
G01 X6.0192 Y2.0298 Z0.0787
G01 X6.2094 Y2.0497 Z0.0787
G01 X6.3386 Y2.0600 Z0.0787
G01 X6.4138 Y2.0661 Z0.0787
G01 X6.6266 Y2.0780 Z0.0789
G01 X6.6566 Y2.0790 Z0.0789
G01 X6.8527 Y2.0854 Z0.0794
G01 X6.9687 Y2.0867 Z0.0797
G01 X6.9924 Y2.0870 Z0.0798
G01 X7.2749 Y2.0692 Z0.0811
G01 X7.3942 Y2.0617 Z0.0818
G01 X7.3988 Y2.0614 Z0.0818
G01 X7.5756 Y2.0505 Z0.0829
G01 X7.8712 Y2.0323 Z0.0852
G01 X7.9333 Y2.0285 Z0.0857
G01 X7.9378 Y2.0283 Z0.0858
G01 X8.1620 Y2.0148 Z0.0879
G01 X8.4483 Y1.9975 Z0.0910
G01 X8.4726 Y1.9960 Z0.0913
G01 X8.4775 Y1.9957 Z0.0914
G01 X8.7304 Y1.9807 Z0.0946
G01 X9.0087 Y1.9643 Z0.0985
G01 X9.0122 Y1.9641 Z0.0986
G01 X9.0166 Y1.9639 Z0.0987
G01 X9.2835 Y1.9484 Z0.1028
G01 X9.5513 Y1.9329 Z0.1074
G01 X9.5550 Y1.9327 Z0.1075
G01 X9.5559 Y1.9327 Z0.1075
G01 X9.8236 Y1.9175 Z0.1124
G01 X10.0896 Y1.9024 Z0.1176
G01 X10.0907 Y1.9024 Z0.1176
G01 X10.0953 Y1.9021 Z0.1177
G01 X10.3535 Y1.8878 Z0.1231
G01 X10.6153 Y1.8733 Z0.1288
G01 X10.6300 Y1.8725 Z0.1292
G01 X10.6348 Y1.8723 Z0.1293
G01 X10.8756 Y1.8593 Z0.1348
G01 X11.1346 Y1.8453 Z0.1410
G01 X11.1698 Y1.8434 Z0.1418
G01 X11.1744 Y1.8431 Z0.1419
G01 X11.3926 Y1.8316 Z0.1473
G01 X11.6500 Y1.8179 Z0.1538
G01 X11.7093 Y1.8148 Z0.1553
G01 X11.7137 Y1.8146 Z0.1554
G01 X11.9071 Y1.8046 Z0.1604
G01 X12.1641 Y1.7913 Z0.1672
G01 X12.2486 Y1.7870 Z0.1694
G01 X12.2533 Y1.7867 Z0.1695
G01 X12.4215 Y1.7782 Z0.1740
G01 X12.6795 Y1.7652 Z0.1809
G01 X12.7883 Y1.7598 Z0.1838
G01 X12.7929 Y1.7596 Z0.1839
G01 X12.9385 Y1.7524 Z0.1879
G01 X13.1988 Y1.7396 Z0.1948
G01 X13.3277 Y1.7333 Z0.1982
G01 X13.3325 Y1.7331 Z0.1983
G01 X13.4607 Y1.7269 Z0.2017
G01 X13.7245 Y1.7143 Z0.2087
G01 X13.8676 Y1.7074 Z0.2124
G01 X13.8722 Y1.7072 Z0.2125
G01 X13.9905 Y1.7016 Z0.2156
G01 X14.2592 Y1.6891 Z0.2224
G01 X14.4073 Y1.6822 Z0.2261
G01 X14.4120 Y1.6820 Z0.2262
G01 X14.5307 Y1.6766 Z0.2292
G01 X14.8054 Y1.6642 Z0.2358
G01 X14.9471 Y1.6577 Z0.2391
G01 X14.9514 Y1.6575 Z0.2392
G01 X15.0837 Y1.6517 Z0.2423
G01 X15.3658 Y1.6392 Z0.2487
G01 X15.4865 Y1.6339 Z0.2512
G01 X15.4912 Y1.6337 Z0.2513
G01 X15.6521 Y1.6268 Z0.2548
G01 X15.9429 Y1.6142 Z0.2607
G01 X16.0264 Y1.6107 Z0.2624
G01 X16.0310 Y1.6105 Z0.2625
G01 X16.2385 Y1.6018 Z0.2665
G01 X16.5392 Y1.5893 Z0.2720
G01 X16.5660 Y1.5882 Z0.2724
G01 X16.5708 Y1.5881 Z0.2725
G01 X16.8455 Y1.5769 Z0.2772
G01 X17.1061 Y1.5664 Z0.2813
G01 X17.1105 Y1.5662 Z0.2814
G01 X17.1575 Y1.5643 Z0.2821
G01 X17.4756 Y1.5518 Z0.2868
G01 X17.6457 Y1.5451 Z0.2890
G01 X17.6507 Y1.5450 Z0.2891
G01 X17.8001 Y1.5392 Z0.2911
G01 X18.1314 Y1.5267 Z0.2950
G01 X18.1859 Y1.5246 Z0.2956
G01 X18.1903 Y1.5245 Z0.2956
G01 X18.4697 Y1.5142 Z0.2985
G01 X18.7256 Y1.5048 Z0.3009
G01 X18.7302 Y1.5046 Z0.3009
G01 X18.8154 Y1.5016 Z0.3017
G01 X19.1689 Y1.4890 Z0.3044
G01 X19.2655 Y1.4856 Z0.3050
G01 X19.2702 Y1.4855 Z0.3051
G01 X19.5303 Y1.4765 Z0.3067
G01 X19.8055 Y1.4671 Z0.3081
G01 X19.8102 Y1.4670 Z0.3081
G01 X19.9001 Y1.4640 Z0.3085
G01 X20.2787 Y1.4515 Z0.3098
G01 X20.3455 Y1.4493 Z0.3100
G01 X20.3499 Y1.4491 Z0.3100
G01 X20.6662 Y1.4390 Z0.3107
G01 X20.8851 Y1.4321 Z0.3108
G01 X20.8901 Y1.4320 Z0.3108
G01 X21.0630 Y1.4267 Z0.3110
G01 X21.4256 Y1.4156 Z0.3110
G01 X21.4300 Y1.4155 Z0.3110
G01 X21.9654 Y1.3998 Z0.3110
G01 X21.9701 Y1.3996 Z0.3110
G01 X22.5055 Y1.3846 Z0.3110
G01 X22.5101 Y1.3845 Z0.3110
G01 X23.0456 Y1.3701 Z0.3110
G01 X23.0503 Y1.3700 Z0.3110
G01 X23.5857 Y1.3563 Z0.3110
G01 X23.5901 Y1.3562 Z0.3110
G01 X24.1256 Y1.3431 Z0.3110
G01 X24.1305 Y1.3430 Z0.3110
G01 X24.6660 Y1.3306 Z0.3110
G01 X24.6704 Y1.3305 Z0.3110
G01 X25.2059 Y1.3188 Z0.3110
G01 X25.2106 Y1.3187 Z0.3110
G01 X25.7461 Y1.3076 Z0.3110
G01 X25.7508 Y1.3075 Z0.3110
G01 X26.2862 Y1.2972 Z0.3110
G01 X26.2906 Y1.2971 Z0.3110
G01 X26.8263 Y1.2874 Z0.3110
G01 X26.8312 Y1.2873 Z0.3110
G01 X27.3668 Y1.2782 Z0.3110
G01 X27.3712 Y1.2781 Z0.3110
G01 X27.9067 Y1.2697 Z0.3110
G01 X27.9114 Y1.2696 Z0.3110
G01 X28.4469 Y1.2619 Z0.3110
G01 X28.4519 Y1.2618 Z0.3110
G01 X28.9875 Y1.2548 Z0.3110
G01 X28.9916 Y1.2547 Z0.3110
G01 X29.5272 Y1.2483 Z0.3110
G01 X29.5322 Y1.2482 Z0.3110
G01 X30.0678 Y1.2424 Z0.3110
G01 X30.0724 Y1.2424 Z0.3110
G01 X30.6080 Y1.2373 Z0.3110
G01 X30.6124 Y1.2373 Z0.3110
G01 X31.1481 Y1.2328 Z0.3110
G01 X31.1527 Y1.2328 Z0.3110
G01 X31.6883 Y1.2290 Z0.3110
G01 X31.6930 Y1.2290 Z0.3110
G01 X32.2286 Y1.2259 Z0.3110
G01 X32.2333 Y1.2259 Z0.3110
G01 X32.7689 Y1.2234 Z0.3110
G01 X32.7736 Y1.2234 Z0.3110
G01 X33.3092 Y1.2216 Z0.3110
G01 X33.3139 Y1.2216 Z0.3110
G01 X33.8495 Y1.2205 Z0.3110
G01 X33.8539 Y1.2205 Z0.3110
G01 X34.3895 Y1.2200 Z0.3110
G01 X34.3942 Y1.2200 Z0.3110
G01 X34.9297 Y1.2202 Z0.3110
G01 X34.9344 Y1.2202 Z0.3110
G01 X35.4700 Y1.2211 Z0.3110
G01 X35.4747 Y1.2211 Z0.3110
G01 X36.0103 Y1.2226 Z0.3110
G01 X36.0150 Y1.2227 Z0.3110
G01 X36.5506 Y1.2249 Z0.3110
G01 X36.5553 Y1.2249 Z0.3110
G01 X37.0909 Y1.2277 Z0.3110
G01 X37.0953 Y1.2278 Z0.3110
G01 X37.6309 Y1.2313 Z0.3110
G01 X37.6356 Y1.2313 Z0.3110
G01 X38.1712 Y1.2355 Z0.3110
G01 X38.1759 Y1.2355 Z0.3110
G01 X38.7115 Y1.2404 Z0.3110
G01 X38.7162 Y1.2404 Z0.3110
G01 X39.2518 Y1.2459 Z0.3110
G01 X39.2564 Y1.2460 Z0.3110
G01 X39.7920 Y1.2522 Z0.3110
G01 X39.7967 Y1.2522 Z0.3110
G01 X40.3323 Y1.2591 Z0.3110
G01 X40.3367 Y1.2591 Z0.3110
G01 X40.8723 Y1.2666 Z0.3110
G01 X40.8769 Y1.2667 Z0.3110
G01 X41.4125 Y1.2748 Z0.3110
G01 X41.4172 Y1.2749 Z0.3110
G01 X41.9527 Y1.2837 Z0.3110
G01 X41.9574 Y1.2838 Z0.3110
G01 X42.4931 Y1.2933 Z0.3110
G01 X42.4978 Y1.2933 Z0.3110
G01 X43.0332 Y1.3035 Z0.3110
G01 X43.0378 Y1.3036 Z0.3110
G01 X43.5734 Y1.3144 Z0.3110
G01 X43.5778 Y1.3145 Z0.3110
G01 X44.1133 Y1.3260 Z0.3110
G01 X44.1179 Y1.3261 Z0.3110
G01 X44.6534 Y1.3382 Z0.3110
G01 X44.6583 Y1.3383 Z0.3110
G01 X45.1938 Y1.3511 Z0.3110
G01 X45.1983 Y1.3512 Z0.3110
G01 X45.7337 Y1.3647 Z0.3110
G01 X45.7381 Y1.3648 Z0.3110
G01 X46.2735 Y1.3789 Z0.3110
G01 X46.2785 Y1.3790 Z0.3110
G01 X46.6535 Y1.3894 Z0.3110
G01 X46.8139 Y1.3938 Z0.3109
G01 X46.8183 Y1.3940 Z0.3109
G01 X47.0502 Y1.4006 Z0.3107
G01 X47.3537 Y1.4094 Z0.3100
G01 X47.3587 Y1.4096 Z0.3100
G01 X47.4377 Y1.4119 Z0.3098
G01 X47.8162 Y1.4233 Z0.3085
G01 X47.8941 Y1.4257 Z0.3081
G01 X47.8985 Y1.4259 Z0.3081
G01 X48.1861 Y1.4348 Z0.3067
G01 X48.4335 Y1.4426 Z0.3051
G01 X48.4387 Y1.4427 Z0.3051
G01 X48.5475 Y1.4462 Z0.3044
G01 X48.9010 Y1.4577 Z0.3017
G01 X48.9739 Y1.4601 Z0.3011
G01 X48.9783 Y1.4603 Z0.3010
G01 X49.2467 Y1.4694 Z0.2985
G01 X49.5136 Y1.4784 Z0.2958
G01 X49.5185 Y1.4785 Z0.2957
G01 X49.5850 Y1.4809 Z0.2950
G01 X49.9163 Y1.4925 Z0.2911
G01 X50.0538 Y1.4973 Z0.2892
G01 X50.0582 Y1.4975 Z0.2892
G01 X50.2409 Y1.5041 Z0.2868
G01 X50.5589 Y1.5156 Z0.2821
G01 X50.5935 Y1.5169 Z0.2816
G01 X50.5982 Y1.5171 Z0.2815
G01 X50.8709 Y1.5273 Z0.2772
G01 X51.1334 Y1.5372 Z0.2727
G01 X51.1384 Y1.5374 Z0.2726
G01 X51.1772 Y1.5388 Z0.2720
G01 X51.4779 Y1.5505 Z0.2665
G01 X51.6736 Y1.5581 Z0.2627
G01 X51.6777 Y1.5583 Z0.2626
G01 X51.7735 Y1.5621 Z0.2608
G01 X52.0643 Y1.5737 Z0.2548
G01 X52.2130 Y1.5797 Z0.2516
G01 X52.2180 Y1.5798 Z0.2515
G01 X52.3506 Y1.5853 Z0.2487
G01 X52.6327 Y1.5969 Z0.2423
G01 X52.7531 Y1.6019 Z0.2395
G01 X52.7577 Y1.6021 Z0.2394
G01 X52.9110 Y1.6086 Z0.2358
G01 X53.1857 Y1.6203 Z0.2292
G01 X53.2929 Y1.6249 Z0.2265
G01 X53.2973 Y1.6251 Z0.2264
G01 X53.4572 Y1.6320 Z0.2224
G01 X53.7259 Y1.6438 Z0.2156
G01 X53.8324 Y1.6485 Z0.2128
G01 X53.8370 Y1.6487 Z0.2127
G01 X53.9919 Y1.6556 Z0.2087
G01 X54.2557 Y1.6674 Z0.2017
G01 X54.3722 Y1.6727 Z0.1987
G01 X54.3768 Y1.6729 Z0.1985
G01 X54.5176 Y1.6794 Z0.1948
G01 X54.7779 Y1.6914 Z0.1879
G01 X54.9119 Y1.6976 Z0.1842
G01 X54.9165 Y1.6979 Z0.1841
G01 X55.0369 Y1.7036 Z0.1809
G01 X55.2949 Y1.7158 Z0.1740
G01 X55.4517 Y1.7233 Z0.1698
G01 X55.4562 Y1.7234 Z0.1697
G01 X55.5523 Y1.7281 Z0.1672
G01 X55.8094 Y1.7406 Z0.1604
G01 X55.9910 Y1.7494 Z0.1557
G01 X55.9959 Y1.7497 Z0.1556
G01 X56.0664 Y1.7532 Z0.1538
G01 X56.3238 Y1.7660 Z0.1473
G01 X56.5309 Y1.7764 Z0.1422
G01 X56.5353 Y1.7766 Z0.1421
G01 X56.5818 Y1.7790 Z0.1410
G01 X56.8408 Y1.7922 Z0.1348
G01 X57.0702 Y1.8040 Z0.1295
G01 X57.0749 Y1.8042 Z0.1294
G01 X57.1011 Y1.8056 Z0.1288
G01 X57.3629 Y1.8193 Z0.1231
G01 X57.6098 Y1.8323 Z0.1179
G01 X57.6144 Y1.8325 Z0.1179
G01 X57.6268 Y1.8331 Z0.1176
G01 X57.8928 Y1.8474 Z0.1124
G01 X58.1494 Y1.8612 Z0.1077
G01 X58.1542 Y1.8614 Z0.1076
G01 X58.1614 Y1.8618 Z0.1075
G01 X58.4330 Y1.8767 Z0.1028
G01 X58.6888 Y1.8908 Z0.0988
G01 X58.6932 Y1.8911 Z0.0987
G01 X58.7077 Y1.8918 Z0.0985
G01 X58.9860 Y1.9074 Z0.0946
G01 X59.2280 Y1.9211 Z0.0915
G01 X59.2326 Y1.9213 Z0.0915
G01 X59.2681 Y1.9233 Z0.0911
G01 X59.5544 Y1.9398 Z0.0879
G01 X59.7674 Y1.9520 Z0.0859
G01 X59.7724 Y1.9523 Z0.0859
G01 X59.8452 Y1.9565 Z0.0852
G01 X60.1408 Y1.9738 Z0.0829
G01 X60.3071 Y1.9837 Z0.0819
G01 X60.3114 Y1.9839 Z0.0818
G01 X60.4415 Y1.9917 Z0.0811
G01 X60.7129 Y2.0079 Z0.0799
G01 X60.7477 Y2.0074 Z0.0798
G01 X60.7731 Y2.0071 Z0.0797
G01 X60.9090 Y2.0014 Z0.0793
G01 X61.0337 Y1.9926 Z0.0790
G01 X61.0598 Y1.9899 Z0.0789
G01 X61.1485 Y1.9809 Z0.0788
G01 X61.2562 Y1.9666 Z0.0788
G01 X61.3520 Y1.9508 Z0.0787
G01 X61.3779 Y1.9457 Z0.0787
G01 X61.4418 Y1.9329 Z0.0787
G01 X61.5233 Y1.9139 Z0.0787
G01 X61.5946 Y1.8946 Z0.0787
G01 X61.6588 Y1.8748 Z0.0787
G01 X61.7186 Y1.8539 Z0.0787
G01 X61.7714 Y1.8334 Z0.0787
G01 X61.8164 Y1.8138 Z0.0787
G01 X61.8580 Y1.7939 Z0.0787
G01 X61.8930 Y1.7755 Z0.0787
G01 X61.9267 Y1.7560 Z0.0787
G01 X61.9553 Y1.7381 Z0.0787
G01 X61.9831 Y1.7190 Z0.0787
G01 X62.0066 Y1.7015 Z0.0787
G01 X62.0286 Y1.6838 Z0.0787
G01 X62.0501 Y1.6650 Z0.0787
G01 X62.0700 Y1.6463 Z0.0787
G01 X62.0896 Y1.6264 Z0.0787
G01 X62.1099 Y1.6042 Z0.0787
G01 X62.1291 Y1.5815 Z0.0787
G01 X62.1486 Y1.5567 Z0.0787
G01 X62.1682 Y1.5298 Z0.0787
G01 X62.1895 Y1.4983 Z0.0787
G01 X62.2095 Y1.4664 Z0.0787
G01 X62.2306 Y1.4302 Z0.0787
G01 X62.2523 Y1.3897 Z0.0787
G01 X62.2729 Y1.3484 Z0.0787
G01 X62.2944 Y1.3014 Z0.0787
G01 X62.3161 Y1.2501 Z0.0787
G01 X62.3363 Y1.1980 Z0.0787
G01 X62.3567 Y1.1405 Z0.0787
G01 X62.3764 Y1.0794 Z0.0787
G01 X62.3962 Y1.0122 Z0.0787
G01 X62.4140 Y0.9451 Z0.0787
G01 X62.4306 Y0.8751 Z0.0787
G01 X62.4468 Y0.7982 Z0.0787
G01 X62.4613 Y0.7205 Z0.0787
G01 X62.4748 Y0.6372 Z0.0787
G01 X62.4859 Y0.5562 Z0.0787
G01 X62.4962 Y0.4672 Z0.0787
G01 X62.5045 Y0.3778 Z0.0787
G01 X62.5110 Y0.2859 Z0.0787
G01 X62.5157 Y0.1929 Z0.0787
G01 X62.5186 Y0.0959 Z0.0787
G01 X62.5196 Y0.0000 Z0.0787
G01 X62.5186 Y-0.0959 Z0.0787
G01 X62.5157 Y-0.1929 Z0.0787
G01 X62.5110 Y-0.2859 Z0.0787
G01 X62.5045 Y-0.3778 Z0.0787
G01 X62.4962 Y-0.4672 Z0.0787
G01 X62.4859 Y-0.5562 Z0.0787
G01 X62.4748 Y-0.6372 Z0.0787
G01 X62.4613 Y-0.7205 Z0.0787
G01 X62.4468 Y-0.7982 Z0.0787
G01 X62.4306 Y-0.8751 Z0.0787
G01 X62.4140 Y-0.9451 Z0.0787
G01 X62.3962 Y-1.0122 Z0.0787
G01 X62.3764 Y-1.0794 Z0.0787
G01 X62.3567 Y-1.1405 Z0.0787
G01 X62.3363 Y-1.1980 Z0.0787
G01 X62.3161 Y-1.2501 Z0.0787
G01 X62.2944 Y-1.3014 Z0.0787
G01 X62.2729 Y-1.3484 Z0.0787
G01 X62.2523 Y-1.3897 Z0.0787
G01 X62.2306 Y-1.4302 Z0.0787
G01 X62.2092 Y-1.4670 Z0.0787
G01 X62.1895 Y-1.4983 Z0.0787
G01 X62.1682 Y-1.5298 Z0.0787
G01 X62.1486 Y-1.5567 Z0.0787
G01 X62.1286 Y-1.5821 Z0.0787
G01 X62.1099 Y-1.6042 Z0.0787
G01 X62.0896 Y-1.6264 Z0.0787
G01 X62.0700 Y-1.6463 Z0.0787
G01 X62.0501 Y-1.6651 Z0.0787
G01 X62.0286 Y-1.6838 Z0.0787
G01 X62.0065 Y-1.7016 Z0.0787
G01 X61.9828 Y-1.7192 Z0.0787
G01 X61.9553 Y-1.7381 Z0.0787
G01 X61.9264 Y-1.7562 Z0.0787
G01 X61.8930 Y-1.7755 Z0.0787
G01 X61.8580 Y-1.7939 Z0.0787
G01 X61.8164 Y-1.8138 Z0.0787
G01 X61.7712 Y-1.8334 Z0.0787
G01 X61.7186 Y-1.8539 Z0.0787
G01 X61.6588 Y-1.8748 Z0.0787
G01 X61.5946 Y-1.8946 Z0.0787
G01 X61.5233 Y-1.9139 Z0.0787
G01 X61.4418 Y-1.9329 Z0.0787
G01 X61.3779 Y-1.9457 Z0.0787
G01 X61.3520 Y-1.9508 Z0.0787
G01 X61.2562 Y-1.9666 Z0.0788
G01 X61.1485 Y-1.9809 Z0.0788
G01 X61.0598 Y-1.9899 Z0.0789
G01 X61.0337 Y-1.9926 Z0.0790
G01 X60.9090 Y-2.0014 Z0.0793
G01 X60.7731 Y-2.0071 Z0.0797
G01 X60.7477 Y-2.0074 Z0.0798
G01 X60.7129 Y-2.0079 Z0.0799
G01 X60.4415 Y-1.9917 Z0.0811
G01 X60.3114 Y-1.9839 Z0.0818
G01 X60.3071 Y-1.9837 Z0.0819
G01 X60.1408 Y-1.9739 Z0.0829
G01 X59.8452 Y-1.9565 Z0.0852
G01 X59.7724 Y-1.9523 Z0.0859
G01 X59.7674 Y-1.9520 Z0.0859
G01 X59.5544 Y-1.9398 Z0.0879
G01 X59.2681 Y-1.9233 Z0.0911
G01 X59.2326 Y-1.9213 Z0.0915
G01 X59.2280 Y-1.9211 Z0.0915
G01 X58.9860 Y-1.9075 Z0.0946
G01 X58.7077 Y-1.8918 Z0.0985
G01 X58.6932 Y-1.8911 Z0.0987
G01 X58.6888 Y-1.8908 Z0.0988
G01 X58.4330 Y-1.8768 Z0.1028
G01 X58.1614 Y-1.8618 Z0.1075
G01 X58.1542 Y-1.8614 Z0.1076
G01 X58.1494 Y-1.8612 Z0.1077
G01 X57.8928 Y-1.8474 Z0.1124
G01 X57.6268 Y-1.8331 Z0.1176
G01 X57.6144 Y-1.8325 Z0.1179
G01 X57.6098 Y-1.8323 Z0.1179
G01 X57.3629 Y-1.8193 Z0.1231
G01 X57.1011 Y-1.8056 Z0.1288
G01 X57.0749 Y-1.8042 Z0.1294
G01 X57.0702 Y-1.8040 Z0.1295
G01 X56.8408 Y-1.7922 Z0.1348
G01 X56.5818 Y-1.7790 Z0.1410
G01 X56.5353 Y-1.7766 Z0.1421
G01 X56.5309 Y-1.7764 Z0.1422
G01 X56.3238 Y-1.7661 Z0.1473
G01 X56.0664 Y-1.7532 Z0.1538
G01 X55.9959 Y-1.7497 Z0.1556
G01 X55.9910 Y-1.7494 Z0.1557
G01 X55.8094 Y-1.7406 Z0.1604
G01 X55.5523 Y-1.7281 Z0.1672
G01 X55.4562 Y-1.7234 Z0.1697
G01 X55.4517 Y-1.7233 Z0.1698
G01 X55.2949 Y-1.7158 Z0.1740
G01 X55.0369 Y-1.7036 Z0.1809
G01 X54.9165 Y-1.6979 Z0.1841
G01 X54.9119 Y-1.6976 Z0.1842
G01 X54.7779 Y-1.6914 Z0.1879
G01 X54.5176 Y-1.6794 Z0.1948
G01 X54.3768 Y-1.6729 Z0.1985
G01 X54.3722 Y-1.6727 Z0.1987
G01 X54.2557 Y-1.6675 Z0.2017
G01 X53.9919 Y-1.6556 Z0.2087
G01 X53.8370 Y-1.6487 Z0.2127
G01 X53.8324 Y-1.6485 Z0.2128
G01 X53.7259 Y-1.6438 Z0.2156
G01 X53.4572 Y-1.6320 Z0.2224
G01 X53.2973 Y-1.6251 Z0.2264
G01 X53.2929 Y-1.6249 Z0.2265
G01 X53.1857 Y-1.6203 Z0.2292
G01 X52.9110 Y-1.6086 Z0.2358
G01 X52.7577 Y-1.6021 Z0.2394
G01 X52.7531 Y-1.6019 Z0.2395
G01 X52.6327 Y-1.5969 Z0.2423
G01 X52.3506 Y-1.5853 Z0.2487
G01 X52.2180 Y-1.5798 Z0.2515
G01 X52.2130 Y-1.5797 Z0.2516
G01 X52.0643 Y-1.5737 Z0.2548
G01 X51.7735 Y-1.5621 Z0.2608
G01 X51.6777 Y-1.5583 Z0.2626
G01 X51.6736 Y-1.5581 Z0.2627
G01 X51.4779 Y-1.5505 Z0.2665
G01 X51.1772 Y-1.5388 Z0.2720
G01 X51.1384 Y-1.5374 Z0.2726
G01 X51.1334 Y-1.5372 Z0.2727
G01 X50.8709 Y-1.5273 Z0.2772
G01 X50.5982 Y-1.5171 Z0.2815
G01 X50.5935 Y-1.5169 Z0.2816
G01 X50.5589 Y-1.5156 Z0.2821
G01 X50.2409 Y-1.5041 Z0.2868
G01 X50.0582 Y-1.4975 Z0.2892
G01 X50.0538 Y-1.4973 Z0.2892
G01 X49.9163 Y-1.4925 Z0.2911
G01 X49.5850 Y-1.4809 Z0.2950
G01 X49.5185 Y-1.4785 Z0.2957
G01 X49.5136 Y-1.4784 Z0.2958
G01 X49.2467 Y-1.4694 Z0.2985
G01 X48.9783 Y-1.4603 Z0.3010
G01 X48.9739 Y-1.4601 Z0.3011
G01 X48.9010 Y-1.4577 Z0.3017
G01 X48.5475 Y-1.4462 Z0.3044
G01 X48.4387 Y-1.4427 Z0.3051
G01 X48.4335 Y-1.4426 Z0.3051
G01 X48.1861 Y-1.4348 Z0.3067
G01 X47.8985 Y-1.4259 Z0.3081
G01 X47.8941 Y-1.4257 Z0.3081
G01 X47.8162 Y-1.4233 Z0.3085
G01 X47.4377 Y-1.4119 Z0.3098
G01 X47.3587 Y-1.4096 Z0.3100
G01 X47.3537 Y-1.4094 Z0.3100
G01 X47.0502 Y-1.4006 Z0.3107
G01 X46.8183 Y-1.3940 Z0.3109
G01 X46.8139 Y-1.3938 Z0.3109
G01 X46.6535 Y-1.3894 Z0.3110
G01 X46.2785 Y-1.3790 Z0.3110
G01 X46.2735 Y-1.3789 Z0.3110
G01 X45.7381 Y-1.3648 Z0.3110
G01 X45.7337 Y-1.3647 Z0.3110
G01 X45.1983 Y-1.3512 Z0.3110
G01 X45.1938 Y-1.3511 Z0.3110
G01 X44.6583 Y-1.3383 Z0.3110
G01 X44.6534 Y-1.3382 Z0.3110
G01 X44.1179 Y-1.3261 Z0.3110
G01 X44.1133 Y-1.3260 Z0.3110
G01 X43.5778 Y-1.3145 Z0.3110
G01 X43.5734 Y-1.3144 Z0.3110
G01 X43.0378 Y-1.3036 Z0.3110
G01 X43.0332 Y-1.3035 Z0.3110
G01 X42.4978 Y-1.2933 Z0.3110
G01 X42.4931 Y-1.2933 Z0.3110
G01 X41.9574 Y-1.2838 Z0.3110
G01 X41.9527 Y-1.2837 Z0.3110
G01 X41.4172 Y-1.2749 Z0.3110
G01 X41.4125 Y-1.2748 Z0.3110
G01 X40.8769 Y-1.2667 Z0.3110
G01 X40.8723 Y-1.2666 Z0.3110
G01 X40.3367 Y-1.2591 Z0.3110
G01 X40.3323 Y-1.2591 Z0.3110
G01 X39.7967 Y-1.2522 Z0.3110
G01 X39.7920 Y-1.2522 Z0.3110
G01 X39.2564 Y-1.2460 Z0.3110
G01 X39.2518 Y-1.2459 Z0.3110
G01 X38.7162 Y-1.2404 Z0.3110
G01 X38.7115 Y-1.2404 Z0.3110
G01 X38.1759 Y-1.2355 Z0.3110
G01 X38.1712 Y-1.2355 Z0.3110
G01 X37.6356 Y-1.2313 Z0.3110
G01 X37.6309 Y-1.2313 Z0.3110
G01 X37.0953 Y-1.2278 Z0.3110
G01 X37.0909 Y-1.2277 Z0.3110
G01 X36.5553 Y-1.2249 Z0.3110
G01 X36.5506 Y-1.2249 Z0.3110
G01 X36.0150 Y-1.2227 Z0.3110
G01 X36.0103 Y-1.2226 Z0.3110
G01 X35.4747 Y-1.2211 Z0.3110
G01 X35.4700 Y-1.2211 Z0.3110
G01 X34.9344 Y-1.2202 Z0.3110
G01 X34.9297 Y-1.2202 Z0.3110
G01 X34.3942 Y-1.2200 Z0.3110
G01 X34.3895 Y-1.2200 Z0.3110
G01 X33.8539 Y-1.2205 Z0.3110
G01 X33.8495 Y-1.2205 Z0.3110
G01 X33.3139 Y-1.2216 Z0.3110
G01 X33.3092 Y-1.2216 Z0.3110
G01 X32.7736 Y-1.2234 Z0.3110
G01 X32.7689 Y-1.2234 Z0.3110
G01 X32.2333 Y-1.2259 Z0.3110
G01 X32.2286 Y-1.2259 Z0.3110
G01 X31.6930 Y-1.2290 Z0.3110
G01 X31.6883 Y-1.2290 Z0.3110
G01 X31.1527 Y-1.2328 Z0.3110
G01 X31.1481 Y-1.2328 Z0.3110
G01 X30.6124 Y-1.2373 Z0.3110
G01 X30.6080 Y-1.2373 Z0.3110
G01 X30.0724 Y-1.2424 Z0.3110
G01 X30.0678 Y-1.2424 Z0.3110
G01 X29.5322 Y-1.2482 Z0.3110
G01 X29.5272 Y-1.2483 Z0.3110
G01 X28.9916 Y-1.2547 Z0.3110
G01 X28.9875 Y-1.2548 Z0.3110
G01 X28.4519 Y-1.2618 Z0.3110
G01 X28.4469 Y-1.2619 Z0.3110
G01 X27.9114 Y-1.2696 Z0.3110
G01 X27.9067 Y-1.2697 Z0.3110
G01 X27.3712 Y-1.2781 Z0.3110
G01 X27.3668 Y-1.2782 Z0.3110
G01 X26.8312 Y-1.2873 Z0.3110
G01 X26.8263 Y-1.2874 Z0.3110
G01 X26.2906 Y-1.2971 Z0.3110
G01 X26.2862 Y-1.2972 Z0.3110
G01 X25.7508 Y-1.3075 Z0.3110
G01 X25.7461 Y-1.3076 Z0.3110
G01 X25.2106 Y-1.3187 Z0.3110
G01 X25.2059 Y-1.3188 Z0.3110
G01 X24.6704 Y-1.3305 Z0.3110
G01 X24.6660 Y-1.3306 Z0.3110
G01 X24.1305 Y-1.3430 Z0.3110
G01 X24.1256 Y-1.3431 Z0.3110
G01 X23.5901 Y-1.3562 Z0.3110
G01 X23.5857 Y-1.3563 Z0.3110
G01 X23.0503 Y-1.3700 Z0.3110
G01 X23.0456 Y-1.3701 Z0.3110
G01 X22.5101 Y-1.3845 Z0.3110
G01 X22.5055 Y-1.3846 Z0.3110
G01 X21.9701 Y-1.3996 Z0.3110
G01 X21.9654 Y-1.3998 Z0.3110
G01 X21.4300 Y-1.4155 Z0.3110
G01 X21.4256 Y-1.4156 Z0.3110
G01 X21.0630 Y-1.4267 Z0.3110
G01 X20.8901 Y-1.4320 Z0.3108
G01 X20.8851 Y-1.4321 Z0.3108
G01 X20.6662 Y-1.4390 Z0.3107
G01 X20.3499 Y-1.4491 Z0.3100
G01 X20.3455 Y-1.4493 Z0.3100
G01 X20.2787 Y-1.4515 Z0.3098
G01 X19.9001 Y-1.4640 Z0.3085
G01 X19.8102 Y-1.4670 Z0.3081
G01 X19.8055 Y-1.4671 Z0.3081
G01 X19.5303 Y-1.4765 Z0.3067
G01 X19.2702 Y-1.4855 Z0.3051
G01 X19.2655 Y-1.4856 Z0.3050
G01 X19.1689 Y-1.4890 Z0.3044
G01 X18.8154 Y-1.5016 Z0.3017
G01 X18.7302 Y-1.5046 Z0.3009
G01 X18.7256 Y-1.5048 Z0.3009
G01 X18.4697 Y-1.5142 Z0.2985
G01 X18.1903 Y-1.5245 Z0.2956
G01 X18.1859 Y-1.5246 Z0.2956
G01 X18.1314 Y-1.5267 Z0.2950
G01 X17.8001 Y-1.5392 Z0.2911
G01 X17.6507 Y-1.5450 Z0.2891
G01 X17.6457 Y-1.5451 Z0.2890
G01 X17.4756 Y-1.5518 Z0.2868
G01 X17.1575 Y-1.5643 Z0.2821
G01 X17.1105 Y-1.5662 Z0.2814
G01 X17.1061 Y-1.5664 Z0.2813
G01 X16.8455 Y-1.5769 Z0.2772
G01 X16.5708 Y-1.5880 Z0.2725
G01 X16.5660 Y-1.5882 Z0.2724
G01 X16.5392 Y-1.5893 Z0.2720
G01 X16.2385 Y-1.6018 Z0.2665
G01 X16.0310 Y-1.6105 Z0.2625
G01 X16.0264 Y-1.6107 Z0.2624
G01 X15.9429 Y-1.6143 Z0.2607
G01 X15.6521 Y-1.6268 Z0.2548
G01 X15.4912 Y-1.6337 Z0.2513
G01 X15.4865 Y-1.6339 Z0.2512
G01 X15.3658 Y-1.6392 Z0.2487
G01 X15.0837 Y-1.6517 Z0.2423
G01 X14.9514 Y-1.6575 Z0.2392
G01 X14.9471 Y-1.6577 Z0.2391
G01 X14.8054 Y-1.6642 Z0.2358
G01 X14.5307 Y-1.6766 Z0.2292
G01 X14.4120 Y-1.6820 Z0.2262
G01 X14.4073 Y-1.6822 Z0.2261
G01 X14.2592 Y-1.6891 Z0.2224
G01 X13.9905 Y-1.7016 Z0.2156
G01 X13.8722 Y-1.7072 Z0.2125
G01 X13.8676 Y-1.7074 Z0.2124
G01 X13.7245 Y-1.7143 Z0.2087
G01 X13.4607 Y-1.7269 Z0.2017
G01 X13.3325 Y-1.7331 Z0.1983
G01 X13.3277 Y-1.7333 Z0.1982
G01 X13.1988 Y-1.7396 Z0.1948
G01 X12.9385 Y-1.7524 Z0.1879
G01 X12.7929 Y-1.7596 Z0.1839
G01 X12.7883 Y-1.7598 Z0.1838
G01 X12.6795 Y-1.7652 Z0.1809
G01 X12.4215 Y-1.7782 Z0.1740
G01 X12.2533 Y-1.7867 Z0.1695
G01 X12.2486 Y-1.7870 Z0.1694
G01 X12.1641 Y-1.7913 Z0.1672
G01 X11.9071 Y-1.8046 Z0.1604
G01 X11.7137 Y-1.8146 Z0.1554
G01 X11.7093 Y-1.8148 Z0.1553
G01 X11.6500 Y-1.8179 Z0.1538
G01 X11.3926 Y-1.8315 Z0.1473
G01 X11.1744 Y-1.8431 Z0.1419
G01 X11.1698 Y-1.8434 Z0.1418
G01 X11.1346 Y-1.8453 Z0.1410
G01 X10.8756 Y-1.8593 Z0.1348
G01 X10.6348 Y-1.8723 Z0.1293
G01 X10.6300 Y-1.8725 Z0.1292
G01 X10.6153 Y-1.8733 Z0.1288
G01 X10.3535 Y-1.8878 Z0.1231
G01 X10.0953 Y-1.9021 Z0.1177
G01 X10.0907 Y-1.9024 Z0.1176
G01 X10.0896 Y-1.9024 Z0.1176
G01 X9.8236 Y-1.9175 Z0.1124
G01 X9.5559 Y-1.9327 Z0.1075
G01 X9.5550 Y-1.9327 Z0.1075
G01 X9.5513 Y-1.9329 Z0.1074
G01 X9.2835 Y-1.9484 Z0.1028
G01 X9.0166 Y-1.9639 Z0.0987
G01 X9.0122 Y-1.9641 Z0.0986
G01 X9.0087 Y-1.9643 Z0.0985
G01 X8.7304 Y-1.9807 Z0.0946
G01 X8.4775 Y-1.9957 Z0.0914
G01 X8.4726 Y-1.9960 Z0.0913
G01 X8.4483 Y-1.9975 Z0.0910
G01 X8.1620 Y-2.0148 Z0.0879
G01 X7.9378 Y-2.0283 Z0.0858
G01 X7.9333 Y-2.0285 Z0.0857
G01 X7.8712 Y-2.0323 Z0.0852
G01 X7.5756 Y-2.0505 Z0.0829
G01 X7.3988 Y-2.0614 Z0.0818
G01 X7.3942 Y-2.0617 Z0.0818
G01 X7.2749 Y-2.0692 Z0.0811
G01 X6.9924 Y-2.0870 Z0.0798
G01 X6.9687 Y-2.0867 Z0.0797
G01 X6.8527 Y-2.0854 Z0.0794
G01 X6.6566 Y-2.0790 Z0.0789
G01 X6.6266 Y-2.0780 Z0.0789
G01 X6.4138 Y-2.0661 Z0.0787
G01 X6.3386 Y-2.0600 Z0.0787
G01 X6.2094 Y-2.0497 Z0.0787
G01 X6.0192 Y-2.0298 Z0.0787
G01 X5.8372 Y-2.0061 Z0.0787
G01 X5.6688 Y-1.9797 Z0.0787
G01 X5.5060 Y-1.9497 Z0.0787
G01 X5.3574 Y-1.9179 Z0.0787
G01 X5.2175 Y-1.8839 Z0.0787
G01 X5.0861 Y-1.8478 Z0.0787
G01 X4.9661 Y-1.8109 Z0.0787
G01 X4.8544 Y-1.7727 Z0.0787
G01 X4.7511 Y-1.7337 Z0.0787
G01 X4.6572 Y-1.6947 Z0.0787
G01 X4.5704 Y-1.6552 Z0.0787
G01 X4.4906 Y-1.6156 Z0.0787
G01 X4.4199 Y-1.5774 Z0.0787
G01 X4.3531 Y-1.5382 Z0.0787
G01 X4.2928 Y-1.4999 Z0.0787
G01 X4.2410 Y-1.4643 Z0.0787
G01 X4.1898 Y-1.4262 Z0.0787
G01 X4.1473 Y-1.3922 Z0.0787
G01 X4.1051 Y-1.3557 Z0.0787
G01 X4.0684 Y-1.3215 Z0.0787
G01 X4.0339 Y-1.2869 Z0.0787
G01 X4.0022 Y-1.2526 Z0.0787
G01 X3.9721 Y-1.2175 Z0.0787
G01 X3.9447 Y-1.1831 Z0.0787
G01 X3.9191 Y-1.1484 Z0.0787
G01 X3.8935 Y-1.1109 Z0.0787
G01 X3.8691 Y-1.0722 Z0.0787
G01 X3.8472 Y-1.0345 Z0.0787
G01 X3.8256 Y-0.9942 Z0.0787
G01 X3.8033 Y-0.9489 Z0.0787
G01 X3.7831 Y-0.9039 Z0.0787
G01 X3.7643 Y-0.8582 Z0.0787
G01 X3.7454 Y-0.8075 Z0.0787
G01 X3.7274 Y-0.7537 Z0.0787
G01 X3.7109 Y-0.6988 Z0.0787
G01 X3.6955 Y-0.6415 Z0.0787
G01 X3.6807 Y-0.5788 Z0.0787
G01 X3.6678 Y-0.5160 Z0.0787
G01 X3.6562 Y-0.4494 Z0.0787
G01 X3.6464 Y-0.3825 Z0.0787
G01 X3.6375 Y-0.3072 Z0.0787
G01 X3.6310 Y-0.2347 Z0.0787
G01 X3.6261 Y-0.1583 Z0.0787
G01 X3.6232 Y-0.0815 Z0.0787
G01 X3.6222 Y0.0000 Z0.0787
G01 X2.8741 Y0.0000 Z0.0787 F20
G01 X2.8741 Y0.0000 Z0.0787 F50
G01 X2.8753 Y0.0988 Z0.0787
G01 X2.8790 Y0.1961 Z0.0787
G01 X2.8852 Y0.2934 Z0.0787
G01 X2.8935 Y0.3844 Z0.0787
G01 X2.9046 Y0.4790 Z0.0787
G01 X2.9176 Y0.5685 Z0.0787
G01 X2.9327 Y0.6548 Z0.0787
G01 X2.9505 Y0.7417 Z0.0787
G01 X2.9695 Y0.8221 Z0.0787
G01 X2.9917 Y0.9051 Z0.0787
G01 X3.0146 Y0.9811 Z0.0787
G01 X3.0394 Y1.0550 Z0.0787
G01 X3.0675 Y1.1305 Z0.0787
G01 X3.0959 Y1.1996 Z0.0787
G01 X3.1263 Y1.2672 Z0.0787
G01 X3.1598 Y1.3352 Z0.0787
G01 X3.1938 Y1.3989 Z0.0787
G01 X3.2298 Y1.4607 Z0.0787
G01 X3.2676 Y1.5207 Z0.0787
G01 X3.3084 Y1.5805 Z0.0787
G01 X3.3507 Y1.6379 Z0.0787
G01 X3.3954 Y1.6941 Z0.0787
G01 X3.4435 Y1.7501 Z0.0787
G01 X3.4938 Y1.8046 Z0.0787
G01 X3.5488 Y1.8598 Z0.0787
G01 X3.6059 Y1.9129 Z0.0787
G01 X3.6675 Y1.9662 Z0.0787
G01 X3.7335 Y2.0191 Z0.0787
G01 X3.8057 Y2.0727 Z0.0787
G01 X3.8803 Y2.1240 Z0.0787
G01 X3.9640 Y2.1772 Z0.0787
G01 X4.0518 Y2.2287 Z0.0787
G01 X4.1472 Y2.2802 Z0.0787
G01 X4.2486 Y2.3306 Z0.0787
G01 X4.3588 Y2.3807 Z0.0787
G01 X4.4753 Y2.4290 Z0.0787
G01 X4.6018 Y2.4768 Z0.0787
G01 X4.7350 Y2.5224 Z0.0787
G01 X4.8778 Y2.5663 Z0.0787
G01 X5.0292 Y2.6079 Z0.0787
G01 X5.1903 Y2.6471 Z0.0787
G01 X5.3608 Y2.6835 Z0.0787
G01 X5.5420 Y2.7169 Z0.0787
G01 X5.7314 Y2.7466 Z0.0787
G01 X5.9322 Y2.7728 Z0.0787
G01 X6.1410 Y2.7946 Z0.0787
G01 X6.3386 Y2.8104 Z0.0787
G01 X6.3620 Y2.8123 Z0.0787
G01 X6.5927 Y2.8252 Z0.0788
G01 X6.6566 Y2.8273 Z0.0789
G01 X6.8377 Y2.8333 Z0.0794
G01 X6.9687 Y2.8348 Z0.0797
G01 X7.0114 Y2.8352 Z0.0799
G01 X7.2749 Y2.8187 Z0.0811
G01 X7.4411 Y2.8082 Z0.0821
G01 X7.4448 Y2.8080 Z0.0821
G01 X7.5756 Y2.8000 Z0.0829
G01 X7.8712 Y2.7817 Z0.0852
G01 X7.9792 Y2.7751 Z0.0862
G01 X7.9829 Y2.7750 Z0.0862
G01 X8.1620 Y2.7641 Z0.0879
G01 X8.4483 Y2.7468 Z0.0910
G01 X8.5177 Y2.7426 Z0.0919
G01 X8.5216 Y2.7424 Z0.0920
G01 X8.7304 Y2.7300 Z0.0946
G01 X9.0087 Y2.7136 Z0.0985
G01 X9.0562 Y2.7108 Z0.0992
G01 X9.0598 Y2.7106 Z0.0993
G01 X9.2835 Y2.6977 Z0.1028
G01 X9.5550 Y2.6820 Z0.1075
G01 X9.5945 Y2.6797 Z0.1082
G01 X9.5982 Y2.6795 Z0.1083
G01 X9.8236 Y2.6667 Z0.1124
G01 X10.0896 Y2.6516 Z0.1176
G01 X10.1330 Y2.6492 Z0.1185
G01 X10.1367 Y2.6490 Z0.1186
G01 X10.3535 Y2.6370 Z0.1231
G01 X10.6153 Y2.6224 Z0.1288
G01 X10.6714 Y2.6194 Z0.1301
G01 X10.6753 Y2.6192 Z0.1302
G01 X10.8756 Y2.6083 Z0.1348
G01 X11.1346 Y2.5943 Z0.1410
G01 X11.2102 Y2.5903 Z0.1428
G01 X11.2139 Y2.5901 Z0.1429
G01 X11.3926 Y2.5806 Z0.1473
G01 X11.6500 Y2.5670 Z0.1538
G01 X11.7488 Y2.5618 Z0.1563
G01 X11.7523 Y2.5616 Z0.1564
G01 X11.9071 Y2.5536 Z0.1604
G01 X12.1641 Y2.5403 Z0.1672
G01 X12.2872 Y2.5340 Z0.1704
G01 X12.2910 Y2.5338 Z0.1705
G01 X12.4215 Y2.5272 Z0.1740
G01 X12.6795 Y2.5142 Z0.1809
G01 X12.8259 Y2.5068 Z0.1848
G01 X12.8296 Y2.5066 Z0.1849
G01 X12.9385 Y2.5012 Z0.1879
G01 X13.1988 Y2.4885 Z0.1948
G01 X13.3644 Y2.4803 Z0.1992
G01 X13.3683 Y2.4802 Z0.1993
G01 X13.4607 Y2.4757 Z0.2017
G01 X13.7245 Y2.4631 Z0.2087
G01 X13.9034 Y2.4546 Z0.2133
G01 X13.9071 Y2.4544 Z0.2135
G01 X13.9905 Y2.4505 Z0.2156
G01 X14.2592 Y2.4379 Z0.2224
G01 X14.4422 Y2.4294 Z0.2270
G01 X14.4459 Y2.4292 Z0.2271
G01 X14.5307 Y2.4254 Z0.2292
G01 X14.8054 Y2.4129 Z0.2358
G01 X14.9810 Y2.4050 Z0.2399
G01 X14.9845 Y2.4048 Z0.2400
G01 X15.0837 Y2.4004 Z0.2423
G01 X15.3658 Y2.3879 Z0.2487
G01 X15.5196 Y2.3811 Z0.2520
G01 X15.5233 Y2.3810 Z0.2520
G01 X15.6521 Y2.3754 Z0.2548
G01 X15.9429 Y2.3629 Z0.2607
G01 X16.0585 Y2.3580 Z0.2630
G01 X16.0622 Y2.3578 Z0.2631
G01 X16.2385 Y2.3505 Z0.2665
G01 X16.5392 Y2.3379 Z0.2720
G01 X16.5972 Y2.3355 Z0.2730
G01 X16.6010 Y2.3354 Z0.2730
G01 X16.8455 Y2.3255 Z0.2772
G01 X17.1364 Y2.3137 Z0.2818
G01 X17.1398 Y2.3136 Z0.2818
G01 X17.1575 Y2.3129 Z0.2821
G01 X17.4756 Y2.3004 Z0.2868
G01 X17.6751 Y2.2926 Z0.2894
G01 X17.6790 Y2.2924 Z0.2895
G01 X17.8001 Y2.2878 Z0.2911
G01 X18.1314 Y2.2752 Z0.2950
G01 X18.2143 Y2.2721 Z0.2959
G01 X18.2178 Y2.2720 Z0.2959
G01 X18.4697 Y2.2627 Z0.2985
G01 X18.7531 Y2.2523 Z0.3011
G01 X18.7568 Y2.2522 Z0.3012
G01 X18.8154 Y2.2501 Z0.3017
G01 X19.1689 Y2.2375 Z0.3044
G01 X19.2921 Y2.2331 Z0.3052
G01 X19.2958 Y2.2330 Z0.3052
G01 X19.5303 Y2.2250 Z0.3067
G01 X19.8311 Y2.2147 Z0.3082
G01 X19.8349 Y2.2145 Z0.3082
G01 X19.9001 Y2.2124 Z0.3085
G01 X20.2787 Y2.1998 Z0.3098
G01 X20.3702 Y2.1968 Z0.3100
G01 X20.3737 Y2.1968 Z0.3101
G01 X20.6662 Y2.1874 Z0.3107
G01 X20.9088 Y2.1797 Z0.3109
G01 X20.9129 Y2.1796 Z0.3109
G01 X21.0630 Y2.1750 Z0.3110
G01 X21.4485 Y2.1633 Z0.3110
G01 X21.4519 Y2.1632 Z0.3110
G01 X21.9874 Y2.1475 Z0.3110
G01 X21.9911 Y2.1474 Z0.3110
G01 X22.5265 Y2.1323 Z0.3110
G01 X22.5302 Y2.1322 Z0.3110
G01 X23.0657 Y2.1178 Z0.3110
G01 X23.0694 Y2.1177 Z0.3110
G01 X23.6049 Y2.1040 Z0.3110
G01 X23.6084 Y2.1040 Z0.3110
G01 X24.1438 Y2.0909 Z0.3110
G01 X24.1478 Y2.0908 Z0.3110
G01 X24.6833 Y2.0784 Z0.3110
G01 X24.6868 Y2.0783 Z0.3110
G01 X25.2223 Y2.0666 Z0.3110
G01 X25.2261 Y2.0665 Z0.3110
G01 X25.7616 Y2.0555 Z0.3110
G01 X25.7653 Y2.0554 Z0.3110
G01 X26.3007 Y2.0450 Z0.3110
G01 X26.3056 Y2.0450 Z0.3110
G01 X26.8399 Y2.0352 Z0.3110
G01 X26.8438 Y2.0351 Z0.3110
G01 X27.3794 Y2.0261 Z0.3110
G01 X27.3829 Y2.0260 Z0.3110
G01 X27.9185 Y2.0176 Z0.3110
G01 X27.9222 Y2.0175 Z0.3110
G01 X28.4578 Y2.0098 Z0.3110
G01 X28.4617 Y2.0098 Z0.3110
G01 X28.9973 Y2.0027 Z0.3110
G01 X29.0006 Y2.0027 Z0.3110
G01 X29.5362 Y1.9962 Z0.3110
G01 X29.5402 Y1.9961 Z0.3110
G01 X30.0758 Y1.9904 Z0.3110
G01 X30.0795 Y1.9903 Z0.3110
G01 X30.6151 Y1.9853 Z0.3110
G01 X30.6187 Y1.9853 Z0.3110
G01 X31.1543 Y1.9808 Z0.3110
G01 X31.1580 Y1.9808 Z0.3110
G01 X31.6936 Y1.9770 Z0.3110
G01 X31.6974 Y1.9770 Z0.3110
G01 X32.2330 Y1.9738 Z0.3110
G01 X32.2367 Y1.9738 Z0.3110
G01 X32.7724 Y1.9714 Z0.3110
G01 X32.7761 Y1.9714 Z0.3110
G01 X33.3117 Y1.9696 Z0.3110
G01 X33.3155 Y1.9696 Z0.3110
G01 X33.8511 Y1.9685 Z0.3110
G01 X33.8546 Y1.9685 Z0.3110
G01 X34.3902 Y1.9680 Z0.3110
G01 X34.3939 Y1.9680 Z0.3110
G01 X34.9294 Y1.9682 Z0.3110
G01 X34.9332 Y1.9682 Z0.3110
G01 X35.4688 Y1.9691 Z0.3110
G01 X35.4725 Y1.9691 Z0.3110
G01 X36.0082 Y1.9706 Z0.3110
G01 X36.0119 Y1.9707 Z0.3110
G01 X36.5475 Y1.9729 Z0.3110
G01 X36.5513 Y1.9729 Z0.3110
G01 X37.0869 Y1.9757 Z0.3110
G01 X37.0904 Y1.9758 Z0.3110
G01 X37.6261 Y1.9793 Z0.3110
G01 X37.6298 Y1.9793 Z0.3110
G01 X38.1654 Y1.9835 Z0.3110
G01 X38.1691 Y1.9835 Z0.3110
G01 X38.7047 Y1.9883 Z0.3110
G01 X38.7085 Y1.9884 Z0.3110
G01 X39.2440 Y1.9939 Z0.3110
G01 X39.2478 Y1.9939 Z0.3110
G01 X39.7834 Y2.0001 Z0.3110
G01 X39.7872 Y2.0001 Z0.3110
G01 X40.3227 Y2.0070 Z0.3110
G01 X40.3262 Y2.0070 Z0.3110
G01 X40.8618 Y2.0145 Z0.3110
G01 X40.8655 Y2.0146 Z0.3110
G01 X41.4011 Y2.0227 Z0.3110
G01 X41.4049 Y2.0228 Z0.3110
G01 X41.9404 Y2.0316 Z0.3110
G01 X41.9442 Y2.0317 Z0.3110
G01 X42.4798 Y2.0412 Z0.3110
G01 X42.4836 Y2.0412 Z0.3110
G01 X43.0190 Y2.0514 Z0.3110
G01 X43.0227 Y2.0514 Z0.3110
G01 X43.5583 Y2.0623 Z0.3110
G01 X43.5618 Y2.0623 Z0.3110
G01 X44.0973 Y2.0738 Z0.3110
G01 X44.1010 Y2.0738 Z0.3110
G01 X44.6365 Y2.0860 Z0.3110
G01 X44.6404 Y2.0861 Z0.3110
G01 X45.1759 Y2.0989 Z0.3110
G01 X45.1794 Y2.0990 Z0.3110
G01 X45.7149 Y2.1125 Z0.3110
G01 X45.7184 Y2.1125 Z0.3110
G01 X46.2538 Y2.1266 Z0.3110
G01 X46.2578 Y2.1268 Z0.3110
G01 X46.6535 Y2.1377 Z0.3110
G01 X46.7933 Y2.1416 Z0.3109
G01 X46.7968 Y2.1417 Z0.3109
G01 X47.0502 Y2.1490 Z0.3107
G01 X47.3322 Y2.1571 Z0.3101
G01 X47.3361 Y2.1572 Z0.3101
G01 X47.4377 Y2.1603 Z0.3098
G01 X47.8162 Y2.1717 Z0.3085
G01 X47.8715 Y2.1734 Z0.3083
G01 X47.8750 Y2.1735 Z0.3082
G01 X48.1861 Y2.1832 Z0.3067
G01 X48.4105 Y2.1902 Z0.3053
G01 X48.4143 Y2.1903 Z0.3053
G01 X48.5475 Y2.1946 Z0.3044
G01 X48.9010 Y2.2061 Z0.3017
G01 X48.9495 Y2.2077 Z0.3012
G01 X48.9530 Y2.2079 Z0.3012
G01 X49.2467 Y2.2177 Z0.2985
G01 X49.4883 Y2.2259 Z0.2960
G01 X49.4923 Y2.2261 Z0.2960
G01 X49.5850 Y2.2293 Z0.2950
G01 X49.9163 Y2.2409 Z0.2911
G01 X50.0276 Y2.2449 Z0.2896
G01 X50.0311 Y2.2450 Z0.2896
G01 X50.2409 Y2.2526 Z0.2868
G01 X50.5589 Y2.2641 Z0.2821
G01 X50.5664 Y2.2644 Z0.2820
G01 X50.5701 Y2.2645 Z0.2820
G01 X50.8709 Y2.2758 Z0.2772
G01 X51.1054 Y2.2846 Z0.2732
G01 X51.1093 Y2.2848 Z0.2731
G01 X51.1772 Y2.2874 Z0.2720
G01 X51.4779 Y2.2990 Z0.2665
G01 X51.6446 Y2.3055 Z0.2633
G01 X51.6479 Y2.3057 Z0.2632
G01 X51.7735 Y2.3107 Z0.2608
G01 X52.0643 Y2.3223 Z0.2548
G01 X52.1832 Y2.3271 Z0.2522
G01 X52.1872 Y2.3272 Z0.2522
G01 X52.3506 Y2.3339 Z0.2487
G01 X52.6327 Y2.3456 Z0.2423
G01 X52.7222 Y2.3493 Z0.2402
G01 X52.7260 Y2.3494 Z0.2401
G01 X52.9110 Y2.3573 Z0.2358
G01 X53.1857 Y2.3690 Z0.2292
G01 X53.2611 Y2.3722 Z0.2273
G01 X53.2646 Y2.3723 Z0.2272
G01 X53.4572 Y2.3807 Z0.2224
G01 X53.7259 Y2.3924 Z0.2156
G01 X53.7997 Y2.3957 Z0.2137
G01 X53.8035 Y2.3959 Z0.2136
G01 X53.9919 Y2.4044 Z0.2087
G01 X54.2557 Y2.4162 Z0.2017
G01 X54.3386 Y2.4200 Z0.1996
G01 X54.3423 Y2.4201 Z0.1994
G01 X54.5176 Y2.4282 Z0.1948
G01 X54.7779 Y2.4402 Z0.1879
G01 X54.8774 Y2.4448 Z0.1852
G01 X54.8811 Y2.4450 Z0.1851
G01 X55.0369 Y2.4524 Z0.1809
G01 X55.2949 Y2.4646 Z0.1740
G01 X55.4162 Y2.4704 Z0.1708
G01 X55.4198 Y2.4705 Z0.1707
G01 X55.5523 Y2.4770 Z0.1672
G01 X55.8094 Y2.4895 Z0.1604
G01 X55.9546 Y2.4966 Z0.1567
G01 X55.9586 Y2.4968 Z0.1566
G01 X56.0664 Y2.5021 Z0.1538
G01 X56.3238 Y2.5150 Z0.1473
G01 X56.4936 Y2.5235 Z0.1431
G01 X56.4971 Y2.5237 Z0.1430
G01 X56.5818 Y2.5280 Z0.1410
G01 X56.8408 Y2.5412 Z0.1348
G01 X57.0320 Y2.5510 Z0.1304
G01 X57.0357 Y2.5512 Z0.1303
G01 X57.1011 Y2.5546 Z0.1288
G01 X57.3629 Y2.5683 Z0.1231
G01 X57.5706 Y2.5792 Z0.1188
G01 X57.5743 Y2.5794 Z0.1187
G01 X57.6268 Y2.5822 Z0.1176
G01 X57.8928 Y2.5965 Z0.1124
G01 X58.1093 Y2.6081 Z0.1084
G01 X58.1131 Y2.6083 Z0.1083
G01 X58.1614 Y2.6109 Z0.1075
G01 X58.4330 Y2.6259 Z0.1028
G01 X58.6478 Y2.6377 Z0.0994
G01 X58.6513 Y2.6379 Z0.0994
G01 X58.7077 Y2.6410 Z0.0985
G01 X58.9860 Y2.6566 Z0.0946
G01 X59.1861 Y2.6679 Z0.0921
G01 X59.1898 Y2.6681 Z0.0920
G01 X59.2681 Y2.6726 Z0.0911
G01 X59.5544 Y2.6890 Z0.0879
G01 X59.7246 Y2.6988 Z0.0863
G01 X59.7285 Y2.6990 Z0.0862
G01 X59.8452 Y2.7058 Z0.0852
G01 X60.1408 Y2.7232 Z0.0829
G01 X60.2633 Y2.7304 Z0.0822
G01 X60.2667 Y2.7306 Z0.0821
G01 X60.4415 Y2.7410 Z0.0811
G01 X60.6956 Y2.7562 Z0.0800
G01 X60.7477 Y2.7555 Z0.0798
G01 X60.7936 Y2.7549 Z0.0796
G01 X60.9513 Y2.7483 Z0.0792
G01 X61.0598 Y2.7406 Z0.0789
G01 X61.0981 Y2.7379 Z0.0789
G01 X61.2357 Y2.7239 Z0.0788
G01 X61.3662 Y2.7066 Z0.0787
G01 X61.3779 Y2.7047 Z0.0787
G01 X61.4859 Y2.6868 Z0.0787
G01 X61.6007 Y2.6640 Z0.0787
G01 X61.7053 Y2.6395 Z0.0787
G01 X61.8027 Y2.6132 Z0.0787
G01 X61.8932 Y2.5852 Z0.0787
G01 X61.9774 Y2.5559 Z0.0787
G01 X62.0556 Y2.5254 Z0.0787
G01 X62.1263 Y2.4948 Z0.0787
G01 X62.1941 Y2.4623 Z0.0787
G01 X62.2549 Y2.4302 Z0.0787
G01 X62.3135 Y2.3964 Z0.0787
G01 X62.3659 Y2.3635 Z0.0787
G01 X62.4172 Y2.3283 Z0.0787
G01 X62.4648 Y2.2929 Z0.0787
G01 X62.5087 Y2.2575 Z0.0787
G01 X62.5530 Y2.2190 Z0.0787
G01 X62.5925 Y2.1817 Z0.0787
G01 X62.6331 Y2.1405 Z0.0787
G01 X62.6716 Y2.0983 Z0.0787
G01 X62.7087 Y2.0546 Z0.0787
G01 X62.7448 Y2.0085 Z0.0787
G01 X62.7807 Y1.9594 Z0.0787
G01 X62.8161 Y1.9070 Z0.0787
G01 X62.8500 Y1.8529 Z0.0787
G01 X62.8836 Y1.7952 Z0.0787
G01 X62.9160 Y1.7350 Z0.0787
G01 X62.9484 Y1.6699 Z0.0787
G01 X62.9790 Y1.6029 Z0.0787
G01 X63.0093 Y1.5314 Z0.0787
G01 X63.0379 Y1.4574 Z0.0787
G01 X63.0651 Y1.3810 Z0.0787
G01 X63.0912 Y1.3003 Z0.0787
G01 X63.1167 Y1.2134 Z0.0787
G01 X63.1394 Y1.1276 Z0.0787
G01 X63.1605 Y1.0392 Z0.0787
G01 X63.1805 Y0.9444 Z0.0787
G01 X63.1987 Y0.8463 Z0.0787
G01 X63.2144 Y0.7493 Z0.0787
G01 X63.2284 Y0.6475 Z0.0787
G01 X63.2401 Y0.5452 Z0.0787
G01 X63.2500 Y0.4394 Z0.0787
G01 X63.2577 Y0.3301 Z0.0787
G01 X63.2632 Y0.2218 Z0.0787
G01 X63.2664 Y0.1118 Z0.0787
G01 X63.2676 Y0.0000 Z0.0787
G01 X63.2664 Y-0.1118 Z0.0787
G01 X63.2632 Y-0.2218 Z0.0787
G01 X63.2577 Y-0.3313 Z0.0787
G01 X63.2500 Y-0.4396 Z0.0787
G01 X63.2401 Y-0.5452 Z0.0787
G01 X63.2284 Y-0.6475 Z0.0787
G01 X63.2142 Y-0.7504 Z0.0787
G01 X63.1987 Y-0.8463 Z0.0787
G01 X63.1805 Y-0.9444 Z0.0787
G01 X63.1603 Y-1.0398 Z0.0787
G01 X63.1394 Y-1.1276 Z0.0787
G01 X63.1167 Y-1.2134 Z0.0787
G01 X63.0912 Y-1.3003 Z0.0787
G01 X63.0651 Y-1.3810 Z0.0787
G01 X63.0379 Y-1.4575 Z0.0787
G01 X63.0093 Y-1.5314 Z0.0787
G01 X62.9790 Y-1.6029 Z0.0787
G01 X62.9484 Y-1.6699 Z0.0787
G01 X62.9155 Y-1.7358 Z0.0787
G01 X62.8836 Y-1.7952 Z0.0787
G01 X62.8500 Y-1.8529 Z0.0787
G01 X62.8161 Y-1.9070 Z0.0787
G01 X62.7807 Y-1.9594 Z0.0787
G01 X62.7448 Y-2.0085 Z0.0787
G01 X62.7087 Y-2.0546 Z0.0787
G01 X62.6716 Y-2.0983 Z0.0787
G01 X62.6331 Y-2.1405 Z0.0787
G01 X62.5925 Y-2.1817 Z0.0787
G01 X62.5530 Y-2.2190 Z0.0787
G01 X62.5087 Y-2.2575 Z0.0787
G01 X62.4648 Y-2.2929 Z0.0787
G01 X62.4171 Y-2.3284 Z0.0787
G01 X62.3659 Y-2.3635 Z0.0787
G01 X62.3135 Y-2.3964 Z0.0787
G01 X62.2549 Y-2.4302 Z0.0787
G01 X62.1941 Y-2.4623 Z0.0787
G01 X62.1263 Y-2.4948 Z0.0787
G01 X62.0554 Y-2.5255 Z0.0787
G01 X61.9774 Y-2.5559 Z0.0787
G01 X61.8932 Y-2.5852 Z0.0787
G01 X61.8027 Y-2.6132 Z0.0787
G01 X61.7053 Y-2.6395 Z0.0787
G01 X61.6007 Y-2.6640 Z0.0787
G01 X61.4859 Y-2.6868 Z0.0787
G01 X61.3779 Y-2.7047 Z0.0787
G01 X61.3662 Y-2.7066 Z0.0787
G01 X61.2357 Y-2.7239 Z0.0788
G01 X61.0981 Y-2.7379 Z0.0789
G01 X61.0598 Y-2.7406 Z0.0789
G01 X60.9513 Y-2.7483 Z0.0792
G01 X60.7936 Y-2.7549 Z0.0796
G01 X60.7477 Y-2.7555 Z0.0798
G01 X60.6956 Y-2.7562 Z0.0800
G01 X60.4415 Y-2.7410 Z0.0811
G01 X60.2667 Y-2.7306 Z0.0821
G01 X60.2633 Y-2.7304 Z0.0822
G01 X60.1408 Y-2.7232 Z0.0829
G01 X59.8452 Y-2.7058 Z0.0852
G01 X59.7285 Y-2.6990 Z0.0862
G01 X59.7246 Y-2.6988 Z0.0863
G01 X59.5544 Y-2.6890 Z0.0879
G01 X59.2681 Y-2.6725 Z0.0911
G01 X59.1898 Y-2.6681 Z0.0920
G01 X59.1861 Y-2.6679 Z0.0921
G01 X58.9860 Y-2.6566 Z0.0946
G01 X58.7077 Y-2.6410 Z0.0985
G01 X58.6513 Y-2.6379 Z0.0994
G01 X58.6478 Y-2.6377 Z0.0994
G01 X58.4330 Y-2.6259 Z0.1028
G01 X58.1614 Y-2.6109 Z0.1075
G01 X58.1131 Y-2.6083 Z0.1083
G01 X58.1093 Y-2.6081 Z0.1084
G01 X57.8928 Y-2.5965 Z0.1124
G01 X57.6268 Y-2.5822 Z0.1176
G01 X57.5743 Y-2.5794 Z0.1187
G01 X57.5706 Y-2.5792 Z0.1188
G01 X57.3629 Y-2.5683 Z0.1231
G01 X57.1011 Y-2.5546 Z0.1288
G01 X57.0357 Y-2.5512 Z0.1303
G01 X57.0320 Y-2.5510 Z0.1304
G01 X56.8408 Y-2.5412 Z0.1348
G01 X56.5818 Y-2.5279 Z0.1410
G01 X56.4971 Y-2.5237 Z0.1430
G01 X56.4936 Y-2.5235 Z0.1431
G01 X56.3238 Y-2.5150 Z0.1473
G01 X56.0664 Y-2.5021 Z0.1538
G01 X55.9586 Y-2.4968 Z0.1566
G01 X55.9546 Y-2.4966 Z0.1567
G01 X55.8094 Y-2.4895 Z0.1604
G01 X55.5523 Y-2.4770 Z0.1672
G01 X55.4198 Y-2.4705 Z0.1707
G01 X55.4162 Y-2.4704 Z0.1708
G01 X55.2949 Y-2.4646 Z0.1740
G01 X55.0369 Y-2.4524 Z0.1809
G01 X54.8811 Y-2.4450 Z0.1851
G01 X54.8774 Y-2.4448 Z0.1852
G01 X54.7779 Y-2.4402 Z0.1879
G01 X54.5176 Y-2.4282 Z0.1948
G01 X54.3423 Y-2.4201 Z0.1994
G01 X54.3386 Y-2.4200 Z0.1996
G01 X54.2557 Y-2.4162 Z0.2017
G01 X53.9919 Y-2.4044 Z0.2087
G01 X53.8035 Y-2.3959 Z0.2136
G01 X53.7997 Y-2.3957 Z0.2137
G01 X53.7259 Y-2.3925 Z0.2156
G01 X53.4572 Y-2.3807 Z0.2224
G01 X53.2646 Y-2.3723 Z0.2272
G01 X53.2611 Y-2.3722 Z0.2273
G01 X53.1857 Y-2.3690 Z0.2292
G01 X52.9110 Y-2.3573 Z0.2358
G01 X52.7260 Y-2.3494 Z0.2401
G01 X52.7222 Y-2.3493 Z0.2402
G01 X52.6327 Y-2.3456 Z0.2423
G01 X52.3506 Y-2.3339 Z0.2487
G01 X52.1872 Y-2.3272 Z0.2522
G01 X52.1832 Y-2.3271 Z0.2522
G01 X52.0643 Y-2.3223 Z0.2548
G01 X51.7735 Y-2.3107 Z0.2608
G01 X51.6479 Y-2.3057 Z0.2632
G01 X51.6446 Y-2.3055 Z0.2633
G01 X51.4779 Y-2.2990 Z0.2665
G01 X51.1772 Y-2.2874 Z0.2720
G01 X51.1093 Y-2.2848 Z0.2731
G01 X51.1054 Y-2.2846 Z0.2732
G01 X50.8709 Y-2.2758 Z0.2772
G01 X50.5701 Y-2.2645 Z0.2820
G01 X50.5664 Y-2.2644 Z0.2820
G01 X50.5589 Y-2.2641 Z0.2821
G01 X50.2409 Y-2.2526 Z0.2868
G01 X50.0311 Y-2.2450 Z0.2896
G01 X50.0276 Y-2.2449 Z0.2896
G01 X49.9163 Y-2.2409 Z0.2911
G01 X49.5850 Y-2.2293 Z0.2950
G01 X49.4923 Y-2.2261 Z0.2960
G01 X49.4883 Y-2.2259 Z0.2960
G01 X49.2467 Y-2.2177 Z0.2985
G01 X48.9530 Y-2.2079 Z0.3012
G01 X48.9495 Y-2.2077 Z0.3012
G01 X48.9010 Y-2.2061 Z0.3017
G01 X48.5475 Y-2.1946 Z0.3044
G01 X48.4143 Y-2.1903 Z0.3053
G01 X48.4105 Y-2.1902 Z0.3053
G01 X48.1861 Y-2.1832 Z0.3067
G01 X47.8750 Y-2.1735 Z0.3082
G01 X47.8715 Y-2.1734 Z0.3083
G01 X47.8162 Y-2.1717 Z0.3085
G01 X47.4377 Y-2.1603 Z0.3098
G01 X47.3361 Y-2.1572 Z0.3101
G01 X47.3322 Y-2.1571 Z0.3101
G01 X47.0502 Y-2.1490 Z0.3107
G01 X46.7968 Y-2.1417 Z0.3109
G01 X46.7933 Y-2.1416 Z0.3109
G01 X46.6535 Y-2.1377 Z0.3110
G01 X46.2578 Y-2.1268 Z0.3110
G01 X46.2538 Y-2.1266 Z0.3110
G01 X45.7184 Y-2.1125 Z0.3110
G01 X45.7149 Y-2.1125 Z0.3110
G01 X45.1794 Y-2.0990 Z0.3110
G01 X45.1759 Y-2.0989 Z0.3110
G01 X44.6404 Y-2.0861 Z0.3110
G01 X44.6365 Y-2.0860 Z0.3110
G01 X44.1010 Y-2.0738 Z0.3110
G01 X44.0973 Y-2.0738 Z0.3110
G01 X43.5618 Y-2.0623 Z0.3110
G01 X43.5583 Y-2.0623 Z0.3110
G01 X43.0227 Y-2.0514 Z0.3110
G01 X43.0190 Y-2.0514 Z0.3110
G01 X42.4836 Y-2.0412 Z0.3110
G01 X42.4798 Y-2.0412 Z0.3110
G01 X41.9442 Y-2.0317 Z0.3110
G01 X41.9404 Y-2.0316 Z0.3110
G01 X41.4049 Y-2.0228 Z0.3110
G01 X41.4011 Y-2.0227 Z0.3110
G01 X40.8655 Y-2.0146 Z0.3110
G01 X40.8618 Y-2.0145 Z0.3110
G01 X40.3262 Y-2.0070 Z0.3110
G01 X40.3227 Y-2.0070 Z0.3110
G01 X39.7872 Y-2.0001 Z0.3110
G01 X39.7834 Y-2.0001 Z0.3110
G01 X39.2478 Y-1.9939 Z0.3110
G01 X39.2440 Y-1.9939 Z0.3110
G01 X38.7085 Y-1.9884 Z0.3110
G01 X38.7047 Y-1.9883 Z0.3110
G01 X38.1691 Y-1.9835 Z0.3110
G01 X38.1654 Y-1.9835 Z0.3110
G01 X37.6298 Y-1.9793 Z0.3110
G01 X37.6261 Y-1.9793 Z0.3110
G01 X37.0904 Y-1.9758 Z0.3110
G01 X37.0869 Y-1.9757 Z0.3110
G01 X36.5513 Y-1.9729 Z0.3110
G01 X36.5475 Y-1.9729 Z0.3110
G01 X36.0119 Y-1.9707 Z0.3110
G01 X36.0082 Y-1.9706 Z0.3110
G01 X35.4725 Y-1.9691 Z0.3110
G01 X35.4688 Y-1.9691 Z0.3110
G01 X34.9332 Y-1.9682 Z0.3110
G01 X34.9294 Y-1.9682 Z0.3110
G01 X34.3939 Y-1.9680 Z0.3110
G01 X34.3902 Y-1.9680 Z0.3110
G01 X33.8546 Y-1.9685 Z0.3110
G01 X33.8511 Y-1.9685 Z0.3110
G01 X33.3155 Y-1.9696 Z0.3110
G01 X33.3117 Y-1.9696 Z0.3110
G01 X32.7761 Y-1.9714 Z0.3110
G01 X32.7724 Y-1.9714 Z0.3110
G01 X32.2367 Y-1.9738 Z0.3110
G01 X32.2330 Y-1.9738 Z0.3110
G01 X31.6974 Y-1.9770 Z0.3110
G01 X31.6936 Y-1.9770 Z0.3110
G01 X31.1580 Y-1.9808 Z0.3110
G01 X31.1543 Y-1.9808 Z0.3110
G01 X30.6187 Y-1.9853 Z0.3110
G01 X30.6151 Y-1.9853 Z0.3110
G01 X30.0795 Y-1.9903 Z0.3110
G01 X30.0758 Y-1.9904 Z0.3110
G01 X29.5402 Y-1.9961 Z0.3110
G01 X29.5362 Y-1.9962 Z0.3110
G01 X29.0006 Y-2.0027 Z0.3110
G01 X28.9973 Y-2.0027 Z0.3110
G01 X28.4617 Y-2.0098 Z0.3110
G01 X28.4578 Y-2.0098 Z0.3110
G01 X27.9222 Y-2.0175 Z0.3110
G01 X27.9185 Y-2.0176 Z0.3110
G01 X27.3829 Y-2.0260 Z0.3110
G01 X27.3794 Y-2.0261 Z0.3110
G01 X26.8438 Y-2.0351 Z0.3110
G01 X26.8399 Y-2.0352 Z0.3110
G01 X26.3056 Y-2.0450 Z0.3110
G01 X26.3007 Y-2.0450 Z0.3110
G01 X25.7653 Y-2.0554 Z0.3110
G01 X25.7616 Y-2.0555 Z0.3110
G01 X25.2261 Y-2.0665 Z0.3110
G01 X25.2223 Y-2.0666 Z0.3110
G01 X24.6868 Y-2.0783 Z0.3110
G01 X24.6833 Y-2.0784 Z0.3110
G01 X24.1478 Y-2.0908 Z0.3110
G01 X24.1438 Y-2.0909 Z0.3110
G01 X23.6084 Y-2.1040 Z0.3110
G01 X23.6049 Y-2.1040 Z0.3110
G01 X23.0694 Y-2.1177 Z0.3110
G01 X23.0657 Y-2.1178 Z0.3110
G01 X22.5302 Y-2.1322 Z0.3110
G01 X22.5265 Y-2.1323 Z0.3110
G01 X21.9911 Y-2.1474 Z0.3110
G01 X21.9874 Y-2.1475 Z0.3110
G01 X21.4519 Y-2.1632 Z0.3110
G01 X21.4485 Y-2.1633 Z0.3110
G01 X21.0630 Y-2.1750 Z0.3110
G01 X20.9129 Y-2.1796 Z0.3109
G01 X20.9088 Y-2.1797 Z0.3109
G01 X20.6662 Y-2.1874 Z0.3107
G01 X20.3737 Y-2.1968 Z0.3101
G01 X20.3702 Y-2.1968 Z0.3100
G01 X20.2787 Y-2.1998 Z0.3098
G01 X19.9001 Y-2.2124 Z0.3085
G01 X19.8349 Y-2.2145 Z0.3082
G01 X19.8311 Y-2.2147 Z0.3082
G01 X19.5303 Y-2.2250 Z0.3067
G01 X19.2958 Y-2.2330 Z0.3052
G01 X19.2921 Y-2.2331 Z0.3052
G01 X19.1689 Y-2.2375 Z0.3044
G01 X18.8154 Y-2.2501 Z0.3017
G01 X18.7568 Y-2.2522 Z0.3012
G01 X18.7531 Y-2.2523 Z0.3011
G01 X18.4697 Y-2.2627 Z0.2985
G01 X18.2178 Y-2.2720 Z0.2959
G01 X18.2143 Y-2.2721 Z0.2959
G01 X18.1314 Y-2.2752 Z0.2950
G01 X17.8001 Y-2.2878 Z0.2911
G01 X17.6790 Y-2.2924 Z0.2895
G01 X17.6751 Y-2.2926 Z0.2894
G01 X17.4756 Y-2.3004 Z0.2868
G01 X17.1575 Y-2.3129 Z0.2821
G01 X17.1398 Y-2.3136 Z0.2818
G01 X17.1364 Y-2.3137 Z0.2818
G01 X16.8455 Y-2.3255 Z0.2772
G01 X16.6010 Y-2.3354 Z0.2730
G01 X16.5972 Y-2.3355 Z0.2730
G01 X16.5392 Y-2.3379 Z0.2720
G01 X16.2385 Y-2.3505 Z0.2665
G01 X16.0622 Y-2.3578 Z0.2631
G01 X16.0585 Y-2.3580 Z0.2630
G01 X15.9429 Y-2.3629 Z0.2607
G01 X15.6521 Y-2.3754 Z0.2548
G01 X15.5233 Y-2.3810 Z0.2520
G01 X15.5196 Y-2.3811 Z0.2520
G01 X15.3658 Y-2.3879 Z0.2487
G01 X15.0837 Y-2.4004 Z0.2423
G01 X14.9845 Y-2.4048 Z0.2400
G01 X14.9810 Y-2.4050 Z0.2399
G01 X14.8054 Y-2.4129 Z0.2358
G01 X14.5307 Y-2.4254 Z0.2292
G01 X14.4459 Y-2.4292 Z0.2271
G01 X14.4422 Y-2.4294 Z0.2270
G01 X14.2592 Y-2.4379 Z0.2224
G01 X13.9905 Y-2.4505 Z0.2156
G01 X13.9071 Y-2.4544 Z0.2135
G01 X13.9034 Y-2.4546 Z0.2133
G01 X13.7245 Y-2.4631 Z0.2087
G01 X13.4607 Y-2.4757 Z0.2017
G01 X13.3683 Y-2.4802 Z0.1993
G01 X13.3644 Y-2.4803 Z0.1992
G01 X13.1988 Y-2.4885 Z0.1948
G01 X12.9385 Y-2.5012 Z0.1879
G01 X12.8296 Y-2.5066 Z0.1849
G01 X12.8259 Y-2.5068 Z0.1848
G01 X12.6795 Y-2.5142 Z0.1809
G01 X12.4215 Y-2.5272 Z0.1740
G01 X12.2910 Y-2.5338 Z0.1705
G01 X12.2872 Y-2.5340 Z0.1704
G01 X12.1641 Y-2.5403 Z0.1672
G01 X11.9071 Y-2.5536 Z0.1604
G01 X11.7523 Y-2.5616 Z0.1564
G01 X11.7488 Y-2.5618 Z0.1563
G01 X11.6500 Y-2.5670 Z0.1538
G01 X11.3926 Y-2.5806 Z0.1473
G01 X11.2139 Y-2.5901 Z0.1429
G01 X11.2102 Y-2.5903 Z0.1428
G01 X11.1346 Y-2.5943 Z0.1410
G01 X10.8756 Y-2.6083 Z0.1348
G01 X10.6753 Y-2.6192 Z0.1302
G01 X10.6714 Y-2.6194 Z0.1301
G01 X10.6153 Y-2.6224 Z0.1288
G01 X10.3535 Y-2.6369 Z0.1231
G01 X10.1367 Y-2.6490 Z0.1186
G01 X10.1330 Y-2.6492 Z0.1185
G01 X10.0896 Y-2.6516 Z0.1176
G01 X9.8236 Y-2.6667 Z0.1124
G01 X9.5982 Y-2.6795 Z0.1083
G01 X9.5945 Y-2.6797 Z0.1082
G01 X9.5550 Y-2.6820 Z0.1075
G01 X9.2835 Y-2.6977 Z0.1028
G01 X9.0598 Y-2.7106 Z0.0993
G01 X9.0562 Y-2.7108 Z0.0992
G01 X9.0087 Y-2.7136 Z0.0985
G01 X8.7304 Y-2.7300 Z0.0946
G01 X8.5216 Y-2.7424 Z0.0920
G01 X8.5177 Y-2.7426 Z0.0919
G01 X8.4483 Y-2.7468 Z0.0910
G01 X8.1620 Y-2.7641 Z0.0879
G01 X7.9829 Y-2.7749 Z0.0862
G01 X7.9792 Y-2.7751 Z0.0862
G01 X7.8712 Y-2.7817 Z0.0852
G01 X7.5756 Y-2.8000 Z0.0829
G01 X7.4448 Y-2.8080 Z0.0821
G01 X7.4411 Y-2.8082 Z0.0821
G01 X7.2749 Y-2.8187 Z0.0811
G01 X7.0114 Y-2.8352 Z0.0799
G01 X6.9687 Y-2.8348 Z0.0797
G01 X6.8377 Y-2.8333 Z0.0794
G01 X6.6566 Y-2.8273 Z0.0789
G01 X6.5927 Y-2.8252 Z0.0788
G01 X6.3620 Y-2.8123 Z0.0787
G01 X6.3386 Y-2.8104 Z0.0787
G01 X6.1410 Y-2.7946 Z0.0787
G01 X5.9322 Y-2.7728 Z0.0787
G01 X5.7314 Y-2.7466 Z0.0787
G01 X5.5420 Y-2.7169 Z0.0787
G01 X5.3608 Y-2.6835 Z0.0787
G01 X5.1903 Y-2.6471 Z0.0787
G01 X5.0292 Y-2.6079 Z0.0787
G01 X4.8778 Y-2.5663 Z0.0787
G01 X4.7350 Y-2.5224 Z0.0787
G01 X4.6018 Y-2.4768 Z0.0787
G01 X4.4753 Y-2.4290 Z0.0787
G01 X4.3588 Y-2.3807 Z0.0787
G01 X4.2486 Y-2.3306 Z0.0787
G01 X4.1472 Y-2.2802 Z0.0787
G01 X4.0518 Y-2.2287 Z0.0787
G01 X3.9640 Y-2.1772 Z0.0787
G01 X3.8803 Y-2.1240 Z0.0787
G01 X3.8057 Y-2.0727 Z0.0787
G01 X3.7335 Y-2.0191 Z0.0787
G01 X3.6675 Y-1.9662 Z0.0787
G01 X3.6059 Y-1.9129 Z0.0787
G01 X3.5488 Y-1.8598 Z0.0787
G01 X3.4938 Y-1.8046 Z0.0787
G01 X3.4435 Y-1.7501 Z0.0787
G01 X3.3956 Y-1.6943 Z0.0787
G01 X3.3507 Y-1.6379 Z0.0787
G01 X3.3084 Y-1.5805 Z0.0787
G01 X3.2678 Y-1.5210 Z0.0787
G01 X3.2298 Y-1.4607 Z0.0787
G01 X3.1938 Y-1.3989 Z0.0787
G01 X3.1598 Y-1.3352 Z0.0787
G01 X3.1263 Y-1.2672 Z0.0787
G01 X3.0961 Y-1.2000 Z0.0787
G01 X3.0675 Y-1.1305 Z0.0787
G01 X3.0398 Y-1.0559 Z0.0787
G01 X3.0146 Y-0.9811 Z0.0787
G01 X2.9917 Y-0.9051 Z0.0787
G01 X2.9696 Y-0.8227 Z0.0787
G01 X2.9505 Y-0.7417 Z0.0787
G01 X2.9327 Y-0.6548 Z0.0787
G01 X2.9176 Y-0.5685 Z0.0787
G01 X2.9046 Y-0.4790 Z0.0787
G01 X2.8935 Y-0.3844 Z0.0787
G01 X2.8853 Y-0.2942 Z0.0787
G01 X2.8790 Y-0.1966 Z0.0787
G01 X2.8753 Y-0.0988 Z0.0787
G01 X2.8741 Y0.0000 Z0.0787
G01 X2.1261 Y0.0000 Z0.0787 F20
G01 X2.1261 Y0.0000 Z0.0787 F50
G01 X2.1276 Y0.1191 Z0.0787
G01 X2.1319 Y0.2333 Z0.0787
G01 X2.1392 Y0.3491 Z0.0787
G01 X2.1496 Y0.4631 Z0.0787
G01 X2.1629 Y0.5768 Z0.0787
G01 X2.1787 Y0.6851 Z0.0787
G01 X2.1979 Y0.7949 Z0.0787
G01 X2.2198 Y0.9018 Z0.0787
G01 X2.2443 Y1.0057 Z0.0787
G01 X2.2718 Y1.1085 Z0.0787
G01 X2.3020 Y1.2084 Z0.0787
G01 X2.3346 Y1.3055 Z0.0787
G01 X2.3705 Y1.4021 Z0.0787
G01 X2.4088 Y1.4955 Z0.0787
G01 X2.4496 Y1.5860 Z0.0787
G01 X2.4944 Y1.6772 Z0.0787
G01 X2.5407 Y1.7637 Z0.0787
G01 X2.5898 Y1.8481 Z0.0787
G01 X2.6419 Y1.9307 Z0.0787
G01 X2.6981 Y2.0132 Z0.0787
G01 X2.7567 Y2.0927 Z0.0787
G01 X2.8192 Y2.1712 Z0.0787
G01 X2.8847 Y2.2476 Z0.0787
G01 X2.9543 Y2.3229 Z0.0787
G01 X3.0282 Y2.3970 Z0.0787
G01 X3.1068 Y2.4702 Z0.0787
G01 X3.1894 Y2.5417 Z0.0787
G01 X3.2753 Y2.6105 Z0.0787
G01 X3.3707 Y2.6814 Z0.0787
G01 X3.4678 Y2.7481 Z0.0787
G01 X3.5740 Y2.8156 Z0.0787
G01 X3.6858 Y2.8812 Z0.0787
G01 X3.8020 Y2.9439 Z0.0787
G01 X3.9273 Y3.0061 Z0.0787
G01 X4.0609 Y3.0669 Z0.0787
G01 X4.1992 Y3.1244 Z0.0787
G01 X4.3483 Y3.1807 Z0.0787
G01 X4.5046 Y3.2341 Z0.0787
G01 X4.6676 Y3.2842 Z0.0787
G01 X4.8412 Y3.3319 Z0.0787
G01 X5.0242 Y3.3765 Z0.0787
G01 X5.2147 Y3.4172 Z0.0787
G01 X5.4166 Y3.4544 Z0.0787
G01 X5.6253 Y3.4872 Z0.0787
G01 X5.8438 Y3.5156 Z0.0787
G01 X6.0727 Y3.5395 Z0.0787
G01 X6.3119 Y3.5587 Z0.0787
G01 X6.3386 Y3.5601 Z0.0787
G01 X6.5605 Y3.5726 Z0.0788
G01 X6.6566 Y3.5757 Z0.0789
G01 X6.8190 Y3.5811 Z0.0793
G01 X6.9687 Y3.5827 Z0.0797
G01 X7.0314 Y3.5834 Z0.0800
G01 X7.2749 Y3.5681 Z0.0811
G01 X7.4880 Y3.5548 Z0.0824
G01 X7.4907 Y3.5546 Z0.0824
G01 X7.5756 Y3.5494 Z0.0829
G01 X7.8712 Y3.5311 Z0.0852
G01 X8.0252 Y3.5217 Z0.0866
G01 X8.0287 Y3.5215 Z0.0866
G01 X8.1620 Y3.5135 Z0.0879
G01 X8.4483 Y3.4962 Z0.0910
G01 X8.5627 Y3.4893 Z0.0925
G01 X8.5657 Y3.4891 Z0.0925
G01 X8.7304 Y3.4793 Z0.0946
G01 X9.0087 Y3.4629 Z0.0985
G01 X9.1003 Y3.4575 Z0.1000
G01 X9.1030 Y3.4574 Z0.1000
G01 X9.2835 Y3.4469 Z0.1028
G01 X9.5550 Y3.4312 Z0.1075
G01 X9.6377 Y3.4264 Z0.1090
G01 X9.6405 Y3.4262 Z0.1090
G01 X9.8236 Y3.4159 Z0.1124
G01 X10.0896 Y3.4008 Z0.1176
G01 X10.1753 Y3.3960 Z0.1194
G01 X10.1781 Y3.3958 Z0.1194
G01 X10.3535 Y3.3861 Z0.1231
G01 X10.6153 Y3.3716 Z0.1288
G01 X10.7127 Y3.3662 Z0.1311
G01 X10.7157 Y3.3661 Z0.1311
G01 X10.8756 Y3.3574 Z0.1348
G01 X11.1346 Y3.3434 Z0.1410
G01 X11.2506 Y3.3372 Z0.1438
G01 X11.2534 Y3.3370 Z0.1439
G01 X11.3926 Y3.3296 Z0.1473
G01 X11.6500 Y3.3160 Z0.1538
G01 X11.7883 Y3.3087 Z0.1574
G01 X11.7909 Y3.3086 Z0.1574
G01 X11.9071 Y3.3026 Z0.1604
G01 X12.1641 Y3.2893 Z0.1672
G01 X12.3258 Y3.2810 Z0.1714
G01 X12.3286 Y3.2808 Z0.1715
G01 X12.4215 Y3.2761 Z0.1740
G01 X12.6795 Y3.2631 Z0.1809
G01 X12.8636 Y3.2538 Z0.1858
G01 X12.8664 Y3.2537 Z0.1859
G01 X12.9385 Y3.2501 Z0.1879
G01 X13.1988 Y3.2374 Z0.1948
G01 X13.4012 Y3.2274 Z0.2002
G01 X13.4040 Y3.2273 Z0.2002
G01 X13.4607 Y3.2246 Z0.2017
G01 X13.7245 Y3.2120 Z0.2087
G01 X13.9392 Y3.2017 Z0.2143
G01 X13.9420 Y3.2016 Z0.2144
G01 X13.9905 Y3.1993 Z0.2156
G01 X14.2592 Y3.1867 Z0.2224
G01 X14.4770 Y3.1766 Z0.2279
G01 X14.4798 Y3.1765 Z0.2279
G01 X14.5307 Y3.1742 Z0.2292
G01 X14.8054 Y3.1617 Z0.2358
G01 X15.0149 Y3.1522 Z0.2407
G01 X15.0175 Y3.1521 Z0.2407
G01 X15.0837 Y3.1491 Z0.2423
G01 X15.3658 Y3.1366 Z0.2487
G01 X15.5526 Y3.1284 Z0.2527
G01 X15.5554 Y3.1283 Z0.2527
G01 X15.6521 Y3.1241 Z0.2548
G01 X15.9429 Y3.1116 Z0.2607
G01 X16.0906 Y3.1053 Z0.2636
G01 X16.0934 Y3.1052 Z0.2637
G01 X16.2385 Y3.0991 Z0.2665
G01 X16.5392 Y3.0866 Z0.2720
G01 X16.6284 Y3.0829 Z0.2735
G01 X16.6312 Y3.0828 Z0.2735
G01 X16.8455 Y3.0741 Z0.2772
G01 X17.1575 Y3.0615 Z0.2821
G01 X17.1666 Y3.0611 Z0.2823
G01 X17.1692 Y3.0610 Z0.2823
G01 X17.4756 Y3.0490 Z0.2868
G01 X17.7044 Y3.0400 Z0.2898
G01 X17.7074 Y3.0399 Z0.2898
G01 X17.8001 Y3.0363 Z0.2911
G01 X18.1314 Y3.0238 Z0.2950
G01 X18.2426 Y3.0196 Z0.2962
G01 X18.2453 Y3.0195 Z0.2962
G01 X18.4697 Y3.0112 Z0.2985
G01 X18.7805 Y2.9998 Z0.3014
G01 X18.7833 Y2.9997 Z0.3014
G01 X18.8154 Y2.9985 Z0.3017
G01 X19.1689 Y2.9860 Z0.3044
G01 X19.3186 Y2.9807 Z0.3054
G01 X19.3214 Y2.9805 Z0.3054
G01 X19.5303 Y2.9734 Z0.3067
G01 X19.8568 Y2.9622 Z0.3083
G01 X19.8596 Y2.9621 Z0.3083
G01 X19.9001 Y2.9607 Z0.3085
G01 X20.2787 Y2.9483 Z0.3098
G01 X20.3949 Y2.9444 Z0.3101
G01 X20.3975 Y2.9444 Z0.3101
G01 X20.6662 Y2.9358 Z0.3107
G01 X20.9327 Y2.9273 Z0.3109
G01 X20.9368 Y2.9272 Z0.3109
G01 X21.0630 Y2.9234 Z0.3110
G01 X21.4712 Y2.9109 Z0.3110
G01 X21.4739 Y2.9109 Z0.3110
G01 X22.0093 Y2.8951 Z0.3110
G01 X22.0121 Y2.8950 Z0.3110
G01 X22.5475 Y2.8800 Z0.3110
G01 X22.5503 Y2.8800 Z0.3110
G01 X23.0857 Y2.8656 Z0.3110
G01 X23.0885 Y2.8655 Z0.3110
G01 X23.6240 Y2.8518 Z0.3110
G01 X23.6266 Y2.8517 Z0.3110
G01 X24.1621 Y2.8387 Z0.3110
G01 X24.1651 Y2.8386 Z0.3110
G01 X24.7005 Y2.8262 Z0.3110
G01 X24.7032 Y2.8262 Z0.3110
G01 X25.2387 Y2.8144 Z0.3110
G01 X25.2415 Y2.8144 Z0.3110
G01 X25.7770 Y2.8033 Z0.3110
G01 X25.7798 Y2.8033 Z0.3110
G01 X26.3152 Y2.7929 Z0.3110
G01 X26.3179 Y2.7929 Z0.3110
G01 X26.8535 Y2.7831 Z0.3110
G01 X26.8565 Y2.7830 Z0.3110
G01 X27.3920 Y2.7740 Z0.3110
G01 X27.3947 Y2.7739 Z0.3110
G01 X27.9302 Y2.7655 Z0.3110
G01 X27.9331 Y2.7655 Z0.3110
G01 X28.4686 Y2.7577 Z0.3110
G01 X28.4716 Y2.7577 Z0.3110
G01 X29.0072 Y2.7506 Z0.3110
G01 X29.0096 Y2.7506 Z0.3110
G01 X29.5453 Y2.7441 Z0.3110
G01 X29.5482 Y2.7441 Z0.3110
G01 X30.0838 Y2.7383 Z0.3110
G01 X30.0866 Y2.7383 Z0.3110
G01 X30.6222 Y2.7333 Z0.3110
G01 X30.6249 Y2.7332 Z0.3110
G01 X31.1605 Y2.7288 Z0.3110
G01 X31.1633 Y2.7287 Z0.3110
G01 X31.6989 Y2.7250 Z0.3110
G01 X31.7017 Y2.7250 Z0.3110
G01 X32.2373 Y2.7218 Z0.3110
G01 X32.2401 Y2.7218 Z0.3110
G01 X32.7757 Y2.7194 Z0.3110
G01 X32.7785 Y2.7194 Z0.3110
G01 X33.3142 Y2.7176 Z0.3110
G01 X33.3170 Y2.7176 Z0.3110
G01 X33.8526 Y2.7165 Z0.3110
G01 X33.8553 Y2.7165 Z0.3110
G01 X34.3909 Y2.7160 Z0.3110
G01 X34.3937 Y2.7160 Z0.3110
G01 X34.9292 Y2.7162 Z0.3110
G01 X34.9320 Y2.7162 Z0.3110
G01 X35.4676 Y2.7171 Z0.3110
G01 X35.4704 Y2.7171 Z0.3110
G01 X36.0060 Y2.7186 Z0.3110
G01 X36.0088 Y2.7186 Z0.3110
G01 X36.5445 Y2.7208 Z0.3110
G01 X36.5473 Y2.7209 Z0.3110
G01 X37.0829 Y2.7237 Z0.3110
G01 X37.0855 Y2.7237 Z0.3110
G01 X37.6212 Y2.7272 Z0.3110
G01 X37.6240 Y2.7273 Z0.3110
G01 X38.1596 Y2.7314 Z0.3110
G01 X38.1624 Y2.7314 Z0.3110
G01 X38.6979 Y2.7363 Z0.3110
G01 X38.7008 Y2.7363 Z0.3110
G01 X39.2364 Y2.7418 Z0.3110
G01 X39.2392 Y2.7419 Z0.3110
G01 X39.7748 Y2.7481 Z0.3110
G01 X39.7776 Y2.7481 Z0.3110
G01 X40.3131 Y2.7550 Z0.3110
G01 X40.3158 Y2.7550 Z0.3110
G01 X40.8514 Y2.7625 Z0.3110
G01 X40.8542 Y2.7625 Z0.3110
G01 X41.3898 Y2.7707 Z0.3110
G01 X41.3925 Y2.7707 Z0.3110
G01 X41.9281 Y2.7795 Z0.3110
G01 X41.9309 Y2.7796 Z0.3110
G01 X42.4657 Y2.7890 Z0.3110
G01 X42.4694 Y2.7890 Z0.3110
G01 X43.0048 Y2.7992 Z0.3110
G01 X43.0076 Y2.7993 Z0.3110
G01 X43.5431 Y2.8101 Z0.3110
G01 X43.5458 Y2.8101 Z0.3110
G01 X44.0812 Y2.8216 Z0.3110
G01 X44.0840 Y2.8217 Z0.3110
G01 X44.6195 Y2.8338 Z0.3110
G01 X44.6225 Y2.8338 Z0.3110
G01 X45.1580 Y2.8467 Z0.3110
G01 X45.1607 Y2.8468 Z0.3110
G01 X45.6961 Y2.8602 Z0.3110
G01 X45.6987 Y2.8603 Z0.3110
G01 X46.2342 Y2.8744 Z0.3110
G01 X46.2371 Y2.8745 Z0.3110
G01 X46.6535 Y2.8860 Z0.3110
G01 X46.7726 Y2.8893 Z0.3109
G01 X46.7752 Y2.8894 Z0.3109
G01 X47.0502 Y2.8973 Z0.3107
G01 X47.3106 Y2.9048 Z0.3101
G01 X47.3136 Y2.9049 Z0.3101
G01 X47.4377 Y2.9086 Z0.3098
G01 X47.8162 Y2.9200 Z0.3085
G01 X47.8490 Y2.9210 Z0.3083
G01 X47.8516 Y2.9211 Z0.3083
G01 X48.1861 Y2.9315 Z0.3067
G01 X48.3861 Y2.9378 Z0.3054
G01 X48.3900 Y2.9379 Z0.3054
G01 X48.5475 Y2.9430 Z0.3044
G01 X48.9010 Y2.9545 Z0.3017
G01 X48.9251 Y2.9553 Z0.3015
G01 X48.9278 Y2.9554 Z0.3014
G01 X49.2467 Y2.9662 Z0.2985
G01 X49.4631 Y2.9735 Z0.2963
G01 X49.4661 Y2.9736 Z0.2962
