( Sample-ski-top-profile.nc                                                    )
( Generated by MonkeyCAM v4.0.4 at 2016-07-26 21:19:31 New Zealand Standard Time
(                                                                              )
( This GCode program is provided on an "AS IS" BASIS WITHOUT WARRANTIES OR     )
( CONDITIONS OF ANY KIND, either express or implied. You should inspect this   )
( program very carefully to confirm you understand its operation. YOU ARE      )
( RESPONSIBLE FOR ENSURING THIS PROGRAM WILL NOT DAMAGE YOUR MACHINE OR        )
( MATERIALS.                                                                   )
(                                                                              )
( See http://www.github.com/mikemag/MonkeyCAM for License and documentation.   )
(                                                                              )
( * Rapid height: 0.6000" [1.5240cm]                                           )
( * Tool: T1, 1.5 Inch Straight, diameter 1.4959" [3.7998cm]                   )
( * Height baseline [Z=0.0] is the top of the table.                           )
( * XY origin is the left side of the table, Y is center of the part.          )
( * Requires G54 to be the part work coordinate offsets [WCO]. [0, 0] is the   )
(   center of the nose, with the board extending to positive X. The cutter may )
(   move to negative values of X.                                              )
( * Requires G55 to be the machine WCO, with Z above the rapid height.         )
( * Units are inches                                                           )
( * Center of the board in G54:                                                )
(     X=36.0236 Y=0.0000 Z=0.0000                                              )
( * Cutter bounding box in G54:                                                )
(     X0.0000 Y-1.9055 Z0.0787 to X69.6395 Y1.9055 Z0.6000                     )

G90 G20 G17 G40 G49
G43 H1 T1
G00 G54 X0 Y0 Z0.6000

M03
G04 P5
G00 X6.1497 Y-0.3369 Z0.6000
G01 X6.1497 Y-0.3369 Z0.6000 F50
G01 X6.0804 Y-0.3395 Z0.5909
G01 X5.7414 Y-0.3525 Z0.5467
G01 X5.5163 Y-0.3612 Z0.5173
G01 X5.5146 Y-0.3612 Z0.5171
G01 X5.3972 Y-0.3658 Z0.5018
G01 X5.0472 Y-0.3795 Z0.4561
G01 X4.8812 Y-0.3860 Z0.4345
G01 X4.8795 Y-0.3861 Z0.4343
G01 X4.6911 Y-0.3935 Z0.4097
G01 X4.3286 Y-0.4080 Z0.3624
G01 X4.2959 Y-0.4093 Z0.3581
G01 X4.1681 Y-0.4085 Z0.3415
G01 X4.0094 Y-0.4052 Z0.3208
G01 X3.9592 Y-0.4034 Z0.3143
G01 X3.8597 Y-0.3999 Z0.3013
G01 X3.7171 Y-0.3927 Z0.2827
G01 X3.5827 Y-0.3838 Z0.2651
G01 X3.5773 Y-0.3835 Z0.2644
G01 X3.4475 Y-0.3727 Z0.2475
G01 X3.3241 Y-0.3601 Z0.2313
G01 X3.2096 Y-0.3464 Z0.2163
G01 X3.0974 Y-0.3307 Z0.2015
G01 X2.9924 Y-0.3138 Z0.1877
G01 X2.8978 Y-0.2964 Z0.1751
G01 X2.8057 Y-0.2774 Z0.1629
G01 X2.7243 Y-0.2585 Z0.1520
G01 X2.6471 Y-0.2386 Z0.1416
G01 X2.5764 Y-0.2183 Z0.1320
G01 X2.5130 Y-0.1983 Z0.1233
G01 X2.4587 Y-0.1793 Z0.1158
G01 X2.4054 Y-0.1588 Z0.1084
G01 X2.3633 Y-0.1412 Z0.1024
G01 X2.3241 Y-0.1231 Z0.0968
G01 X2.2912 Y-0.1066 Z0.0920
G01 X2.2643 Y-0.0919 Z0.0880
G01 X2.2420 Y-0.0786 Z0.0846
G01 X2.2251 Y-0.0676 Z0.0820
G01 X2.2116 Y-0.0581 Z0.0799
G01 X2.2010 Y-0.0499 Z0.0787
G01 X2.1944 Y-0.0444 Z0.0787
G01 X2.1904 Y-0.0407 Z0.0787
G01 X2.1884 Y-0.0387 Z0.0787
G01 X2.1862 Y-0.0364 Z0.0787
G01 X2.1852 Y-0.0346 Z0.0787
G01 X2.1841 Y-0.0325 Z0.0787
G01 X2.1812 Y-0.0265 Z0.0787
G01 X2.1777 Y-0.0179 Z0.0787
G01 X2.1738 Y-0.0077 Z0.0787
G01 X2.1712 Y0.0000 Z0.0787
G01 X2.1712 Y0.0000 Z0.0787 F20
G01 X2.1712 Y0.0000 Z0.0787 F50
G01 X2.1736 Y0.0070 Z0.0787
G01 X2.1777 Y0.0179 Z0.0787
G01 X2.1812 Y0.0263 Z0.0787
G01 X2.1838 Y0.0320 Z0.0787
G01 X2.1849 Y0.0340 Z0.0787
G01 X2.1862 Y0.0364 Z0.0787
G01 X2.1882 Y0.0385 Z0.0787
G01 X2.1904 Y0.0407 Z0.0787
G01 X2.1940 Y0.0440 Z0.0787
G01 X2.2010 Y0.0498 Z0.0787
G01 X2.2114 Y0.0579 Z0.0787
G01 X2.2247 Y0.0673 Z0.0787
G01 X2.2420 Y0.0786 Z0.0787
G01 X2.2643 Y0.0919 Z0.0787
G01 X2.2912 Y0.1066 Z0.0787
G01 X2.3241 Y0.1231 Z0.0787
G01 X2.3633 Y0.1412 Z0.0787
G01 X2.4052 Y0.1588 Z0.0787
G01 X2.4586 Y0.1792 Z0.0787
G01 X2.5130 Y0.1983 Z0.0787
G01 X2.5763 Y0.2183 Z0.0787
G01 X2.6471 Y0.2386 Z0.0787
G01 X2.7240 Y0.2585 Z0.0787
G01 X2.8057 Y0.2774 Z0.0787
G01 X2.8978 Y0.2964 Z0.0787
G01 X2.9924 Y0.3138 Z0.0787
G01 X3.0974 Y0.3307 Z0.0787
G01 X3.2096 Y0.3464 Z0.0787
G01 X3.3241 Y0.3601 Z0.0787
G01 X3.4475 Y0.3727 Z0.0787
G01 X3.5773 Y0.3835 Z0.0787
G01 X3.5827 Y0.3838 Z0.0787
G01 X3.7171 Y0.3927 Z0.0788
G01 X3.8597 Y0.3999 Z0.0788
G01 X3.9592 Y0.4034 Z0.0789
G01 X4.0094 Y0.4052 Z0.0790
G01 X4.1681 Y0.4085 Z0.0794
G01 X4.2959 Y0.4093 Z0.0797
G01 X4.3286 Y0.4080 Z0.0797
G01 X4.6911 Y0.3935 Z0.0811
G01 X4.8795 Y0.3861 Z0.0820
G01 X4.8812 Y0.3860 Z0.0820
G01 X5.0472 Y0.3795 Z0.0829
G01 X5.3972 Y0.3658 Z0.0851
G01 X5.5146 Y0.3612 Z0.0861
G01 X5.5163 Y0.3612 Z0.0861
G01 X5.7414 Y0.3525 Z0.0879
G01 X6.0804 Y0.3395 Z0.0910
G01 X6.1497 Y0.3369 Z0.0918
G01 X6.1512 Y0.3368 Z0.0918
G01 X6.4144 Y0.3269 Z0.0946
G01 X6.7439 Y0.3145 Z0.0985
G01 X6.7848 Y0.3129 Z0.0990
G01 X6.7864 Y0.3129 Z0.0991
G01 X7.0692 Y0.3024 Z0.1028
G01 X7.3907 Y0.2906 Z0.1074
G01 X7.4199 Y0.2895 Z0.1079
G01 X7.4214 Y0.2894 Z0.1079
G01 X7.7087 Y0.2790 Z0.1124
G01 X8.0237 Y0.2676 Z0.1176
G01 X8.0549 Y0.2665 Z0.1181
G01 X8.0566 Y0.2664 Z0.1182
G01 X8.3361 Y0.2565 Z0.1231
G01 X8.6462 Y0.2455 Z0.1288
G01 X8.6901 Y0.2440 Z0.1297
G01 X8.6916 Y0.2439 Z0.1297
G01 X8.9544 Y0.2347 Z0.1348
G01 X9.2611 Y0.2240 Z0.1409
G01 X9.3252 Y0.2218 Z0.1423
G01 X9.3268 Y0.2218 Z0.1423
G01 X9.5666 Y0.2136 Z0.1473
G01 X9.8713 Y0.2032 Z0.1538
G01 X9.9604 Y0.2002 Z0.1557
G01 X9.9619 Y0.2002 Z0.1558
G01 X10.1757 Y0.1930 Z0.1604
G01 X10.4801 Y0.1829 Z0.1672
G01 X10.5955 Y0.1790 Z0.1698
G01 X10.5972 Y0.1790 Z0.1698
G01 X10.7848 Y0.1728 Z0.1740
G01 X11.0903 Y0.1629 Z0.1809
G01 X11.2307 Y0.1583 Z0.1841
G01 X11.2322 Y0.1583 Z0.1841
G01 X11.3970 Y0.1530 Z0.1879
G01 X11.7051 Y0.1431 Z0.1948
G01 X11.8657 Y0.1380 Z0.1984
G01 X11.8697 Y0.1379 Z0.1985
G01 X12.0152 Y0.1334 Z0.2017
G01 X12.3275 Y0.1237 Z0.2087
G01 X12.5011 Y0.1183 Z0.2125
G01 X12.5028 Y0.1182 Z0.2125
G01 X12.6425 Y0.1139 Z0.2156
G01 X12.9606 Y0.1042 Z0.2224
G01 X13.1364 Y0.0989 Z0.2261
G01 X13.1379 Y0.0988 Z0.2261
G01 X13.2820 Y0.0946 Z0.2292
G01 X13.6073 Y0.0849 Z0.2358
G01 X13.7716 Y0.0800 Z0.2390
G01 X13.7731 Y0.0800 Z0.2391
G01 X13.9367 Y0.0752 Z0.2423
G01 X14.2707 Y0.0655 Z0.2487
G01 X14.4068 Y0.0615 Z0.2511
G01 X14.4085 Y0.0615 Z0.2511
G01 X14.6096 Y0.0558 Z0.2548
G01 X14.9539 Y0.0460 Z0.2607
G01 X15.0421 Y0.0435 Z0.2622
G01 X15.0437 Y0.0435 Z0.2622
G01 X15.3038 Y0.0363 Z0.2665
G01 X15.6598 Y0.0264 Z0.2720
G01 X15.6774 Y0.0260 Z0.2722
G01 X15.6790 Y0.0259 Z0.2723
G01 X16.0223 Y0.0167 Z0.2772
G01 X16.3127 Y0.0089 Z0.2811
G01 X16.3144 Y0.0088 Z0.2811
G01 X16.3916 Y0.0068 Z0.2822
G01 X16.6530 Y0.0000 Z0.2853
G01 X16.3916 Y-0.0068 Z0.2822
G01 X16.3144 Y-0.0088 Z0.2811
G01 X16.3127 Y-0.0089 Z0.2811
G01 X16.0223 Y-0.0167 Z0.2772
G01 X15.6790 Y-0.0259 Z0.2723
G01 X15.6774 Y-0.0260 Z0.2722
G01 X15.6598 Y-0.0264 Z0.2720
G01 X15.3038 Y-0.0363 Z0.2665
G01 X15.0437 Y-0.0435 Z0.2622
G01 X15.0421 Y-0.0435 Z0.2622
G01 X14.9539 Y-0.0460 Z0.2607
G01 X14.6096 Y-0.0558 Z0.2548
G01 X14.4085 Y-0.0615 Z0.2511
G01 X14.4068 Y-0.0615 Z0.2511
G01 X14.2707 Y-0.0655 Z0.2487
G01 X13.9367 Y-0.0752 Z0.2423
G01 X13.7731 Y-0.0800 Z0.2391
G01 X13.7716 Y-0.0800 Z0.2390
G01 X13.6073 Y-0.0849 Z0.2358
G01 X13.2820 Y-0.0946 Z0.2292
G01 X13.1379 Y-0.0988 Z0.2261
G01 X13.1364 Y-0.0989 Z0.2261
G01 X12.9606 Y-0.1042 Z0.2224
G01 X12.6425 Y-0.1139 Z0.2156
G01 X12.5028 Y-0.1182 Z0.2125
G01 X12.5011 Y-0.1183 Z0.2125
G01 X12.3275 Y-0.1237 Z0.2087
G01 X12.0152 Y-0.1334 Z0.2017
G01 X11.8697 Y-0.1379 Z0.1985
G01 X11.8657 Y-0.1380 Z0.1984
G01 X11.7051 Y-0.1431 Z0.1948
G01 X11.3970 Y-0.1530 Z0.1879
G01 X11.2322 Y-0.1583 Z0.1841
G01 X11.2307 Y-0.1583 Z0.1841
G01 X11.0903 Y-0.1629 Z0.1809
G01 X10.7848 Y-0.1728 Z0.1740
G01 X10.5972 Y-0.1790 Z0.1698
G01 X10.5955 Y-0.1790 Z0.1698
G01 X10.4801 Y-0.1829 Z0.1672
G01 X10.1757 Y-0.1930 Z0.1604
G01 X9.9619 Y-0.2002 Z0.1558
G01 X9.9604 Y-0.2002 Z0.1557
G01 X9.8713 Y-0.2033 Z0.1538
G01 X9.5666 Y-0.2136 Z0.1473
G01 X9.3268 Y-0.2218 Z0.1423
G01 X9.3252 Y-0.2218 Z0.1423
G01 X9.2611 Y-0.2240 Z0.1409
G01 X8.9544 Y-0.2347 Z0.1348
G01 X8.6916 Y-0.2439 Z0.1297
G01 X8.6901 Y-0.2440 Z0.1297
G01 X8.6462 Y-0.2455 Z0.1288
G01 X8.3361 Y-0.2565 Z0.1231
G01 X8.0566 Y-0.2664 Z0.1182
G01 X8.0549 Y-0.2665 Z0.1181
G01 X8.0237 Y-0.2676 Z0.1176
G01 X7.7087 Y-0.2790 Z0.1124
G01 X7.4214 Y-0.2894 Z0.1079
G01 X7.4199 Y-0.2895 Z0.1079
G01 X7.3907 Y-0.2906 Z0.1074
G01 X7.0692 Y-0.3024 Z0.1028
G01 X6.7864 Y-0.3129 Z0.0991
G01 X6.7848 Y-0.3129 Z0.0990
G01 X6.7439 Y-0.3145 Z0.0985
G01 X6.4144 Y-0.3269 Z0.0946
G01 X6.1512 Y-0.3368 Z0.0918
G01 X6.1497 Y-0.3369 Z0.0918
G01 X6.0804 Y-0.3395 Z0.0910
G01 X5.7414 Y-0.3525 Z0.0879
G01 X5.5163 Y-0.3612 Z0.0861
G01 X5.5146 Y-0.3612 Z0.0861
G01 X5.3972 Y-0.3658 Z0.0851
G01 X5.0472 Y-0.3795 Z0.0829
G01 X4.8812 Y-0.3860 Z0.0820
G01 X4.8795 Y-0.3861 Z0.0820
G01 X4.6911 Y-0.3935 Z0.0811
G01 X4.3286 Y-0.4080 Z0.0797
G01 X4.2959 Y-0.4093 Z0.0797
G01 X4.1681 Y-0.4085 Z0.0794
G01 X4.0094 Y-0.4052 Z0.0790
G01 X3.9592 Y-0.4034 Z0.0789
G01 X3.8597 Y-0.3999 Z0.0788
G01 X3.7171 Y-0.3927 Z0.0788
G01 X3.5827 Y-0.3838 Z0.0787
G01 X3.5773 Y-0.3835 Z0.0787
G01 X3.4475 Y-0.3727 Z0.0787
G01 X3.3241 Y-0.3601 Z0.0787
G01 X3.2096 Y-0.3464 Z0.0787
G01 X3.0974 Y-0.3307 Z0.0787
G01 X2.9924 Y-0.3138 Z0.0787
G01 X2.8978 Y-0.2964 Z0.0787
G01 X2.8057 Y-0.2774 Z0.0787
G01 X2.7243 Y-0.2585 Z0.0787
G01 X2.6471 Y-0.2386 Z0.0787
G01 X2.5764 Y-0.2183 Z0.0787
G01 X2.5130 Y-0.1983 Z0.0787
G01 X2.4587 Y-0.1793 Z0.0787
G01 X2.4054 Y-0.1588 Z0.0787
G01 X2.3633 Y-0.1412 Z0.0787
G01 X2.3241 Y-0.1231 Z0.0787
G01 X2.2912 Y-0.1066 Z0.0787
G01 X2.2643 Y-0.0919 Z0.0787
G01 X2.2420 Y-0.0786 Z0.0787
G01 X2.2251 Y-0.0676 Z0.0787
G01 X2.2116 Y-0.0581 Z0.0787
G01 X2.2010 Y-0.0499 Z0.0787
G01 X2.1944 Y-0.0444 Z0.0787
G01 X2.1904 Y-0.0407 Z0.0787
G01 X2.1884 Y-0.0387 Z0.0787
G01 X2.1862 Y-0.0364 Z0.0787
G01 X2.1852 Y-0.0346 Z0.0787
G01 X2.1841 Y-0.0325 Z0.0787
G01 X2.1812 Y-0.0265 Z0.0787
G01 X2.1777 Y-0.0179 Z0.0787
G01 X2.1738 Y-0.0077 Z0.0787
G01 X2.1712 Y0.0000 Z0.0787
G00 X2.1712 Y0.0000 Z0.6000
G00 X67.1473 Y-0.1153 Z0.6000
G01 X67.1473 Y-0.1153 Z0.6000
G01 X67.0191 Y-0.1114 Z0.5854
G01 X66.7259 Y-0.1025 Z0.5523
G01 X66.5137 Y-0.0961 Z0.5283
G01 X66.5120 Y-0.0960 Z0.5281
G01 X66.4313 Y-0.0936 Z0.5190
G01 X66.1354 Y-0.0848 Z0.4855
G01 X65.8783 Y-0.0772 Z0.4564
G01 X65.8768 Y-0.0772 Z0.4562
G01 X65.8383 Y-0.0761 Z0.4519
G01 X65.5399 Y-0.0674 Z0.4181
G01 X65.2431 Y-0.0588 Z0.3846
G01 X65.2414 Y-0.0588 Z0.3844
G01 X65.2403 Y-0.0588 Z0.3842
G01 X64.9395 Y-0.0503 Z0.3502
G01 X64.6376 Y-0.0418 Z0.3161
G01 X64.6078 Y-0.0409 Z0.3127
G01 X64.6063 Y-0.0409 Z0.3125
G01 X64.3346 Y-0.0334 Z0.2818
G01 X64.0305 Y-0.0250 Z0.2474
G01 X63.9726 Y-0.0235 Z0.2409
G01 X63.9711 Y-0.0234 Z0.2407
G01 X63.7253 Y-0.0168 Z0.2129
G01 X63.4191 Y-0.0086 Z0.1782
G01 X63.3374 Y-0.0064 Z0.1690
G01 X63.3356 Y-0.0063 Z0.1688
G01 X63.1119 Y-0.0005 Z0.1473
G01 X63.0906 Y0.0000 Z0.1477
G01 X63.0906 Y0.0000 Z0.1477 F20
G01 X63.0906 Y0.0000 Z0.1477 F50
G01 X63.1119 Y0.0005 Z0.1473
G01 X63.3356 Y0.0063 Z0.1427
G01 X63.3374 Y0.0064 Z0.1426
G01 X63.4191 Y0.0086 Z0.1410
G01 X63.7253 Y0.0168 Z0.1348
G01 X63.9711 Y0.0234 Z0.1300
G01 X63.9726 Y0.0235 Z0.1300
G01 X64.0305 Y0.0250 Z0.1288
G01 X64.3346 Y0.0334 Z0.1231
G01 X64.6063 Y0.0409 Z0.1182
G01 X64.6078 Y0.0409 Z0.1181
G01 X64.6376 Y0.0418 Z0.1176
G01 X64.9395 Y0.0503 Z0.1124
G01 X65.2403 Y0.0588 Z0.1075
G01 X65.2414 Y0.0588 Z0.1074
G01 X65.2431 Y0.0588 Z0.1074
G01 X65.5399 Y0.0674 Z0.1028
G01 X65.8383 Y0.0761 Z0.0985
G01 X65.8768 Y0.0772 Z0.0980
G01 X65.8783 Y0.0772 Z0.0980
G01 X66.1354 Y0.0848 Z0.0946
G01 X66.4313 Y0.0936 Z0.0911
G01 X66.5120 Y0.0960 Z0.0902
G01 X66.5137 Y0.0961 Z0.0901
G01 X66.7259 Y0.1025 Z0.0879
G01 X67.0191 Y0.1114 Z0.0851
G01 X67.1473 Y0.1153 Z0.0842
G01 X67.1489 Y0.1154 Z0.0842
G01 X67.3110 Y0.1204 Z0.0829
G01 X67.6015 Y0.1294 Z0.0811
G01 X67.7383 Y0.1337 Z0.0804
G01 X67.7874 Y0.1332 Z0.0802
G01 X67.8532 Y0.1312 Z0.0799
G01 X67.8906 Y0.1293 Z0.0798
G01 X67.9149 Y0.1280 Z0.0797
G01 X67.9696 Y0.1240 Z0.0795
G01 X68.0179 Y0.1192 Z0.0794
G01 X68.0671 Y0.1131 Z0.0792
G01 X68.1020 Y0.1079 Z0.0791
G01 X68.1126 Y0.1060 Z0.0791
G01 X68.1153 Y0.0914 Z0.0791
G01 X68.1250 Y0.0322 Z0.0790
G01 X68.1307 Y0.0000 Z0.0790
G01 X68.1250 Y-0.0322 Z0.0790
G01 X68.1151 Y-0.0922 Z0.0791
G01 X68.1126 Y-0.1060 Z0.0791
G01 X68.1020 Y-0.1079 Z0.0791
G01 X68.0671 Y-0.1131 Z0.0792
G01 X68.0179 Y-0.1192 Z0.0794
G01 X67.9696 Y-0.1240 Z0.0795
G01 X67.9149 Y-0.1280 Z0.0797
G01 X67.8906 Y-0.1293 Z0.0798
G01 X67.8532 Y-0.1312 Z0.0799
G01 X67.7874 Y-0.1332 Z0.0802
G01 X67.7383 Y-0.1337 Z0.0804
G01 X67.6015 Y-0.1294 Z0.0811
G01 X67.3110 Y-0.1204 Z0.0829
G01 X67.1489 Y-0.1154 Z0.0842
G01 X67.1473 Y-0.1153 Z0.0842
G01 X67.0191 Y-0.1114 Z0.0851
G01 X66.7259 Y-0.1025 Z0.0879
G01 X66.5137 Y-0.0961 Z0.0901
G01 X66.5120 Y-0.0960 Z0.0902
G01 X66.4313 Y-0.0936 Z0.0911
G01 X66.1354 Y-0.0848 Z0.0946
G01 X65.8783 Y-0.0772 Z0.0980
G01 X65.8768 Y-0.0772 Z0.0980
G01 X65.8383 Y-0.0761 Z0.0985
G01 X65.5399 Y-0.0674 Z0.1028
G01 X65.2431 Y-0.0588 Z0.1074
G01 X65.2414 Y-0.0588 Z0.1074
G01 X65.2403 Y-0.0588 Z0.1075
G01 X64.9395 Y-0.0503 Z0.1124
G01 X64.6376 Y-0.0418 Z0.1176
G01 X64.6078 Y-0.0409 Z0.1181
G01 X64.6063 Y-0.0409 Z0.1182
G01 X64.3346 Y-0.0334 Z0.1231
G01 X64.0305 Y-0.0250 Z0.1288
G01 X63.9726 Y-0.0235 Z0.1300
G01 X63.9711 Y-0.0234 Z0.1300
G01 X63.7253 Y-0.0168 Z0.1348
G01 X63.4191 Y-0.0086 Z0.1410
G01 X63.3374 Y-0.0064 Z0.1426
G01 X63.3356 Y-0.0063 Z0.1427
G01 X63.1119 Y-0.0005 Z0.1473
G01 X63.0906 Y0.0000 Z0.1477
G00 X63.0906 Y0.0000 Z0.6000
G00 X4.9092 Y-1.1335 Z0.6000
G01 X4.9092 Y-1.1335 Z0.6000
G01 X4.6911 Y-1.1421 Z0.5715
G01 X4.3286 Y-1.1566 Z0.5242
G01 X4.3079 Y-1.1574 Z0.5215
G01 X4.1590 Y-1.1564 Z0.5021
G01 X3.9896 Y-1.1529 Z0.4800
G01 X3.9592 Y-1.1518 Z0.4761
G01 X3.8270 Y-1.1472 Z0.4588
G01 X3.6742 Y-1.1396 Z0.4389
G01 X3.5827 Y-1.1335 Z0.4269
G01 X3.5190 Y-1.1292 Z0.4186
G01 X3.3812 Y-1.1177 Z0.4006
G01 X3.2422 Y-1.1037 Z0.3824
G01 X3.1126 Y-1.0881 Z0.3654
G01 X2.9851 Y-1.0703 Z0.3486
G01 X2.8666 Y-1.0512 Z0.3329
G01 X2.7543 Y-1.0306 Z0.3181
G01 X2.6448 Y-1.0079 Z0.3035
G01 X2.5462 Y-0.9851 Z0.2903
G01 X2.4496 Y-0.9601 Z0.2773
G01 X2.3616 Y-0.9349 Z0.2654
G01 X2.2772 Y-0.9081 Z0.2538
G01 X2.2009 Y-0.8815 Z0.2433
G01 X2.1262 Y-0.8529 Z0.2329
G01 X2.0623 Y-0.8260 Z0.2238
G01 X2.0001 Y-0.7975 Z0.2150
G01 X1.9436 Y-0.7691 Z0.2067
G01 X1.8931 Y-0.7414 Z0.1992
G01 X1.8466 Y-0.7137 Z0.1922
G01 X1.8045 Y-0.6863 Z0.1856
G01 X1.7664 Y-0.6593 Z0.1795
G01 X1.7323 Y-0.6330 Z0.1739
G01 X1.7012 Y-0.6070 Z0.1686
G01 X1.6731 Y-0.5812 Z0.1637
G01 X1.6484 Y-0.5566 Z0.1591
G01 X1.6240 Y-0.5300 Z0.1544
G01 X1.6033 Y-0.5054 Z0.1502
G01 X1.5829 Y-0.4788 Z0.1458
G01 X1.5637 Y-0.4514 Z0.1415
G01 X1.5470 Y-0.4251 Z0.1374
G01 X1.5293 Y-0.3945 Z0.1328
G01 X1.5134 Y-0.3640 Z0.1283
G01 X1.4980 Y-0.3312 Z0.1236
G01 X1.4825 Y-0.2945 Z0.1184
G01 X1.4684 Y-0.2569 Z0.1132
G01 X1.4547 Y-0.2155 Z0.1075
G01 X1.4415 Y-0.1704 Z0.1014
G01 X1.4295 Y-0.1227 Z0.0950
G01 X1.4197 Y-0.0774 Z0.0889
G01 X1.4101 Y-0.0357 Z0.0833
G01 X1.4007 Y0.0000 Z0.0787
G01 X1.4007 Y0.0000 Z0.0787 F20
G01 X1.4007 Y0.0000 Z0.0787 F50
G01 X1.4101 Y0.0357 Z0.0787
G01 X1.4197 Y0.0774 Z0.0787
G01 X1.4295 Y0.1227 Z0.0787
G01 X1.4414 Y0.1701 Z0.0787
G01 X1.4545 Y0.2150 Z0.0787
G01 X1.4684 Y0.2568 Z0.0787
G01 X1.4822 Y0.2938 Z0.0787
G01 X1.4980 Y0.3312 Z0.0787
G01 X1.5134 Y0.3640 Z0.0787
G01 X1.5293 Y0.3945 Z0.0787
G01 X1.5470 Y0.4251 Z0.0787
G01 X1.5637 Y0.4514 Z0.0787
G01 X1.5829 Y0.4788 Z0.0787
G01 X1.6031 Y0.5052 Z0.0787
G01 X1.6240 Y0.5300 Z0.0787
G01 X1.6484 Y0.5566 Z0.0787
G01 X1.6731 Y0.5812 Z0.0787
G01 X1.7012 Y0.6070 Z0.0787
G01 X1.7323 Y0.6330 Z0.0787
G01 X1.7661 Y0.6591 Z0.0787
G01 X1.8044 Y0.6862 Z0.0787
G01 X1.8466 Y0.7137 Z0.0787
G01 X1.8931 Y0.7414 Z0.0787
G01 X1.9436 Y0.7691 Z0.0787
G01 X2.0001 Y0.7975 Z0.0787
G01 X2.0623 Y0.8260 Z0.0787
G01 X2.1262 Y0.8529 Z0.0787
G01 X2.2006 Y0.8814 Z0.0787
G01 X2.2772 Y0.9081 Z0.0787
G01 X2.3616 Y0.9349 Z0.0787
G01 X2.4496 Y0.9601 Z0.0787
G01 X2.5462 Y0.9851 Z0.0787
G01 X2.6448 Y1.0079 Z0.0787
G01 X2.7543 Y1.0306 Z0.0787
G01 X2.8666 Y1.0512 Z0.0787
G01 X2.9851 Y1.0703 Z0.0787
G01 X3.1126 Y1.0881 Z0.0787
G01 X3.2422 Y1.1037 Z0.0787
G01 X3.3812 Y1.1177 Z0.0787
G01 X3.5190 Y1.1292 Z0.0787
G01 X3.5827 Y1.1335 Z0.0787
G01 X3.6742 Y1.1396 Z0.0787
G01 X3.8270 Y1.1472 Z0.0788
G01 X3.9592 Y1.1518 Z0.0789
G01 X3.9896 Y1.1529 Z0.0790
G01 X4.1590 Y1.1564 Z0.0794
G01 X4.3079 Y1.1574 Z0.0797
G01 X4.3286 Y1.1566 Z0.0797
G01 X4.6911 Y1.1421 Z0.0811
G01 X4.9092 Y1.1335 Z0.0822
G01 X4.9104 Y1.1334 Z0.0822
G01 X5.0472 Y1.1281 Z0.0829
G01 X5.3972 Y1.1144 Z0.0851
G01 X5.5438 Y1.1087 Z0.0863
G01 X5.5450 Y1.1086 Z0.0863
G01 X5.7414 Y1.1011 Z0.0879
G01 X6.0804 Y1.0881 Z0.0910
G01 X6.1784 Y1.0843 Z0.0921
G01 X6.1794 Y1.0843 Z0.0921
G01 X6.4144 Y1.0754 Z0.0946
G01 X6.7439 Y1.0630 Z0.0985
G01 X6.8129 Y1.0604 Z0.0994
G01 X6.8140 Y1.0604 Z0.0994
G01 X7.0692 Y1.0509 Z0.1028
G01 X7.3907 Y1.0391 Z0.1074
G01 X7.4475 Y1.0370 Z0.1083
G01 X7.4485 Y1.0370 Z0.1083
G01 X7.7087 Y1.0275 Z0.1124
G01 X8.0237 Y1.0161 Z0.1176
G01 X8.0820 Y1.0140 Z0.1186
G01 X8.0831 Y1.0140 Z0.1187
G01 X8.3361 Y1.0050 Z0.1231
G01 X8.6462 Y0.9940 Z0.1288
G01 X8.7166 Y0.9915 Z0.1302
G01 X8.7176 Y0.9914 Z0.1302
G01 X8.9544 Y0.9832 Z0.1348
G01 X9.2611 Y0.9725 Z0.1409
G01 X9.3512 Y0.9694 Z0.1428
G01 X9.3523 Y0.9694 Z0.1429
G01 X9.5666 Y0.9620 Z0.1473
G01 X9.8713 Y0.9516 Z0.1538
G01 X9.9859 Y0.9478 Z0.1563
G01 X9.9869 Y0.9477 Z0.1563
G01 X10.1757 Y0.9414 Z0.1604
G01 X10.4801 Y0.9312 Z0.1672
G01 X10.6204 Y0.9266 Z0.1703
G01 X10.6215 Y0.9266 Z0.1703
G01 X10.7848 Y0.9212 Z0.1740
G01 X11.0903 Y0.9112 Z0.1809
G01 X11.2551 Y0.9059 Z0.1846
G01 X11.2561 Y0.9059 Z0.1846
G01 X11.3970 Y0.9013 Z0.1879
G01 X11.7051 Y0.8915 Z0.1948
G01 X11.8896 Y0.8856 Z0.1989
G01 X11.8922 Y0.8856 Z0.1990
G01 X12.0152 Y0.8817 Z0.2017
G01 X12.3275 Y0.8720 Z0.2087
G01 X12.5244 Y0.8659 Z0.2130
G01 X12.5256 Y0.8659 Z0.2131
G01 X12.6425 Y0.8623 Z0.2156
G01 X12.9606 Y0.8526 Z0.2224
G01 X13.1592 Y0.8466 Z0.2266
G01 X13.1602 Y0.8465 Z0.2266
G01 X13.2820 Y0.8429 Z0.2292
G01 X13.6073 Y0.8332 Z0.2358
G01 X13.7938 Y0.8277 Z0.2395
G01 X13.7949 Y0.8276 Z0.2395
G01 X13.9367 Y0.8235 Z0.2423
G01 X14.2707 Y0.8138 Z0.2487
G01 X14.4285 Y0.8092 Z0.2515
G01 X14.4296 Y0.8092 Z0.2515
G01 X14.6096 Y0.8040 Z0.2548
G01 X14.9539 Y0.7943 Z0.2607
G01 X15.0633 Y0.7912 Z0.2625
G01 X15.0643 Y0.7912 Z0.2626
G01 X15.3038 Y0.7846 Z0.2665
G01 X15.6598 Y0.7747 Z0.2720
G01 X15.6980 Y0.7737 Z0.2725
G01 X15.6991 Y0.7737 Z0.2725
G01 X16.0223 Y0.7650 Z0.2772
G01 X16.3328 Y0.7566 Z0.2814
G01 X16.3339 Y0.7566 Z0.2814
G01 X16.3916 Y0.7550 Z0.2822
G01 X16.7681 Y0.7452 Z0.2868
G01 X16.9675 Y0.7400 Z0.2890
G01 X16.9686 Y0.7400 Z0.2890
G01 X17.1522 Y0.7353 Z0.2911
G01 X17.5443 Y0.7253 Z0.2950
G01 X17.6023 Y0.7238 Z0.2955
G01 X17.6035 Y0.7238 Z0.2955
G01 X17.9448 Y0.7153 Z0.2985
G01 X18.2372 Y0.7081 Z0.3008
G01 X18.2382 Y0.7081 Z0.3008
G01 X18.3540 Y0.7053 Z0.3017
G01 X18.7722 Y0.6952 Z0.3044
G01 X18.8719 Y0.6929 Z0.3050
G01 X18.8729 Y0.6928 Z0.3050
G01 X19.2000 Y0.6851 Z0.3067
G01 X19.5067 Y0.6780 Z0.3080
G01 X19.5078 Y0.6780 Z0.3080
G01 X19.6377 Y0.6751 Z0.3085
G01 X20.0856 Y0.6650 Z0.3098
G01 X20.1416 Y0.6637 Z0.3100
G01 X20.1427 Y0.6637 Z0.3100
G01 X20.5442 Y0.6549 Z0.3107
G01 X20.7764 Y0.6498 Z0.3108
G01 X20.7775 Y0.6498 Z0.3108
G01 X21.0138 Y0.6448 Z0.3110
G01 X21.4112 Y0.6364 Z0.3110
G01 X21.4124 Y0.6363 Z0.3110
G01 X22.0461 Y0.6234 Z0.3110
G01 X22.0472 Y0.6233 Z0.3110
G01 X22.6809 Y0.6108 Z0.3110
G01 X22.6820 Y0.6108 Z0.3110
G01 X23.3159 Y0.5988 Z0.3110
G01 X23.3169 Y0.5987 Z0.3110
G01 X23.9506 Y0.5871 Z0.3110
G01 X23.9549 Y0.5871 Z0.3110
G01 X24.5856 Y0.5760 Z0.3110
G01 X24.5866 Y0.5760 Z0.3110
G01 X25.2205 Y0.5653 Z0.3110
G01 X25.2216 Y0.5653 Z0.3110
G01 X25.8554 Y0.5550 Z0.3110
G01 X25.8564 Y0.5550 Z0.3110
G01 X26.4903 Y0.5452 Z0.3110
G01 X26.4914 Y0.5452 Z0.3110
G01 X27.1252 Y0.5359 Z0.3110
G01 X27.1263 Y0.5359 Z0.3110
G01 X27.7602 Y0.5270 Z0.3110
G01 X27.7612 Y0.5270 Z0.3110
G01 X28.3951 Y0.5185 Z0.3110
G01 X28.3961 Y0.5185 Z0.3110
G01 X29.0300 Y0.5105 Z0.3110
G01 X29.0311 Y0.5105 Z0.3110
G01 X29.6650 Y0.5030 Z0.3110
G01 X29.6661 Y0.5030 Z0.3110
G01 X30.3000 Y0.4959 Z0.3110
G01 X30.3010 Y0.4959 Z0.3110
G01 X30.9349 Y0.4893 Z0.3110
G01 X30.9359 Y0.4893 Z0.3110
G01 X31.5698 Y0.4831 Z0.3110
G01 X31.5709 Y0.4831 Z0.3110
G01 X32.2048 Y0.4774 Z0.3110
G01 X32.2059 Y0.4774 Z0.3110
G01 X32.8398 Y0.4722 Z0.3110
G01 X32.8408 Y0.4722 Z0.3110
G01 X33.4747 Y0.4674 Z0.3110
G01 X33.4758 Y0.4674 Z0.3110
G01 X34.1097 Y0.4630 Z0.3110
G01 X34.1107 Y0.4630 Z0.3110
G01 X34.7446 Y0.4591 Z0.3110
G01 X34.7457 Y0.4591 Z0.3110
G01 X35.3796 Y0.4557 Z0.3110
G01 X35.3807 Y0.4557 Z0.3110
G01 X36.0146 Y0.4527 Z0.3110
G01 X36.0157 Y0.4527 Z0.3110
G01 X36.6496 Y0.4501 Z0.3110
G01 X36.6506 Y0.4501 Z0.3110
G01 X37.2846 Y0.4481 Z0.3110
G01 X37.2857 Y0.4481 Z0.3110
G01 X37.9196 Y0.4464 Z0.3110
G01 X37.9206 Y0.4464 Z0.3110
G01 X38.5545 Y0.4453 Z0.3110
G01 X38.5557 Y0.4453 Z0.3110
G01 X39.1896 Y0.4446 Z0.3110
G01 X39.1905 Y0.4446 Z0.3110
G01 X39.8244 Y0.4443 Z0.3110
G01 X39.8255 Y0.4443 Z0.3110
G01 X40.4594 Y0.4445 Z0.3110
G01 X40.4605 Y0.4445 Z0.3110
G01 X41.0944 Y0.4451 Z0.3110
G01 X41.0955 Y0.4451 Z0.3110
G01 X41.7294 Y0.4462 Z0.3110
G01 X41.7304 Y0.4462 Z0.3110
G01 X42.3643 Y0.4478 Z0.3110
G01 X42.3654 Y0.4478 Z0.3110
G01 X42.9993 Y0.4498 Z0.3110
G01 X43.0005 Y0.4498 Z0.3110
G01 X43.6344 Y0.4523 Z0.3110
G01 X43.6354 Y0.4523 Z0.3110
G01 X44.2693 Y0.4552 Z0.3110
G01 X44.2703 Y0.4552 Z0.3110
G01 X44.9042 Y0.4586 Z0.3110
G01 X44.9053 Y0.4586 Z0.3110
G01 X45.5392 Y0.4624 Z0.3110
G01 X45.5403 Y0.4624 Z0.3110
G01 X46.1743 Y0.4667 Z0.3110
G01 X46.1753 Y0.4667 Z0.3110
G01 X46.8092 Y0.4714 Z0.3110
G01 X46.8103 Y0.4714 Z0.3110
G01 X47.4442 Y0.4766 Z0.3110
G01 X47.4452 Y0.4766 Z0.3110
G01 X48.0791 Y0.4822 Z0.3110
G01 X48.0802 Y0.4823 Z0.3110
G01 X48.7141 Y0.4884 Z0.3110
G01 X48.7151 Y0.4884 Z0.3110
G01 X49.3490 Y0.4949 Z0.3110
G01 X49.3501 Y0.4949 Z0.3110
G01 X49.9840 Y0.5019 Z0.3110
G01 X49.9850 Y0.5020 Z0.3110
G01 X50.6189 Y0.5094 Z0.3110
G01 X50.6200 Y0.5094 Z0.3110
G01 X51.2539 Y0.5173 Z0.3110
G01 X51.2549 Y0.5173 Z0.3110
G01 X51.8887 Y0.5257 Z0.3110
G01 X51.8899 Y0.5257 Z0.3110
G01 X52.5237 Y0.5345 Z0.3110
G01 X52.5248 Y0.5345 Z0.3110
G01 X52.9350 Y0.5405 Z0.3110
G01 X53.1587 Y0.5438 Z0.3108
G01 X53.1597 Y0.5438 Z0.3108
G01 X53.2582 Y0.5453 Z0.3107
G01 X53.5814 Y0.5503 Z0.3098
G01 X53.7936 Y0.5535 Z0.3090
G01 X53.7946 Y0.5536 Z0.3090
G01 X53.9046 Y0.5553 Z0.3085
G01 X54.2276 Y0.5605 Z0.3067
G01 X54.4284 Y0.5637 Z0.3053
G01 X54.4295 Y0.5637 Z0.3053
G01 X54.5505 Y0.5657 Z0.3044
G01 X54.8733 Y0.5711 Z0.3017
G01 X55.0633 Y0.5744 Z0.2998
G01 X55.0644 Y0.5744 Z0.2998
G01 X55.1959 Y0.5767 Z0.2985
G01 X55.5183 Y0.5823 Z0.2950
G01 X55.6983 Y0.5855 Z0.2928
G01 X55.6993 Y0.5855 Z0.2928
G01 X55.8404 Y0.5881 Z0.2911
G01 X56.1622 Y0.5939 Z0.2868
G01 X56.3328 Y0.5970 Z0.2843
G01 X56.3342 Y0.5970 Z0.2843
G01 X56.4838 Y0.5998 Z0.2821
G01 X56.8050 Y0.6059 Z0.2772
G01 X56.9679 Y0.6090 Z0.2746
G01 X56.9690 Y0.6090 Z0.2745
G01 X57.1258 Y0.6121 Z0.2720
G01 X57.4462 Y0.6183 Z0.2665
G01 X57.6029 Y0.6214 Z0.2637
G01 X57.6040 Y0.6215 Z0.2637
G01 X57.7662 Y0.6248 Z0.2608
G01 X58.0858 Y0.6313 Z0.2548
G01 X58.2377 Y0.6344 Z0.2519
G01 X58.2388 Y0.6344 Z0.2518
G01 X58.4048 Y0.6379 Z0.2487
G01 X58.7234 Y0.6446 Z0.2423
G01 X58.8725 Y0.6477 Z0.2392
G01 X58.8737 Y0.6478 Z0.2392
G01 X59.0414 Y0.6514 Z0.2358
G01 X59.3588 Y0.6583 Z0.2292
G01 X59.5074 Y0.6616 Z0.2260
G01 X59.5085 Y0.6616 Z0.2260
G01 X59.6756 Y0.6654 Z0.2224
G01 X59.9918 Y0.6725 Z0.2156
G01 X60.1422 Y0.6759 Z0.2123
G01 X60.1432 Y0.6759 Z0.2123
G01 X60.3073 Y0.6797 Z0.2087
G01 X60.6221 Y0.6870 Z0.2017
G01 X60.7769 Y0.6906 Z0.1983
G01 X60.7781 Y0.6906 Z0.1983
G01 X60.9362 Y0.6944 Z0.1948
G01 X61.2495 Y0.7019 Z0.1878
G01 X61.4119 Y0.7058 Z0.1842
G01 X61.4128 Y0.7058 Z0.1842
G01 X61.5621 Y0.7095 Z0.1809
G01 X61.8738 Y0.7171 Z0.1740
G01 X62.0466 Y0.7214 Z0.1702
G01 X62.0477 Y0.7214 Z0.1702
G01 X62.1847 Y0.7249 Z0.1672
G01 X62.4947 Y0.7328 Z0.1604
G01 X62.6815 Y0.7375 Z0.1564
G01 X62.6824 Y0.7376 Z0.1564
G01 X62.8038 Y0.7407 Z0.1538
G01 X63.1119 Y0.7487 Z0.1473
G01 X63.3161 Y0.7541 Z0.1431
G01 X63.3174 Y0.7541 Z0.1431
G01 X63.4191 Y0.7568 Z0.1410
G01 X63.7253 Y0.7650 Z0.1348
G01 X63.9510 Y0.7711 Z0.1304
G01 X63.9520 Y0.7711 Z0.1303
G01 X64.0305 Y0.7733 Z0.1288
G01 X64.3346 Y0.7816 Z0.1231
G01 X64.5857 Y0.7886 Z0.1185
G01 X64.5867 Y0.7886 Z0.1185
G01 X64.6376 Y0.7900 Z0.1176
G01 X64.9395 Y0.7985 Z0.1124
G01 X65.2203 Y0.8065 Z0.1078
G01 X65.2215 Y0.8065 Z0.1077
G01 X65.2403 Y0.8070 Z0.1075
G01 X65.5399 Y0.8157 Z0.1028
G01 X65.8383 Y0.8244 Z0.0985
G01 X65.8551 Y0.8249 Z0.0983
G01 X65.8562 Y0.8249 Z0.0983
G01 X66.1354 Y0.8332 Z0.0946
G01 X66.4313 Y0.8419 Z0.0911
G01 X66.4898 Y0.8437 Z0.0904
G01 X66.4909 Y0.8437 Z0.0904
G01 X66.7259 Y0.8509 Z0.0879
G01 X67.0191 Y0.8598 Z0.0851
G01 X67.1246 Y0.8630 Z0.0844
G01 X67.1257 Y0.8630 Z0.0843
G01 X67.3110 Y0.8687 Z0.0829
G01 X67.6015 Y0.8778 Z0.0811
G01 X67.7312 Y0.8818 Z0.0805
G01 X67.8019 Y0.8811 Z0.0801
G01 X67.8838 Y0.8787 Z0.0798
G01 X67.8906 Y0.8783 Z0.0798
G01 X67.9619 Y0.8746 Z0.0795
G01 X68.0352 Y0.8691 Z0.0793
G01 X68.1008 Y0.8627 Z0.0791
G01 X68.1666 Y0.8545 Z0.0789
G01 X68.1783 Y0.8527 Z0.0789
G01 X68.2246 Y0.8458 Z0.0789
G01 X68.2804 Y0.8359 Z0.0788
G01 X68.3309 Y0.8253 Z0.0788
G01 X68.3782 Y0.8140 Z0.0787
G01 X68.4198 Y0.8026 Z0.0787
G01 X68.4559 Y0.7915 Z0.0787
G01 X68.4645 Y0.7885 Z0.0787
G01 X68.4908 Y0.7794 Z0.0787
G01 X68.5216 Y0.7674 Z0.0787
G01 X68.5462 Y0.7568 Z0.0787
G01 X68.5720 Y0.7446 Z0.0787
G01 X68.5914 Y0.7344 Z0.0787
G01 X68.6094 Y0.7240 Z0.0787
G01 X68.6235 Y0.7151 Z0.0787
G01 X68.6381 Y0.7050 Z0.0787
G01 X68.6484 Y0.6972 Z0.0787
G01 X68.6605 Y0.6871 Z0.0787
G01 X68.6696 Y0.6789 Z0.0787
G01 X68.6784 Y0.6703 Z0.0787
G01 X68.6875 Y0.6605 Z0.0787
G01 X68.6951 Y0.6516 Z0.0787
G01 X68.7046 Y0.6394 Z0.0787
G01 X68.7138 Y0.6266 Z0.0787
G01 X68.7232 Y0.6124 Z0.0787
G01 X68.7331 Y0.5959 Z0.0787
G01 X68.7438 Y0.5764 Z0.0787
G01 X68.7541 Y0.5559 Z0.0787
G01 X68.7650 Y0.5320 Z0.0787
G01 X68.7762 Y0.5050 Z0.0787
G01 X68.7879 Y0.4740 Z0.0787
G01 X68.7994 Y0.4400 Z0.0787
G01 X68.8105 Y0.4037 Z0.0787
G01 X68.8215 Y0.3633 Z0.0787
G01 X68.8327 Y0.3174 Z0.0787
G01 X68.8429 Y0.2698 Z0.0787
G01 X68.8521 Y0.2206 Z0.0787
G01 X68.8632 Y0.1525 Z0.0787
G01 X68.8707 Y0.1103 Z0.0787
G01 X68.8794 Y0.0685 Z0.0787
G01 X68.8878 Y0.0331 Z0.0787
G01 X68.8878 Y-0.0331 Z0.0787
G01 X68.8794 Y-0.0685 Z0.0787
G01 X68.8707 Y-0.1103 Z0.0787
G01 X68.8632 Y-0.1525 Z0.0787
G01 X68.8521 Y-0.2206 Z0.0787
G01 X68.8428 Y-0.2703 Z0.0787
G01 X68.8325 Y-0.3181 Z0.0787
G01 X68.8215 Y-0.3633 Z0.0787
G01 X68.8104 Y-0.4041 Z0.0787
G01 X68.7994 Y-0.4400 Z0.0787
G01 X68.7879 Y-0.4740 Z0.0787
G01 X68.7761 Y-0.5054 Z0.0787
G01 X68.7650 Y-0.5320 Z0.0787
G01 X68.7541 Y-0.5559 Z0.0787
G01 X68.7435 Y-0.5770 Z0.0787
G01 X68.7331 Y-0.5959 Z0.0787
G01 X68.7231 Y-0.6125 Z0.0787
G01 X68.7137 Y-0.6269 Z0.0787
G01 X68.7045 Y-0.6396 Z0.0787
G01 X68.6951 Y-0.6516 Z0.0787
G01 X68.6873 Y-0.6607 Z0.0787
G01 X68.6784 Y-0.6703 Z0.0787
G01 X68.6692 Y-0.6793 Z0.0787
G01 X68.6605 Y-0.6871 Z0.0787
G01 X68.6484 Y-0.6972 Z0.0787
G01 X68.6379 Y-0.7051 Z0.0787
G01 X68.6234 Y-0.7152 Z0.0787
G01 X68.6094 Y-0.7240 Z0.0787
G01 X68.5914 Y-0.7344 Z0.0787
G01 X68.5720 Y-0.7446 Z0.0787
G01 X68.5461 Y-0.7569 Z0.0787
G01 X68.5216 Y-0.7674 Z0.0787
G01 X68.4908 Y-0.7794 Z0.0787
G01 X68.4645 Y-0.7885 Z0.0787
G01 X68.4559 Y-0.7915 Z0.0787
G01 X68.4198 Y-0.8026 Z0.0787
G01 X68.3782 Y-0.8140 Z0.0787
G01 X68.3309 Y-0.8253 Z0.0788
G01 X68.2804 Y-0.8359 Z0.0788
G01 X68.2246 Y-0.8458 Z0.0789
G01 X68.1783 Y-0.8527 Z0.0789
G01 X68.1666 Y-0.8545 Z0.0789
G01 X68.1008 Y-0.8627 Z0.0791
G01 X68.0352 Y-0.8691 Z0.0793
G01 X67.9619 Y-0.8746 Z0.0795
G01 X67.8906 Y-0.8783 Z0.0798
G01 X67.8838 Y-0.8787 Z0.0798
G01 X67.8019 Y-0.8811 Z0.0801
G01 X67.7312 Y-0.8818 Z0.0805
G01 X67.6015 Y-0.8778 Z0.0811
G01 X67.3110 Y-0.8687 Z0.0829
G01 X67.1257 Y-0.8630 Z0.0843
G01 X67.1246 Y-0.8630 Z0.0844
G01 X67.0191 Y-0.8598 Z0.0851
G01 X66.7259 Y-0.8509 Z0.0879
G01 X66.4909 Y-0.8437 Z0.0904
G01 X66.4898 Y-0.8437 Z0.0904
G01 X66.4313 Y-0.8419 Z0.0911
G01 X66.1354 Y-0.8331 Z0.0946
G01 X65.8562 Y-0.8249 Z0.0983
G01 X65.8551 Y-0.8249 Z0.0983
G01 X65.8383 Y-0.8244 Z0.0985
G01 X65.5399 Y-0.8157 Z0.1028
G01 X65.2403 Y-0.8070 Z0.1075
G01 X65.2215 Y-0.8065 Z0.1077
G01 X65.2203 Y-0.8065 Z0.1078
G01 X64.9395 Y-0.7985 Z0.1124
G01 X64.6376 Y-0.7900 Z0.1176
G01 X64.5867 Y-0.7886 Z0.1185
G01 X64.5857 Y-0.7886 Z0.1185
G01 X64.3346 Y-0.7816 Z0.1231
G01 X64.0305 Y-0.7733 Z0.1288
G01 X63.9520 Y-0.7711 Z0.1303
G01 X63.9510 Y-0.7711 Z0.1304
G01 X63.7253 Y-0.7651 Z0.1348
G01 X63.4191 Y-0.7568 Z0.1410
G01 X63.3174 Y-0.7541 Z0.1431
G01 X63.3161 Y-0.7541 Z0.1431
G01 X63.1119 Y-0.7487 Z0.1473
G01 X62.8038 Y-0.7407 Z0.1538
G01 X62.6824 Y-0.7376 Z0.1564
G01 X62.6815 Y-0.7375 Z0.1564
G01 X62.4947 Y-0.7328 Z0.1604
G01 X62.1847 Y-0.7249 Z0.1672
G01 X62.0477 Y-0.7214 Z0.1702
G01 X62.0466 Y-0.7214 Z0.1702
G01 X61.8738 Y-0.7172 Z0.1740
G01 X61.5621 Y-0.7095 Z0.1809
G01 X61.4128 Y-0.7058 Z0.1842
G01 X61.4119 Y-0.7058 Z0.1842
G01 X61.2495 Y-0.7019 Z0.1878
G01 X60.9362 Y-0.6944 Z0.1948
G01 X60.7781 Y-0.6906 Z0.1983
G01 X60.7769 Y-0.6906 Z0.1983
G01 X60.6221 Y-0.6870 Z0.2017
G01 X60.3073 Y-0.6797 Z0.2087
G01 X60.1432 Y-0.6759 Z0.2123
G01 X60.1422 Y-0.6759 Z0.2123
G01 X59.9918 Y-0.6725 Z0.2156
G01 X59.6756 Y-0.6654 Z0.2224
G01 X59.5085 Y-0.6616 Z0.2260
G01 X59.5074 Y-0.6616 Z0.2260
G01 X59.3588 Y-0.6583 Z0.2292
G01 X59.0414 Y-0.6514 Z0.2358
G01 X58.8737 Y-0.6478 Z0.2392
G01 X58.8725 Y-0.6477 Z0.2392
G01 X58.7234 Y-0.6446 Z0.2423
G01 X58.4048 Y-0.6379 Z0.2487
G01 X58.2388 Y-0.6344 Z0.2518
G01 X58.2377 Y-0.6344 Z0.2519
G01 X58.0858 Y-0.6313 Z0.2548
G01 X57.7662 Y-0.6248 Z0.2608
G01 X57.6040 Y-0.6215 Z0.2637
G01 X57.6029 Y-0.6214 Z0.2637
G01 X57.4462 Y-0.6183 Z0.2665
G01 X57.1258 Y-0.6120 Z0.2720
G01 X56.9690 Y-0.6090 Z0.2745
G01 X56.9679 Y-0.6090 Z0.2746
G01 X56.8050 Y-0.6059 Z0.2772
G01 X56.4838 Y-0.5998 Z0.2821
G01 X56.3342 Y-0.5970 Z0.2843
G01 X56.3328 Y-0.5970 Z0.2843
G01 X56.1622 Y-0.5939 Z0.2868
G01 X55.8404 Y-0.5881 Z0.2911
G01 X55.6993 Y-0.5855 Z0.2928
G01 X55.6983 Y-0.5855 Z0.2928
G01 X55.5183 Y-0.5823 Z0.2950
G01 X55.1959 Y-0.5767 Z0.2985
G01 X55.0644 Y-0.5744 Z0.2998
G01 X55.0633 Y-0.5744 Z0.2998
G01 X54.8733 Y-0.5712 Z0.3017
G01 X54.5505 Y-0.5657 Z0.3044
G01 X54.4295 Y-0.5637 Z0.3053
G01 X54.4284 Y-0.5637 Z0.3053
G01 X54.2276 Y-0.5605 Z0.3067
G01 X53.9046 Y-0.5553 Z0.3085
G01 X53.7946 Y-0.5536 Z0.3090
G01 X53.7936 Y-0.5535 Z0.3090
G01 X53.5814 Y-0.5503 Z0.3098
G01 X53.2582 Y-0.5453 Z0.3107
G01 X53.1597 Y-0.5438 Z0.3108
G01 X53.1587 Y-0.5438 Z0.3108
G01 X52.9350 Y-0.5405 Z0.3110
G01 X52.5248 Y-0.5345 Z0.3110
G01 X52.5237 Y-0.5345 Z0.3110
G01 X51.8899 Y-0.5257 Z0.3110
G01 X51.8887 Y-0.5257 Z0.3110
G01 X51.2549 Y-0.5173 Z0.3110
G01 X51.2539 Y-0.5173 Z0.3110
G01 X50.6200 Y-0.5094 Z0.3110
G01 X50.6189 Y-0.5094 Z0.3110
G01 X49.9850 Y-0.5020 Z0.3110
G01 X49.9840 Y-0.5019 Z0.3110
G01 X49.3501 Y-0.4949 Z0.3110
G01 X49.3490 Y-0.4949 Z0.3110
G01 X48.7151 Y-0.4884 Z0.3110
G01 X48.7141 Y-0.4884 Z0.3110
G01 X48.0802 Y-0.4823 Z0.3110
G01 X48.0791 Y-0.4822 Z0.3110
G01 X47.4452 Y-0.4766 Z0.3110
G01 X47.4442 Y-0.4766 Z0.3110
G01 X46.8103 Y-0.4714 Z0.3110
G01 X46.8092 Y-0.4714 Z0.3110
G01 X46.1753 Y-0.4667 Z0.3110
G01 X46.1743 Y-0.4667 Z0.3110
G01 X45.5403 Y-0.4624 Z0.3110
G01 X45.5392 Y-0.4624 Z0.3110
G01 X44.9053 Y-0.4586 Z0.3110
G01 X44.9042 Y-0.4586 Z0.3110
G01 X44.2703 Y-0.4552 Z0.3110
G01 X44.2693 Y-0.4552 Z0.3110
G01 X43.6354 Y-0.4523 Z0.3110
G01 X43.6344 Y-0.4523 Z0.3110
G01 X43.0005 Y-0.4498 Z0.3110
G01 X42.9993 Y-0.4498 Z0.3110
G01 X42.3654 Y-0.4478 Z0.3110
G01 X42.3643 Y-0.4478 Z0.3110
G01 X41.7304 Y-0.4462 Z0.3110
G01 X41.7294 Y-0.4462 Z0.3110
G01 X41.0955 Y-0.4451 Z0.3110
G01 X41.0944 Y-0.4451 Z0.3110
G01 X40.4605 Y-0.4445 Z0.3110
G01 X40.4594 Y-0.4445 Z0.3110
G01 X39.8255 Y-0.4443 Z0.3110
G01 X39.8244 Y-0.4443 Z0.3110
G01 X39.1905 Y-0.4446 Z0.3110
G01 X39.1896 Y-0.4446 Z0.3110
G01 X38.5557 Y-0.4453 Z0.3110
G01 X38.5545 Y-0.4453 Z0.3110
G01 X37.9206 Y-0.4464 Z0.3110
G01 X37.9196 Y-0.4464 Z0.3110
G01 X37.2857 Y-0.4481 Z0.3110
G01 X37.2846 Y-0.4481 Z0.3110
G01 X36.6506 Y-0.4501 Z0.3110
G01 X36.6496 Y-0.4501 Z0.3110
G01 X36.0157 Y-0.4527 Z0.3110
G01 X36.0146 Y-0.4527 Z0.3110
G01 X35.3807 Y-0.4557 Z0.3110
G01 X35.3796 Y-0.4557 Z0.3110
G01 X34.7457 Y-0.4591 Z0.3110
G01 X34.7446 Y-0.4591 Z0.3110
G01 X34.1107 Y-0.4630 Z0.3110
G01 X34.1097 Y-0.4630 Z0.3110
G01 X33.4758 Y-0.4674 Z0.3110
G01 X33.4747 Y-0.4674 Z0.3110
G01 X32.8408 Y-0.4722 Z0.3110
G01 X32.8398 Y-0.4722 Z0.3110
G01 X32.2059 Y-0.4774 Z0.3110
G01 X32.2048 Y-0.4774 Z0.3110
G01 X31.5709 Y-0.4831 Z0.3110
G01 X31.5698 Y-0.4831 Z0.3110
G01 X30.9359 Y-0.4893 Z0.3110
G01 X30.9349 Y-0.4893 Z0.3110
G01 X30.3010 Y-0.4959 Z0.3110
G01 X30.3000 Y-0.4959 Z0.3110
G01 X29.6661 Y-0.5030 Z0.3110
G01 X29.6650 Y-0.5030 Z0.3110
G01 X29.0311 Y-0.5105 Z0.3110
G01 X29.0300 Y-0.5105 Z0.3110
G01 X28.3961 Y-0.5185 Z0.3110
G01 X28.3951 Y-0.5185 Z0.3110
G01 X27.7612 Y-0.5270 Z0.3110
G01 X27.7602 Y-0.5270 Z0.3110
G01 X27.1263 Y-0.5359 Z0.3110
G01 X27.1252 Y-0.5359 Z0.3110
G01 X26.4914 Y-0.5452 Z0.3110
G01 X26.4903 Y-0.5452 Z0.3110
G01 X25.8564 Y-0.5550 Z0.3110
G01 X25.8554 Y-0.5550 Z0.3110
G01 X25.2216 Y-0.5653 Z0.3110
G01 X25.2205 Y-0.5653 Z0.3110
G01 X24.5866 Y-0.5760 Z0.3110
G01 X24.5856 Y-0.5760 Z0.3110
G01 X23.9549 Y-0.5871 Z0.3110
G01 X23.9506 Y-0.5871 Z0.3110
G01 X23.3169 Y-0.5987 Z0.3110
G01 X23.3159 Y-0.5988 Z0.3110
G01 X22.6820 Y-0.6108 Z0.3110
G01 X22.6809 Y-0.6108 Z0.3110
G01 X22.0472 Y-0.6233 Z0.3110
G01 X22.0461 Y-0.6234 Z0.3110
G01 X21.4124 Y-0.6363 Z0.3110
G01 X21.4112 Y-0.6364 Z0.3110
G01 X21.0138 Y-0.6448 Z0.3110
G01 X20.7775 Y-0.6498 Z0.3108
G01 X20.7764 Y-0.6498 Z0.3108
G01 X20.5442 Y-0.6549 Z0.3107
G01 X20.1427 Y-0.6637 Z0.3100
G01 X20.1416 Y-0.6637 Z0.3100
G01 X20.0856 Y-0.6650 Z0.3098
G01 X19.6377 Y-0.6751 Z0.3085
G01 X19.5078 Y-0.6780 Z0.3080
G01 X19.5067 Y-0.6780 Z0.3080
G01 X19.2000 Y-0.6851 Z0.3067
G01 X18.8729 Y-0.6928 Z0.3050
G01 X18.8719 Y-0.6929 Z0.3050
G01 X18.7722 Y-0.6952 Z0.3044
G01 X18.3540 Y-0.7053 Z0.3017
G01 X18.2382 Y-0.7081 Z0.3008
G01 X18.2372 Y-0.7081 Z0.3008
G01 X17.9448 Y-0.7153 Z0.2985
G01 X17.6035 Y-0.7238 Z0.2955
G01 X17.6023 Y-0.7238 Z0.2955
G01 X17.5443 Y-0.7253 Z0.2950
G01 X17.1522 Y-0.7353 Z0.2911
G01 X16.9686 Y-0.7400 Z0.2890
G01 X16.9675 Y-0.7400 Z0.2890
G01 X16.7681 Y-0.7452 Z0.2868
G01 X16.3916 Y-0.7550 Z0.2822
G01 X16.3339 Y-0.7566 Z0.2814
G01 X16.3328 Y-0.7566 Z0.2814
G01 X16.0223 Y-0.7650 Z0.2772
G01 X15.6991 Y-0.7737 Z0.2725
G01 X15.6980 Y-0.7737 Z0.2725
G01 X15.6598 Y-0.7747 Z0.2720
G01 X15.3038 Y-0.7846 Z0.2665
G01 X15.0643 Y-0.7912 Z0.2626
G01 X15.0633 Y-0.7912 Z0.2625
G01 X14.9539 Y-0.7943 Z0.2607
G01 X14.6096 Y-0.8040 Z0.2548
G01 X14.4296 Y-0.8092 Z0.2515
G01 X14.4285 Y-0.8092 Z0.2515
G01 X14.2707 Y-0.8138 Z0.2487
G01 X13.9367 Y-0.8235 Z0.2423
G01 X13.7949 Y-0.8276 Z0.2395
G01 X13.7938 Y-0.8277 Z0.2395
G01 X13.6073 Y-0.8332 Z0.2358
G01 X13.2820 Y-0.8429 Z0.2292
G01 X13.1602 Y-0.8465 Z0.2266
G01 X13.1592 Y-0.8466 Z0.2266
G01 X12.9606 Y-0.8526 Z0.2224
G01 X12.6425 Y-0.8623 Z0.2156
G01 X12.5256 Y-0.8659 Z0.2131
G01 X12.5244 Y-0.8659 Z0.2130
G01 X12.3275 Y-0.8720 Z0.2087
G01 X12.0152 Y-0.8817 Z0.2017
G01 X11.8922 Y-0.8856 Z0.1990
G01 X11.8896 Y-0.8856 Z0.1989
G01 X11.7051 Y-0.8915 Z0.1948
G01 X11.3970 Y-0.9013 Z0.1879
G01 X11.2561 Y-0.9059 Z0.1846
G01 X11.2551 Y-0.9059 Z0.1846
G01 X11.0903 Y-0.9112 Z0.1809
G01 X10.7848 Y-0.9212 Z0.1740
G01 X10.6215 Y-0.9266 Z0.1703
G01 X10.6204 Y-0.9266 Z0.1703
G01 X10.4801 Y-0.9312 Z0.1672
G01 X10.1757 Y-0.9414 Z0.1604
G01 X9.9869 Y-0.9477 Z0.1563
G01 X9.9859 Y-0.9478 Z0.1563
G01 X9.8713 Y-0.9517 Z0.1538
G01 X9.5666 Y-0.9620 Z0.1473
G01 X9.3523 Y-0.9694 Z0.1429
G01 X9.3512 Y-0.9694 Z0.1428
G01 X9.2611 Y-0.9725 Z0.1409
G01 X8.9544 Y-0.9832 Z0.1348
G01 X8.7176 Y-0.9914 Z0.1302
G01 X8.7166 Y-0.9915 Z0.1302
G01 X8.6462 Y-0.9940 Z0.1288
G01 X8.3361 Y-1.0050 Z0.1231
G01 X8.0831 Y-1.0140 Z0.1187
G01 X8.0820 Y-1.0140 Z0.1186
G01 X8.0237 Y-1.0161 Z0.1176
G01 X7.7087 Y-1.0275 Z0.1124
G01 X7.4485 Y-1.0370 Z0.1083
G01 X7.4475 Y-1.0370 Z0.1083
G01 X7.3907 Y-1.0391 Z0.1074
G01 X7.0692 Y-1.0509 Z0.1028
G01 X6.8140 Y-1.0604 Z0.0994
G01 X6.8129 Y-1.0604 Z0.0994
G01 X6.7439 Y-1.0630 Z0.0985
G01 X6.4144 Y-1.0754 Z0.0946
G01 X6.1794 Y-1.0843 Z0.0921
G01 X6.1784 Y-1.0843 Z0.0921
G01 X6.0804 Y-1.0881 Z0.0910
G01 X5.7414 Y-1.1011 Z0.0879
G01 X5.5450 Y-1.1086 Z0.0863
G01 X5.5438 Y-1.1087 Z0.0863
G01 X5.3972 Y-1.1144 Z0.0851
G01 X5.0472 Y-1.1281 Z0.0829
G01 X4.9104 Y-1.1334 Z0.0822
G01 X4.9092 Y-1.1335 Z0.0822
G01 X4.6911 Y-1.1421 Z0.0811
G01 X4.3286 Y-1.1566 Z0.0797
G01 X4.3079 Y-1.1574 Z0.0797
G01 X4.1590 Y-1.1564 Z0.0794
G01 X3.9896 Y-1.1529 Z0.0790
G01 X3.9592 Y-1.1518 Z0.0789
G01 X3.8270 Y-1.1472 Z0.0788
G01 X3.6742 Y-1.1396 Z0.0787
G01 X3.5827 Y-1.1335 Z0.0787
G01 X3.5190 Y-1.1292 Z0.0787
G01 X3.3812 Y-1.1177 Z0.0787
G01 X3.2422 Y-1.1037 Z0.0787
G01 X3.1126 Y-1.0881 Z0.0787
G01 X2.9851 Y-1.0703 Z0.0787
G01 X2.8666 Y-1.0512 Z0.0787
G01 X2.7543 Y-1.0306 Z0.0787
G01 X2.6448 Y-1.0079 Z0.0787
G01 X2.5462 Y-0.9851 Z0.0787
G01 X2.4496 Y-0.9601 Z0.0787
G01 X2.3616 Y-0.9349 Z0.0787
G01 X2.2772 Y-0.9081 Z0.0787
G01 X2.2009 Y-0.8815 Z0.0787
G01 X2.1262 Y-0.8529 Z0.0787
G01 X2.0623 Y-0.8260 Z0.0787
G01 X2.0001 Y-0.7975 Z0.0787
G01 X1.9436 Y-0.7691 Z0.0787
G01 X1.8931 Y-0.7414 Z0.0787
G01 X1.8466 Y-0.7137 Z0.0787
G01 X1.8045 Y-0.6863 Z0.0787
G01 X1.7664 Y-0.6593 Z0.0787
G01 X1.7323 Y-0.6330 Z0.0787
G01 X1.7012 Y-0.6070 Z0.0787
G01 X1.6731 Y-0.5812 Z0.0787
G01 X1.6484 Y-0.5566 Z0.0787
G01 X1.6240 Y-0.5300 Z0.0787
G01 X1.6033 Y-0.5054 Z0.0787
G01 X1.5829 Y-0.4788 Z0.0787
G01 X1.5637 Y-0.4514 Z0.0787
G01 X1.5470 Y-0.4251 Z0.0787
G01 X1.5293 Y-0.3945 Z0.0787
G01 X1.5134 Y-0.3640 Z0.0787
G01 X1.4980 Y-0.3312 Z0.0787
G01 X1.4825 Y-0.2945 Z0.0787
G01 X1.4684 Y-0.2569 Z0.0787
G01 X1.4547 Y-0.2155 Z0.0787
G01 X1.4415 Y-0.1704 Z0.0787
G01 X1.4295 Y-0.1227 Z0.0787
G01 X1.4197 Y-0.0774 Z0.0787
G01 X1.4101 Y-0.0357 Z0.0787
G01 X1.4007 Y0.0000 Z0.0787
G01 X0.6422 Y-0.0922 Z0.0787 F20
G01 X0.6422 Y-0.0922 Z0.0787 F50
G01 X0.6444 Y-0.0672 Z0.0787
G01 X0.6461 Y-0.0448 Z0.0787
G01 X0.6471 Y-0.0224 Z0.0787
G01 X0.6475 Y0.0000 Z0.0787
G01 X0.6471 Y0.0224 Z0.0787
G01 X0.6461 Y0.0448 Z0.0787
G01 X0.6444 Y0.0672 Z0.0787
G01 X0.6422 Y0.0922 Z0.0787
G01 X0.6425 Y0.0928 Z0.0787
G01 X0.6508 Y0.1125 Z0.0787
G01 X0.6585 Y0.1325 Z0.0787
G01 X0.6657 Y0.1527 Z0.0787
G01 X0.6723 Y0.1731 Z0.0787
G01 X0.6783 Y0.1937 Z0.0787
G01 X0.6838 Y0.2144 Z0.0787
G01 X0.6886 Y0.2353 Z0.0787
G01 X0.7011 Y0.2934 Z0.0787
G01 X0.7194 Y0.3660 Z0.0787
G01 X0.7401 Y0.4371 Z0.0787
G01 X0.7626 Y0.5051 Z0.0787
G01 X0.7877 Y0.5718 Z0.0787
G01 X0.8142 Y0.6347 Z0.0787
G01 X0.8432 Y0.6965 Z0.0787
G01 X0.8736 Y0.7548 Z0.0787
G01 X0.9068 Y0.8122 Z0.0787
G01 X0.9420 Y0.8675 Z0.0787
G01 X0.9794 Y0.9209 Z0.0787
G01 X1.0200 Y0.9739 Z0.0787
G01 X1.0618 Y1.0237 Z0.0787
G01 X1.1082 Y1.0742 Z0.0787
G01 X1.1568 Y1.1227 Z0.0787
G01 X1.2075 Y1.1691 Z0.0787
G01 X1.2626 Y1.2153 Z0.0787
G01 X1.3218 Y1.2611 Z0.0787
G01 X1.3844 Y1.3054 Z0.0787
G01 X1.4509 Y1.3486 Z0.0787
G01 X1.5212 Y1.3906 Z0.0787
G01 X1.5968 Y1.4320 Z0.0787
G01 X1.6753 Y1.4714 Z0.0787
G01 X1.7613 Y1.5109 Z0.0787
G01 X1.8480 Y1.5473 Z0.0787
G01 X1.9433 Y1.5839 Z0.0787
G01 X2.0413 Y1.6181 Z0.0787
G01 X2.1438 Y1.6505 Z0.0787
G01 X2.2550 Y1.6824 Z0.0787
G01 X2.3671 Y1.7114 Z0.0787
G01 X2.4859 Y1.7389 Z0.0787
G01 X2.6109 Y1.7648 Z0.0787
G01 X2.7388 Y1.7882 Z0.0787
G01 X2.8751 Y1.8102 Z0.0787
G01 X3.0159 Y1.8299 Z0.0787
G01 X3.1598 Y1.8472 Z0.0787
G01 X3.3108 Y1.8624 Z0.0787
G01 X3.4653 Y1.8753 Z0.0787
G01 X3.5827 Y1.8831 Z0.0787
G01 X3.6287 Y1.8862 Z0.0787
G01 X3.7971 Y1.8946 Z0.0788
G01 X3.9592 Y1.9003 Z0.0789
G01 X3.9671 Y1.9006 Z0.0789
G01 X4.1471 Y1.9043 Z0.0793
G01 X4.3208 Y1.9055 Z0.0797
G01 X4.3286 Y1.9052 Z0.0797
G01 X4.6911 Y1.8907 Z0.0811
G01 X4.9390 Y1.8809 Z0.0824
G01 X4.9396 Y1.8809 Z0.0824
G01 X5.0472 Y1.8766 Z0.0829
G01 X5.3972 Y1.8629 Z0.0851
G01 X5.5731 Y1.8561 Z0.0866
G01 X5.5736 Y1.8561 Z0.0866
G01 X5.7414 Y1.8496 Z0.0879
G01 X6.0804 Y1.8366 Z0.0910
G01 X6.2070 Y1.8318 Z0.0924
G01 X6.2075 Y1.8317 Z0.0924
G01 X6.4144 Y1.8239 Z0.0946
G01 X6.7439 Y1.8115 Z0.0985
G01 X6.8411 Y1.8079 Z0.0998
G01 X6.8416 Y1.8079 Z0.0998
G01 X7.0692 Y1.7994 Z0.1028
G01 X7.3907 Y1.7876 Z0.1074
G01 X7.4751 Y1.7845 Z0.1088
G01 X7.4756 Y1.7844 Z0.1088
G01 X7.7087 Y1.7760 Z0.1124
G01 X8.0237 Y1.7646 Z0.1176
G01 X8.1091 Y1.7615 Z0.1191
G01 X8.1096 Y1.7615 Z0.1191
G01 X8.3361 Y1.7534 Z0.1231
G01 X8.6462 Y1.7424 Z0.1288
G01 X8.7431 Y1.7390 Z0.1307
G01 X8.7437 Y1.7390 Z0.1307
G01 X8.9544 Y1.7316 Z0.1348
G01 X9.2611 Y1.7209 Z0.1409
G01 X9.3772 Y1.7169 Z0.1434
G01 X9.3777 Y1.7169 Z0.1434
G01 X9.5666 Y1.7105 Z0.1473
G01 X9.8713 Y1.7001 Z0.1538
G01 X10.0113 Y1.6953 Z0.1568
G01 X10.0118 Y1.6953 Z0.1568
G01 X10.1757 Y1.6899 Z0.1604
G01 X10.4801 Y1.6797 Z0.1672
G01 X10.6453 Y1.6742 Z0.1709
G01 X10.6459 Y1.6742 Z0.1709
G01 X10.7848 Y1.6696 Z0.1740
G01 X11.0903 Y1.6596 Z0.1809
G01 X11.2795 Y1.6535 Z0.1852
G01 X11.3970 Y1.6498 Z0.1879
G01 X11.7051 Y1.6399 Z0.1948
G01 X11.9135 Y1.6333 Z0.1994
G01 X11.9150 Y1.6332 Z0.1995
G01 X12.0152 Y1.6301 Z0.2017
G01 X12.3275 Y1.6203 Z0.2087
G01 X12.5478 Y1.6135 Z0.2135
G01 X12.5483 Y1.6135 Z0.2135
G01 X12.6425 Y1.6106 Z0.2156
G01 X12.9606 Y1.6009 Z0.2224
G01 X13.1820 Y1.5942 Z0.2271
G01 X13.1825 Y1.5942 Z0.2271
G01 X13.2820 Y1.5912 Z0.2292
G01 X13.6073 Y1.5815 Z0.2358
G01 X13.8161 Y1.5753 Z0.2399
G01 X13.8166 Y1.5753 Z0.2399
G01 X13.9367 Y1.5718 Z0.2423
G01 X14.2707 Y1.5621 Z0.2487
G01 X14.4503 Y1.5569 Z0.2519
G01 X14.4508 Y1.5569 Z0.2519
G01 X14.6096 Y1.5524 Z0.2548
G01 X14.9539 Y1.5426 Z0.2607
G01 X15.0845 Y1.5389 Z0.2629
G01 X15.0850 Y1.5389 Z0.2629
G01 X15.3038 Y1.5328 Z0.2665
G01 X15.6598 Y1.5230 Z0.2720
G01 X15.7187 Y1.5214 Z0.2728
G01 X15.7192 Y1.5214 Z0.2728
G01 X16.0223 Y1.5132 Z0.2772
G01 X16.3529 Y1.5043 Z0.2816
G01 X16.3535 Y1.5043 Z0.2816
G01 X16.3916 Y1.5033 Z0.2822
G01 X16.7681 Y1.4934 Z0.2868
G01 X16.9871 Y1.4877 Z0.2892
G01 X16.9876 Y1.4877 Z0.2892
G01 X17.1522 Y1.4835 Z0.2911
G01 X17.5443 Y1.4735 Z0.2950
G01 X17.6214 Y1.4716 Z0.2957
G01 X17.6219 Y1.4716 Z0.2957
G01 X17.9448 Y1.4636 Z0.2985
G01 X18.2556 Y1.4559 Z0.3009
G01 X18.2561 Y1.4559 Z0.3009
G01 X18.3540 Y1.4535 Z0.3017
G01 X18.7722 Y1.4434 Z0.3044
G01 X18.8899 Y1.4406 Z0.3050
G01 X18.8904 Y1.4406 Z0.3051
G01 X19.2000 Y1.4334 Z0.3067
G01 X19.5242 Y1.4258 Z0.3081
G01 X19.5247 Y1.4258 Z0.3081
G01 X19.6377 Y1.4233 Z0.3085
G01 X20.0856 Y1.4131 Z0.3098
G01 X20.1585 Y1.4115 Z0.3100
G01 X20.1590 Y1.4115 Z0.3100
G01 X20.5442 Y1.4031 Z0.3107
G01 X20.7928 Y1.3976 Z0.3108
G01 X20.7933 Y1.3976 Z0.3108
G01 X21.0138 Y1.3929 Z0.3110
G01 X21.4271 Y1.3842 Z0.3110
G01 X21.4276 Y1.3842 Z0.3110
G01 X22.0614 Y1.3712 Z0.3110
G01 X22.0619 Y1.3712 Z0.3110
G01 X22.6957 Y1.3587 Z0.3110
G01 X22.6962 Y1.3587 Z0.3110
G01 X23.3301 Y1.3466 Z0.3110
G01 X23.3306 Y1.3466 Z0.3110
G01 X23.9643 Y1.3350 Z0.3110
G01 X23.9679 Y1.3350 Z0.3110
G01 X24.5988 Y1.3239 Z0.3110
G01 X24.5993 Y1.3239 Z0.3110
G01 X25.2331 Y1.3132 Z0.3110
G01 X25.2337 Y1.3131 Z0.3110
G01 X25.8675 Y1.3029 Z0.3110
G01 X25.8680 Y1.3029 Z0.3110
G01 X26.5018 Y1.2931 Z0.3110
G01 X26.5024 Y1.2931 Z0.3110
G01 X27.1362 Y1.2838 Z0.3110
G01 X27.1368 Y1.2838 Z0.3110
G01 X27.7707 Y1.2749 Z0.3110
G01 X27.7712 Y1.2749 Z0.3110
G01 X28.4051 Y1.2665 Z0.3110
G01 X29.0394 Y1.2585 Z0.3110
G01 X29.0400 Y1.2585 Z0.3110
G01 X29.6738 Y1.2509 Z0.3110
G01 X29.6744 Y1.2509 Z0.3110
G01 X30.3083 Y1.2439 Z0.3110
G01 X30.3088 Y1.2439 Z0.3110
G01 X30.9427 Y1.2373 Z0.3110
G01 X30.9432 Y1.2373 Z0.3110
G01 X31.5771 Y1.2311 Z0.3110
G01 X31.5776 Y1.2311 Z0.3110
G01 X32.2115 Y1.2254 Z0.3110
G01 X32.2120 Y1.2254 Z0.3110
G01 X32.8459 Y1.2201 Z0.3110
G01 X32.8464 Y1.2201 Z0.3110
G01 X33.4804 Y1.2153 Z0.3110
G01 X33.4809 Y1.2153 Z0.3110
G01 X34.1148 Y1.2110 Z0.3110
G01 X34.1153 Y1.2110 Z0.3110
G01 X34.7492 Y1.2071 Z0.3110
G01 X34.7498 Y1.2071 Z0.3110
G01 X35.3837 Y1.2037 Z0.3110
G01 X35.3842 Y1.2037 Z0.3110
G01 X36.0181 Y1.2007 Z0.3110
G01 X36.0187 Y1.2007 Z0.3110
G01 X36.6525 Y1.1981 Z0.3110
G01 X36.6531 Y1.1981 Z0.3110
G01 X37.2870 Y1.1961 Z0.3110
G01 X37.2876 Y1.1961 Z0.3110
G01 X37.9215 Y1.1944 Z0.3110
G01 X37.9220 Y1.1944 Z0.3110
G01 X38.5559 Y1.1933 Z0.3110
G01 X38.5565 Y1.1933 Z0.3110
G01 X39.1904 Y1.1925 Z0.3110
G01 X39.1909 Y1.1925 Z0.3110
G01 X39.8248 Y1.1923 Z0.3110
G01 X39.8253 Y1.1923 Z0.3110
G01 X40.4592 Y1.1925 Z0.3110
G01 X40.4598 Y1.1925 Z0.3110
G01 X41.0937 Y1.1931 Z0.3110
G01 X41.0942 Y1.1931 Z0.3110
G01 X41.7281 Y1.1942 Z0.3110
G01 X41.7286 Y1.1942 Z0.3110
G01 X42.3625 Y1.1958 Z0.3110
G01 X42.3631 Y1.1958 Z0.3110
G01 X42.9970 Y1.1978 Z0.3110
G01 X42.9975 Y1.1978 Z0.3110
G01 X43.6314 Y1.2003 Z0.3110
G01 X43.6319 Y1.2003 Z0.3110
G01 X44.2659 Y1.2032 Z0.3110
G01 X44.2664 Y1.2032 Z0.3110
G01 X44.9003 Y1.2065 Z0.3110
G01 X44.9008 Y1.2065 Z0.3110
G01 X45.5347 Y1.2103 Z0.3110
G01 X45.5353 Y1.2103 Z0.3110
G01 X46.1692 Y1.2146 Z0.3110
G01 X46.1698 Y1.2147 Z0.3110
G01 X46.8036 Y1.2194 Z0.3110
G01 X46.8042 Y1.2194 Z0.3110
G01 X47.4381 Y1.2246 Z0.3110
G01 X47.4386 Y1.2246 Z0.3110
G01 X48.0725 Y1.2302 Z0.3110
G01 X48.0730 Y1.2302 Z0.3110
G01 X48.7069 Y1.2363 Z0.3110
G01 X48.7074 Y1.2363 Z0.3110
G01 X49.3413 Y1.2429 Z0.3110
G01 X49.3418 Y1.2429 Z0.3110
G01 X49.9757 Y1.2499 Z0.3110
G01 X49.9762 Y1.2499 Z0.3110
G01 X50.6101 Y1.2573 Z0.3110
G01 X50.6107 Y1.2573 Z0.3110
G01 X51.2446 Y1.2652 Z0.3110
G01 X51.2451 Y1.2653 Z0.3110
G01 X51.8789 Y1.2736 Z0.3110
G01 X51.8794 Y1.2736 Z0.3110
G01 X52.5133 Y1.2824 Z0.3110
G01 X52.5138 Y1.2824 Z0.3110
G01 X52.9350 Y1.2886 Z0.3110
G01 X53.1477 Y1.2917 Z0.3108
G01 X53.1482 Y1.2917 Z0.3108
G01 X53.2582 Y1.2934 Z0.3107
G01 X53.5814 Y1.2983 Z0.3098
G01 X53.7821 Y1.3014 Z0.3090
G01 X53.7826 Y1.3014 Z0.3090
G01 X53.9046 Y1.3034 Z0.3085
G01 X54.2276 Y1.3085 Z0.3067
G01 X54.4164 Y1.3116 Z0.3054
G01 X54.4170 Y1.3116 Z0.3053
G01 X54.5505 Y1.3138 Z0.3044
G01 X54.8733 Y1.3193 Z0.3017
G01 X55.0508 Y1.3223 Z0.3000
G01 X55.0514 Y1.3223 Z0.3000
G01 X55.1959 Y1.3248 Z0.2985
G01 X55.5183 Y1.3304 Z0.2950
G01 X55.6852 Y1.3334 Z0.2930
G01 X55.6857 Y1.3334 Z0.2930
G01 X55.8404 Y1.3362 Z0.2911
G01 X56.1622 Y1.3420 Z0.2868
G01 X56.3167 Y1.3449 Z0.2846
G01 X56.3201 Y1.3449 Z0.2845
G01 X56.4838 Y1.3479 Z0.2821
G01 X56.8050 Y1.3540 Z0.2772
G01 X56.9538 Y1.3568 Z0.2748
G01 X56.9544 Y1.3569 Z0.2748
G01 X57.1258 Y1.3602 Z0.2720
G01 X57.4462 Y1.3665 Z0.2665
G01 X57.5882 Y1.3693 Z0.2640
G01 X57.5887 Y1.3693 Z0.2639
G01 X57.7662 Y1.3729 Z0.2608
G01 X58.0858 Y1.3794 Z0.2548
G01 X58.2225 Y1.3822 Z0.2522
G01 X58.2230 Y1.3822 Z0.2522
G01 X58.4048 Y1.3861 Z0.2487
G01 X58.7234 Y1.3927 Z0.2423
G01 X58.8568 Y1.3956 Z0.2396
G01 X58.8574 Y1.3956 Z0.2396
G01 X59.0414 Y1.3996 Z0.2358
G01 X59.3588 Y1.4065 Z0.2292
G01 X59.4911 Y1.4094 Z0.2264
G01 X59.4916 Y1.4094 Z0.2263
G01 X59.6756 Y1.4136 Z0.2224
G01 X59.9918 Y1.4207 Z0.2156
G01 X60.1254 Y1.4237 Z0.2127
G01 X60.1259 Y1.4237 Z0.2127
G01 X60.3073 Y1.4279 Z0.2087
G01 X60.6221 Y1.4351 Z0.2017
G01 X60.7596 Y1.4384 Z0.1987
G01 X60.7602 Y1.4384 Z0.1987
G01 X60.9362 Y1.4426 Z0.1948
G01 X61.2495 Y1.4501 Z0.1878
G01 X61.3939 Y1.4536 Z0.1846
G01 X61.3944 Y1.4536 Z0.1846
G01 X61.5621 Y1.4577 Z0.1809
G01 X61.8738 Y1.4654 Z0.1740
G01 X62.0281 Y1.4692 Z0.1706
G01 X62.0288 Y1.4692 Z0.1706
G01 X62.1847 Y1.4731 Z0.1672
G01 X62.4947 Y1.4810 Z0.1604
G01 X62.6625 Y1.4853 Z0.1568
G01 X62.8038 Y1.4890 Z0.1538
G01 X63.1119 Y1.4970 Z0.1473
G01 X63.2966 Y1.5018 Z0.1435
G01 X63.2973 Y1.5018 Z0.1435
G01 X63.4191 Y1.5051 Z0.1410
G01 X63.7253 Y1.5133 Z0.1348
G01 X63.9309 Y1.5188 Z0.1308
G01 X63.9314 Y1.5188 Z0.1307
G01 X64.0305 Y1.5216 Z0.1288
G01 X64.3346 Y1.5299 Z0.1231
G01 X64.5651 Y1.5363 Z0.1189
G01 X64.5657 Y1.5363 Z0.1189
G01 X64.6376 Y1.5383 Z0.1176
G01 X64.9395 Y1.5468 Z0.1124
G01 X65.1993 Y1.5542 Z0.1081
G01 X65.1998 Y1.5542 Z0.1081
G01 X65.2403 Y1.5553 Z0.1075
G01 X65.5399 Y1.5640 Z0.1028
G01 X65.8335 Y1.5725 Z0.0986
G01 X65.8340 Y1.5725 Z0.0986
G01 X65.8383 Y1.5727 Z0.0985
G01 X66.1354 Y1.5814 Z0.0946
G01 X66.4313 Y1.5902 Z0.0911
G01 X66.4677 Y1.5913 Z0.0907
G01 X66.4682 Y1.5914 Z0.0906
G01 X66.7259 Y1.5992 Z0.0879
G01 X67.0191 Y1.6081 Z0.0851
G01 X67.1018 Y1.6106 Z0.0845
G01 X67.1024 Y1.6106 Z0.0845
G01 X67.3110 Y1.6171 Z0.0829
G01 X67.6015 Y1.6261 Z0.0811
G01 X67.7231 Y1.6300 Z0.0805
G01 X67.8184 Y1.6290 Z0.0801
G01 X67.8906 Y1.6268 Z0.0798
G01 X67.9144 Y1.6261 Z0.0797
G01 X68.0090 Y1.6212 Z0.0794
G01 X68.0975 Y1.6146 Z0.0791
G01 X68.1783 Y1.6066 Z0.0789
G01 X68.1835 Y1.6061 Z0.0789
G01 X68.2693 Y1.5955 Z0.0788
G01 X68.3461 Y1.5840 Z0.0788
G01 X68.4226 Y1.5703 Z0.0787
G01 X68.4645 Y1.5616 Z0.0787
G01 X68.4938 Y1.5555 Z0.0787
G01 X68.5648 Y1.5385 Z0.0787
G01 X68.6278 Y1.5212 Z0.0787
G01 X68.6899 Y1.5020 Z0.0787
G01 X68.7481 Y1.4818 Z0.0787
G01 X68.8038 Y1.4603 Z0.0787
G01 X68.8550 Y1.4383 Z0.0787
G01 X68.9062 Y1.4139 Z0.0787
G01 X68.9516 Y1.3901 Z0.0787
G01 X68.9964 Y1.3643 Z0.0787
G01 X69.0364 Y1.3390 Z0.0787
G01 X69.0769 Y1.3110 Z0.0787
G01 X69.1135 Y1.2832 Z0.0787
G01 X69.1494 Y1.2535 Z0.0787
G01 X69.1825 Y1.2236 Z0.0787
G01 X69.2154 Y1.1913 Z0.0787
G01 X69.2455 Y1.1589 Z0.0787
G01 X69.2744 Y1.1250 Z0.0787
G01 X69.3029 Y1.0887 Z0.0787
G01 X69.3305 Y1.0503 Z0.0787
G01 X69.3559 Y1.0116 Z0.0787
G01 X69.3815 Y0.9690 Z0.0787
G01 X69.4057 Y0.9251 Z0.0787
G01 X69.4287 Y0.8792 Z0.0787
G01 X69.4510 Y0.8305 Z0.0787
G01 X69.4719 Y0.7801 Z0.0787
G01 X69.4924 Y0.7255 Z0.0787
G01 X69.5114 Y0.6695 Z0.0787
G01 X69.5292 Y0.6114 Z0.0787
G01 X69.5460 Y0.5498 Z0.0787
G01 X69.5616 Y0.4854 Z0.0787
G01 X69.5762 Y0.4176 Z0.0787
G01 X69.5888 Y0.3507 Z0.0787
G01 X69.6014 Y0.2728 Z0.0787
G01 X69.6052 Y0.2518 Z0.0787
G01 X69.6096 Y0.2308 Z0.0787
G01 X69.6145 Y0.2100 Z0.0787
G01 X69.6200 Y0.1893 Z0.0787
G01 X69.6262 Y0.1688 Z0.0787
G01 X69.6329 Y0.1485 Z0.0787
G01 X69.6395 Y0.1302 Z0.0787
G01 X69.6392 Y0.1243 Z0.0787
G01 X69.6346 Y0.0428 Z0.0787
G01 X69.6346 Y-0.0428 Z0.0787
G01 X69.6392 Y-0.1243 Z0.0787
G01 X69.6395 Y-0.1302 Z0.0787
G01 X69.6329 Y-0.1485 Z0.0787
G01 X69.6262 Y-0.1688 Z0.0787
G01 X69.6200 Y-0.1893 Z0.0787
G01 X69.6145 Y-0.2100 Z0.0787
G01 X69.6096 Y-0.2308 Z0.0787
G01 X69.6052 Y-0.2518 Z0.0787
G01 X69.6014 Y-0.2728 Z0.0787
G01 X69.5886 Y-0.3515 Z0.0787
G01 X69.5762 Y-0.4176 Z0.0787
G01 X69.5616 Y-0.4856 Z0.0787
G01 X69.5460 Y-0.5498 Z0.0787
G01 X69.5292 Y-0.6114 Z0.0787
G01 X69.5114 Y-0.6695 Z0.0787
G01 X69.4924 Y-0.7255 Z0.0787
G01 X69.4719 Y-0.7801 Z0.0787
G01 X69.4508 Y-0.8309 Z0.0787
G01 X69.4287 Y-0.8794 Z0.0787
G01 X69.4057 Y-0.9251 Z0.0787
G01 X69.3814 Y-0.9692 Z0.0787
G01 X69.3559 Y-1.0116 Z0.0787
G01 X69.3305 Y-1.0503 Z0.0787
G01 X69.3029 Y-1.0887 Z0.0787
G01 X69.2744 Y-1.1250 Z0.0787
G01 X69.2455 Y-1.1589 Z0.0787
G01 X69.2154 Y-1.1913 Z0.0787
G01 X69.1825 Y-1.2236 Z0.0787
G01 X69.1493 Y-1.2536 Z0.0787
G01 X69.1134 Y-1.2833 Z0.0787
G01 X69.0769 Y-1.3110 Z0.0787
G01 X69.0364 Y-1.3390 Z0.0787
G01 X68.9964 Y-1.3643 Z0.0787
G01 X68.9516 Y-1.3901 Z0.0787
G01 X68.9062 Y-1.4139 Z0.0787
G01 X68.8548 Y-1.4384 Z0.0787
G01 X68.8038 Y-1.4603 Z0.0787
G01 X68.7481 Y-1.4818 Z0.0787
G01 X68.6899 Y-1.5020 Z0.0787
G01 X68.6278 Y-1.5212 Z0.0787
G01 X68.5648 Y-1.5385 Z0.0787
G01 X68.4938 Y-1.5555 Z0.0787
G01 X68.4645 Y-1.5616 Z0.0787
G01 X68.4226 Y-1.5703 Z0.0787
G01 X68.3461 Y-1.5840 Z0.0788
G01 X68.2693 Y-1.5955 Z0.0788
G01 X68.1835 Y-1.6061 Z0.0789
G01 X68.1783 Y-1.6066 Z0.0789
G01 X68.0975 Y-1.6146 Z0.0791
G01 X68.0090 Y-1.6212 Z0.0794
G01 X67.9144 Y-1.6261 Z0.0797
G01 X67.8906 Y-1.6268 Z0.0798
G01 X67.8184 Y-1.6290 Z0.0801
G01 X67.7231 Y-1.6300 Z0.0805
G01 X67.6015 Y-1.6261 Z0.0811
G01 X67.3110 Y-1.6171 Z0.0829
G01 X67.1024 Y-1.6106 Z0.0845
G01 X67.1018 Y-1.6106 Z0.0845
G01 X67.0191 Y-1.6081 Z0.0851
G01 X66.7259 Y-1.5992 Z0.0879
G01 X66.4682 Y-1.5914 Z0.0906
G01 X66.4677 Y-1.5913 Z0.0907
G01 X66.4313 Y-1.5902 Z0.0911
G01 X66.1354 Y-1.5814 Z0.0946
G01 X65.8383 Y-1.5727 Z0.0985
G01 X65.8340 Y-1.5725 Z0.0986
G01 X65.8335 Y-1.5725 Z0.0986
G01 X65.5399 Y-1.5640 Z0.1028
G01 X65.2403 Y-1.5553 Z0.1075
G01 X65.1998 Y-1.5542 Z0.1081
G01 X65.1993 Y-1.5542 Z0.1081
G01 X64.9395 Y-1.5468 Z0.1124
G01 X64.6376 Y-1.5383 Z0.1176
G01 X64.5657 Y-1.5363 Z0.1189
G01 X64.5651 Y-1.5363 Z0.1189
G01 X64.3346 Y-1.5299 Z0.1231
G01 X64.0305 Y-1.5216 Z0.1288
G01 X63.9314 Y-1.5188 Z0.1307
G01 X63.9309 Y-1.5188 Z0.1308
G01 X63.7253 Y-1.5133 Z0.1348
G01 X63.4191 Y-1.5051 Z0.1410
G01 X63.2973 Y-1.5018 Z0.1435
G01 X63.2966 Y-1.5018 Z0.1435
G01 X63.1119 Y-1.4970 Z0.1473
G01 X62.8038 Y-1.4889 Z0.1538
G01 X62.6629 Y-1.4853 Z0.1568
G01 X62.4947 Y-1.4810 Z0.1604
G01 X62.1847 Y-1.4731 Z0.1672
G01 X62.0288 Y-1.4692 Z0.1706
G01 X62.0281 Y-1.4692 Z0.1706
G01 X61.8738 Y-1.4654 Z0.1740
G01 X61.5621 Y-1.4577 Z0.1809
G01 X61.3944 Y-1.4536 Z0.1846
G01 X61.3939 Y-1.4536 Z0.1846
G01 X61.2495 Y-1.4501 Z0.1878
G01 X60.9362 Y-1.4426 Z0.1948
G01 X60.7602 Y-1.4384 Z0.1987
G01 X60.7596 Y-1.4384 Z0.1987
G01 X60.6221 Y-1.4352 Z0.2017
G01 X60.3073 Y-1.4279 Z0.2087
G01 X60.1259 Y-1.4237 Z0.2127
G01 X60.1254 Y-1.4237 Z0.2127
G01 X59.9918 Y-1.4207 Z0.2156
G01 X59.6756 Y-1.4135 Z0.2224
G01 X59.4916 Y-1.4094 Z0.2263
G01 X59.4911 Y-1.4094 Z0.2264
G01 X59.3588 Y-1.4065 Z0.2292
G01 X59.0414 Y-1.3996 Z0.2358
G01 X58.8574 Y-1.3956 Z0.2396
G01 X58.8568 Y-1.3956 Z0.2396
G01 X58.7234 Y-1.3927 Z0.2423
G01 X58.4048 Y-1.3861 Z0.2487
G01 X58.2230 Y-1.3822 Z0.2522
G01 X58.2225 Y-1.3822 Z0.2522
G01 X58.0858 Y-1.3794 Z0.2548
G01 X57.7662 Y-1.3729 Z0.2608
G01 X57.5887 Y-1.3693 Z0.2639
G01 X57.5882 Y-1.3693 Z0.2640
G01 X57.4462 Y-1.3665 Z0.2665
G01 X57.1258 Y-1.3602 Z0.2720
G01 X56.9544 Y-1.3569 Z0.2748
G01 X56.9538 Y-1.3568 Z0.2748
G01 X56.8050 Y-1.3540 Z0.2772
G01 X56.4838 Y-1.3479 Z0.2821
G01 X56.3201 Y-1.3449 Z0.2845
G01 X56.3167 Y-1.3449 Z0.2846
G01 X56.1622 Y-1.3420 Z0.2868
G01 X55.8404 Y-1.3362 Z0.2911
G01 X55.6857 Y-1.3334 Z0.2930
G01 X55.6852 Y-1.3334 Z0.2930
G01 X55.5183 Y-1.3304 Z0.2950
G01 X55.1959 Y-1.3248 Z0.2985
G01 X55.0514 Y-1.3223 Z0.3000
G01 X55.0508 Y-1.3223 Z0.3000
G01 X54.8733 Y-1.3193 Z0.3017
G01 X54.5505 Y-1.3138 Z0.3044
G01 X54.4170 Y-1.3116 Z0.3053
G01 X54.4164 Y-1.3116 Z0.3054
G01 X54.2276 Y-1.3086 Z0.3067
G01 X53.9046 Y-1.3034 Z0.3085
G01 X53.7826 Y-1.3014 Z0.3090
G01 X53.7821 Y-1.3014 Z0.3090
G01 X53.5814 Y-1.2983 Z0.3098
G01 X53.2582 Y-1.2934 Z0.3107
G01 X53.1482 Y-1.2917 Z0.3108
G01 X53.1477 Y-1.2917 Z0.3108
G01 X52.9350 Y-1.2886 Z0.3110
G01 X52.5138 Y-1.2824 Z0.3110
G01 X52.5133 Y-1.2824 Z0.3110
G01 X51.8794 Y-1.2736 Z0.3110
G01 X51.8789 Y-1.2736 Z0.3110
G01 X51.2451 Y-1.2653 Z0.3110
G01 X51.2446 Y-1.2652 Z0.3110
G01 X50.6107 Y-1.2573 Z0.3110
G01 X50.6101 Y-1.2573 Z0.3110
G01 X49.9762 Y-1.2499 Z0.3110
G01 X49.9757 Y-1.2499 Z0.3110
G01 X49.3418 Y-1.2429 Z0.3110
G01 X49.3413 Y-1.2429 Z0.3110
G01 X48.7074 Y-1.2363 Z0.3110
G01 X48.7069 Y-1.2363 Z0.3110
G01 X48.0730 Y-1.2302 Z0.3110
G01 X48.0725 Y-1.2302 Z0.3110
G01 X47.4386 Y-1.2246 Z0.3110
G01 X47.4381 Y-1.2246 Z0.3110
G01 X46.8042 Y-1.2194 Z0.3110
G01 X46.8036 Y-1.2194 Z0.3110
G01 X46.1698 Y-1.2147 Z0.3110
G01 X46.1692 Y-1.2146 Z0.3110
G01 X45.5353 Y-1.2103 Z0.3110
G01 X45.5347 Y-1.2103 Z0.3110
G01 X44.9008 Y-1.2065 Z0.3110
G01 X44.9003 Y-1.2065 Z0.3110
G01 X44.2664 Y-1.2032 Z0.3110
G01 X44.2659 Y-1.2032 Z0.3110
G01 X43.6319 Y-1.2003 Z0.3110
G01 X43.6314 Y-1.2003 Z0.3110
G01 X42.9975 Y-1.1978 Z0.3110
G01 X42.9970 Y-1.1978 Z0.3110
G01 X42.3631 Y-1.1958 Z0.3110
G01 X42.3625 Y-1.1958 Z0.3110
G01 X41.7286 Y-1.1942 Z0.3110
G01 X41.7281 Y-1.1942 Z0.3110
G01 X41.0942 Y-1.1931 Z0.3110
G01 X41.0937 Y-1.1931 Z0.3110
G01 X40.4598 Y-1.1925 Z0.3110
G01 X40.4592 Y-1.1925 Z0.3110
G01 X39.8253 Y-1.1923 Z0.3110
G01 X39.8248 Y-1.1923 Z0.3110
G01 X39.1909 Y-1.1925 Z0.3110
G01 X39.1904 Y-1.1925 Z0.3110
G01 X38.5565 Y-1.1933 Z0.3110
G01 X38.5559 Y-1.1933 Z0.3110
G01 X37.9220 Y-1.1944 Z0.3110
G01 X37.9215 Y-1.1944 Z0.3110
G01 X37.2876 Y-1.1961 Z0.3110
G01 X37.2870 Y-1.1961 Z0.3110
G01 X36.6531 Y-1.1981 Z0.3110
G01 X36.6525 Y-1.1981 Z0.3110
G01 X36.0187 Y-1.2007 Z0.3110
G01 X36.0181 Y-1.2007 Z0.3110
G01 X35.3842 Y-1.2037 Z0.3110
G01 X35.3837 Y-1.2037 Z0.3110
G01 X34.7498 Y-1.2071 Z0.3110
G01 X34.7492 Y-1.2071 Z0.3110
G01 X34.1153 Y-1.2110 Z0.3110
G01 X34.1148 Y-1.2110 Z0.3110
G01 X33.4809 Y-1.2153 Z0.3110
G01 X33.4804 Y-1.2153 Z0.3110
G01 X32.8464 Y-1.2201 Z0.3110
G01 X32.8459 Y-1.2201 Z0.3110
G01 X32.2120 Y-1.2254 Z0.3110
G01 X32.2115 Y-1.2254 Z0.3110
G01 X31.5776 Y-1.2311 Z0.3110
G01 X31.5771 Y-1.2311 Z0.3110
G01 X30.9432 Y-1.2373 Z0.3110
G01 X30.9427 Y-1.2373 Z0.3110
G01 X30.3088 Y-1.2439 Z0.3110
G01 X30.3083 Y-1.2439 Z0.3110
G01 X29.6744 Y-1.2509 Z0.3110
G01 X29.6738 Y-1.2509 Z0.3110
G01 X29.0400 Y-1.2585 Z0.3110
G01 X29.0394 Y-1.2585 Z0.3110
G01 X28.4055 Y-1.2665 Z0.3110
G01 X27.7712 Y-1.2749 Z0.3110
G01 X27.7707 Y-1.2749 Z0.3110
G01 X27.1368 Y-1.2838 Z0.3110
G01 X27.1362 Y-1.2838 Z0.3110
G01 X26.5024 Y-1.2931 Z0.3110
G01 X26.5018 Y-1.2931 Z0.3110
G01 X25.8680 Y-1.3029 Z0.3110
G01 X25.8675 Y-1.3029 Z0.3110
G01 X25.2337 Y-1.3131 Z0.3110
G01 X25.2331 Y-1.3132 Z0.3110
G01 X24.5993 Y-1.3239 Z0.3110
G01 X24.5988 Y-1.3239 Z0.3110
G01 X23.9679 Y-1.3350 Z0.3110
G01 X23.9643 Y-1.3350 Z0.3110
G01 X23.3306 Y-1.3466 Z0.3110
G01 X23.3301 Y-1.3466 Z0.3110
G01 X22.6962 Y-1.3587 Z0.3110
G01 X22.6957 Y-1.3587 Z0.3110
G01 X22.0619 Y-1.3712 Z0.3110
G01 X22.0614 Y-1.3712 Z0.3110
G01 X21.4276 Y-1.3842 Z0.3110
G01 X21.4271 Y-1.3842 Z0.3110
G01 X21.0138 Y-1.3929 Z0.3110
G01 X20.7933 Y-1.3976 Z0.3108
G01 X20.7928 Y-1.3976 Z0.3108
G01 X20.5442 Y-1.4031 Z0.3107
G01 X20.1590 Y-1.4115 Z0.3100
G01 X20.1585 Y-1.4115 Z0.3100
G01 X20.0856 Y-1.4131 Z0.3098
G01 X19.6377 Y-1.4232 Z0.3085
G01 X19.5247 Y-1.4258 Z0.3081
G01 X19.5242 Y-1.4258 Z0.3081
G01 X19.2000 Y-1.4334 Z0.3067
G01 X18.8904 Y-1.4406 Z0.3051
G01 X18.8899 Y-1.4406 Z0.3050
G01 X18.7722 Y-1.4434 Z0.3044
G01 X18.3540 Y-1.4535 Z0.3017
G01 X18.2561 Y-1.4559 Z0.3009
G01 X18.2556 Y-1.4559 Z0.3009
G01 X17.9448 Y-1.4636 Z0.2985
G01 X17.6219 Y-1.4716 Z0.2957
G01 X17.6214 Y-1.4716 Z0.2957
G01 X17.5443 Y-1.4735 Z0.2950
G01 X17.1522 Y-1.4835 Z0.2911
G01 X16.9876 Y-1.4877 Z0.2892
G01 X16.9871 Y-1.4877 Z0.2892
G01 X16.7681 Y-1.4934 Z0.2868
G01 X16.3916 Y-1.5033 Z0.2822
G01 X16.3535 Y-1.5043 Z0.2816
G01 X16.3529 Y-1.5043 Z0.2816
G01 X16.0223 Y-1.5132 Z0.2772
G01 X15.7192 Y-1.5214 Z0.2728
G01 X15.7187 Y-1.5214 Z0.2728
G01 X15.6598 Y-1.5230 Z0.2720
G01 X15.3038 Y-1.5328 Z0.2665
G01 X15.0850 Y-1.5389 Z0.2629
G01 X15.0845 Y-1.5389 Z0.2629
G01 X14.9539 Y-1.5426 Z0.2607
G01 X14.6096 Y-1.5524 Z0.2548
G01 X14.4508 Y-1.5569 Z0.2519
G01 X14.4503 Y-1.5569 Z0.2519
G01 X14.2707 Y-1.5621 Z0.2487
G01 X13.9367 Y-1.5718 Z0.2423
G01 X13.8166 Y-1.5753 Z0.2399
G01 X13.8161 Y-1.5753 Z0.2399
G01 X13.6073 Y-1.5815 Z0.2358
G01 X13.2820 Y-1.5912 Z0.2292
G01 X13.1825 Y-1.5942 Z0.2271
G01 X13.1820 Y-1.5942 Z0.2271
G01 X12.9606 Y-1.6009 Z0.2224
G01 X12.6425 Y-1.6106 Z0.2156
G01 X12.5483 Y-1.6135 Z0.2135
G01 X12.5478 Y-1.6135 Z0.2135
G01 X12.3275 Y-1.6203 Z0.2087
G01 X12.0152 Y-1.6301 Z0.2017
G01 X11.9150 Y-1.6332 Z0.1995
G01 X11.9135 Y-1.6333 Z0.1994
G01 X11.7051 Y-1.6399 Z0.1948
G01 X11.3970 Y-1.6498 Z0.1879
G01 X11.2800 Y-1.6535 Z0.1852
G01 X11.0903 Y-1.6596 Z0.1809
G01 X10.7848 Y-1.6696 Z0.1740
G01 X10.6459 Y-1.6742 Z0.1709
G01 X10.6453 Y-1.6742 Z0.1709
G01 X10.4801 Y-1.6797 Z0.1672
G01 X10.1757 Y-1.6899 Z0.1604
G01 X10.0118 Y-1.6953 Z0.1568
G01 X10.0113 Y-1.6953 Z0.1568
G01 X9.8713 Y-1.7001 Z0.1538
G01 X9.5666 Y-1.7105 Z0.1473
G01 X9.3777 Y-1.7169 Z0.1434
G01 X9.3772 Y-1.7169 Z0.1434
G01 X9.2611 Y-1.7209 Z0.1409
G01 X8.9544 Y-1.7316 Z0.1348
G01 X8.7437 Y-1.7390 Z0.1307
G01 X8.7431 Y-1.7390 Z0.1307
G01 X8.6462 Y-1.7424 Z0.1288
G01 X8.3361 Y-1.7534 Z0.1231
G01 X8.1096 Y-1.7615 Z0.1191
G01 X8.1091 Y-1.7615 Z0.1191
G01 X8.0237 Y-1.7646 Z0.1176
G01 X7.7087 Y-1.7760 Z0.1124
G01 X7.4756 Y-1.7844 Z0.1088
G01 X7.4751 Y-1.7845 Z0.1088
G01 X7.3907 Y-1.7876 Z0.1074
G01 X7.0692 Y-1.7994 Z0.1028
G01 X6.8416 Y-1.8079 Z0.0998
G01 X6.8411 Y-1.8079 Z0.0998
G01 X6.7439 Y-1.8115 Z0.0985
G01 X6.4144 Y-1.8239 Z0.0946
G01 X6.2075 Y-1.8317 Z0.0924
G01 X6.2070 Y-1.8318 Z0.0924
G01 X6.0804 Y-1.8366 Z0.0910
G01 X5.7414 Y-1.8496 Z0.0879
G01 X5.5736 Y-1.8561 Z0.0866
G01 X5.5731 Y-1.8561 Z0.0866
G01 X5.3972 Y-1.8629 Z0.0851
G01 X5.0472 Y-1.8766 Z0.0829
G01 X4.9396 Y-1.8809 Z0.0824
G01 X4.9390 Y-1.8809 Z0.0824
G01 X4.6911 Y-1.8907 Z0.0811
G01 X4.3286 Y-1.9052 Z0.0797
G01 X4.3208 Y-1.9055 Z0.0797
G01 X4.1471 Y-1.9043 Z0.0793
G01 X3.9671 Y-1.9006 Z0.0789
G01 X3.9592 Y-1.9003 Z0.0789
G01 X3.7971 Y-1.8946 Z0.0788
G01 X3.6287 Y-1.8862 Z0.0787
G01 X3.5827 Y-1.8831 Z0.0787
G01 X3.4653 Y-1.8753 Z0.0787
G01 X3.3108 Y-1.8624 Z0.0787
G01 X3.1598 Y-1.8472 Z0.0787
G01 X3.0159 Y-1.8299 Z0.0787
G01 X2.8751 Y-1.8102 Z0.0787
G01 X2.7388 Y-1.7882 Z0.0787
G01 X2.6109 Y-1.7648 Z0.0787
G01 X2.4859 Y-1.7389 Z0.0787
G01 X2.3671 Y-1.7114 Z0.0787
G01 X2.2550 Y-1.6824 Z0.0787
G01 X2.1438 Y-1.6505 Z0.0787
G01 X2.0413 Y-1.6181 Z0.0787
G01 X1.9433 Y-1.5839 Z0.0787
G01 X1.8480 Y-1.5473 Z0.0787
G01 X1.7613 Y-1.5109 Z0.0787
G01 X1.6753 Y-1.4714 Z0.0787
G01 X1.5968 Y-1.4320 Z0.0787
G01 X1.5212 Y-1.3906 Z0.0787
G01 X1.4509 Y-1.3486 Z0.0787
G01 X1.3846 Y-1.3055 Z0.0787
G01 X1.3218 Y-1.2611 Z0.0787
G01 X1.2630 Y-1.2157 Z0.0787
G01 X1.2075 Y-1.1691 Z0.0787
G01 X1.1568 Y-1.1227 Z0.0787
G01 X1.1082 Y-1.0742 Z0.0787
G01 X1.0620 Y-1.0238 Z0.0787
G01 X1.0200 Y-0.9739 Z0.0787
G01 X0.9794 Y-0.9209 Z0.0787
G01 X0.9421 Y-0.8677 Z0.0787
G01 X0.9068 Y-0.8122 Z0.0787
G01 X0.8736 Y-0.7548 Z0.0787
G01 X0.8432 Y-0.6965 Z0.0787
G01 X0.8142 Y-0.6347 Z0.0787
G01 X0.7879 Y-0.5723 Z0.0787
G01 X0.7626 Y-0.5051 Z0.0787
G01 X0.7402 Y-0.4374 Z0.0787
G01 X0.7196 Y-0.3666 Z0.0787
G01 X0.7011 Y-0.2934 Z0.0787
G01 X0.6886 Y-0.2353 Z0.0787
G01 X0.6838 Y-0.2144 Z0.0787
G01 X0.6783 Y-0.1937 Z0.0787
G01 X0.6723 Y-0.1731 Z0.0787
G01 X0.6657 Y-0.1527 Z0.0787
G01 X0.6585 Y-0.1325 Z0.0787
G01 X0.6508 Y-0.1125 Z0.0787
G01 X0.6425 Y-0.0928 Z0.0787
G01 X0.6422 Y-0.0922 Z0.0787
M05
G00 X0.6422 Y-0.0922 Z0.6000
G00 X0.0000 Y0.0000 Z0.6000
G49
G01 G55 Z0 F20
G00 G55 X0 Y0 Z0
M30
