( Sample-ski-edge-trench.nc                                                    )
( Generated by MonkeyCAM v4.1.0 master@47785ff                                 )
(   at 2025-12-31 14:28:19 PST                                                 )
(                                                                              )
( This GCode program is provided on an "AS IS" BASIS WITHOUT WARRANTIES OR     )
( CONDITIONS OF ANY KIND, either express or implied. You should inspect this   )
( program very carefully to confirm you understand its operation. YOU ARE      )
( RESPONSIBLE FOR ENSURING THIS PROGRAM WILL NOT DAMAGE YOUR MACHINE OR        )
( MATERIALS.                                                                   )
(                                                                              )
( See http://www.github.com/mikemag/MonkeyCAM for License and documentation.   )
(                                                                              )
( * Rapid height: 0.6000"                                                      )
( * Tool: T1, Quarter Inch Upcut Spiral, diameter 0.2469"                      )
( * Height baseline [Z=0.0] is the top of the table.                           )
( * XY origin is the left side of the table, Y is center of the part.          )
( * Requires G54 to be the part work coordinate offsets [WCO]. [0, 0] is the   )
(   center of the nose, with the board extending to positive X. The cutter may )
(   move to negative values of X.                                              )
( * Requires G55 to be the machine WCO, with Z above the rapid height.         )
( * Units are inches                                                           )
( * Center of the board in G54:                                                )
(     X=36.0236 Y=0.0000 Z=0.0000                                              )
( * Cutter bounding box in G54:                                                )
(     X0.0000 Y-2.6488 Z0.0000 to X70.7312 Y2.6488 Z0.6000                     )

G90 G20 G17 G40 G49
G43 H1 T1
G00 G54 X0 Y0 Z0.6000

G00 X1.3123 Y1.6072 Z0.6000
M03
G04 P5
G01 X1.3123 Y1.6072 Z0.2800 F80
G01 X1.3538 Y2.6488 Z0.2800
G01 X4.9639 Y2.5049 Z0.2800
G01 X5.5974 Y2.4801 Z0.2800
G01 X6.2308 Y2.4559 Z0.2800
G01 X6.2323 Y2.4558 Z0.2800
G01 X6.8626 Y2.4320 Z0.2800
G01 X6.8646 Y2.4320 Z0.2800
G01 X7.4981 Y2.4086 Z0.2800
G01 X8.1317 Y2.3857 Z0.2800
G01 X8.7653 Y2.3632 Z0.2800
G01 X9.3969 Y2.3412 Z0.2800
G01 X9.3987 Y2.3412 Z0.2800
G01 X9.3993 Y2.3412 Z0.2800
G01 X10.0318 Y2.3196 Z0.2800
G01 X10.0337 Y2.3195 Z0.2800
G01 X10.6662 Y2.2984 Z0.2800
G01 X11.2977 Y2.2778 Z0.2800
G01 X11.2994 Y2.2778 Z0.2800
G01 X11.3005 Y2.2777 Z0.2800
G01 X11.9336 Y2.2575 Z0.2800
G01 X12.5648 Y2.2379 Z0.2800
G01 X12.5683 Y2.2377 Z0.2800
G01 X13.1986 Y2.2185 Z0.2800
G01 X13.2002 Y2.2184 Z0.2800
G01 X13.2020 Y2.2184 Z0.2800
G01 X13.8347 Y2.1996 Z0.2800
G01 X14.4677 Y2.1812 Z0.2800
G01 X14.4695 Y2.1811 Z0.2800
G01 X15.0996 Y2.1633 Z0.2800
G01 X15.1011 Y2.1632 Z0.2800
G01 X15.1035 Y2.1632 Z0.2800
G01 X15.7359 Y2.1457 Z0.2800
G01 X16.3697 Y2.1287 Z0.2800
G01 X17.0035 Y2.1120 Z0.2800
G01 X17.6373 Y2.0959 Z0.2800
G01 X18.2711 Y2.0802 Z0.2800
G01 X18.9022 Y2.0651 Z0.2800
G01 X18.9033 Y2.0650 Z0.2800
G01 X18.9059 Y2.0650 Z0.2800
G01 X19.5376 Y2.0503 Z0.2800
G01 X19.5398 Y2.0502 Z0.2800
G01 X20.1726 Y2.0359 Z0.2800
G01 X20.8064 Y2.0220 Z0.2800
G01 X21.4372 Y2.0087 Z0.2800
G01 X21.4382 Y2.0087 Z0.2800
G01 X21.4413 Y2.0086 Z0.2800
G01 X22.0742 Y1.9957 Z0.2800
G01 X22.7070 Y1.9831 Z0.2800
G01 X22.7091 Y1.9831 Z0.2800
G01 X23.3420 Y1.9711 Z0.2800
G01 X23.9759 Y1.9594 Z0.2800
G01 X24.6060 Y1.9483 Z0.2800
G01 X24.6068 Y1.9483 Z0.2800
G01 X24.6098 Y1.9483 Z0.2800
G01 X25.2437 Y1.9376 Z0.2800
G01 X25.8775 Y1.9274 Z0.2800
G01 X26.5109 Y1.9176 Z0.2800
G01 X26.5124 Y1.9175 Z0.2800
G01 X27.1454 Y1.9082 Z0.2800
G01 X27.7752 Y1.8994 Z0.2800
G01 X27.7794 Y1.8994 Z0.2800
G01 X28.4133 Y1.8909 Z0.2800
G01 X29.0472 Y1.8829 Z0.2800
G01 X29.6812 Y1.8754 Z0.2800
G01 X30.3152 Y1.8684 Z0.2800
G01 X30.9492 Y1.8618 Z0.2800
G01 X31.5832 Y1.8556 Z0.2800
G01 X32.2162 Y1.8499 Z0.2800
G01 X32.2181 Y1.8498 Z0.2800
G01 X32.8463 Y1.8446 Z0.2800
G01 X32.8511 Y1.8446 Z0.2800
G01 X33.4851 Y1.8398 Z0.2800
G01 X34.1191 Y1.8355 Z0.2800
G01 X34.7531 Y1.8316 Z0.2800
G01 X35.3870 Y1.8282 Z0.2800
G01 X36.0211 Y1.8252 Z0.2800
G01 X36.6551 Y1.8227 Z0.2800
G01 X37.2891 Y1.8206 Z0.2800
G01 X37.9231 Y1.8190 Z0.2800
G01 X38.5571 Y1.8178 Z0.2800
G01 X39.1911 Y1.8171 Z0.2800
G01 X39.8250 Y1.8168 Z0.2800
G01 X40.4590 Y1.8170 Z0.2800
G01 X41.0930 Y1.8176 Z0.2800
G01 X41.7270 Y1.8187 Z0.2800
G01 X42.3610 Y1.8203 Z0.2800
G01 X42.9950 Y1.8223 Z0.2800
G01 X43.6290 Y1.8248 Z0.2800
G01 X44.2631 Y1.8277 Z0.2800
G01 X44.8970 Y1.8311 Z0.2800
G01 X45.5310 Y1.8349 Z0.2800
G01 X46.1650 Y1.8392 Z0.2800
G01 X46.7990 Y1.8439 Z0.2800
G01 X46.8039 Y1.8439 Z0.2800
G01 X47.4322 Y1.8490 Z0.2800
G01 X47.4337 Y1.8491 Z0.2800
G01 X48.0669 Y1.8547 Z0.2800
G01 X48.7009 Y1.8608 Z0.2800
G01 X49.3348 Y1.8674 Z0.2800
G01 X49.9688 Y1.8744 Z0.2800
G01 X50.6028 Y1.8818 Z0.2800
G01 X51.2367 Y1.8897 Z0.2800
G01 X51.8707 Y1.8981 Z0.2800
G01 X51.8750 Y1.8981 Z0.2800
G01 X52.5046 Y1.9068 Z0.2800
G01 X53.1378 Y1.9161 Z0.2800
G01 X53.1393 Y1.9162 Z0.2800
G01 X53.7725 Y1.9259 Z0.2800
G01 X54.4064 Y1.9361 Z0.2800
G01 X55.0403 Y1.9467 Z0.2800
G01 X55.6743 Y1.9577 Z0.2800
G01 X55.6770 Y1.9578 Z0.2800
G01 X55.6778 Y1.9578 Z0.2800
G01 X56.3081 Y1.9693 Z0.2800
G01 X56.9411 Y1.9813 Z0.2800
G01 X56.9427 Y1.9813 Z0.2800
G01 X57.5759 Y1.9938 Z0.2800
G01 X58.2088 Y2.0066 Z0.2800
G01 X58.2120 Y2.0067 Z0.2800
G01 X58.2131 Y2.0067 Z0.2800
G01 X58.8437 Y2.0200 Z0.2800
G01 X59.4775 Y2.0338 Z0.2800
G01 X60.1106 Y2.0480 Z0.2800
G01 X60.1121 Y2.0481 Z0.2800
G01 X60.7442 Y2.0627 Z0.2800
G01 X60.7469 Y2.0628 Z0.2800
G01 X60.7481 Y2.0628 Z0.2800
G01 X61.3790 Y2.0779 Z0.2800
G01 X62.0128 Y2.0935 Z0.2800
G01 X62.6465 Y2.1096 Z0.2800
G01 X63.2804 Y2.1261 Z0.2800
G01 X63.9142 Y2.1431 Z0.2800
G01 X64.5466 Y2.1605 Z0.2800
G01 X64.5491 Y2.1606 Z0.2800
G01 X64.5505 Y2.1606 Z0.2800
G01 X65.1805 Y2.1784 Z0.2800
G01 X65.1829 Y2.1785 Z0.2800
G01 X65.8154 Y2.1968 Z0.2800
G01 X66.4483 Y2.2155 Z0.2800
G01 X66.4500 Y2.2156 Z0.2800
G01 X66.4516 Y2.2156 Z0.2800
G01 X67.0829 Y2.2348 Z0.2800
G01 X70.6988 Y2.3473 Z0.2800
G01 X70.7312 Y1.3054 Z0.2800
G01 X67.1165 Y1.1929 Z0.2800
G01 X67.1147 Y1.1929 Z0.2800
G01 X67.1137 Y1.1929 Z0.2800
G01 X66.4813 Y1.1737 Z0.2800
G01 X66.4802 Y1.1737 Z0.2800
G01 X66.4779 Y1.1735 Z0.2800
G01 X65.8464 Y1.1548 Z0.2800
G01 X65.8454 Y1.1548 Z0.2800
G01 X65.8449 Y1.1548 Z0.2800
G01 X65.2119 Y1.1365 Z0.2800
G01 X65.2103 Y1.1364 Z0.2800
G01 X64.5780 Y1.1186 Z0.2800
G01 X64.5765 Y1.1186 Z0.2800
G01 X64.5740 Y1.1185 Z0.2800
G01 X63.9429 Y1.1011 Z0.2800
G01 X63.9416 Y1.1011 Z0.2800
G01 X63.3085 Y1.0841 Z0.2800
G01 X63.3074 Y1.0840 Z0.2800
G01 X63.3065 Y1.0840 Z0.2800
G01 X62.6743 Y1.0676 Z0.2800
G01 X62.6723 Y1.0675 Z0.2800
G01 X62.0394 Y1.0514 Z0.2800
G01 X62.0380 Y1.0514 Z0.2800
G01 X61.4063 Y1.0359 Z0.2800
G01 X61.4033 Y1.0358 Z0.2800
G01 X60.7716 Y1.0207 Z0.2800
G01 X60.7687 Y1.0206 Z0.2800
G01 X60.7662 Y1.0205 Z0.2800
G01 X60.1355 Y1.0059 Z0.2800
G01 X60.1341 Y1.0059 Z0.2800
G01 X59.5011 Y0.9916 Z0.2800
G01 X59.4994 Y0.9915 Z0.2800
G01 X58.8682 Y0.9778 Z0.2800
G01 X58.8674 Y0.9778 Z0.2800
G01 X58.8648 Y0.9778 Z0.2800
G01 X58.2337 Y0.9645 Z0.2800
G01 X58.2301 Y0.9644 Z0.2800
G01 X58.2276 Y0.9643 Z0.2800
G01 X57.5992 Y0.9515 Z0.2800
G01 X57.5981 Y0.9515 Z0.2800
G01 X57.5957 Y0.9515 Z0.2800
G01 X56.9625 Y0.9390 Z0.2800
G01 X56.9609 Y0.9390 Z0.2800
G01 X56.3300 Y0.9270 Z0.2800
G01 X56.3284 Y0.9270 Z0.2800
G01 X56.3262 Y0.9270 Z0.2800
G01 X55.6955 Y0.9155 Z0.2800
G01 X55.6947 Y0.9155 Z0.2800
G01 X55.6911 Y0.9155 Z0.2800
G01 X55.6903 Y0.9154 Z0.2800
G01 X55.0586 Y0.9044 Z0.2800
G01 X55.0573 Y0.9044 Z0.2800
G01 X54.4240 Y0.8938 Z0.2800
G01 X54.4226 Y0.8938 Z0.2800
G01 X53.7894 Y0.8836 Z0.2800
G01 X53.7875 Y0.8836 Z0.2800
G01 X53.1546 Y0.8739 Z0.2800
G01 X53.1533 Y0.8738 Z0.2800
G01 X52.5200 Y0.8646 Z0.2800
G01 X52.5179 Y0.8646 Z0.2800
G01 X51.8853 Y0.8557 Z0.2800
G01 X51.8826 Y0.8557 Z0.2800
G01 X51.8818 Y0.8557 Z0.2800
G01 X51.2506 Y0.8474 Z0.2800
G01 X51.2494 Y0.8474 Z0.2800
G01 X50.6159 Y0.8394 Z0.2800
G01 X50.6144 Y0.8394 Z0.2800
G01 X49.9811 Y0.8320 Z0.2800
G01 X49.9797 Y0.8320 Z0.2800
G01 X49.3464 Y0.8250 Z0.2800
G01 X49.3447 Y0.8250 Z0.2800
G01 X48.7118 Y0.8185 Z0.2800
G01 X48.7098 Y0.8185 Z0.2800
G01 X48.0771 Y0.8124 Z0.2800
G01 X48.0736 Y0.8123 Z0.2800
G01 X47.4423 Y0.8067 Z0.2800
G01 X47.4408 Y0.8067 Z0.2800
G01 X46.8076 Y0.8015 Z0.2800
G01 X46.8042 Y0.8014 Z0.2800
G01 X46.8037 Y0.8014 Z0.2800
G01 X46.1729 Y0.7967 Z0.2800
G01 X46.1722 Y0.7967 Z0.2800
G01 X45.5381 Y0.7924 Z0.2800
G01 X45.5374 Y0.7924 Z0.2800
G01 X44.9034 Y0.7886 Z0.2800
G01 X44.9025 Y0.7886 Z0.2800
G01 X44.2686 Y0.7853 Z0.2800
G01 X44.2679 Y0.7853 Z0.2800
G01 X43.6339 Y0.7823 Z0.2800
G01 X43.6331 Y0.7823 Z0.2800
G01 X42.9991 Y0.7799 Z0.2800
G01 X42.9984 Y0.7799 Z0.2800
G01 X42.3644 Y0.7779 Z0.2800
G01 X42.3637 Y0.7779 Z0.2800
G01 X41.7297 Y0.7763 Z0.2800
G01 X41.7289 Y0.7763 Z0.2800
G01 X41.0949 Y0.7752 Z0.2800
G01 X41.0941 Y0.7752 Z0.2800
G01 X40.4601 Y0.7746 Z0.2800
G01 X40.4594 Y0.7746 Z0.2800
G01 X39.8254 Y0.7744 Z0.2800
G01 X39.8246 Y0.7744 Z0.2800
G01 X39.1906 Y0.7746 Z0.2800
G01 X39.1900 Y0.7746 Z0.2800
G01 X38.5559 Y0.7753 Z0.2800
G01 X38.5551 Y0.7753 Z0.2800
G01 X37.9211 Y0.7765 Z0.2800
G01 X37.9204 Y0.7765 Z0.2800
G01 X37.2864 Y0.7781 Z0.2800
G01 X37.2856 Y0.7781 Z0.2800
G01 X36.6516 Y0.7802 Z0.2800
G01 X36.6509 Y0.7802 Z0.2800
G01 X36.0169 Y0.7827 Z0.2800
G01 X36.0162 Y0.7827 Z0.2800
G01 X35.3822 Y0.7857 Z0.2800
G01 X35.3814 Y0.7857 Z0.2800
G01 X34.7475 Y0.7892 Z0.2800
G01 X34.7466 Y0.7892 Z0.2800
G01 X34.1127 Y0.7931 Z0.2800
G01 X34.1120 Y0.7931 Z0.2800
G01 X33.4780 Y0.7974 Z0.2800
G01 X33.4772 Y0.7974 Z0.2800
G01 X32.8463 Y0.8022 Z0.2800
G01 X32.8458 Y0.8022 Z0.2800
G01 X32.8425 Y0.8022 Z0.2800
G01 X32.2096 Y0.8075 Z0.2800
G01 X32.2077 Y0.8075 Z0.2800
G01 X31.5759 Y0.8132 Z0.2800
G01 X31.5730 Y0.8132 Z0.2800
G01 X30.9403 Y0.8194 Z0.2800
G01 X30.9383 Y0.8194 Z0.2800
G01 X30.3052 Y0.8260 Z0.2800
G01 X30.3036 Y0.8260 Z0.2800
G01 X29.6704 Y0.8331 Z0.2800
G01 X29.6688 Y0.8331 Z0.2800
G01 X29.0355 Y0.8406 Z0.2800
G01 X29.0342 Y0.8406 Z0.2800
G01 X28.4007 Y0.8486 Z0.2800
G01 X28.3995 Y0.8486 Z0.2800
G01 X27.7682 Y0.8570 Z0.2800
G01 X27.7674 Y0.8570 Z0.2800
G01 X27.7648 Y0.8570 Z0.2800
G01 X27.1322 Y0.8659 Z0.2800
G01 X27.1300 Y0.8659 Z0.2800
G01 X26.4967 Y0.8753 Z0.2800
G01 X26.4955 Y0.8753 Z0.2800
G01 X25.8624 Y0.8851 Z0.2800
G01 X25.8608 Y0.8851 Z0.2800
G01 X25.2276 Y0.8953 Z0.2800
G01 X25.2260 Y0.8953 Z0.2800
G01 X24.5944 Y0.9060 Z0.2800
G01 X24.5936 Y0.9060 Z0.2800
G01 X24.5914 Y0.9061 Z0.2800
G01 X23.9587 Y0.9172 Z0.2800
G01 X23.9569 Y0.9172 Z0.2800
G01 X23.3237 Y0.9288 Z0.2800
G01 X23.3214 Y0.9288 Z0.2800
G01 X23.3201 Y0.9288 Z0.2800
G01 X22.6908 Y0.9408 Z0.2800
G01 X22.6875 Y0.9409 Z0.2800
G01 X22.0544 Y0.9534 Z0.2800
G01 X22.0519 Y0.9534 Z0.2800
G01 X22.0509 Y0.9534 Z0.2800
G01 X21.4224 Y0.9663 Z0.2800
G01 X21.4200 Y0.9664 Z0.2800
G01 X21.4164 Y0.9664 Z0.2800
G01 X20.7855 Y0.9798 Z0.2800
G01 X20.7836 Y0.9798 Z0.2800
G01 X20.1505 Y0.9937 Z0.2800
G01 X20.1478 Y0.9937 Z0.2800
G01 X20.1473 Y0.9937 Z0.2800
G01 X19.5158 Y1.0080 Z0.2800
G01 X19.5145 Y1.0081 Z0.2800
G01 X18.8838 Y1.0227 Z0.2800
G01 X18.8813 Y1.0229 Z0.2800
G01 X18.8786 Y1.0229 Z0.2800
G01 X18.2469 Y1.0381 Z0.2800
G01 X18.2453 Y1.0381 Z0.2800
G01 X17.6123 Y1.0537 Z0.2800
G01 X17.6107 Y1.0538 Z0.2800
G01 X16.9787 Y1.0699 Z0.2800
G01 X16.9755 Y1.0700 Z0.2800
G01 X16.3432 Y1.0866 Z0.2800
G01 X16.3416 Y1.0866 Z0.2800
G01 X15.7087 Y1.1036 Z0.2800
G01 X15.7072 Y1.1037 Z0.2800
G01 X15.0760 Y1.1211 Z0.2800
G01 X15.0735 Y1.1212 Z0.2800
G01 X15.0721 Y1.1212 Z0.2800
G01 X14.4393 Y1.1392 Z0.2800
G01 X14.4382 Y1.1392 Z0.2800
G01 X13.8053 Y1.1575 Z0.2800
G01 X13.8045 Y1.1575 Z0.2800
G01 X13.8037 Y1.1576 Z0.2800
G01 X13.1722 Y1.1764 Z0.2800
G01 X13.1698 Y1.1765 Z0.2800
G01 X13.1688 Y1.1765 Z0.2800
G01 X12.5355 Y1.1958 Z0.2800
G01 X12.5348 Y1.1958 Z0.2800
G01 X11.9020 Y1.2155 Z0.2800
G01 X11.9009 Y1.2156 Z0.2800
G01 X11.8991 Y1.2156 Z0.2800
G01 X11.2701 Y1.2357 Z0.2800
G01 X11.2662 Y1.2359 Z0.2800
G01 X11.2638 Y1.2359 Z0.2800
G01 X10.6331 Y1.2565 Z0.2800
G01 X10.6306 Y1.2566 Z0.2800
G01 X9.9992 Y1.2776 Z0.2800
G01 X9.9971 Y1.2777 Z0.2800
G01 X9.3667 Y1.2992 Z0.2800
G01 X9.3628 Y1.2994 Z0.2800
G01 X9.3610 Y1.2994 Z0.2800
G01 X8.7299 Y1.3213 Z0.2800
G01 X8.7286 Y1.3214 Z0.2800
G01 X8.7279 Y1.3214 Z0.2800
G01 X8.0961 Y1.3438 Z0.2800
G01 X8.0933 Y1.3440 Z0.2800
G01 X7.4611 Y1.3668 Z0.2800
G01 X7.4598 Y1.3669 Z0.2800
G01 X6.8289 Y1.3901 Z0.2800
G01 X6.8251 Y1.3903 Z0.2800
G01 X6.8240 Y1.3903 Z0.2800
G01 X6.1918 Y1.4142 Z0.2800
G01 X6.1910 Y1.4142 Z0.2800
G01 X5.5584 Y1.4385 Z0.2800
G01 X5.5567 Y1.4385 Z0.2800
G01 X4.9242 Y1.4632 Z0.2800
G01 X4.9218 Y1.4634 Z0.2800
G01 X1.3123 Y1.6072 Z0.2800
G01 X1.3123 Y1.6072 Z0.1400
G01 X1.3538 Y2.6488 Z0.1400
G01 X4.9639 Y2.5049 Z0.1400
G01 X5.5974 Y2.4801 Z0.1400
G01 X6.2308 Y2.4559 Z0.1400
G01 X6.2323 Y2.4558 Z0.1400
G01 X6.8626 Y2.4320 Z0.1400
G01 X6.8646 Y2.4320 Z0.1400
G01 X7.4981 Y2.4086 Z0.1400
G01 X8.1317 Y2.3857 Z0.1400
G01 X8.7653 Y2.3632 Z0.1400
G01 X9.3969 Y2.3412 Z0.1400
G01 X9.3987 Y2.3412 Z0.1400
G01 X9.3993 Y2.3412 Z0.1400
G01 X10.0318 Y2.3196 Z0.1400
G01 X10.0337 Y2.3195 Z0.1400
G01 X10.6662 Y2.2984 Z0.1400
G01 X11.2977 Y2.2778 Z0.1400
G01 X11.2994 Y2.2778 Z0.1400
G01 X11.3005 Y2.2777 Z0.1400
G01 X11.9336 Y2.2575 Z0.1400
G01 X12.5648 Y2.2379 Z0.1400
G01 X12.5683 Y2.2377 Z0.1400
G01 X13.1986 Y2.2185 Z0.1400
G01 X13.2002 Y2.2184 Z0.1400
G01 X13.2020 Y2.2184 Z0.1400
G01 X13.8347 Y2.1996 Z0.1400
G01 X14.4677 Y2.1812 Z0.1400
G01 X14.4695 Y2.1811 Z0.1400
G01 X15.0996 Y2.1633 Z0.1400
G01 X15.1011 Y2.1632 Z0.1400
G01 X15.1035 Y2.1632 Z0.1400
G01 X15.7359 Y2.1457 Z0.1400
G01 X16.3697 Y2.1287 Z0.1400
G01 X17.0035 Y2.1120 Z0.1400
G01 X17.6373 Y2.0959 Z0.1400
G01 X18.2711 Y2.0802 Z0.1400
G01 X18.9022 Y2.0651 Z0.1400
G01 X18.9033 Y2.0650 Z0.1400
G01 X18.9059 Y2.0650 Z0.1400
G01 X19.5376 Y2.0503 Z0.1400
G01 X19.5398 Y2.0502 Z0.1400
G01 X20.1726 Y2.0359 Z0.1400
G01 X20.8064 Y2.0220 Z0.1400
G01 X21.4372 Y2.0087 Z0.1400
G01 X21.4382 Y2.0087 Z0.1400
G01 X21.4413 Y2.0086 Z0.1400
G01 X22.0742 Y1.9957 Z0.1400
G01 X22.7070 Y1.9831 Z0.1400
G01 X22.7091 Y1.9831 Z0.1400
G01 X23.3420 Y1.9711 Z0.1400
G01 X23.9759 Y1.9594 Z0.1400
G01 X24.6060 Y1.9483 Z0.1400
G01 X24.6068 Y1.9483 Z0.1400
G01 X24.6098 Y1.9483 Z0.1400
G01 X25.2437 Y1.9376 Z0.1400
G01 X25.8775 Y1.9274 Z0.1400
G01 X26.5109 Y1.9176 Z0.1400
G01 X26.5124 Y1.9175 Z0.1400
G01 X27.1454 Y1.9082 Z0.1400
G01 X27.7752 Y1.8994 Z0.1400
G01 X27.7794 Y1.8994 Z0.1400
G01 X28.4133 Y1.8909 Z0.1400
G01 X29.0472 Y1.8829 Z0.1400
G01 X29.6812 Y1.8754 Z0.1400
G01 X30.3152 Y1.8684 Z0.1400
G01 X30.9492 Y1.8618 Z0.1400
G01 X31.5832 Y1.8556 Z0.1400
G01 X32.2162 Y1.8499 Z0.1400
G01 X32.2181 Y1.8498 Z0.1400
G01 X32.8463 Y1.8446 Z0.1400
G01 X32.8511 Y1.8446 Z0.1400
G01 X33.4851 Y1.8398 Z0.1400
G01 X34.1191 Y1.8355 Z0.1400
G01 X34.7531 Y1.8316 Z0.1400
G01 X35.3870 Y1.8282 Z0.1400
G01 X36.0211 Y1.8252 Z0.1400
G01 X36.6551 Y1.8227 Z0.1400
G01 X37.2891 Y1.8206 Z0.1400
G01 X37.9231 Y1.8190 Z0.1400
G01 X38.5571 Y1.8178 Z0.1400
G01 X39.1911 Y1.8171 Z0.1400
G01 X39.8250 Y1.8168 Z0.1400
G01 X40.4590 Y1.8170 Z0.1400
G01 X41.0930 Y1.8176 Z0.1400
G01 X41.7270 Y1.8187 Z0.1400
G01 X42.3610 Y1.8203 Z0.1400
G01 X42.9950 Y1.8223 Z0.1400
G01 X43.6290 Y1.8248 Z0.1400
G01 X44.2631 Y1.8277 Z0.1400
G01 X44.8970 Y1.8311 Z0.1400
G01 X45.5310 Y1.8349 Z0.1400
G01 X46.1650 Y1.8392 Z0.1400
G01 X46.7990 Y1.8439 Z0.1400
G01 X46.8039 Y1.8439 Z0.1400
G01 X47.4322 Y1.8490 Z0.1400
G01 X47.4337 Y1.8491 Z0.1400
G01 X48.0669 Y1.8547 Z0.1400
G01 X48.7009 Y1.8608 Z0.1400
G01 X49.3348 Y1.8674 Z0.1400
G01 X49.9688 Y1.8744 Z0.1400
G01 X50.6028 Y1.8818 Z0.1400
G01 X51.2367 Y1.8897 Z0.1400
G01 X51.8707 Y1.8981 Z0.1400
G01 X51.8750 Y1.8981 Z0.1400
G01 X52.5046 Y1.9068 Z0.1400
G01 X53.1378 Y1.9161 Z0.1400
G01 X53.1393 Y1.9162 Z0.1400
G01 X53.7725 Y1.9259 Z0.1400
G01 X54.4064 Y1.9361 Z0.1400
G01 X55.0403 Y1.9467 Z0.1400
G01 X55.6743 Y1.9577 Z0.1400
G01 X55.6770 Y1.9578 Z0.1400
G01 X55.6778 Y1.9578 Z0.1400
G01 X56.3081 Y1.9693 Z0.1400
G01 X56.9411 Y1.9813 Z0.1400
G01 X56.9427 Y1.9813 Z0.1400
G01 X57.5759 Y1.9938 Z0.1400
G01 X58.2088 Y2.0066 Z0.1400
G01 X58.2120 Y2.0067 Z0.1400
G01 X58.2131 Y2.0067 Z0.1400
G01 X58.8437 Y2.0200 Z0.1400
G01 X59.4775 Y2.0338 Z0.1400
G01 X60.1106 Y2.0480 Z0.1400
G01 X60.1121 Y2.0481 Z0.1400
G01 X60.7442 Y2.0627 Z0.1400
G01 X60.7469 Y2.0628 Z0.1400
G01 X60.7481 Y2.0628 Z0.1400
G01 X61.3790 Y2.0779 Z0.1400
G01 X62.0128 Y2.0935 Z0.1400
G01 X62.6465 Y2.1096 Z0.1400
G01 X63.2804 Y2.1261 Z0.1400
G01 X63.9142 Y2.1431 Z0.1400
G01 X64.5466 Y2.1605 Z0.1400
G01 X64.5491 Y2.1606 Z0.1400
G01 X64.5505 Y2.1606 Z0.1400
G01 X65.1805 Y2.1784 Z0.1400
G01 X65.1829 Y2.1785 Z0.1400
G01 X65.8154 Y2.1968 Z0.1400
G01 X66.4483 Y2.2155 Z0.1400
G01 X66.4500 Y2.2156 Z0.1400
G01 X66.4516 Y2.2156 Z0.1400
G01 X67.0829 Y2.2348 Z0.1400
G01 X70.6988 Y2.3473 Z0.1400
G01 X70.7312 Y1.3054 Z0.1400
G01 X67.1165 Y1.1929 Z0.1400
G01 X67.1147 Y1.1929 Z0.1400
G01 X67.1137 Y1.1929 Z0.1400
G01 X66.4813 Y1.1737 Z0.1400
G01 X66.4802 Y1.1737 Z0.1400
G01 X66.4779 Y1.1735 Z0.1400
G01 X65.8464 Y1.1548 Z0.1400
G01 X65.8454 Y1.1548 Z0.1400
G01 X65.8449 Y1.1548 Z0.1400
G01 X65.2119 Y1.1365 Z0.1400
G01 X65.2103 Y1.1364 Z0.1400
G01 X64.5780 Y1.1186 Z0.1400
G01 X64.5765 Y1.1186 Z0.1400
G01 X64.5740 Y1.1185 Z0.1400
G01 X63.9429 Y1.1011 Z0.1400
G01 X63.9416 Y1.1011 Z0.1400
G01 X63.3085 Y1.0841 Z0.1400
G01 X63.3074 Y1.0840 Z0.1400
G01 X63.3065 Y1.0840 Z0.1400
G01 X62.6743 Y1.0676 Z0.1400
G01 X62.6723 Y1.0675 Z0.1400
G01 X62.0394 Y1.0514 Z0.1400
G01 X62.0380 Y1.0514 Z0.1400
G01 X61.4063 Y1.0359 Z0.1400
G01 X61.4033 Y1.0358 Z0.1400
G01 X60.7716 Y1.0207 Z0.1400
G01 X60.7687 Y1.0206 Z0.1400
G01 X60.7662 Y1.0205 Z0.1400
G01 X60.1355 Y1.0059 Z0.1400
G01 X60.1341 Y1.0059 Z0.1400
G01 X59.5011 Y0.9916 Z0.1400
G01 X59.4994 Y0.9915 Z0.1400
G01 X58.8682 Y0.9778 Z0.1400
G01 X58.8674 Y0.9778 Z0.1400
G01 X58.8648 Y0.9778 Z0.1400
G01 X58.2337 Y0.9645 Z0.1400
G01 X58.2301 Y0.9644 Z0.1400
G01 X58.2276 Y0.9643 Z0.1400
G01 X57.5992 Y0.9515 Z0.1400
G01 X57.5981 Y0.9515 Z0.1400
G01 X57.5957 Y0.9515 Z0.1400
G01 X56.9625 Y0.9390 Z0.1400
G01 X56.9609 Y0.9390 Z0.1400
G01 X56.3300 Y0.9270 Z0.1400
G01 X56.3284 Y0.9270 Z0.1400
G01 X56.3262 Y0.9270 Z0.1400
G01 X55.6955 Y0.9155 Z0.1400
G01 X55.6947 Y0.9155 Z0.1400
G01 X55.6911 Y0.9155 Z0.1400
G01 X55.6903 Y0.9154 Z0.1400
G01 X55.0586 Y0.9044 Z0.1400
G01 X55.0573 Y0.9044 Z0.1400
G01 X54.4240 Y0.8938 Z0.1400
G01 X54.4226 Y0.8938 Z0.1400
G01 X53.7894 Y0.8836 Z0.1400
G01 X53.7875 Y0.8836 Z0.1400
G01 X53.1546 Y0.8739 Z0.1400
G01 X53.1533 Y0.8738 Z0.1400
G01 X52.5200 Y0.8646 Z0.1400
G01 X52.5179 Y0.8646 Z0.1400
G01 X51.8853 Y0.8557 Z0.1400
G01 X51.8826 Y0.8557 Z0.1400
G01 X51.8818 Y0.8557 Z0.1400
G01 X51.2506 Y0.8474 Z0.1400
G01 X51.2494 Y0.8474 Z0.1400
G01 X50.6159 Y0.8394 Z0.1400
G01 X50.6144 Y0.8394 Z0.1400
G01 X49.9811 Y0.8320 Z0.1400
G01 X49.9797 Y0.8320 Z0.1400
G01 X49.3464 Y0.8250 Z0.1400
G01 X49.3447 Y0.8250 Z0.1400
G01 X48.7118 Y0.8185 Z0.1400
G01 X48.7098 Y0.8185 Z0.1400
G01 X48.0771 Y0.8124 Z0.1400
G01 X48.0736 Y0.8123 Z0.1400
G01 X47.4423 Y0.8067 Z0.1400
G01 X47.4408 Y0.8067 Z0.1400
G01 X46.8076 Y0.8015 Z0.1400
G01 X46.8042 Y0.8014 Z0.1400
G01 X46.8037 Y0.8014 Z0.1400
G01 X46.1729 Y0.7967 Z0.1400
G01 X46.1722 Y0.7967 Z0.1400
G01 X45.5381 Y0.7924 Z0.1400
G01 X45.5374 Y0.7924 Z0.1400
G01 X44.9034 Y0.7886 Z0.1400
G01 X44.9025 Y0.7886 Z0.1400
G01 X44.2686 Y0.7853 Z0.1400
G01 X44.2679 Y0.7853 Z0.1400
G01 X43.6339 Y0.7823 Z0.1400
G01 X43.6331 Y0.7823 Z0.1400
G01 X42.9991 Y0.7799 Z0.1400
G01 X42.9984 Y0.7799 Z0.1400
G01 X42.3644 Y0.7779 Z0.1400
G01 X42.3637 Y0.7779 Z0.1400
G01 X41.7297 Y0.7763 Z0.1400
G01 X41.7289 Y0.7763 Z0.1400
G01 X41.0949 Y0.7752 Z0.1400
G01 X41.0941 Y0.7752 Z0.1400
G01 X40.4601 Y0.7746 Z0.1400
G01 X40.4594 Y0.7746 Z0.1400
G01 X39.8254 Y0.7744 Z0.1400
G01 X39.8246 Y0.7744 Z0.1400
G01 X39.1906 Y0.7746 Z0.1400
G01 X39.1900 Y0.7746 Z0.1400
G01 X38.5559 Y0.7753 Z0.1400
G01 X38.5551 Y0.7753 Z0.1400
G01 X37.9211 Y0.7765 Z0.1400
G01 X37.9204 Y0.7765 Z0.1400
G01 X37.2864 Y0.7781 Z0.1400
G01 X37.2856 Y0.7781 Z0.1400
G01 X36.6516 Y0.7802 Z0.1400
G01 X36.6509 Y0.7802 Z0.1400
G01 X36.0169 Y0.7827 Z0.1400
G01 X36.0162 Y0.7827 Z0.1400
G01 X35.3822 Y0.7857 Z0.1400
G01 X35.3814 Y0.7857 Z0.1400
G01 X34.7475 Y0.7892 Z0.1400
G01 X34.7466 Y0.7892 Z0.1400
G01 X34.1127 Y0.7931 Z0.1400
G01 X34.1120 Y0.7931 Z0.1400
G01 X33.4780 Y0.7974 Z0.1400
G01 X33.4772 Y0.7974 Z0.1400
G01 X32.8463 Y0.8022 Z0.1400
G01 X32.8458 Y0.8022 Z0.1400
G01 X32.8425 Y0.8022 Z0.1400
G01 X32.2096 Y0.8075 Z0.1400
G01 X32.2077 Y0.8075 Z0.1400
G01 X31.5759 Y0.8132 Z0.1400
G01 X31.5730 Y0.8132 Z0.1400
G01 X30.9403 Y0.8194 Z0.1400
G01 X30.9383 Y0.8194 Z0.1400
G01 X30.3052 Y0.8260 Z0.1400
G01 X30.3036 Y0.8260 Z0.1400
G01 X29.6704 Y0.8331 Z0.1400
G01 X29.6688 Y0.8331 Z0.1400
G01 X29.0355 Y0.8406 Z0.1400
G01 X29.0342 Y0.8406 Z0.1400
G01 X28.4007 Y0.8486 Z0.1400
G01 X28.3995 Y0.8486 Z0.1400
G01 X27.7682 Y0.8570 Z0.1400
G01 X27.7674 Y0.8570 Z0.1400
G01 X27.7648 Y0.8570 Z0.1400
G01 X27.1322 Y0.8659 Z0.1400
G01 X27.1300 Y0.8659 Z0.1400
G01 X26.4967 Y0.8753 Z0.1400
G01 X26.4955 Y0.8753 Z0.1400
G01 X25.8624 Y0.8851 Z0.1400
G01 X25.8608 Y0.8851 Z0.1400
G01 X25.2276 Y0.8953 Z0.1400
G01 X25.2260 Y0.8953 Z0.1400
G01 X24.5944 Y0.9060 Z0.1400
G01 X24.5936 Y0.9060 Z0.1400
G01 X24.5914 Y0.9061 Z0.1400
G01 X23.9587 Y0.9172 Z0.1400
G01 X23.9569 Y0.9172 Z0.1400
G01 X23.3237 Y0.9288 Z0.1400
G01 X23.3214 Y0.9288 Z0.1400
G01 X23.3201 Y0.9288 Z0.1400
G01 X22.6908 Y0.9408 Z0.1400
G01 X22.6875 Y0.9409 Z0.1400
G01 X22.0544 Y0.9534 Z0.1400
G01 X22.0519 Y0.9534 Z0.1400
G01 X22.0509 Y0.9534 Z0.1400
G01 X21.4224 Y0.9663 Z0.1400
G01 X21.4200 Y0.9664 Z0.1400
G01 X21.4164 Y0.9664 Z0.1400
G01 X20.7855 Y0.9798 Z0.1400
G01 X20.7836 Y0.9798 Z0.1400
G01 X20.1505 Y0.9937 Z0.1400
G01 X20.1478 Y0.9937 Z0.1400
G01 X20.1473 Y0.9937 Z0.1400
G01 X19.5158 Y1.0080 Z0.1400
G01 X19.5145 Y1.0081 Z0.1400
G01 X18.8838 Y1.0227 Z0.1400
G01 X18.8813 Y1.0229 Z0.1400
G01 X18.8786 Y1.0229 Z0.1400
G01 X18.2469 Y1.0381 Z0.1400
G01 X18.2453 Y1.0381 Z0.1400
G01 X17.6123 Y1.0537 Z0.1400
G01 X17.6107 Y1.0538 Z0.1400
G01 X16.9787 Y1.0699 Z0.1400
G01 X16.9755 Y1.0700 Z0.1400
G01 X16.3432 Y1.0866 Z0.1400
G01 X16.3416 Y1.0866 Z0.1400
G01 X15.7087 Y1.1036 Z0.1400
G01 X15.7072 Y1.1037 Z0.1400
G01 X15.0760 Y1.1211 Z0.1400
G01 X15.0735 Y1.1212 Z0.1400
G01 X15.0721 Y1.1212 Z0.1400
G01 X14.4393 Y1.1392 Z0.1400
G01 X14.4382 Y1.1392 Z0.1400
G01 X13.8053 Y1.1575 Z0.1400
G01 X13.8045 Y1.1575 Z0.1400
G01 X13.8037 Y1.1576 Z0.1400
G01 X13.1722 Y1.1764 Z0.1400
G01 X13.1698 Y1.1765 Z0.1400
G01 X13.1688 Y1.1765 Z0.1400
G01 X12.5355 Y1.1958 Z0.1400
G01 X12.5348 Y1.1958 Z0.1400
G01 X11.9020 Y1.2155 Z0.1400
G01 X11.9009 Y1.2156 Z0.1400
G01 X11.8991 Y1.2156 Z0.1400
G01 X11.2701 Y1.2357 Z0.1400
G01 X11.2662 Y1.2359 Z0.1400
G01 X11.2638 Y1.2359 Z0.1400
G01 X10.6331 Y1.2565 Z0.1400
G01 X10.6306 Y1.2566 Z0.1400
G01 X9.9992 Y1.2776 Z0.1400
G01 X9.9971 Y1.2777 Z0.1400
G01 X9.3667 Y1.2992 Z0.1400
G01 X9.3628 Y1.2994 Z0.1400
G01 X9.3610 Y1.2994 Z0.1400
G01 X8.7299 Y1.3213 Z0.1400
G01 X8.7286 Y1.3214 Z0.1400
G01 X8.7279 Y1.3214 Z0.1400
G01 X8.0961 Y1.3438 Z0.1400
G01 X8.0933 Y1.3440 Z0.1400
G01 X7.4611 Y1.3668 Z0.1400
G01 X7.4598 Y1.3669 Z0.1400
G01 X6.8289 Y1.3901 Z0.1400
G01 X6.8251 Y1.3903 Z0.1400
G01 X6.8240 Y1.3903 Z0.1400
G01 X6.1918 Y1.4142 Z0.1400
G01 X6.1910 Y1.4142 Z0.1400
G01 X5.5584 Y1.4385 Z0.1400
G01 X5.5567 Y1.4385 Z0.1400
G01 X4.9242 Y1.4632 Z0.1400
G01 X4.9218 Y1.4634 Z0.1400
G01 X1.3123 Y1.6072 Z0.1400
G01 X1.3123 Y1.6072 Z0.0000
G01 X1.3538 Y2.6488 Z0.0000
G01 X4.9639 Y2.5049 Z0.0000
G01 X5.5974 Y2.4801 Z0.0000
G01 X6.2308 Y2.4559 Z0.0000
G01 X6.2323 Y2.4558 Z0.0000
G01 X6.8626 Y2.4320 Z0.0000
G01 X6.8646 Y2.4320 Z0.0000
G01 X7.4981 Y2.4086 Z0.0000
G01 X8.1317 Y2.3857 Z0.0000
G01 X8.7653 Y2.3632 Z0.0000
G01 X9.3969 Y2.3412 Z0.0000
G01 X9.3987 Y2.3412 Z0.0000
G01 X9.3993 Y2.3412 Z0.0000
G01 X10.0318 Y2.3196 Z0.0000
G01 X10.0337 Y2.3195 Z0.0000
G01 X10.6662 Y2.2984 Z0.0000
G01 X11.2977 Y2.2778 Z0.0000
G01 X11.2994 Y2.2778 Z0.0000
G01 X11.3005 Y2.2777 Z0.0000
G01 X11.9336 Y2.2575 Z0.0000
G01 X12.5648 Y2.2379 Z0.0000
G01 X12.5683 Y2.2377 Z0.0000
G01 X13.1986 Y2.2185 Z0.0000
G01 X13.2002 Y2.2184 Z0.0000
G01 X13.2020 Y2.2184 Z0.0000
G01 X13.8347 Y2.1996 Z0.0000
G01 X14.4677 Y2.1812 Z0.0000
G01 X14.4695 Y2.1811 Z0.0000
G01 X15.0996 Y2.1633 Z0.0000
G01 X15.1011 Y2.1632 Z0.0000
G01 X15.1035 Y2.1632 Z0.0000
G01 X15.7359 Y2.1457 Z0.0000
G01 X16.3697 Y2.1287 Z0.0000
G01 X17.0035 Y2.1120 Z0.0000
G01 X17.6373 Y2.0959 Z0.0000
G01 X18.2711 Y2.0802 Z0.0000
G01 X18.9022 Y2.0651 Z0.0000
G01 X18.9033 Y2.0650 Z0.0000
G01 X18.9059 Y2.0650 Z0.0000
G01 X19.5376 Y2.0503 Z0.0000
G01 X19.5398 Y2.0502 Z0.0000
G01 X20.1726 Y2.0359 Z0.0000
G01 X20.8064 Y2.0220 Z0.0000
G01 X21.4372 Y2.0087 Z0.0000
G01 X21.4382 Y2.0087 Z0.0000
G01 X21.4413 Y2.0086 Z0.0000
G01 X22.0742 Y1.9957 Z0.0000
G01 X22.7070 Y1.9831 Z0.0000
G01 X22.7091 Y1.9831 Z0.0000
G01 X23.3420 Y1.9711 Z0.0000
G01 X23.9759 Y1.9594 Z0.0000
G01 X24.6060 Y1.9483 Z0.0000
G01 X24.6068 Y1.9483 Z0.0000
G01 X24.6098 Y1.9483 Z0.0000
G01 X25.2437 Y1.9376 Z0.0000
G01 X25.8775 Y1.9274 Z0.0000
G01 X26.5109 Y1.9176 Z0.0000
G01 X26.5124 Y1.9175 Z0.0000
G01 X27.1454 Y1.9082 Z0.0000
G01 X27.7752 Y1.8994 Z0.0000
G01 X27.7794 Y1.8994 Z0.0000
G01 X28.4133 Y1.8909 Z0.0000
G01 X29.0472 Y1.8829 Z0.0000
G01 X29.6812 Y1.8754 Z0.0000
G01 X30.3152 Y1.8684 Z0.0000
G01 X30.9492 Y1.8618 Z0.0000
G01 X31.5832 Y1.8556 Z0.0000
G01 X32.2162 Y1.8499 Z0.0000
G01 X32.2181 Y1.8498 Z0.0000
G01 X32.8463 Y1.8446 Z0.0000
G01 X32.8511 Y1.8446 Z0.0000
G01 X33.4851 Y1.8398 Z0.0000
G01 X34.1191 Y1.8355 Z0.0000
G01 X34.7531 Y1.8316 Z0.0000
G01 X35.3870 Y1.8282 Z0.0000
G01 X36.0211 Y1.8252 Z0.0000
G01 X36.6551 Y1.8227 Z0.0000
G01 X37.2891 Y1.8206 Z0.0000
G01 X37.9231 Y1.8190 Z0.0000
G01 X38.5571 Y1.8178 Z0.0000
G01 X39.1911 Y1.8171 Z0.0000
G01 X39.8250 Y1.8168 Z0.0000
G01 X40.4590 Y1.8170 Z0.0000
G01 X41.0930 Y1.8176 Z0.0000
G01 X41.7270 Y1.8187 Z0.0000
G01 X42.3610 Y1.8203 Z0.0000
G01 X42.9950 Y1.8223 Z0.0000
G01 X43.6290 Y1.8248 Z0.0000
G01 X44.2631 Y1.8277 Z0.0000
G01 X44.8970 Y1.8311 Z0.0000
G01 X45.5310 Y1.8349 Z0.0000
G01 X46.1650 Y1.8392 Z0.0000
G01 X46.7990 Y1.8439 Z0.0000
G01 X46.8039 Y1.8439 Z0.0000
G01 X47.4322 Y1.8490 Z0.0000
G01 X47.4337 Y1.8491 Z0.0000
G01 X48.0669 Y1.8547 Z0.0000
G01 X48.7009 Y1.8608 Z0.0000
G01 X49.3348 Y1.8674 Z0.0000
G01 X49.9688 Y1.8744 Z0.0000
G01 X50.6028 Y1.8818 Z0.0000
G01 X51.2367 Y1.8897 Z0.0000
G01 X51.8707 Y1.8981 Z0.0000
G01 X51.8750 Y1.8981 Z0.0000
G01 X52.5046 Y1.9068 Z0.0000
G01 X53.1378 Y1.9161 Z0.0000
G01 X53.1393 Y1.9162 Z0.0000
G01 X53.7725 Y1.9259 Z0.0000
G01 X54.4064 Y1.9361 Z0.0000
G01 X55.0403 Y1.9467 Z0.0000
G01 X55.6743 Y1.9577 Z0.0000
G01 X55.6770 Y1.9578 Z0.0000
G01 X55.6778 Y1.9578 Z0.0000
G01 X56.3081 Y1.9693 Z0.0000
G01 X56.9411 Y1.9813 Z0.0000
G01 X56.9427 Y1.9813 Z0.0000
G01 X57.5759 Y1.9938 Z0.0000
G01 X58.2088 Y2.0066 Z0.0000
G01 X58.2120 Y2.0067 Z0.0000
G01 X58.2131 Y2.0067 Z0.0000
G01 X58.8437 Y2.0200 Z0.0000
G01 X59.4775 Y2.0338 Z0.0000
G01 X60.1106 Y2.0480 Z0.0000
G01 X60.1121 Y2.0481 Z0.0000
G01 X60.7442 Y2.0627 Z0.0000
G01 X60.7469 Y2.0628 Z0.0000
G01 X60.7481 Y2.0628 Z0.0000
G01 X61.3790 Y2.0779 Z0.0000
G01 X62.0128 Y2.0935 Z0.0000
G01 X62.6465 Y2.1096 Z0.0000
G01 X63.2804 Y2.1261 Z0.0000
G01 X63.9142 Y2.1431 Z0.0000
G01 X64.5466 Y2.1605 Z0.0000
G01 X64.5491 Y2.1606 Z0.0000
G01 X64.5505 Y2.1606 Z0.0000
G01 X65.1805 Y2.1784 Z0.0000
G01 X65.1829 Y2.1785 Z0.0000
G01 X65.8154 Y2.1968 Z0.0000
G01 X66.4483 Y2.2155 Z0.0000
G01 X66.4500 Y2.2156 Z0.0000
G01 X66.4516 Y2.2156 Z0.0000
G01 X67.0829 Y2.2348 Z0.0000
G01 X70.6988 Y2.3473 Z0.0000
G01 X70.7312 Y1.3054 Z0.0000
G01 X67.1165 Y1.1929 Z0.0000
G01 X67.1147 Y1.1929 Z0.0000
G01 X67.1137 Y1.1929 Z0.0000
G01 X66.4813 Y1.1737 Z0.0000
G01 X66.4802 Y1.1737 Z0.0000
G01 X66.4779 Y1.1735 Z0.0000
G01 X65.8464 Y1.1548 Z0.0000
G01 X65.8454 Y1.1548 Z0.0000
G01 X65.8449 Y1.1548 Z0.0000
G01 X65.2119 Y1.1365 Z0.0000
G01 X65.2103 Y1.1364 Z0.0000
G01 X64.5780 Y1.1186 Z0.0000
G01 X64.5765 Y1.1186 Z0.0000
G01 X64.5740 Y1.1185 Z0.0000
G01 X63.9429 Y1.1011 Z0.0000
G01 X63.9416 Y1.1011 Z0.0000
G01 X63.3085 Y1.0841 Z0.0000
G01 X63.3074 Y1.0840 Z0.0000
G01 X63.3065 Y1.0840 Z0.0000
G01 X62.6743 Y1.0676 Z0.0000
G01 X62.6723 Y1.0675 Z0.0000
G01 X62.0394 Y1.0514 Z0.0000
G01 X62.0380 Y1.0514 Z0.0000
G01 X61.4063 Y1.0359 Z0.0000
G01 X61.4033 Y1.0358 Z0.0000
G01 X60.7716 Y1.0207 Z0.0000
G01 X60.7687 Y1.0206 Z0.0000
G01 X60.7662 Y1.0205 Z0.0000
G01 X60.1355 Y1.0059 Z0.0000
G01 X60.1341 Y1.0059 Z0.0000
G01 X59.5011 Y0.9916 Z0.0000
G01 X59.4994 Y0.9915 Z0.0000
G01 X58.8682 Y0.9778 Z0.0000
G01 X58.8674 Y0.9778 Z0.0000
G01 X58.8648 Y0.9778 Z0.0000
G01 X58.2337 Y0.9645 Z0.0000
G01 X58.2301 Y0.9644 Z0.0000
G01 X58.2276 Y0.9643 Z0.0000
G01 X57.5992 Y0.9515 Z0.0000
G01 X57.5981 Y0.9515 Z0.0000
G01 X57.5957 Y0.9515 Z0.0000
G01 X56.9625 Y0.9390 Z0.0000
G01 X56.9609 Y0.9390 Z0.0000
G01 X56.3300 Y0.9270 Z0.0000
G01 X56.3284 Y0.9270 Z0.0000
G01 X56.3262 Y0.9270 Z0.0000
G01 X55.6955 Y0.9155 Z0.0000
G01 X55.6947 Y0.9155 Z0.0000
G01 X55.6911 Y0.9155 Z0.0000
G01 X55.6903 Y0.9154 Z0.0000
G01 X55.0586 Y0.9044 Z0.0000
G01 X55.0573 Y0.9044 Z0.0000
G01 X54.4240 Y0.8938 Z0.0000
G01 X54.4226 Y0.8938 Z0.0000
G01 X53.7894 Y0.8836 Z0.0000
G01 X53.7875 Y0.8836 Z0.0000
G01 X53.1546 Y0.8739 Z0.0000
G01 X53.1533 Y0.8738 Z0.0000
G01 X52.5200 Y0.8646 Z0.0000
G01 X52.5179 Y0.8646 Z0.0000
G01 X51.8853 Y0.8557 Z0.0000
G01 X51.8826 Y0.8557 Z0.0000
G01 X51.8818 Y0.8557 Z0.0000
G01 X51.2506 Y0.8474 Z0.0000
G01 X51.2494 Y0.8474 Z0.0000
G01 X50.6159 Y0.8394 Z0.0000
G01 X50.6144 Y0.8394 Z0.0000
G01 X49.9811 Y0.8320 Z0.0000
G01 X49.9797 Y0.8320 Z0.0000
G01 X49.3464 Y0.8250 Z0.0000
G01 X49.3447 Y0.8250 Z0.0000
G01 X48.7118 Y0.8185 Z0.0000
G01 X48.7098 Y0.8185 Z0.0000
G01 X48.0771 Y0.8124 Z0.0000
G01 X48.0736 Y0.8123 Z0.0000
G01 X47.4423 Y0.8067 Z0.0000
G01 X47.4408 Y0.8067 Z0.0000
G01 X46.8076 Y0.8015 Z0.0000
G01 X46.8042 Y0.8014 Z0.0000
G01 X46.8037 Y0.8014 Z0.0000
G01 X46.1729 Y0.7967 Z0.0000
G01 X46.1722 Y0.7967 Z0.0000
G01 X45.5381 Y0.7924 Z0.0000
G01 X45.5374 Y0.7924 Z0.0000
G01 X44.9034 Y0.7886 Z0.0000
G01 X44.9025 Y0.7886 Z0.0000
G01 X44.2686 Y0.7853 Z0.0000
G01 X44.2679 Y0.7853 Z0.0000
G01 X43.6339 Y0.7823 Z0.0000
G01 X43.6331 Y0.7823 Z0.0000
G01 X42.9991 Y0.7799 Z0.0000
G01 X42.9984 Y0.7799 Z0.0000
G01 X42.3644 Y0.7779 Z0.0000
G01 X42.3637 Y0.7779 Z0.0000
G01 X41.7297 Y0.7763 Z0.0000
G01 X41.7289 Y0.7763 Z0.0000
G01 X41.0949 Y0.7752 Z0.0000
G01 X41.0941 Y0.7752 Z0.0000
G01 X40.4601 Y0.7746 Z0.0000
G01 X40.4594 Y0.7746 Z0.0000
G01 X39.8254 Y0.7744 Z0.0000
G01 X39.8246 Y0.7744 Z0.0000
G01 X39.1906 Y0.7746 Z0.0000
G01 X39.1900 Y0.7746 Z0.0000
G01 X38.5559 Y0.7753 Z0.0000
G01 X38.5551 Y0.7753 Z0.0000
G01 X37.9211 Y0.7765 Z0.0000
G01 X37.9204 Y0.7765 Z0.0000
G01 X37.2864 Y0.7781 Z0.0000
G01 X37.2856 Y0.7781 Z0.0000
G01 X36.6516 Y0.7802 Z0.0000
G01 X36.6509 Y0.7802 Z0.0000
G01 X36.0169 Y0.7827 Z0.0000
G01 X36.0162 Y0.7827 Z0.0000
G01 X35.3822 Y0.7857 Z0.0000
G01 X35.3814 Y0.7857 Z0.0000
G01 X34.7475 Y0.7892 Z0.0000
G01 X34.7466 Y0.7892 Z0.0000
G01 X34.1127 Y0.7931 Z0.0000
G01 X34.1120 Y0.7931 Z0.0000
G01 X33.4780 Y0.7974 Z0.0000
G01 X33.4772 Y0.7974 Z0.0000
G01 X32.8463 Y0.8022 Z0.0000
G01 X32.8458 Y0.8022 Z0.0000
G01 X32.8425 Y0.8022 Z0.0000
G01 X32.2096 Y0.8075 Z0.0000
G01 X32.2077 Y0.8075 Z0.0000
G01 X31.5759 Y0.8132 Z0.0000
G01 X31.5730 Y0.8132 Z0.0000
G01 X30.9403 Y0.8194 Z0.0000
G01 X30.9383 Y0.8194 Z0.0000
G01 X30.3052 Y0.8260 Z0.0000
G01 X30.3036 Y0.8260 Z0.0000
G01 X29.6704 Y0.8331 Z0.0000
G01 X29.6688 Y0.8331 Z0.0000
G01 X29.0355 Y0.8406 Z0.0000
G01 X29.0342 Y0.8406 Z0.0000
G01 X28.4007 Y0.8486 Z0.0000
G01 X28.3995 Y0.8486 Z0.0000
G01 X27.7682 Y0.8570 Z0.0000
G01 X27.7674 Y0.8570 Z0.0000
G01 X27.7648 Y0.8570 Z0.0000
G01 X27.1322 Y0.8659 Z0.0000
G01 X27.1300 Y0.8659 Z0.0000
G01 X26.4967 Y0.8753 Z0.0000
G01 X26.4955 Y0.8753 Z0.0000
G01 X25.8624 Y0.8851 Z0.0000
G01 X25.8608 Y0.8851 Z0.0000
G01 X25.2276 Y0.8953 Z0.0000
G01 X25.2260 Y0.8953 Z0.0000
G01 X24.5944 Y0.9060 Z0.0000
G01 X24.5936 Y0.9060 Z0.0000
G01 X24.5914 Y0.9061 Z0.0000
G01 X23.9587 Y0.9172 Z0.0000
G01 X23.9569 Y0.9172 Z0.0000
G01 X23.3237 Y0.9288 Z0.0000
G01 X23.3214 Y0.9288 Z0.0000
G01 X23.3201 Y0.9288 Z0.0000
G01 X22.6908 Y0.9408 Z0.0000
G01 X22.6875 Y0.9409 Z0.0000
G01 X22.0544 Y0.9534 Z0.0000
G01 X22.0519 Y0.9534 Z0.0000
G01 X22.0509 Y0.9534 Z0.0000
G01 X21.4224 Y0.9663 Z0.0000
G01 X21.4200 Y0.9664 Z0.0000
G01 X21.4164 Y0.9664 Z0.0000
G01 X20.7855 Y0.9798 Z0.0000
G01 X20.7836 Y0.9798 Z0.0000
G01 X20.1505 Y0.9937 Z0.0000
G01 X20.1478 Y0.9937 Z0.0000
G01 X20.1473 Y0.9937 Z0.0000
G01 X19.5158 Y1.0080 Z0.0000
G01 X19.5145 Y1.0081 Z0.0000
G01 X18.8838 Y1.0227 Z0.0000
G01 X18.8813 Y1.0229 Z0.0000
G01 X18.8786 Y1.0229 Z0.0000
G01 X18.2469 Y1.0381 Z0.0000
G01 X18.2453 Y1.0381 Z0.0000
G01 X17.6123 Y1.0537 Z0.0000
G01 X17.6107 Y1.0538 Z0.0000
G01 X16.9787 Y1.0699 Z0.0000
G01 X16.9755 Y1.0700 Z0.0000
G01 X16.3432 Y1.0866 Z0.0000
G01 X16.3416 Y1.0866 Z0.0000
G01 X15.7087 Y1.1036 Z0.0000
G01 X15.7072 Y1.1037 Z0.0000
G01 X15.0760 Y1.1211 Z0.0000
G01 X15.0735 Y1.1212 Z0.0000
G01 X15.0721 Y1.1212 Z0.0000
G01 X14.4393 Y1.1392 Z0.0000
G01 X14.4382 Y1.1392 Z0.0000
G01 X13.8053 Y1.1575 Z0.0000
G01 X13.8045 Y1.1575 Z0.0000
G01 X13.8037 Y1.1576 Z0.0000
G01 X13.1722 Y1.1764 Z0.0000
G01 X13.1698 Y1.1765 Z0.0000
G01 X13.1688 Y1.1765 Z0.0000
G01 X12.5355 Y1.1958 Z0.0000
G01 X12.5348 Y1.1958 Z0.0000
G01 X11.9020 Y1.2155 Z0.0000
G01 X11.9009 Y1.2156 Z0.0000
G01 X11.8991 Y1.2156 Z0.0000
G01 X11.2701 Y1.2357 Z0.0000
G01 X11.2662 Y1.2359 Z0.0000
G01 X11.2638 Y1.2359 Z0.0000
G01 X10.6331 Y1.2565 Z0.0000
G01 X10.6306 Y1.2566 Z0.0000
G01 X9.9992 Y1.2776 Z0.0000
G01 X9.9971 Y1.2777 Z0.0000
G01 X9.3667 Y1.2992 Z0.0000
G01 X9.3628 Y1.2994 Z0.0000
G01 X9.3610 Y1.2994 Z0.0000
G01 X8.7299 Y1.3213 Z0.0000
G01 X8.7286 Y1.3214 Z0.0000
G01 X8.7279 Y1.3214 Z0.0000
G01 X8.0961 Y1.3438 Z0.0000
G01 X8.0933 Y1.3440 Z0.0000
G01 X7.4611 Y1.3668 Z0.0000
G01 X7.4598 Y1.3669 Z0.0000
G01 X6.8289 Y1.3901 Z0.0000
G01 X6.8251 Y1.3903 Z0.0000
G01 X6.8240 Y1.3903 Z0.0000
G01 X6.1918 Y1.4142 Z0.0000
G01 X6.1910 Y1.4142 Z0.0000
G01 X5.5584 Y1.4385 Z0.0000
G01 X5.5567 Y1.4385 Z0.0000
G01 X4.9242 Y1.4632 Z0.0000
G01 X4.9218 Y1.4634 Z0.0000
G01 X1.3123 Y1.6072 Z0.0000
G00 X1.3123 Y1.6072 Z0.6000
G00 X1.3123 Y-1.6072 Z0.6000
G01 X1.3123 Y-1.6072 Z0.2800
G01 X4.9218 Y-1.4634 Z0.2800
G01 X4.9242 Y-1.4632 Z0.2800
G01 X5.5567 Y-1.4385 Z0.2800
G01 X5.5584 Y-1.4385 Z0.2800
G01 X6.1910 Y-1.4142 Z0.2800
G01 X6.1918 Y-1.4142 Z0.2800
G01 X6.8240 Y-1.3903 Z0.2800
G01 X6.8251 Y-1.3903 Z0.2800
G01 X6.8286 Y-1.3902 Z0.2800
G01 X7.4595 Y-1.3669 Z0.2800
G01 X7.4611 Y-1.3668 Z0.2800
G01 X8.0933 Y-1.3440 Z0.2800
G01 X8.0961 Y-1.3438 Z0.2800
G01 X8.7279 Y-1.3214 Z0.2800
G01 X8.7286 Y-1.3214 Z0.2800
G01 X8.7299 Y-1.3213 Z0.2800
G01 X9.3610 Y-1.2994 Z0.2800
G01 X9.3628 Y-1.2994 Z0.2800
G01 X9.3663 Y-1.2992 Z0.2800
G01 X9.9971 Y-1.2777 Z0.2800
G01 X9.9991 Y-1.2776 Z0.2800
G01 X10.6306 Y-1.2566 Z0.2800
G01 X10.6331 Y-1.2565 Z0.2800
G01 X11.2638 Y-1.2359 Z0.2800
G01 X11.2662 Y-1.2359 Z0.2800
G01 X11.2697 Y-1.2357 Z0.2800
G01 X11.8991 Y-1.2156 Z0.2800
G01 X11.9009 Y-1.2156 Z0.2800
G01 X11.9020 Y-1.2155 Z0.2800
G01 X12.5348 Y-1.1958 Z0.2800
G01 X12.5355 Y-1.1958 Z0.2800
G01 X13.1688 Y-1.1765 Z0.2800
G01 X13.1698 Y-1.1765 Z0.2800
G01 X13.1722 Y-1.1764 Z0.2800
G01 X13.8037 Y-1.1576 Z0.2800
G01 X13.8045 Y-1.1575 Z0.2800
G01 X13.8053 Y-1.1575 Z0.2800
G01 X14.4382 Y-1.1392 Z0.2800
G01 X14.4393 Y-1.1392 Z0.2800
G01 X15.0721 Y-1.1212 Z0.2800
G01 X15.0735 Y-1.1212 Z0.2800
G01 X15.0760 Y-1.1211 Z0.2800
G01 X15.7072 Y-1.1037 Z0.2800
G01 X15.7083 Y-1.1036 Z0.2800
G01 X16.3416 Y-1.0866 Z0.2800
G01 X16.3429 Y-1.0866 Z0.2800
G01 X16.9755 Y-1.0700 Z0.2800
G01 X16.9786 Y-1.0699 Z0.2800
G01 X17.6107 Y-1.0538 Z0.2800
G01 X17.6122 Y-1.0537 Z0.2800
G01 X18.2453 Y-1.0381 Z0.2800
G01 X18.2468 Y-1.0381 Z0.2800
G01 X18.8786 Y-1.0229 Z0.2800
G01 X18.8813 Y-1.0229 Z0.2800
G01 X18.8838 Y-1.0227 Z0.2800
G01 X19.5145 Y-1.0081 Z0.2800
G01 X19.5158 Y-1.0080 Z0.2800
G01 X20.1473 Y-0.9937 Z0.2800
G01 X20.1478 Y-0.9937 Z0.2800
G01 X20.1505 Y-0.9937 Z0.2800
G01 X20.7836 Y-0.9798 Z0.2800
G01 X20.7853 Y-0.9798 Z0.2800
G01 X21.4164 Y-0.9664 Z0.2800
G01 X21.4200 Y-0.9664 Z0.2800
G01 X21.4224 Y-0.9663 Z0.2800
G01 X22.0509 Y-0.9534 Z0.2800
G01 X22.0519 Y-0.9534 Z0.2800
G01 X22.0544 Y-0.9534 Z0.2800
G01 X22.6875 Y-0.9409 Z0.2800
G01 X22.6906 Y-0.9408 Z0.2800
G01 X23.3201 Y-0.9288 Z0.2800
G01 X23.3214 Y-0.9288 Z0.2800
G01 X23.3237 Y-0.9288 Z0.2800
G01 X23.9568 Y-0.9172 Z0.2800
G01 X23.9587 Y-0.9171 Z0.2800
G01 X24.5914 Y-0.9061 Z0.2800
G01 X24.5936 Y-0.9060 Z0.2800
G01 X24.5944 Y-0.9060 Z0.2800
G01 X25.2260 Y-0.8953 Z0.2800
G01 X25.2276 Y-0.8953 Z0.2800
G01 X25.8608 Y-0.8851 Z0.2800
G01 X25.8624 Y-0.8851 Z0.2800
G01 X26.4955 Y-0.8753 Z0.2800
G01 X26.4967 Y-0.8753 Z0.2800
G01 X27.1300 Y-0.8659 Z0.2800
G01 X27.1322 Y-0.8659 Z0.2800
G01 X27.7648 Y-0.8570 Z0.2800
G01 X27.7674 Y-0.8570 Z0.2800
G01 X27.7682 Y-0.8570 Z0.2800
G01 X28.3995 Y-0.8486 Z0.2800
G01 X28.4007 Y-0.8486 Z0.2800
G01 X29.0342 Y-0.8406 Z0.2800
G01 X29.0355 Y-0.8406 Z0.2800
G01 X29.6688 Y-0.8331 Z0.2800
G01 X29.6704 Y-0.8331 Z0.2800
G01 X30.3036 Y-0.8260 Z0.2800
G01 X30.3052 Y-0.8260 Z0.2800
G01 X30.9383 Y-0.8194 Z0.2800
G01 X30.9403 Y-0.8194 Z0.2800
G01 X31.5730 Y-0.8132 Z0.2800
G01 X31.5759 Y-0.8132 Z0.2800
G01 X32.2077 Y-0.8075 Z0.2800
G01 X32.2096 Y-0.8075 Z0.2800
G01 X32.8425 Y-0.8022 Z0.2800
G01 X32.8458 Y-0.8022 Z0.2800
G01 X32.8463 Y-0.8022 Z0.2800
G01 X33.4772 Y-0.7974 Z0.2800
G01 X33.4780 Y-0.7974 Z0.2800
G01 X34.1120 Y-0.7931 Z0.2800
G01 X34.1127 Y-0.7931 Z0.2800
G01 X34.7466 Y-0.7892 Z0.2800
G01 X34.7475 Y-0.7892 Z0.2800
G01 X35.3814 Y-0.7857 Z0.2800
G01 X35.3822 Y-0.7857 Z0.2800
G01 X36.0162 Y-0.7827 Z0.2800
G01 X36.0169 Y-0.7827 Z0.2800
G01 X36.6509 Y-0.7802 Z0.2800
G01 X36.6516 Y-0.7802 Z0.2800
G01 X37.2856 Y-0.7781 Z0.2800
G01 X37.2864 Y-0.7781 Z0.2800
G01 X37.9204 Y-0.7765 Z0.2800
G01 X37.9211 Y-0.7765 Z0.2800
G01 X38.5551 Y-0.7753 Z0.2800
G01 X38.5559 Y-0.7753 Z0.2800
G01 X39.1900 Y-0.7746 Z0.2800
G01 X39.1906 Y-0.7746 Z0.2800
G01 X39.8246 Y-0.7744 Z0.2800
G01 X39.8254 Y-0.7744 Z0.2800
G01 X40.4594 Y-0.7746 Z0.2800
G01 X40.4601 Y-0.7746 Z0.2800
G01 X41.0941 Y-0.7752 Z0.2800
G01 X41.0949 Y-0.7752 Z0.2800
G01 X41.7289 Y-0.7763 Z0.2800
G01 X41.7297 Y-0.7763 Z0.2800
G01 X42.3637 Y-0.7779 Z0.2800
G01 X42.3644 Y-0.7779 Z0.2800
G01 X42.9984 Y-0.7799 Z0.2800
G01 X42.9991 Y-0.7799 Z0.2800
G01 X43.6331 Y-0.7823 Z0.2800
G01 X43.6339 Y-0.7823 Z0.2800
G01 X44.2679 Y-0.7853 Z0.2800
G01 X44.2686 Y-0.7853 Z0.2800
G01 X44.9025 Y-0.7886 Z0.2800
G01 X44.9034 Y-0.7886 Z0.2800
G01 X45.5374 Y-0.7924 Z0.2800
G01 X45.5381 Y-0.7924 Z0.2800
G01 X46.1722 Y-0.7967 Z0.2800
G01 X46.1729 Y-0.7967 Z0.2800
G01 X46.8037 Y-0.8014 Z0.2800
G01 X46.8042 Y-0.8014 Z0.2800
G01 X46.8076 Y-0.8015 Z0.2800
G01 X47.4408 Y-0.8067 Z0.2800
G01 X47.4423 Y-0.8067 Z0.2800
G01 X48.0736 Y-0.8123 Z0.2800
G01 X48.0767 Y-0.8124 Z0.2800
G01 X48.7098 Y-0.8185 Z0.2800
G01 X48.7118 Y-0.8185 Z0.2800
G01 X49.3447 Y-0.8250 Z0.2800
G01 X49.3464 Y-0.8250 Z0.2800
G01 X49.9797 Y-0.8320 Z0.2800
G01 X49.9811 Y-0.8320 Z0.2800
G01 X50.6144 Y-0.8394 Z0.2800
G01 X50.6159 Y-0.8394 Z0.2800
G01 X51.2494 Y-0.8474 Z0.2800
G01 X51.2506 Y-0.8474 Z0.2800
G01 X51.8818 Y-0.8557 Z0.2800
G01 X51.8826 Y-0.8557 Z0.2800
G01 X51.8853 Y-0.8557 Z0.2800
G01 X52.5179 Y-0.8646 Z0.2800
G01 X52.5200 Y-0.8646 Z0.2800
G01 X53.1533 Y-0.8738 Z0.2800
G01 X53.1546 Y-0.8739 Z0.2800
G01 X53.7875 Y-0.8836 Z0.2800
G01 X53.7894 Y-0.8836 Z0.2800
G01 X54.4226 Y-0.8938 Z0.2800
G01 X54.4240 Y-0.8938 Z0.2800
G01 X55.0573 Y-0.9044 Z0.2800
G01 X55.0586 Y-0.9044 Z0.2800
G01 X55.6903 Y-0.9154 Z0.2800
G01 X55.6911 Y-0.9155 Z0.2800
G01 X55.6947 Y-0.9155 Z0.2800
G01 X55.6955 Y-0.9155 Z0.2800
G01 X56.3262 Y-0.9270 Z0.2800
G01 X56.3284 Y-0.9270 Z0.2800
G01 X56.3300 Y-0.9270 Z0.2800
G01 X56.9609 Y-0.9390 Z0.2800
G01 X56.9625 Y-0.9390 Z0.2800
G01 X57.5957 Y-0.9515 Z0.2800
G01 X57.5981 Y-0.9515 Z0.2800
G01 X57.5992 Y-0.9515 Z0.2800
G01 X58.2276 Y-0.9643 Z0.2800
G01 X58.2301 Y-0.9644 Z0.2800
G01 X58.2336 Y-0.9645 Z0.2800
G01 X58.8648 Y-0.9778 Z0.2800
G01 X58.8674 Y-0.9778 Z0.2800
G01 X58.8682 Y-0.9778 Z0.2800
G01 X59.4993 Y-0.9915 Z0.2800
G01 X59.5011 Y-0.9916 Z0.2800
G01 X60.1341 Y-1.0059 Z0.2800
G01 X60.1355 Y-1.0059 Z0.2800
G01 X60.7662 Y-1.0205 Z0.2800
G01 X60.7687 Y-1.0206 Z0.2800
G01 X60.7716 Y-1.0207 Z0.2800
G01 X61.4033 Y-1.0358 Z0.2800
G01 X61.4063 Y-1.0359 Z0.2800
G01 X62.0376 Y-1.0514 Z0.2800
G01 X62.0394 Y-1.0514 Z0.2800
G01 X62.6723 Y-1.0675 Z0.2800
G01 X62.6743 Y-1.0676 Z0.2800
G01 X63.3065 Y-1.0840 Z0.2800
G01 X63.3074 Y-1.0840 Z0.2800
G01 X63.3085 Y-1.0841 Z0.2800
G01 X63.9414 Y-1.1011 Z0.2800
G01 X63.9429 Y-1.1011 Z0.2800
G01 X64.5740 Y-1.1185 Z0.2800
G01 X64.5765 Y-1.1186 Z0.2800
G01 X64.5780 Y-1.1186 Z0.2800
G01 X65.2103 Y-1.1364 Z0.2800
G01 X65.2119 Y-1.1365 Z0.2800
G01 X65.8449 Y-1.1548 Z0.2800
G01 X65.8454 Y-1.1548 Z0.2800
G01 X65.8464 Y-1.1548 Z0.2800
G01 X66.4779 Y-1.1735 Z0.2800
G01 X66.4802 Y-1.1737 Z0.2800
G01 X66.4813 Y-1.1737 Z0.2800
G01 X67.1137 Y-1.1929 Z0.2800
G01 X67.1147 Y-1.1929 Z0.2800
G01 X67.1165 Y-1.1929 Z0.2800
G01 X70.7312 Y-1.3054 Z0.2800
G01 X70.6988 Y-2.3473 Z0.2800
G01 X67.0830 Y-2.2348 Z0.2800
G01 X66.4516 Y-2.2156 Z0.2800
G01 X66.4500 Y-2.2156 Z0.2800
G01 X66.4483 Y-2.2155 Z0.2800
G01 X65.8155 Y-2.1968 Z0.2800
G01 X65.1829 Y-2.1785 Z0.2800
G01 X65.1805 Y-2.1784 Z0.2800
G01 X64.5505 Y-2.1606 Z0.2800
G01 X64.5491 Y-2.1606 Z0.2800
G01 X64.5466 Y-2.1605 Z0.2800
G01 X63.9142 Y-2.1431 Z0.2800
G01 X63.2805 Y-2.1261 Z0.2800
G01 X62.6467 Y-2.1096 Z0.2800
G01 X62.0129 Y-2.0935 Z0.2800
G01 X61.3790 Y-2.0779 Z0.2800
G01 X60.7481 Y-2.0628 Z0.2800
G01 X60.7469 Y-2.0628 Z0.2800
G01 X60.7442 Y-2.0627 Z0.2800
G01 X60.1121 Y-2.0481 Z0.2800
G01 X60.1106 Y-2.0480 Z0.2800
G01 X59.4776 Y-2.0338 Z0.2800
G01 X58.8437 Y-2.0200 Z0.2800
G01 X58.2131 Y-2.0067 Z0.2800
G01 X58.2120 Y-2.0067 Z0.2800
G01 X58.2088 Y-2.0066 Z0.2800
G01 X57.5760 Y-1.9938 Z0.2800
G01 X56.9427 Y-1.9813 Z0.2800
G01 X56.9411 Y-1.9813 Z0.2800
G01 X56.3082 Y-1.9693 Z0.2800
G01 X55.6778 Y-1.9578 Z0.2800
G01 X55.6770 Y-1.9578 Z0.2800
G01 X55.6743 Y-1.9577 Z0.2800
G01 X55.0404 Y-1.9467 Z0.2800
G01 X54.4065 Y-1.9361 Z0.2800
G01 X53.7726 Y-1.9259 Z0.2800
G01 X53.1393 Y-1.9162 Z0.2800
G01 X53.1378 Y-1.9161 Z0.2800
G01 X52.5047 Y-1.9068 Z0.2800
G01 X51.8750 Y-1.8981 Z0.2800
G01 X51.8707 Y-1.8981 Z0.2800
G01 X51.2368 Y-1.8897 Z0.2800
G01 X50.6029 Y-1.8818 Z0.2800
G01 X49.9689 Y-1.8744 Z0.2800
G01 X49.3350 Y-1.8674 Z0.2800
G01 X48.7010 Y-1.8608 Z0.2800
G01 X48.0670 Y-1.8547 Z0.2800
G01 X47.4337 Y-1.8491 Z0.2800
G01 X47.4322 Y-1.8490 Z0.2800
G01 X46.8039 Y-1.8439 Z0.2800
G01 X46.7990 Y-1.8439 Z0.2800
G01 X46.1651 Y-1.8392 Z0.2800
G01 X45.5311 Y-1.8349 Z0.2800
G01 X44.8971 Y-1.8311 Z0.2800
G01 X44.2631 Y-1.8277 Z0.2800
G01 X43.6291 Y-1.8248 Z0.2800
G01 X42.9951 Y-1.8223 Z0.2800
G01 X42.3611 Y-1.8203 Z0.2800
G01 X41.7271 Y-1.8187 Z0.2800
G01 X41.0931 Y-1.8176 Z0.2800
G01 X40.4591 Y-1.8170 Z0.2800
G01 X39.8251 Y-1.8168 Z0.2800
G01 X39.1912 Y-1.8171 Z0.2800
G01 X38.5572 Y-1.8178 Z0.2800
G01 X37.9231 Y-1.8190 Z0.2800
G01 X37.2892 Y-1.8206 Z0.2800
G01 X36.6551 Y-1.8227 Z0.2800
G01 X36.0212 Y-1.8252 Z0.2800
G01 X35.3871 Y-1.8282 Z0.2800
G01 X34.7532 Y-1.8316 Z0.2800
G01 X34.1192 Y-1.8355 Z0.2800
G01 X33.4852 Y-1.8398 Z0.2800
G01 X32.8511 Y-1.8446 Z0.2800
G01 X32.8463 Y-1.8446 Z0.2800
G01 X32.2181 Y-1.8498 Z0.2800
G01 X32.2162 Y-1.8499 Z0.2800
G01 X31.5833 Y-1.8556 Z0.2800
G01 X30.9492 Y-1.8618 Z0.2800
G01 X30.3153 Y-1.8684 Z0.2800
G01 X29.6813 Y-1.8754 Z0.2800
G01 X29.0474 Y-1.8829 Z0.2800
G01 X28.4134 Y-1.8909 Z0.2800
G01 X27.7794 Y-1.8994 Z0.2800
G01 X27.7752 Y-1.8994 Z0.2800
G01 X27.1455 Y-1.9082 Z0.2800
G01 X26.5124 Y-1.9175 Z0.2800
G01 X26.5109 Y-1.9176 Z0.2800
G01 X25.8777 Y-1.9274 Z0.2800
G01 X25.2437 Y-1.9376 Z0.2800
G01 X24.6098 Y-1.9483 Z0.2800
G01 X24.6068 Y-1.9483 Z0.2800
G01 X24.6060 Y-1.9483 Z0.2800
G01 X23.9759 Y-1.9594 Z0.2800
G01 X23.3420 Y-1.9711 Z0.2800
G01 X22.7091 Y-1.9831 Z0.2800
G01 X22.7070 Y-1.9831 Z0.2800
G01 X22.0743 Y-1.9957 Z0.2800
G01 X21.4413 Y-2.0087 Z0.2800
G01 X21.4382 Y-2.0087 Z0.2800
G01 X21.4372 Y-2.0087 Z0.2800
G01 X20.8066 Y-2.0220 Z0.2800
G01 X20.1727 Y-2.0359 Z0.2800
G01 X19.5398 Y-2.0502 Z0.2800
G01 X19.5376 Y-2.0503 Z0.2800
G01 X18.9059 Y-2.0650 Z0.2800
G01 X18.9033 Y-2.0650 Z0.2800
G01 X18.9022 Y-2.0651 Z0.2800
G01 X18.2712 Y-2.0802 Z0.2800
G01 X17.6374 Y-2.0959 Z0.2800
G01 X17.0037 Y-2.1120 Z0.2800
G01 X16.3698 Y-2.1287 Z0.2800
G01 X15.7360 Y-2.1457 Z0.2800
G01 X15.1035 Y-2.1632 Z0.2800
G01 X15.1011 Y-2.1632 Z0.2800
G01 X15.0996 Y-2.1633 Z0.2800
G01 X14.4695 Y-2.1811 Z0.2800
G01 X14.4677 Y-2.1812 Z0.2800
G01 X13.8348 Y-2.1996 Z0.2800
G01 X13.2020 Y-2.2184 Z0.2800
G01 X13.2002 Y-2.2184 Z0.2800
G01 X13.1986 Y-2.2185 Z0.2800
G01 X12.5683 Y-2.2377 Z0.2800
G01 X12.5648 Y-2.2379 Z0.2800
G01 X11.9337 Y-2.2575 Z0.2800
G01 X11.3005 Y-2.2777 Z0.2800
G01 X11.2994 Y-2.2778 Z0.2800
G01 X11.2977 Y-2.2778 Z0.2800
G01 X10.6663 Y-2.2984 Z0.2800
G01 X10.0337 Y-2.3195 Z0.2800
G01 X10.0318 Y-2.3196 Z0.2800
G01 X9.3993 Y-2.3412 Z0.2800
G01 X9.3987 Y-2.3412 Z0.2800
G01 X9.3969 Y-2.3412 Z0.2800
G01 X8.7654 Y-2.3632 Z0.2800
G01 X8.1321 Y-2.3857 Z0.2800
G01 X7.4982 Y-2.4086 Z0.2800
G01 X6.8646 Y-2.4320 Z0.2800
G01 X6.8626 Y-2.4320 Z0.2800
G01 X6.2323 Y-2.4558 Z0.2800
G01 X6.2308 Y-2.4559 Z0.2800
G01 X5.5975 Y-2.4801 Z0.2800
G01 X4.9642 Y-2.5049 Z0.2800
G01 X1.3538 Y-2.6488 Z0.2800
G01 X1.3123 Y-1.6072 Z0.2800
G01 X1.3123 Y-1.6072 Z0.1400
G01 X4.9218 Y-1.4634 Z0.1400
G01 X4.9242 Y-1.4632 Z0.1400
G01 X5.5567 Y-1.4385 Z0.1400
G01 X5.5584 Y-1.4385 Z0.1400
G01 X6.1910 Y-1.4142 Z0.1400
G01 X6.1918 Y-1.4142 Z0.1400
G01 X6.8240 Y-1.3903 Z0.1400
G01 X6.8251 Y-1.3903 Z0.1400
G01 X6.8286 Y-1.3902 Z0.1400
G01 X7.4595 Y-1.3669 Z0.1400
G01 X7.4611 Y-1.3668 Z0.1400
G01 X8.0933 Y-1.3440 Z0.1400
G01 X8.0961 Y-1.3438 Z0.1400
G01 X8.7279 Y-1.3214 Z0.1400
G01 X8.7286 Y-1.3214 Z0.1400
G01 X8.7299 Y-1.3213 Z0.1400
G01 X9.3610 Y-1.2994 Z0.1400
G01 X9.3628 Y-1.2994 Z0.1400
G01 X9.3663 Y-1.2992 Z0.1400
G01 X9.9971 Y-1.2777 Z0.1400
G01 X9.9991 Y-1.2776 Z0.1400
G01 X10.6306 Y-1.2566 Z0.1400
G01 X10.6331 Y-1.2565 Z0.1400
G01 X11.2638 Y-1.2359 Z0.1400
G01 X11.2662 Y-1.2359 Z0.1400
G01 X11.2697 Y-1.2357 Z0.1400
G01 X11.8991 Y-1.2156 Z0.1400
G01 X11.9009 Y-1.2156 Z0.1400
G01 X11.9020 Y-1.2155 Z0.1400
G01 X12.5348 Y-1.1958 Z0.1400
G01 X12.5355 Y-1.1958 Z0.1400
G01 X13.1688 Y-1.1765 Z0.1400
G01 X13.1698 Y-1.1765 Z0.1400
G01 X13.1722 Y-1.1764 Z0.1400
G01 X13.8037 Y-1.1576 Z0.1400
G01 X13.8045 Y-1.1575 Z0.1400
G01 X13.8053 Y-1.1575 Z0.1400
G01 X14.4382 Y-1.1392 Z0.1400
G01 X14.4393 Y-1.1392 Z0.1400
G01 X15.0721 Y-1.1212 Z0.1400
G01 X15.0735 Y-1.1212 Z0.1400
G01 X15.0760 Y-1.1211 Z0.1400
G01 X15.7072 Y-1.1037 Z0.1400
G01 X15.7083 Y-1.1036 Z0.1400
G01 X16.3416 Y-1.0866 Z0.1400
G01 X16.3429 Y-1.0866 Z0.1400
G01 X16.9755 Y-1.0700 Z0.1400
G01 X16.9786 Y-1.0699 Z0.1400
G01 X17.6107 Y-1.0538 Z0.1400
G01 X17.6122 Y-1.0537 Z0.1400
G01 X18.2453 Y-1.0381 Z0.1400
G01 X18.2468 Y-1.0381 Z0.1400
G01 X18.8786 Y-1.0229 Z0.1400
G01 X18.8813 Y-1.0229 Z0.1400
G01 X18.8838 Y-1.0227 Z0.1400
G01 X19.5145 Y-1.0081 Z0.1400
G01 X19.5158 Y-1.0080 Z0.1400
G01 X20.1473 Y-0.9937 Z0.1400
G01 X20.1478 Y-0.9937 Z0.1400
G01 X20.1505 Y-0.9937 Z0.1400
G01 X20.7836 Y-0.9798 Z0.1400
G01 X20.7853 Y-0.9798 Z0.1400
G01 X21.4164 Y-0.9664 Z0.1400
G01 X21.4200 Y-0.9664 Z0.1400
G01 X21.4224 Y-0.9663 Z0.1400
G01 X22.0509 Y-0.9534 Z0.1400
G01 X22.0519 Y-0.9534 Z0.1400
G01 X22.0544 Y-0.9534 Z0.1400
G01 X22.6875 Y-0.9409 Z0.1400
G01 X22.6906 Y-0.9408 Z0.1400
G01 X23.3201 Y-0.9288 Z0.1400
G01 X23.3214 Y-0.9288 Z0.1400
G01 X23.3237 Y-0.9288 Z0.1400
G01 X23.9568 Y-0.9172 Z0.1400
G01 X23.9587 Y-0.9171 Z0.1400
G01 X24.5914 Y-0.9061 Z0.1400
G01 X24.5936 Y-0.9060 Z0.1400
G01 X24.5944 Y-0.9060 Z0.1400
G01 X25.2260 Y-0.8953 Z0.1400
G01 X25.2276 Y-0.8953 Z0.1400
G01 X25.8608 Y-0.8851 Z0.1400
G01 X25.8624 Y-0.8851 Z0.1400
G01 X26.4955 Y-0.8753 Z0.1400
G01 X26.4967 Y-0.8753 Z0.1400
G01 X27.1300 Y-0.8659 Z0.1400
G01 X27.1322 Y-0.8659 Z0.1400
G01 X27.7648 Y-0.8570 Z0.1400
G01 X27.7674 Y-0.8570 Z0.1400
G01 X27.7682 Y-0.8570 Z0.1400
G01 X28.3995 Y-0.8486 Z0.1400
G01 X28.4007 Y-0.8486 Z0.1400
G01 X29.0342 Y-0.8406 Z0.1400
G01 X29.0355 Y-0.8406 Z0.1400
G01 X29.6688 Y-0.8331 Z0.1400
G01 X29.6704 Y-0.8331 Z0.1400
G01 X30.3036 Y-0.8260 Z0.1400
G01 X30.3052 Y-0.8260 Z0.1400
G01 X30.9383 Y-0.8194 Z0.1400
G01 X30.9403 Y-0.8194 Z0.1400
G01 X31.5730 Y-0.8132 Z0.1400
G01 X31.5759 Y-0.8132 Z0.1400
G01 X32.2077 Y-0.8075 Z0.1400
G01 X32.2096 Y-0.8075 Z0.1400
G01 X32.8425 Y-0.8022 Z0.1400
G01 X32.8458 Y-0.8022 Z0.1400
G01 X32.8463 Y-0.8022 Z0.1400
G01 X33.4772 Y-0.7974 Z0.1400
G01 X33.4780 Y-0.7974 Z0.1400
G01 X34.1120 Y-0.7931 Z0.1400
G01 X34.1127 Y-0.7931 Z0.1400
G01 X34.7466 Y-0.7892 Z0.1400
G01 X34.7475 Y-0.7892 Z0.1400
G01 X35.3814 Y-0.7857 Z0.1400
G01 X35.3822 Y-0.7857 Z0.1400
G01 X36.0162 Y-0.7827 Z0.1400
G01 X36.0169 Y-0.7827 Z0.1400
G01 X36.6509 Y-0.7802 Z0.1400
G01 X36.6516 Y-0.7802 Z0.1400
G01 X37.2856 Y-0.7781 Z0.1400
G01 X37.2864 Y-0.7781 Z0.1400
G01 X37.9204 Y-0.7765 Z0.1400
G01 X37.9211 Y-0.7765 Z0.1400
G01 X38.5551 Y-0.7753 Z0.1400
G01 X38.5559 Y-0.7753 Z0.1400
G01 X39.1900 Y-0.7746 Z0.1400
G01 X39.1906 Y-0.7746 Z0.1400
G01 X39.8246 Y-0.7744 Z0.1400
G01 X39.8254 Y-0.7744 Z0.1400
G01 X40.4594 Y-0.7746 Z0.1400
G01 X40.4601 Y-0.7746 Z0.1400
G01 X41.0941 Y-0.7752 Z0.1400
G01 X41.0949 Y-0.7752 Z0.1400
G01 X41.7289 Y-0.7763 Z0.1400
G01 X41.7297 Y-0.7763 Z0.1400
G01 X42.3637 Y-0.7779 Z0.1400
G01 X42.3644 Y-0.7779 Z0.1400
G01 X42.9984 Y-0.7799 Z0.1400
G01 X42.9991 Y-0.7799 Z0.1400
G01 X43.6331 Y-0.7823 Z0.1400
G01 X43.6339 Y-0.7823 Z0.1400
G01 X44.2679 Y-0.7853 Z0.1400
G01 X44.2686 Y-0.7853 Z0.1400
G01 X44.9025 Y-0.7886 Z0.1400
G01 X44.9034 Y-0.7886 Z0.1400
G01 X45.5374 Y-0.7924 Z0.1400
G01 X45.5381 Y-0.7924 Z0.1400
G01 X46.1722 Y-0.7967 Z0.1400
G01 X46.1729 Y-0.7967 Z0.1400
G01 X46.8037 Y-0.8014 Z0.1400
G01 X46.8042 Y-0.8014 Z0.1400
G01 X46.8076 Y-0.8015 Z0.1400
G01 X47.4408 Y-0.8067 Z0.1400
G01 X47.4423 Y-0.8067 Z0.1400
G01 X48.0736 Y-0.8123 Z0.1400
G01 X48.0767 Y-0.8124 Z0.1400
G01 X48.7098 Y-0.8185 Z0.1400
G01 X48.7118 Y-0.8185 Z0.1400
G01 X49.3447 Y-0.8250 Z0.1400
G01 X49.3464 Y-0.8250 Z0.1400
G01 X49.9797 Y-0.8320 Z0.1400
G01 X49.9811 Y-0.8320 Z0.1400
G01 X50.6144 Y-0.8394 Z0.1400
G01 X50.6159 Y-0.8394 Z0.1400
G01 X51.2494 Y-0.8474 Z0.1400
G01 X51.2506 Y-0.8474 Z0.1400
G01 X51.8818 Y-0.8557 Z0.1400
G01 X51.8826 Y-0.8557 Z0.1400
G01 X51.8853 Y-0.8557 Z0.1400
G01 X52.5179 Y-0.8646 Z0.1400
G01 X52.5200 Y-0.8646 Z0.1400
G01 X53.1533 Y-0.8738 Z0.1400
G01 X53.1546 Y-0.8739 Z0.1400
G01 X53.7875 Y-0.8836 Z0.1400
G01 X53.7894 Y-0.8836 Z0.1400
G01 X54.4226 Y-0.8938 Z0.1400
G01 X54.4240 Y-0.8938 Z0.1400
G01 X55.0573 Y-0.9044 Z0.1400
G01 X55.0586 Y-0.9044 Z0.1400
G01 X55.6903 Y-0.9154 Z0.1400
G01 X55.6911 Y-0.9155 Z0.1400
G01 X55.6947 Y-0.9155 Z0.1400
G01 X55.6955 Y-0.9155 Z0.1400
G01 X56.3262 Y-0.9270 Z0.1400
G01 X56.3284 Y-0.9270 Z0.1400
G01 X56.3300 Y-0.9270 Z0.1400
G01 X56.9609 Y-0.9390 Z0.1400
G01 X56.9625 Y-0.9390 Z0.1400
G01 X57.5957 Y-0.9515 Z0.1400
G01 X57.5981 Y-0.9515 Z0.1400
G01 X57.5992 Y-0.9515 Z0.1400
G01 X58.2276 Y-0.9643 Z0.1400
G01 X58.2301 Y-0.9644 Z0.1400
G01 X58.2336 Y-0.9645 Z0.1400
G01 X58.8648 Y-0.9778 Z0.1400
G01 X58.8674 Y-0.9778 Z0.1400
G01 X58.8682 Y-0.9778 Z0.1400
G01 X59.4993 Y-0.9915 Z0.1400
G01 X59.5011 Y-0.9916 Z0.1400
G01 X60.1341 Y-1.0059 Z0.1400
G01 X60.1355 Y-1.0059 Z0.1400
G01 X60.7662 Y-1.0205 Z0.1400
G01 X60.7687 Y-1.0206 Z0.1400
G01 X60.7716 Y-1.0207 Z0.1400
G01 X61.4033 Y-1.0358 Z0.1400
G01 X61.4063 Y-1.0359 Z0.1400
G01 X62.0376 Y-1.0514 Z0.1400
G01 X62.0394 Y-1.0514 Z0.1400
G01 X62.6723 Y-1.0675 Z0.1400
G01 X62.6743 Y-1.0676 Z0.1400
G01 X63.3065 Y-1.0840 Z0.1400
G01 X63.3074 Y-1.0840 Z0.1400
G01 X63.3085 Y-1.0841 Z0.1400
G01 X63.9414 Y-1.1011 Z0.1400
G01 X63.9429 Y-1.1011 Z0.1400
G01 X64.5740 Y-1.1185 Z0.1400
G01 X64.5765 Y-1.1186 Z0.1400
G01 X64.5780 Y-1.1186 Z0.1400
G01 X65.2103 Y-1.1364 Z0.1400
G01 X65.2119 Y-1.1365 Z0.1400
G01 X65.8449 Y-1.1548 Z0.1400
G01 X65.8454 Y-1.1548 Z0.1400
G01 X65.8464 Y-1.1548 Z0.1400
G01 X66.4779 Y-1.1735 Z0.1400
G01 X66.4802 Y-1.1737 Z0.1400
G01 X66.4813 Y-1.1737 Z0.1400
G01 X67.1137 Y-1.1929 Z0.1400
G01 X67.1147 Y-1.1929 Z0.1400
G01 X67.1165 Y-1.1929 Z0.1400
G01 X70.7312 Y-1.3054 Z0.1400
G01 X70.6988 Y-2.3473 Z0.1400
G01 X67.0830 Y-2.2348 Z0.1400
G01 X66.4516 Y-2.2156 Z0.1400
G01 X66.4500 Y-2.2156 Z0.1400
G01 X66.4483 Y-2.2155 Z0.1400
G01 X65.8155 Y-2.1968 Z0.1400
G01 X65.1829 Y-2.1785 Z0.1400
G01 X65.1805 Y-2.1784 Z0.1400
G01 X64.5505 Y-2.1606 Z0.1400
G01 X64.5491 Y-2.1606 Z0.1400
G01 X64.5466 Y-2.1605 Z0.1400
G01 X63.9142 Y-2.1431 Z0.1400
G01 X63.2805 Y-2.1261 Z0.1400
G01 X62.6467 Y-2.1096 Z0.1400
G01 X62.0129 Y-2.0935 Z0.1400
G01 X61.3790 Y-2.0779 Z0.1400
G01 X60.7481 Y-2.0628 Z0.1400
G01 X60.7469 Y-2.0628 Z0.1400
G01 X60.7442 Y-2.0627 Z0.1400
G01 X60.1121 Y-2.0481 Z0.1400
G01 X60.1106 Y-2.0480 Z0.1400
G01 X59.4776 Y-2.0338 Z0.1400
G01 X58.8437 Y-2.0200 Z0.1400
G01 X58.2131 Y-2.0067 Z0.1400
G01 X58.2120 Y-2.0067 Z0.1400
G01 X58.2088 Y-2.0066 Z0.1400
G01 X57.5760 Y-1.9938 Z0.1400
G01 X56.9427 Y-1.9813 Z0.1400
G01 X56.9411 Y-1.9813 Z0.1400
G01 X56.3082 Y-1.9693 Z0.1400
G01 X55.6778 Y-1.9578 Z0.1400
G01 X55.6770 Y-1.9578 Z0.1400
G01 X55.6743 Y-1.9577 Z0.1400
G01 X55.0404 Y-1.9467 Z0.1400
G01 X54.4065 Y-1.9361 Z0.1400
G01 X53.7726 Y-1.9259 Z0.1400
G01 X53.1393 Y-1.9162 Z0.1400
G01 X53.1378 Y-1.9161 Z0.1400
G01 X52.5047 Y-1.9068 Z0.1400
G01 X51.8750 Y-1.8981 Z0.1400
G01 X51.8707 Y-1.8981 Z0.1400
G01 X51.2368 Y-1.8897 Z0.1400
G01 X50.6029 Y-1.8818 Z0.1400
G01 X49.9689 Y-1.8744 Z0.1400
G01 X49.3350 Y-1.8674 Z0.1400
G01 X48.7010 Y-1.8608 Z0.1400
G01 X48.0670 Y-1.8547 Z0.1400
G01 X47.4337 Y-1.8491 Z0.1400
G01 X47.4322 Y-1.8490 Z0.1400
G01 X46.8039 Y-1.8439 Z0.1400
G01 X46.7990 Y-1.8439 Z0.1400
G01 X46.1651 Y-1.8392 Z0.1400
G01 X45.5311 Y-1.8349 Z0.1400
G01 X44.8971 Y-1.8311 Z0.1400
G01 X44.2631 Y-1.8277 Z0.1400
G01 X43.6291 Y-1.8248 Z0.1400
G01 X42.9951 Y-1.8223 Z0.1400
G01 X42.3611 Y-1.8203 Z0.1400
G01 X41.7271 Y-1.8187 Z0.1400
G01 X41.0931 Y-1.8176 Z0.1400
G01 X40.4591 Y-1.8170 Z0.1400
G01 X39.8251 Y-1.8168 Z0.1400
G01 X39.1912 Y-1.8171 Z0.1400
G01 X38.5572 Y-1.8178 Z0.1400
G01 X37.9231 Y-1.8190 Z0.1400
G01 X37.2892 Y-1.8206 Z0.1400
G01 X36.6551 Y-1.8227 Z0.1400
G01 X36.0212 Y-1.8252 Z0.1400
G01 X35.3871 Y-1.8282 Z0.1400
G01 X34.7532 Y-1.8316 Z0.1400
G01 X34.1192 Y-1.8355 Z0.1400
G01 X33.4852 Y-1.8398 Z0.1400
G01 X32.8511 Y-1.8446 Z0.1400
G01 X32.8463 Y-1.8446 Z0.1400
G01 X32.2181 Y-1.8498 Z0.1400
G01 X32.2162 Y-1.8499 Z0.1400
G01 X31.5833 Y-1.8556 Z0.1400
G01 X30.9492 Y-1.8618 Z0.1400
G01 X30.3153 Y-1.8684 Z0.1400
G01 X29.6813 Y-1.8754 Z0.1400
G01 X29.0474 Y-1.8829 Z0.1400
G01 X28.4134 Y-1.8909 Z0.1400
G01 X27.7794 Y-1.8994 Z0.1400
G01 X27.7752 Y-1.8994 Z0.1400
G01 X27.1455 Y-1.9082 Z0.1400
G01 X26.5124 Y-1.9175 Z0.1400
G01 X26.5109 Y-1.9176 Z0.1400
G01 X25.8777 Y-1.9274 Z0.1400
G01 X25.2437 Y-1.9376 Z0.1400
G01 X24.6098 Y-1.9483 Z0.1400
G01 X24.6068 Y-1.9483 Z0.1400
G01 X24.6060 Y-1.9483 Z0.1400
G01 X23.9759 Y-1.9594 Z0.1400
G01 X23.3420 Y-1.9711 Z0.1400
G01 X22.7091 Y-1.9831 Z0.1400
G01 X22.7070 Y-1.9831 Z0.1400
G01 X22.0743 Y-1.9957 Z0.1400
G01 X21.4413 Y-2.0087 Z0.1400
G01 X21.4382 Y-2.0087 Z0.1400
G01 X21.4372 Y-2.0087 Z0.1400
G01 X20.8066 Y-2.0220 Z0.1400
G01 X20.1727 Y-2.0359 Z0.1400
G01 X19.5398 Y-2.0502 Z0.1400
G01 X19.5376 Y-2.0503 Z0.1400
G01 X18.9059 Y-2.0650 Z0.1400
G01 X18.9033 Y-2.0650 Z0.1400
G01 X18.9022 Y-2.0651 Z0.1400
G01 X18.2712 Y-2.0802 Z0.1400
G01 X17.6374 Y-2.0959 Z0.1400
G01 X17.0037 Y-2.1120 Z0.1400
G01 X16.3698 Y-2.1287 Z0.1400
G01 X15.7360 Y-2.1457 Z0.1400
G01 X15.1035 Y-2.1632 Z0.1400
G01 X15.1011 Y-2.1632 Z0.1400
G01 X15.0996 Y-2.1633 Z0.1400
G01 X14.4695 Y-2.1811 Z0.1400
G01 X14.4677 Y-2.1812 Z0.1400
G01 X13.8348 Y-2.1996 Z0.1400
G01 X13.2020 Y-2.2184 Z0.1400
G01 X13.2002 Y-2.2184 Z0.1400
G01 X13.1986 Y-2.2185 Z0.1400
G01 X12.5683 Y-2.2377 Z0.1400
G01 X12.5648 Y-2.2379 Z0.1400
G01 X11.9337 Y-2.2575 Z0.1400
G01 X11.3005 Y-2.2777 Z0.1400
G01 X11.2994 Y-2.2778 Z0.1400
G01 X11.2977 Y-2.2778 Z0.1400
G01 X10.6663 Y-2.2984 Z0.1400
G01 X10.0337 Y-2.3195 Z0.1400
G01 X10.0318 Y-2.3196 Z0.1400
G01 X9.3993 Y-2.3412 Z0.1400
G01 X9.3987 Y-2.3412 Z0.1400
G01 X9.3969 Y-2.3412 Z0.1400
G01 X8.7654 Y-2.3632 Z0.1400
G01 X8.1321 Y-2.3857 Z0.1400
G01 X7.4982 Y-2.4086 Z0.1400
G01 X6.8646 Y-2.4320 Z0.1400
G01 X6.8626 Y-2.4320 Z0.1400
G01 X6.2323 Y-2.4558 Z0.1400
G01 X6.2308 Y-2.4559 Z0.1400
G01 X5.5975 Y-2.4801 Z0.1400
G01 X4.9642 Y-2.5049 Z0.1400
G01 X1.3538 Y-2.6488 Z0.1400
G01 X1.3123 Y-1.6072 Z0.1400
G01 X1.3123 Y-1.6072 Z0.0000
G01 X4.9218 Y-1.4634 Z0.0000
G01 X4.9242 Y-1.4632 Z0.0000
G01 X5.5567 Y-1.4385 Z0.0000
G01 X5.5584 Y-1.4385 Z0.0000
G01 X6.1910 Y-1.4142 Z0.0000
G01 X6.1918 Y-1.4142 Z0.0000
G01 X6.8240 Y-1.3903 Z0.0000
G01 X6.8251 Y-1.3903 Z0.0000
G01 X6.8286 Y-1.3902 Z0.0000
G01 X7.4595 Y-1.3669 Z0.0000
G01 X7.4611 Y-1.3668 Z0.0000
G01 X8.0933 Y-1.3440 Z0.0000
G01 X8.0961 Y-1.3438 Z0.0000
G01 X8.7279 Y-1.3214 Z0.0000
G01 X8.7286 Y-1.3214 Z0.0000
G01 X8.7299 Y-1.3213 Z0.0000
G01 X9.3610 Y-1.2994 Z0.0000
G01 X9.3628 Y-1.2994 Z0.0000
G01 X9.3663 Y-1.2992 Z0.0000
G01 X9.9971 Y-1.2777 Z0.0000
G01 X9.9991 Y-1.2776 Z0.0000
G01 X10.6306 Y-1.2566 Z0.0000
G01 X10.6331 Y-1.2565 Z0.0000
G01 X11.2638 Y-1.2359 Z0.0000
G01 X11.2662 Y-1.2359 Z0.0000
G01 X11.2697 Y-1.2357 Z0.0000
G01 X11.8991 Y-1.2156 Z0.0000
G01 X11.9009 Y-1.2156 Z0.0000
G01 X11.9020 Y-1.2155 Z0.0000
G01 X12.5348 Y-1.1958 Z0.0000
G01 X12.5355 Y-1.1958 Z0.0000
G01 X13.1688 Y-1.1765 Z0.0000
G01 X13.1698 Y-1.1765 Z0.0000
G01 X13.1722 Y-1.1764 Z0.0000
G01 X13.8037 Y-1.1576 Z0.0000
G01 X13.8045 Y-1.1575 Z0.0000
G01 X13.8053 Y-1.1575 Z0.0000
G01 X14.4382 Y-1.1392 Z0.0000
G01 X14.4393 Y-1.1392 Z0.0000
G01 X15.0721 Y-1.1212 Z0.0000
G01 X15.0735 Y-1.1212 Z0.0000
G01 X15.0760 Y-1.1211 Z0.0000
G01 X15.7072 Y-1.1037 Z0.0000
G01 X15.7083 Y-1.1036 Z0.0000
G01 X16.3416 Y-1.0866 Z0.0000
G01 X16.3429 Y-1.0866 Z0.0000
G01 X16.9755 Y-1.0700 Z0.0000
G01 X16.9786 Y-1.0699 Z0.0000
G01 X17.6107 Y-1.0538 Z0.0000
G01 X17.6122 Y-1.0537 Z0.0000
G01 X18.2453 Y-1.0381 Z0.0000
G01 X18.2468 Y-1.0381 Z0.0000
G01 X18.8786 Y-1.0229 Z0.0000
G01 X18.8813 Y-1.0229 Z0.0000
G01 X18.8838 Y-1.0227 Z0.0000
G01 X19.5145 Y-1.0081 Z0.0000
G01 X19.5158 Y-1.0080 Z0.0000
G01 X20.1473 Y-0.9937 Z0.0000
G01 X20.1478 Y-0.9937 Z0.0000
G01 X20.1505 Y-0.9937 Z0.0000
G01 X20.7836 Y-0.9798 Z0.0000
G01 X20.7853 Y-0.9798 Z0.0000
G01 X21.4164 Y-0.9664 Z0.0000
G01 X21.4200 Y-0.9664 Z0.0000
G01 X21.4224 Y-0.9663 Z0.0000
G01 X22.0509 Y-0.9534 Z0.0000
G01 X22.0519 Y-0.9534 Z0.0000
G01 X22.0544 Y-0.9534 Z0.0000
G01 X22.6875 Y-0.9409 Z0.0000
G01 X22.6906 Y-0.9408 Z0.0000
G01 X23.3201 Y-0.9288 Z0.0000
G01 X23.3214 Y-0.9288 Z0.0000
G01 X23.3237 Y-0.9288 Z0.0000
G01 X23.9568 Y-0.9172 Z0.0000
G01 X23.9587 Y-0.9171 Z0.0000
G01 X24.5914 Y-0.9061 Z0.0000
G01 X24.5936 Y-0.9060 Z0.0000
G01 X24.5944 Y-0.9060 Z0.0000
G01 X25.2260 Y-0.8953 Z0.0000
G01 X25.2276 Y-0.8953 Z0.0000
G01 X25.8608 Y-0.8851 Z0.0000
G01 X25.8624 Y-0.8851 Z0.0000
G01 X26.4955 Y-0.8753 Z0.0000
G01 X26.4967 Y-0.8753 Z0.0000
G01 X27.1300 Y-0.8659 Z0.0000
G01 X27.1322 Y-0.8659 Z0.0000
G01 X27.7648 Y-0.8570 Z0.0000
G01 X27.7674 Y-0.8570 Z0.0000
G01 X27.7682 Y-0.8570 Z0.0000
G01 X28.3995 Y-0.8486 Z0.0000
G01 X28.4007 Y-0.8486 Z0.0000
G01 X29.0342 Y-0.8406 Z0.0000
G01 X29.0355 Y-0.8406 Z0.0000
G01 X29.6688 Y-0.8331 Z0.0000
G01 X29.6704 Y-0.8331 Z0.0000
G01 X30.3036 Y-0.8260 Z0.0000
G01 X30.3052 Y-0.8260 Z0.0000
G01 X30.9383 Y-0.8194 Z0.0000
G01 X30.9403 Y-0.8194 Z0.0000
G01 X31.5730 Y-0.8132 Z0.0000
G01 X31.5759 Y-0.8132 Z0.0000
G01 X32.2077 Y-0.8075 Z0.0000
G01 X32.2096 Y-0.8075 Z0.0000
G01 X32.8425 Y-0.8022 Z0.0000
G01 X32.8458 Y-0.8022 Z0.0000
G01 X32.8463 Y-0.8022 Z0.0000
G01 X33.4772 Y-0.7974 Z0.0000
G01 X33.4780 Y-0.7974 Z0.0000
G01 X34.1120 Y-0.7931 Z0.0000
G01 X34.1127 Y-0.7931 Z0.0000
G01 X34.7466 Y-0.7892 Z0.0000
G01 X34.7475 Y-0.7892 Z0.0000
G01 X35.3814 Y-0.7857 Z0.0000
G01 X35.3822 Y-0.7857 Z0.0000
G01 X36.0162 Y-0.7827 Z0.0000
G01 X36.0169 Y-0.7827 Z0.0000
G01 X36.6509 Y-0.7802 Z0.0000
G01 X36.6516 Y-0.7802 Z0.0000
G01 X37.2856 Y-0.7781 Z0.0000
G01 X37.2864 Y-0.7781 Z0.0000
G01 X37.9204 Y-0.7765 Z0.0000
G01 X37.9211 Y-0.7765 Z0.0000
G01 X38.5551 Y-0.7753 Z0.0000
G01 X38.5559 Y-0.7753 Z0.0000
G01 X39.1900 Y-0.7746 Z0.0000
G01 X39.1906 Y-0.7746 Z0.0000
G01 X39.8246 Y-0.7744 Z0.0000
G01 X39.8254 Y-0.7744 Z0.0000
G01 X40.4594 Y-0.7746 Z0.0000
G01 X40.4601 Y-0.7746 Z0.0000
G01 X41.0941 Y-0.7752 Z0.0000
G01 X41.0949 Y-0.7752 Z0.0000
G01 X41.7289 Y-0.7763 Z0.0000
G01 X41.7297 Y-0.7763 Z0.0000
G01 X42.3637 Y-0.7779 Z0.0000
G01 X42.3644 Y-0.7779 Z0.0000
G01 X42.9984 Y-0.7799 Z0.0000
G01 X42.9991 Y-0.7799 Z0.0000
G01 X43.6331 Y-0.7823 Z0.0000
G01 X43.6339 Y-0.7823 Z0.0000
G01 X44.2679 Y-0.7853 Z0.0000
G01 X44.2686 Y-0.7853 Z0.0000
G01 X44.9025 Y-0.7886 Z0.0000
G01 X44.9034 Y-0.7886 Z0.0000
G01 X45.5374 Y-0.7924 Z0.0000
G01 X45.5381 Y-0.7924 Z0.0000
G01 X46.1722 Y-0.7967 Z0.0000
G01 X46.1729 Y-0.7967 Z0.0000
G01 X46.8037 Y-0.8014 Z0.0000
G01 X46.8042 Y-0.8014 Z0.0000
G01 X46.8076 Y-0.8015 Z0.0000
G01 X47.4408 Y-0.8067 Z0.0000
G01 X47.4423 Y-0.8067 Z0.0000
G01 X48.0736 Y-0.8123 Z0.0000
G01 X48.0767 Y-0.8124 Z0.0000
G01 X48.7098 Y-0.8185 Z0.0000
G01 X48.7118 Y-0.8185 Z0.0000
G01 X49.3447 Y-0.8250 Z0.0000
G01 X49.3464 Y-0.8250 Z0.0000
G01 X49.9797 Y-0.8320 Z0.0000
G01 X49.9811 Y-0.8320 Z0.0000
G01 X50.6144 Y-0.8394 Z0.0000
G01 X50.6159 Y-0.8394 Z0.0000
G01 X51.2494 Y-0.8474 Z0.0000
G01 X51.2506 Y-0.8474 Z0.0000
G01 X51.8818 Y-0.8557 Z0.0000
G01 X51.8826 Y-0.8557 Z0.0000
G01 X51.8853 Y-0.8557 Z0.0000
G01 X52.5179 Y-0.8646 Z0.0000
G01 X52.5200 Y-0.8646 Z0.0000
G01 X53.1533 Y-0.8738 Z0.0000
G01 X53.1546 Y-0.8739 Z0.0000
G01 X53.7875 Y-0.8836 Z0.0000
G01 X53.7894 Y-0.8836 Z0.0000
G01 X54.4226 Y-0.8938 Z0.0000
G01 X54.4240 Y-0.8938 Z0.0000
G01 X55.0573 Y-0.9044 Z0.0000
G01 X55.0586 Y-0.9044 Z0.0000
G01 X55.6903 Y-0.9154 Z0.0000
G01 X55.6911 Y-0.9155 Z0.0000
G01 X55.6947 Y-0.9155 Z0.0000
G01 X55.6955 Y-0.9155 Z0.0000
G01 X56.3262 Y-0.9270 Z0.0000
G01 X56.3284 Y-0.9270 Z0.0000
G01 X56.3300 Y-0.9270 Z0.0000
G01 X56.9609 Y-0.9390 Z0.0000
G01 X56.9625 Y-0.9390 Z0.0000
G01 X57.5957 Y-0.9515 Z0.0000
G01 X57.5981 Y-0.9515 Z0.0000
G01 X57.5992 Y-0.9515 Z0.0000
G01 X58.2276 Y-0.9643 Z0.0000
G01 X58.2301 Y-0.9644 Z0.0000
G01 X58.2336 Y-0.9645 Z0.0000
G01 X58.8648 Y-0.9778 Z0.0000
G01 X58.8674 Y-0.9778 Z0.0000
G01 X58.8682 Y-0.9778 Z0.0000
G01 X59.4993 Y-0.9915 Z0.0000
G01 X59.5011 Y-0.9916 Z0.0000
G01 X60.1341 Y-1.0059 Z0.0000
G01 X60.1355 Y-1.0059 Z0.0000
G01 X60.7662 Y-1.0205 Z0.0000
G01 X60.7687 Y-1.0206 Z0.0000
G01 X60.7716 Y-1.0207 Z0.0000
G01 X61.4033 Y-1.0358 Z0.0000
G01 X61.4063 Y-1.0359 Z0.0000
G01 X62.0376 Y-1.0514 Z0.0000
G01 X62.0394 Y-1.0514 Z0.0000
G01 X62.6723 Y-1.0675 Z0.0000
G01 X62.6743 Y-1.0676 Z0.0000
G01 X63.3065 Y-1.0840 Z0.0000
G01 X63.3074 Y-1.0840 Z0.0000
G01 X63.3085 Y-1.0841 Z0.0000
G01 X63.9414 Y-1.1011 Z0.0000
G01 X63.9429 Y-1.1011 Z0.0000
G01 X64.5740 Y-1.1185 Z0.0000
G01 X64.5765 Y-1.1186 Z0.0000
G01 X64.5780 Y-1.1186 Z0.0000
G01 X65.2103 Y-1.1364 Z0.0000
G01 X65.2119 Y-1.1365 Z0.0000
G01 X65.8449 Y-1.1548 Z0.0000
G01 X65.8454 Y-1.1548 Z0.0000
G01 X65.8464 Y-1.1548 Z0.0000
G01 X66.4779 Y-1.1735 Z0.0000
G01 X66.4802 Y-1.1737 Z0.0000
G01 X66.4813 Y-1.1737 Z0.0000
G01 X67.1137 Y-1.1929 Z0.0000
G01 X67.1147 Y-1.1929 Z0.0000
G01 X67.1165 Y-1.1929 Z0.0000
G01 X70.7312 Y-1.3054 Z0.0000
G01 X70.6988 Y-2.3473 Z0.0000
G01 X67.0830 Y-2.2348 Z0.0000
G01 X66.4516 Y-2.2156 Z0.0000
G01 X66.4500 Y-2.2156 Z0.0000
G01 X66.4483 Y-2.2155 Z0.0000
G01 X65.8155 Y-2.1968 Z0.0000
G01 X65.1829 Y-2.1785 Z0.0000
G01 X65.1805 Y-2.1784 Z0.0000
G01 X64.5505 Y-2.1606 Z0.0000
G01 X64.5491 Y-2.1606 Z0.0000
G01 X64.5466 Y-2.1605 Z0.0000
G01 X63.9142 Y-2.1431 Z0.0000
G01 X63.2805 Y-2.1261 Z0.0000
G01 X62.6467 Y-2.1096 Z0.0000
G01 X62.0129 Y-2.0935 Z0.0000
G01 X61.3790 Y-2.0779 Z0.0000
G01 X60.7481 Y-2.0628 Z0.0000
G01 X60.7469 Y-2.0628 Z0.0000
G01 X60.7442 Y-2.0627 Z0.0000
G01 X60.1121 Y-2.0481 Z0.0000
G01 X60.1106 Y-2.0480 Z0.0000
G01 X59.4776 Y-2.0338 Z0.0000
G01 X58.8437 Y-2.0200 Z0.0000
G01 X58.2131 Y-2.0067 Z0.0000
G01 X58.2120 Y-2.0067 Z0.0000
G01 X58.2088 Y-2.0066 Z0.0000
G01 X57.5760 Y-1.9938 Z0.0000
G01 X56.9427 Y-1.9813 Z0.0000
G01 X56.9411 Y-1.9813 Z0.0000
G01 X56.3082 Y-1.9693 Z0.0000
G01 X55.6778 Y-1.9578 Z0.0000
G01 X55.6770 Y-1.9578 Z0.0000
G01 X55.6743 Y-1.9577 Z0.0000
G01 X55.0404 Y-1.9467 Z0.0000
G01 X54.4065 Y-1.9361 Z0.0000
G01 X53.7726 Y-1.9259 Z0.0000
G01 X53.1393 Y-1.9162 Z0.0000
G01 X53.1378 Y-1.9161 Z0.0000
G01 X52.5047 Y-1.9068 Z0.0000
G01 X51.8750 Y-1.8981 Z0.0000
G01 X51.8707 Y-1.8981 Z0.0000
G01 X51.2368 Y-1.8897 Z0.0000
G01 X50.6029 Y-1.8818 Z0.0000
G01 X49.9689 Y-1.8744 Z0.0000
G01 X49.3350 Y-1.8674 Z0.0000
G01 X48.7010 Y-1.8608 Z0.0000
G01 X48.0670 Y-1.8547 Z0.0000
G01 X47.4337 Y-1.8491 Z0.0000
G01 X47.4322 Y-1.8490 Z0.0000
G01 X46.8039 Y-1.8439 Z0.0000
G01 X46.7990 Y-1.8439 Z0.0000
G01 X46.1651 Y-1.8392 Z0.0000
G01 X45.5311 Y-1.8349 Z0.0000
G01 X44.8971 Y-1.8311 Z0.0000
G01 X44.2631 Y-1.8277 Z0.0000
G01 X43.6291 Y-1.8248 Z0.0000
G01 X42.9951 Y-1.8223 Z0.0000
G01 X42.3611 Y-1.8203 Z0.0000
G01 X41.7271 Y-1.8187 Z0.0000
G01 X41.0931 Y-1.8176 Z0.0000
G01 X40.4591 Y-1.8170 Z0.0000
G01 X39.8251 Y-1.8168 Z0.0000
G01 X39.1912 Y-1.8171 Z0.0000
G01 X38.5572 Y-1.8178 Z0.0000
G01 X37.9231 Y-1.8190 Z0.0000
G01 X37.2892 Y-1.8206 Z0.0000
G01 X36.6551 Y-1.8227 Z0.0000
G01 X36.0212 Y-1.8252 Z0.0000
G01 X35.3871 Y-1.8282 Z0.0000
G01 X34.7532 Y-1.8316 Z0.0000
G01 X34.1192 Y-1.8355 Z0.0000
G01 X33.4852 Y-1.8398 Z0.0000
G01 X32.8511 Y-1.8446 Z0.0000
G01 X32.8463 Y-1.8446 Z0.0000
G01 X32.2181 Y-1.8498 Z0.0000
G01 X32.2162 Y-1.8499 Z0.0000
G01 X31.5833 Y-1.8556 Z0.0000
G01 X30.9492 Y-1.8618 Z0.0000
G01 X30.3153 Y-1.8684 Z0.0000
G01 X29.6813 Y-1.8754 Z0.0000
G01 X29.0474 Y-1.8829 Z0.0000
G01 X28.4134 Y-1.8909 Z0.0000
G01 X27.7794 Y-1.8994 Z0.0000
G01 X27.7752 Y-1.8994 Z0.0000
G01 X27.1455 Y-1.9082 Z0.0000
G01 X26.5124 Y-1.9175 Z0.0000
G01 X26.5109 Y-1.9176 Z0.0000
G01 X25.8777 Y-1.9274 Z0.0000
G01 X25.2437 Y-1.9376 Z0.0000
G01 X24.6098 Y-1.9483 Z0.0000
G01 X24.6068 Y-1.9483 Z0.0000
G01 X24.6060 Y-1.9483 Z0.0000
G01 X23.9759 Y-1.9594 Z0.0000
G01 X23.3420 Y-1.9711 Z0.0000
G01 X22.7091 Y-1.9831 Z0.0000
G01 X22.7070 Y-1.9831 Z0.0000
G01 X22.0743 Y-1.9957 Z0.0000
G01 X21.4413 Y-2.0087 Z0.0000
G01 X21.4382 Y-2.0087 Z0.0000
G01 X21.4372 Y-2.0087 Z0.0000
G01 X20.8066 Y-2.0220 Z0.0000
G01 X20.1727 Y-2.0359 Z0.0000
G01 X19.5398 Y-2.0502 Z0.0000
G01 X19.5376 Y-2.0503 Z0.0000
G01 X18.9059 Y-2.0650 Z0.0000
G01 X18.9033 Y-2.0650 Z0.0000
G01 X18.9022 Y-2.0651 Z0.0000
G01 X18.2712 Y-2.0802 Z0.0000
G01 X17.6374 Y-2.0959 Z0.0000
G01 X17.0037 Y-2.1120 Z0.0000
G01 X16.3698 Y-2.1287 Z0.0000
G01 X15.7360 Y-2.1457 Z0.0000
G01 X15.1035 Y-2.1632 Z0.0000
G01 X15.1011 Y-2.1632 Z0.0000
G01 X15.0996 Y-2.1633 Z0.0000
G01 X14.4695 Y-2.1811 Z0.0000
G01 X14.4677 Y-2.1812 Z0.0000
G01 X13.8348 Y-2.1996 Z0.0000
G01 X13.2020 Y-2.2184 Z0.0000
G01 X13.2002 Y-2.2184 Z0.0000
G01 X13.1986 Y-2.2185 Z0.0000
G01 X12.5683 Y-2.2377 Z0.0000
G01 X12.5648 Y-2.2379 Z0.0000
G01 X11.9337 Y-2.2575 Z0.0000
G01 X11.3005 Y-2.2777 Z0.0000
G01 X11.2994 Y-2.2778 Z0.0000
G01 X11.2977 Y-2.2778 Z0.0000
G01 X10.6663 Y-2.2984 Z0.0000
G01 X10.0337 Y-2.3195 Z0.0000
G01 X10.0318 Y-2.3196 Z0.0000
G01 X9.3993 Y-2.3412 Z0.0000
G01 X9.3987 Y-2.3412 Z0.0000
G01 X9.3969 Y-2.3412 Z0.0000
G01 X8.7654 Y-2.3632 Z0.0000
G01 X8.1321 Y-2.3857 Z0.0000
G01 X7.4982 Y-2.4086 Z0.0000
G01 X6.8646 Y-2.4320 Z0.0000
G01 X6.8626 Y-2.4320 Z0.0000
G01 X6.2323 Y-2.4558 Z0.0000
G01 X6.2308 Y-2.4559 Z0.0000
G01 X5.5975 Y-2.4801 Z0.0000
G01 X4.9642 Y-2.5049 Z0.0000
G01 X1.3538 Y-2.6488 Z0.0000
G01 X1.3123 Y-1.6072 Z0.0000
G00 X1.3123 Y-1.6072 Z0.6000
M05
G00 X0.0000 Y0.0000 Z0.6000
G49
G01 G55 Z0 F20
G00 G55 X0 Y0 Z0
M30
