( Sample-snowboard-edge-trench.nc                                              )
( Generated by MonkeyCAM v4.0.6 at 2017-08-16 22:07:57 PDT                     )
(                                                                              )
( This GCode program is provided on an "AS IS" BASIS WITHOUT WARRANTIES OR     )
( CONDITIONS OF ANY KIND, either express or implied. You should inspect this   )
( program very carefully to confirm you understand its operation. YOU ARE      )
( RESPONSIBLE FOR ENSURING THIS PROGRAM WILL NOT DAMAGE YOUR MACHINE OR        )
( MATERIALS.                                                                   )
(                                                                              )
( See http://www.github.com/mikemag/MonkeyCAM for License and documentation.   )
(                                                                              )
( * Rapid height: 0.6000" [1.5240cm]                                           )
( * Tool: T1, Quarter Inch Upcut Spiral, diameter 0.2469" [0.6273cm]           )
( * Height baseline [Z=0.0] is the top of the table.                           )
( * XY origin is the left side of the table, Y is center of the part.          )
( * Requires G54 to be the part work coordinate offsets [WCO]. [0, 0] is the   )
(   center of the nose, with the board extending to positive X. The cutter may )
(   move to negative values of X.                                              )
( * Requires G55 to be the machine WCO, with Z above the rapid height.         )
( * Units are inches                                                           )
( * Center of the board in G54:                                                )
(     X=33.8582 Y=0.0000 Z=0.0000                                              )
( * Cutter bounding box in G54:                                                )
(     X0.0000 Y-5.8986 Z0.0000 to X63.7789 Y5.8986 Z0.6000                     )

G90 G20 G17 G40 G49
G43 H1 T1
G00 G54 X0 Y0 Z0.6000

G00 X3.9366 Y4.8582 Z0.6000
M03
G04 P5
G01 X3.9366 Y4.8582 Z0.2800 F80
G01 X4.0019 Y5.8986 Z0.2800
G01 X7.6209 Y5.6711 Z0.2800
G01 X8.1551 Y5.6382 Z0.2800
G01 X8.1556 Y5.6382 Z0.2800
G01 X8.1561 Y5.6381 Z0.2800
G01 X8.1568 Y5.6381 Z0.2800
G01 X8.6874 Y5.6061 Z0.2800
G01 X8.6880 Y5.6061 Z0.2800
G01 X8.6887 Y5.6060 Z0.2800
G01 X8.6905 Y5.6059 Z0.2800
G01 X9.2253 Y5.5743 Z0.2800
G01 X9.2269 Y5.5742 Z0.2800
G01 X9.7602 Y5.5434 Z0.2800
G01 X9.7607 Y5.5433 Z0.2800
G01 X9.7614 Y5.5433 Z0.2800
G01 X10.2951 Y5.5131 Z0.2800
G01 X10.2963 Y5.5131 Z0.2800
G01 X10.2970 Y5.5130 Z0.2800
G01 X10.8289 Y5.4836 Z0.2800
G01 X10.8310 Y5.4835 Z0.2800
G01 X10.8320 Y5.4834 Z0.2800
G01 X11.3651 Y5.4546 Z0.2800
G01 X11.3676 Y5.4544 Z0.2800
G01 X11.3683 Y5.4544 Z0.2800
G01 X11.3690 Y5.4544 Z0.2800
G01 X11.9002 Y5.4263 Z0.2800
G01 X11.9014 Y5.4262 Z0.2800
G01 X12.4352 Y5.3987 Z0.2800
G01 X12.4399 Y5.3984 Z0.2800
G01 X12.4405 Y5.3984 Z0.2800
G01 X12.9682 Y5.3718 Z0.2800
G01 X12.9692 Y5.3717 Z0.2800
G01 X12.9716 Y5.3716 Z0.2800
G01 X13.5045 Y5.3454 Z0.2800
G01 X13.5072 Y5.3453 Z0.2800
G01 X13.5084 Y5.3452 Z0.2800
G01 X14.0391 Y5.3198 Z0.2800
G01 X14.0407 Y5.3198 Z0.2800
G01 X14.5759 Y5.2948 Z0.2800
G01 X14.5768 Y5.2948 Z0.2800
G01 X14.5779 Y5.2947 Z0.2800
G01 X15.1111 Y5.2705 Z0.2800
G01 X15.1118 Y5.2705 Z0.2800
G01 X15.6463 Y5.2468 Z0.2800
G01 X15.6472 Y5.2468 Z0.2800
G01 X16.1800 Y5.2239 Z0.2800
G01 X16.1820 Y5.2238 Z0.2800
G01 X16.1834 Y5.2238 Z0.2800
G01 X16.7165 Y5.2016 Z0.2800
G01 X16.7176 Y5.2015 Z0.2800
G01 X17.2512 Y5.1800 Z0.2800
G01 X17.2545 Y5.1798 Z0.2800
G01 X17.2557 Y5.1797 Z0.2800
G01 X17.7859 Y5.1589 Z0.2800
G01 X17.7877 Y5.1588 Z0.2800
G01 X18.3231 Y5.1385 Z0.2800
G01 X18.3236 Y5.1385 Z0.2800
G01 X18.8585 Y5.1188 Z0.2800
G01 X18.8591 Y5.1188 Z0.2800
G01 X19.3939 Y5.0998 Z0.2800
G01 X19.9294 Y5.0815 Z0.2800
G01 X19.9307 Y5.0814 Z0.2800
G01 X20.4628 Y5.0639 Z0.2800
G01 X20.4644 Y5.0638 Z0.2800
G01 X20.4658 Y5.0638 Z0.2800
G01 X20.9995 Y5.0468 Z0.2800
G01 X21.0017 Y5.0467 Z0.2800
G01 X21.0038 Y5.0466 Z0.2800
G01 X21.5335 Y5.0305 Z0.2800
G01 X21.5351 Y5.0304 Z0.2800
G01 X21.5371 Y5.0304 Z0.2800
G01 X22.0715 Y5.0147 Z0.2800
G01 X22.0721 Y5.0147 Z0.2800
G01 X22.6070 Y4.9997 Z0.2800
G01 X23.1426 Y4.9853 Z0.2800
G01 X23.1433 Y4.9853 Z0.2800
G01 X23.6783 Y4.9716 Z0.2800
G01 X24.2112 Y4.9586 Z0.2800
G01 X24.2123 Y4.9586 Z0.2800
G01 X24.2148 Y4.9585 Z0.2800
G01 X24.7489 Y4.9462 Z0.2800
G01 X24.7516 Y4.9461 Z0.2800
G01 X25.2822 Y4.9345 Z0.2800
G01 X25.2832 Y4.9345 Z0.2800
G01 X25.2859 Y4.9344 Z0.2800
G01 X25.8208 Y4.9234 Z0.2800
G01 X26.3547 Y4.9131 Z0.2800
G01 X26.3555 Y4.9130 Z0.2800
G01 X26.3585 Y4.9129 Z0.2800
G01 X26.8887 Y4.9033 Z0.2800
G01 X26.8895 Y4.9033 Z0.2800
G01 X26.8922 Y4.9032 Z0.2800
G01 X27.4279 Y4.8942 Z0.2800
G01 X27.9620 Y4.8858 Z0.2800
G01 X27.9655 Y4.8857 Z0.2800
G01 X28.4954 Y4.8780 Z0.2800
G01 X28.4993 Y4.8780 Z0.2800
G01 X29.0351 Y4.8709 Z0.2800
G01 X29.5708 Y4.8645 Z0.2800
G01 X30.1066 Y4.8587 Z0.2800
G01 X30.6412 Y4.8537 Z0.2800
G01 X30.6439 Y4.8536 Z0.2800
G01 X31.1734 Y4.8492 Z0.2800
G01 X31.1781 Y4.8492 Z0.2800
G01 X31.7139 Y4.8454 Z0.2800
G01 X32.2496 Y4.8423 Z0.2800
G01 X32.7854 Y4.8399 Z0.2800
G01 X33.3212 Y4.8381 Z0.2800
G01 X33.8570 Y4.8370 Z0.2800
G01 X34.3927 Y4.8365 Z0.2800
G01 X34.9284 Y4.8367 Z0.2800
G01 X35.4642 Y4.8376 Z0.2800
G01 X36.0000 Y4.8391 Z0.2800
G01 X36.5357 Y4.8413 Z0.2800
G01 X37.0715 Y4.8442 Z0.2800
G01 X37.6073 Y4.8477 Z0.2800
G01 X38.1430 Y4.8519 Z0.2800
G01 X38.6788 Y4.8567 Z0.2800
G01 X39.2145 Y4.8622 Z0.2800
G01 X39.7503 Y4.8684 Z0.2800
G01 X40.2862 Y4.8753 Z0.2800
G01 X40.2904 Y4.8753 Z0.2800
G01 X40.8201 Y4.8827 Z0.2800
G01 X40.8224 Y4.8827 Z0.2800
G01 X41.3575 Y4.8909 Z0.2800
G01 X41.8933 Y4.8997 Z0.2800
G01 X41.8962 Y4.8998 Z0.2800
G01 X41.8971 Y4.8998 Z0.2800
G01 X42.4289 Y4.9092 Z0.2800
G01 X42.9627 Y4.9193 Z0.2800
G01 X42.9656 Y4.9194 Z0.2800
G01 X42.9664 Y4.9194 Z0.2800
G01 X43.4995 Y4.9302 Z0.2800
G01 X43.5025 Y4.9302 Z0.2800
G01 X43.5035 Y4.9303 Z0.2800
G01 X44.0359 Y4.9416 Z0.2800
G01 X44.5708 Y4.9538 Z0.2800
G01 X44.5717 Y4.9538 Z0.2800
G01 X45.1072 Y4.9666 Z0.2800
G01 X45.6424 Y4.9801 Z0.2800
G01 X45.6429 Y4.9801 Z0.2800
G01 X46.1784 Y4.9942 Z0.2800
G01 X46.7134 Y5.0090 Z0.2800
G01 X46.7141 Y5.0090 Z0.2800
G01 X47.2495 Y5.0244 Z0.2800
G01 X47.7848 Y5.0405 Z0.2800
G01 X48.3199 Y5.0573 Z0.2800
G01 X48.3213 Y5.0574 Z0.2800
G01 X48.3230 Y5.0574 Z0.2800
G01 X48.8536 Y5.0747 Z0.2800
G01 X48.8553 Y5.0747 Z0.2800
G01 X48.8579 Y5.0748 Z0.2800
G01 X49.3912 Y5.0929 Z0.2800
G01 X49.3920 Y5.0929 Z0.2800
G01 X49.3937 Y5.0929 Z0.2800
G01 X49.9262 Y5.1116 Z0.2800
G01 X49.9272 Y5.1116 Z0.2800
G01 X50.4625 Y5.1310 Z0.2800
G01 X50.4645 Y5.1311 Z0.2800
G01 X50.9935 Y5.1509 Z0.2800
G01 X50.9945 Y5.1509 Z0.2800
G01 X50.9980 Y5.1511 Z0.2800
G01 X51.5327 Y5.1719 Z0.2800
G01 X51.5334 Y5.1719 Z0.2800
G01 X52.0687 Y5.1933 Z0.2800
G01 X52.0703 Y5.1933 Z0.2800
G01 X52.6030 Y5.2153 Z0.2800
G01 X52.6035 Y5.2153 Z0.2800
G01 X52.6044 Y5.2153 Z0.2800
G01 X53.1387 Y5.2381 Z0.2800
G01 X53.1396 Y5.2381 Z0.2800
G01 X53.6734 Y5.2614 Z0.2800
G01 X53.6740 Y5.2614 Z0.2800
G01 X53.6763 Y5.2615 Z0.2800
G01 X54.2056 Y5.2853 Z0.2800
G01 X54.2071 Y5.2854 Z0.2800
G01 X54.2099 Y5.2855 Z0.2800
G01 X54.7442 Y5.3102 Z0.2800
G01 X54.7454 Y5.3103 Z0.2800
G01 X54.7461 Y5.3103 Z0.2800
G01 X55.2796 Y5.3357 Z0.2800
G01 X55.2809 Y5.3357 Z0.2800
G01 X55.8138 Y5.3616 Z0.2800
G01 X55.8144 Y5.3617 Z0.2800
G01 X55.8154 Y5.3617 Z0.2800
G01 X56.3501 Y5.3885 Z0.2800
G01 X56.3519 Y5.3885 Z0.2800
G01 X56.8841 Y5.4157 Z0.2800
G01 X56.8851 Y5.4157 Z0.2800
G01 X56.8864 Y5.4158 Z0.2800
G01 X57.4197 Y5.4438 Z0.2800
G01 X57.4208 Y5.4438 Z0.2800
G01 X57.9523 Y5.4723 Z0.2800
G01 X57.9532 Y5.4724 Z0.2800
G01 X57.9564 Y5.4725 Z0.2800
G01 X58.4877 Y5.5017 Z0.2800
G01 X58.4900 Y5.5018 Z0.2800
G01 X58.4906 Y5.5019 Z0.2800
G01 X59.0238 Y5.5318 Z0.2800
G01 X59.0255 Y5.5319 Z0.2800
G01 X59.5604 Y5.5625 Z0.2800
G01 X59.5614 Y5.5626 Z0.2800
G01 X59.5622 Y5.5627 Z0.2800
G01 X60.0931 Y5.5938 Z0.2800
G01 X60.0950 Y5.5939 Z0.2800
G01 X63.7166 Y5.8106 Z0.2800
G01 X63.7789 Y4.7700 Z0.2800
G01 X60.1577 Y4.5533 Z0.2800
G01 X60.1564 Y4.5533 Z0.2800
G01 X59.6216 Y4.5219 Z0.2800
G01 X59.6196 Y4.5218 Z0.2800
G01 X59.6190 Y4.5218 Z0.2800
G01 X59.0862 Y4.4912 Z0.2800
G01 X59.0854 Y4.4912 Z0.2800
G01 X59.0839 Y4.4911 Z0.2800
G01 X58.5490 Y4.4611 Z0.2800
G01 X58.5475 Y4.4610 Z0.2800
G01 X58.0128 Y4.4316 Z0.2800
G01 X58.0115 Y4.4316 Z0.2800
G01 X57.4799 Y4.4031 Z0.2800
G01 X57.4773 Y4.4029 Z0.2800
G01 X57.4752 Y4.4028 Z0.2800
G01 X56.9402 Y4.3748 Z0.2800
G01 X56.9387 Y4.3747 Z0.2800
G01 X56.4055 Y4.3474 Z0.2800
G01 X56.4025 Y4.3473 Z0.2800
G01 X55.8674 Y4.3205 Z0.2800
G01 X55.8657 Y4.3205 Z0.2800
G01 X55.3309 Y4.2944 Z0.2800
G01 X55.3298 Y4.2944 Z0.2800
G01 X55.3285 Y4.2943 Z0.2800
G01 X54.7945 Y4.2690 Z0.2800
G01 X54.7937 Y4.2689 Z0.2800
G01 X54.7932 Y4.2689 Z0.2800
G01 X54.2597 Y4.2443 Z0.2800
G01 X54.2570 Y4.2442 Z0.2800
G01 X53.7225 Y4.2201 Z0.2800
G01 X53.7201 Y4.2201 Z0.2800
G01 X53.1857 Y4.1967 Z0.2800
G01 X53.1843 Y4.1966 Z0.2800
G01 X53.1834 Y4.1966 Z0.2800
G01 X52.6493 Y4.1739 Z0.2800
G01 X52.6485 Y4.1738 Z0.2800
G01 X52.6461 Y4.1737 Z0.2800
G01 X52.1136 Y4.1518 Z0.2800
G01 X52.1121 Y4.1517 Z0.2800
G01 X52.1103 Y4.1517 Z0.2800
G01 X51.5758 Y4.1303 Z0.2800
G01 X51.5737 Y4.1302 Z0.2800
G01 X51.0405 Y4.1095 Z0.2800
G01 X51.0369 Y4.1094 Z0.2800
G01 X50.5020 Y4.0893 Z0.2800
G01 X50.5015 Y4.0893 Z0.2800
G01 X50.5003 Y4.0893 Z0.2800
G01 X49.9657 Y4.0699 Z0.2800
G01 X49.9636 Y4.0698 Z0.2800
G01 X49.9614 Y4.0697 Z0.2800
G01 X49.4290 Y4.0511 Z0.2800
G01 X49.4268 Y4.0510 Z0.2800
G01 X48.8946 Y4.0330 Z0.2800
G01 X48.8918 Y4.0330 Z0.2800
G01 X48.8883 Y4.0328 Z0.2800
G01 X48.8875 Y4.0328 Z0.2800
G01 X48.3554 Y4.0155 Z0.2800
G01 X48.3539 Y4.0154 Z0.2800
G01 X48.3534 Y4.0154 Z0.2800
G01 X47.8186 Y3.9987 Z0.2800
G01 X47.8165 Y3.9986 Z0.2800
G01 X47.2818 Y3.9825 Z0.2800
G01 X47.2801 Y3.9824 Z0.2800
G01 X47.2782 Y3.9824 Z0.2800
G01 X46.7449 Y3.9670 Z0.2800
G01 X46.7418 Y3.9669 Z0.2800
G01 X46.2084 Y3.9522 Z0.2800
G01 X46.2061 Y3.9521 Z0.2800
G01 X46.2044 Y3.9521 Z0.2800
G01 X45.6714 Y3.9381 Z0.2800
G01 X45.6684 Y3.9379 Z0.2800
G01 X45.6677 Y3.9379 Z0.2800
G01 X45.1350 Y3.9245 Z0.2800
G01 X45.1321 Y3.9245 Z0.2800
G01 X45.1308 Y3.9244 Z0.2800
G01 X44.5977 Y3.9117 Z0.2800
G01 X44.5950 Y3.9116 Z0.2800
G01 X44.5929 Y3.9115 Z0.2800
G01 X44.0609 Y3.8995 Z0.2800
G01 X44.0578 Y3.8994 Z0.2800
G01 X44.0568 Y3.8994 Z0.2800
G01 X43.5246 Y3.8880 Z0.2800
G01 X43.5240 Y3.8880 Z0.2800
G01 X43.5204 Y3.8880 Z0.2800
G01 X43.5180 Y3.8879 Z0.2800
G01 X42.9892 Y3.8772 Z0.2800
G01 X42.9887 Y3.8772 Z0.2800
G01 X42.9851 Y3.8772 Z0.2800
G01 X42.9826 Y3.8770 Z0.2800
G01 X42.4496 Y3.8669 Z0.2800
G01 X42.4464 Y3.8669 Z0.2800
G01 X42.4457 Y3.8669 Z0.2800
G01 X41.9118 Y3.8575 Z0.2800
G01 X41.9090 Y3.8574 Z0.2800
G01 X41.9081 Y3.8574 Z0.2800
G01 X41.3748 Y3.8486 Z0.2800
G01 X41.3723 Y3.8486 Z0.2800
G01 X40.8377 Y3.8405 Z0.2800
G01 X40.8362 Y3.8404 Z0.2800
G01 X40.3007 Y3.8329 Z0.2800
G01 X40.2975 Y3.8329 Z0.2800
G01 X40.2967 Y3.8329 Z0.2800
G01 X39.7638 Y3.8261 Z0.2800
G01 X39.7614 Y3.8261 Z0.2800
G01 X39.2267 Y3.8199 Z0.2800
G01 X39.2239 Y3.8199 Z0.2800
G01 X38.6897 Y3.8144 Z0.2800
G01 X38.6855 Y3.8143 Z0.2800
G01 X38.1538 Y3.8095 Z0.2800
G01 X38.1513 Y3.8095 Z0.2800
G01 X38.1495 Y3.8094 Z0.2800
G01 X37.6156 Y3.8053 Z0.2800
G01 X37.6142 Y3.8053 Z0.2800
G01 X37.0784 Y3.8018 Z0.2800
G01 X37.0772 Y3.8018 Z0.2800
G01 X36.5415 Y3.7989 Z0.2800
G01 X36.5401 Y3.7989 Z0.2800
G01 X36.0044 Y3.7967 Z0.2800
G01 X36.0031 Y3.7967 Z0.2800
G01 X35.4673 Y3.7951 Z0.2800
G01 X35.4660 Y3.7951 Z0.2800
G01 X34.9302 Y3.7943 Z0.2800
G01 X34.9289 Y3.7943 Z0.2800
G01 X34.3931 Y3.7941 Z0.2800
G01 X34.3918 Y3.7941 Z0.2800
G01 X33.8561 Y3.7946 Z0.2800
G01 X33.8548 Y3.7946 Z0.2800
G01 X33.3190 Y3.7957 Z0.2800
G01 X33.3177 Y3.7957 Z0.2800
G01 X32.7820 Y3.7974 Z0.2800
G01 X32.7806 Y3.7974 Z0.2800
G01 X32.2449 Y3.7999 Z0.2800
G01 X32.2436 Y3.7999 Z0.2800
G01 X31.7078 Y3.8030 Z0.2800
G01 X31.7065 Y3.8030 Z0.2800
G01 X31.1739 Y3.8067 Z0.2800
G01 X31.1734 Y3.8068 Z0.2800
G01 X31.1699 Y3.8068 Z0.2800
G01 X30.6353 Y3.8112 Z0.2800
G01 X30.6348 Y3.8112 Z0.2800
G01 X30.6325 Y3.8113 Z0.2800
G01 X30.0991 Y3.8163 Z0.2800
G01 X30.0954 Y3.8164 Z0.2800
G01 X29.5610 Y3.8221 Z0.2800
G01 X29.5583 Y3.8221 Z0.2800
G01 X29.0234 Y3.8286 Z0.2800
G01 X29.0214 Y3.8286 Z0.2800
G01 X28.4883 Y3.8356 Z0.2800
G01 X28.4875 Y3.8356 Z0.2800
G01 X28.4842 Y3.8357 Z0.2800
G01 X27.9487 Y3.8434 Z0.2800
G01 X27.9472 Y3.8435 Z0.2800
G01 X27.4127 Y3.8519 Z0.2800
G01 X27.4103 Y3.8519 Z0.2800
G01 X26.8769 Y3.8609 Z0.2800
G01 X26.8760 Y3.8609 Z0.2800
G01 X26.8725 Y3.8610 Z0.2800
G01 X26.8710 Y3.8610 Z0.2800
G01 X26.3387 Y3.8707 Z0.2800
G01 X26.3373 Y3.8707 Z0.2800
G01 X26.3362 Y3.8707 Z0.2800
G01 X25.8018 Y3.8811 Z0.2800
G01 X25.8012 Y3.8811 Z0.2800
G01 X25.7987 Y3.8812 Z0.2800
G01 X25.2671 Y3.8921 Z0.2800
G01 X25.2646 Y3.8922 Z0.2800
G01 X25.2611 Y3.8923 Z0.2800
G01 X25.2605 Y3.8923 Z0.2800
G01 X24.7275 Y3.9040 Z0.2800
G01 X24.7261 Y3.9040 Z0.2800
G01 X24.7254 Y3.9040 Z0.2800
G01 X24.1931 Y3.9163 Z0.2800
G01 X24.1905 Y3.9164 Z0.2800
G01 X24.1870 Y3.9164 Z0.2800
G01 X23.6542 Y3.9294 Z0.2800
G01 X23.6529 Y3.9295 Z0.2800
G01 X23.6502 Y3.9295 Z0.2800
G01 X23.1179 Y3.9431 Z0.2800
G01 X23.1160 Y3.9432 Z0.2800
G01 X23.1136 Y3.9433 Z0.2800
G01 X22.5805 Y3.9576 Z0.2800
G01 X22.5788 Y3.9576 Z0.2800
G01 X22.5767 Y3.9577 Z0.2800
G01 X22.0429 Y3.9726 Z0.2800
G01 X22.0402 Y3.9728 Z0.2800
G01 X21.5054 Y3.9885 Z0.2800
G01 X21.5042 Y3.9885 Z0.2800
G01 X20.9686 Y4.0048 Z0.2800
G01 X20.9659 Y4.0049 Z0.2800
G01 X20.9641 Y4.0050 Z0.2800
G01 X20.4317 Y4.0219 Z0.2800
G01 X20.4301 Y4.0220 Z0.2800
G01 X19.8966 Y4.0396 Z0.2800
G01 X19.8941 Y4.0397 Z0.2800
G01 X19.8926 Y4.0397 Z0.2800
G01 X19.3597 Y4.0580 Z0.2800
G01 X19.3571 Y4.0581 Z0.2800
G01 X19.3550 Y4.0581 Z0.2800
G01 X18.8230 Y4.0770 Z0.2800
G01 X18.8212 Y4.0771 Z0.2800
G01 X18.8194 Y4.0772 Z0.2800
G01 X18.2857 Y4.0968 Z0.2800
G01 X18.2851 Y4.0968 Z0.2800
G01 X18.2828 Y4.0969 Z0.2800
G01 X17.7481 Y4.1172 Z0.2800
G01 X17.7467 Y4.1172 Z0.2800
G01 X17.2114 Y4.1383 Z0.2800
G01 X17.2087 Y4.1384 Z0.2800
G01 X17.2067 Y4.1384 Z0.2800
G01 X16.6754 Y4.1599 Z0.2800
G01 X16.6737 Y4.1600 Z0.2800
G01 X16.1382 Y4.1823 Z0.2800
G01 X16.1363 Y4.1824 Z0.2800
G01 X16.1355 Y4.1824 Z0.2800
G01 X15.6016 Y4.2053 Z0.2800
G01 X15.6000 Y4.2054 Z0.2800
G01 X15.5994 Y4.2055 Z0.2800
G01 X15.0651 Y4.2291 Z0.2800
G01 X15.0632 Y4.2292 Z0.2800
G01 X14.5286 Y4.2535 Z0.2800
G01 X14.5273 Y4.2535 Z0.2800
G01 X13.9921 Y4.2785 Z0.2800
G01 X13.9897 Y4.2786 Z0.2800
G01 X13.9884 Y4.2786 Z0.2800
G01 X13.4561 Y4.3041 Z0.2800
G01 X13.4514 Y4.3044 Z0.2800
G01 X12.9200 Y4.3305 Z0.2800
G01 X12.9185 Y4.3305 Z0.2800
G01 X12.9179 Y4.3306 Z0.2800
G01 X12.3828 Y4.3575 Z0.2800
G01 X12.3784 Y4.3578 Z0.2800
G01 X12.3777 Y4.3578 Z0.2800
G01 X12.3768 Y4.3579 Z0.2800
G01 X11.8464 Y4.3853 Z0.2800
G01 X11.8457 Y4.3853 Z0.2800
G01 X11.8451 Y4.3853 Z0.2800
G01 X11.3101 Y4.4136 Z0.2800
G01 X11.3070 Y4.4138 Z0.2800
G01 X11.3063 Y4.4138 Z0.2800
G01 X11.3057 Y4.4138 Z0.2800
G01 X10.7738 Y4.4426 Z0.2800
G01 X10.7704 Y4.4427 Z0.2800
G01 X10.2375 Y4.4722 Z0.2800
G01 X10.2357 Y4.4724 Z0.2800
G01 X10.2351 Y4.4724 Z0.2800
G01 X9.7013 Y4.5026 Z0.2800
G01 X9.7000 Y4.5026 Z0.2800
G01 X9.1652 Y4.5336 Z0.2800
G01 X9.1639 Y4.5337 Z0.2800
G01 X8.6291 Y4.5653 Z0.2800
G01 X8.6277 Y4.5653 Z0.2800
G01 X8.0929 Y4.5976 Z0.2800
G01 X8.0913 Y4.5977 Z0.2800
G01 X8.0907 Y4.5977 Z0.2800
G01 X7.5586 Y4.6305 Z0.2800
G01 X7.5576 Y4.6306 Z0.2800
G01 X7.5555 Y4.6307 Z0.2800
G01 X3.9366 Y4.8582 Z0.2800
G01 X3.9366 Y4.8582 Z0.1400
G01 X4.0019 Y5.8986 Z0.1400
G01 X7.6209 Y5.6711 Z0.1400
G01 X8.1551 Y5.6382 Z0.1400
G01 X8.1556 Y5.6382 Z0.1400
G01 X8.1561 Y5.6381 Z0.1400
G01 X8.1568 Y5.6381 Z0.1400
G01 X8.6874 Y5.6061 Z0.1400
G01 X8.6880 Y5.6061 Z0.1400
G01 X8.6887 Y5.6060 Z0.1400
G01 X8.6905 Y5.6059 Z0.1400
G01 X9.2253 Y5.5743 Z0.1400
G01 X9.2269 Y5.5742 Z0.1400
G01 X9.7602 Y5.5434 Z0.1400
G01 X9.7607 Y5.5433 Z0.1400
G01 X9.7614 Y5.5433 Z0.1400
G01 X10.2951 Y5.5131 Z0.1400
G01 X10.2963 Y5.5131 Z0.1400
G01 X10.2970 Y5.5130 Z0.1400
G01 X10.8289 Y5.4836 Z0.1400
G01 X10.8310 Y5.4835 Z0.1400
G01 X10.8320 Y5.4834 Z0.1400
G01 X11.3651 Y5.4546 Z0.1400
G01 X11.3676 Y5.4544 Z0.1400
G01 X11.3683 Y5.4544 Z0.1400
G01 X11.3690 Y5.4544 Z0.1400
G01 X11.9002 Y5.4263 Z0.1400
G01 X11.9014 Y5.4262 Z0.1400
G01 X12.4352 Y5.3987 Z0.1400
G01 X12.4399 Y5.3984 Z0.1400
G01 X12.4405 Y5.3984 Z0.1400
G01 X12.9682 Y5.3718 Z0.1400
G01 X12.9692 Y5.3717 Z0.1400
G01 X12.9716 Y5.3716 Z0.1400
G01 X13.5045 Y5.3454 Z0.1400
G01 X13.5072 Y5.3453 Z0.1400
G01 X13.5084 Y5.3452 Z0.1400
G01 X14.0391 Y5.3198 Z0.1400
G01 X14.0407 Y5.3198 Z0.1400
G01 X14.5759 Y5.2948 Z0.1400
G01 X14.5768 Y5.2948 Z0.1400
G01 X14.5779 Y5.2947 Z0.1400
G01 X15.1111 Y5.2705 Z0.1400
G01 X15.1118 Y5.2705 Z0.1400
G01 X15.6463 Y5.2468 Z0.1400
G01 X15.6472 Y5.2468 Z0.1400
G01 X16.1800 Y5.2239 Z0.1400
G01 X16.1820 Y5.2238 Z0.1400
G01 X16.1834 Y5.2238 Z0.1400
G01 X16.7165 Y5.2016 Z0.1400
G01 X16.7176 Y5.2015 Z0.1400
G01 X17.2512 Y5.1800 Z0.1400
G01 X17.2545 Y5.1798 Z0.1400
G01 X17.2557 Y5.1797 Z0.1400
G01 X17.7859 Y5.1589 Z0.1400
G01 X17.7877 Y5.1588 Z0.1400
G01 X18.3231 Y5.1385 Z0.1400
G01 X18.3236 Y5.1385 Z0.1400
G01 X18.8585 Y5.1188 Z0.1400
G01 X18.8591 Y5.1188 Z0.1400
G01 X19.3939 Y5.0998 Z0.1400
G01 X19.9294 Y5.0815 Z0.1400
G01 X19.9307 Y5.0814 Z0.1400
G01 X20.4628 Y5.0639 Z0.1400
G01 X20.4644 Y5.0638 Z0.1400
G01 X20.4658 Y5.0638 Z0.1400
G01 X20.9995 Y5.0468 Z0.1400
G01 X21.0017 Y5.0467 Z0.1400
G01 X21.0038 Y5.0466 Z0.1400
G01 X21.5335 Y5.0305 Z0.1400
G01 X21.5351 Y5.0304 Z0.1400
G01 X21.5371 Y5.0304 Z0.1400
G01 X22.0715 Y5.0147 Z0.1400
G01 X22.0721 Y5.0147 Z0.1400
G01 X22.6070 Y4.9997 Z0.1400
G01 X23.1426 Y4.9853 Z0.1400
G01 X23.1433 Y4.9853 Z0.1400
G01 X23.6783 Y4.9716 Z0.1400
G01 X24.2112 Y4.9586 Z0.1400
G01 X24.2123 Y4.9586 Z0.1400
G01 X24.2148 Y4.9585 Z0.1400
G01 X24.7489 Y4.9462 Z0.1400
G01 X24.7516 Y4.9461 Z0.1400
G01 X25.2822 Y4.9345 Z0.1400
G01 X25.2832 Y4.9345 Z0.1400
G01 X25.2859 Y4.9344 Z0.1400
G01 X25.8208 Y4.9234 Z0.1400
G01 X26.3547 Y4.9131 Z0.1400
G01 X26.3555 Y4.9130 Z0.1400
G01 X26.3585 Y4.9129 Z0.1400
G01 X26.8887 Y4.9033 Z0.1400
G01 X26.8895 Y4.9033 Z0.1400
G01 X26.8922 Y4.9032 Z0.1400
G01 X27.4279 Y4.8942 Z0.1400
G01 X27.9620 Y4.8858 Z0.1400
G01 X27.9655 Y4.8857 Z0.1400
G01 X28.4954 Y4.8780 Z0.1400
G01 X28.4993 Y4.8780 Z0.1400
G01 X29.0351 Y4.8709 Z0.1400
G01 X29.5708 Y4.8645 Z0.1400
G01 X30.1066 Y4.8587 Z0.1400
G01 X30.6412 Y4.8537 Z0.1400
G01 X30.6439 Y4.8536 Z0.1400
G01 X31.1734 Y4.8492 Z0.1400
G01 X31.1781 Y4.8492 Z0.1400
G01 X31.7139 Y4.8454 Z0.1400
G01 X32.2496 Y4.8423 Z0.1400
G01 X32.7854 Y4.8399 Z0.1400
G01 X33.3212 Y4.8381 Z0.1400
G01 X33.8570 Y4.8370 Z0.1400
G01 X34.3927 Y4.8365 Z0.1400
G01 X34.9284 Y4.8367 Z0.1400
G01 X35.4642 Y4.8376 Z0.1400
G01 X36.0000 Y4.8391 Z0.1400
G01 X36.5357 Y4.8413 Z0.1400
G01 X37.0715 Y4.8442 Z0.1400
G01 X37.6073 Y4.8477 Z0.1400
G01 X38.1430 Y4.8519 Z0.1400
G01 X38.6788 Y4.8567 Z0.1400
G01 X39.2145 Y4.8622 Z0.1400
G01 X39.7503 Y4.8684 Z0.1400
G01 X40.2862 Y4.8753 Z0.1400
G01 X40.2904 Y4.8753 Z0.1400
G01 X40.8201 Y4.8827 Z0.1400
G01 X40.8224 Y4.8827 Z0.1400
G01 X41.3575 Y4.8909 Z0.1400
G01 X41.8933 Y4.8997 Z0.1400
G01 X41.8962 Y4.8998 Z0.1400
G01 X41.8971 Y4.8998 Z0.1400
G01 X42.4289 Y4.9092 Z0.1400
G01 X42.9627 Y4.9193 Z0.1400
G01 X42.9656 Y4.9194 Z0.1400
G01 X42.9664 Y4.9194 Z0.1400
G01 X43.4995 Y4.9302 Z0.1400
G01 X43.5025 Y4.9302 Z0.1400
G01 X43.5035 Y4.9303 Z0.1400
G01 X44.0359 Y4.9416 Z0.1400
G01 X44.5708 Y4.9538 Z0.1400
G01 X44.5717 Y4.9538 Z0.1400
G01 X45.1072 Y4.9666 Z0.1400
G01 X45.6424 Y4.9801 Z0.1400
G01 X45.6429 Y4.9801 Z0.1400
G01 X46.1784 Y4.9942 Z0.1400
G01 X46.7134 Y5.0090 Z0.1400
G01 X46.7141 Y5.0090 Z0.1400
G01 X47.2495 Y5.0244 Z0.1400
G01 X47.7848 Y5.0405 Z0.1400
G01 X48.3199 Y5.0573 Z0.1400
G01 X48.3213 Y5.0574 Z0.1400
G01 X48.3230 Y5.0574 Z0.1400
G01 X48.8536 Y5.0747 Z0.1400
G01 X48.8553 Y5.0747 Z0.1400
G01 X48.8579 Y5.0748 Z0.1400
G01 X49.3912 Y5.0929 Z0.1400
G01 X49.3920 Y5.0929 Z0.1400
G01 X49.3937 Y5.0929 Z0.1400
G01 X49.9262 Y5.1116 Z0.1400
G01 X49.9272 Y5.1116 Z0.1400
G01 X50.4625 Y5.1310 Z0.1400
G01 X50.4645 Y5.1311 Z0.1400
G01 X50.9935 Y5.1509 Z0.1400
G01 X50.9945 Y5.1509 Z0.1400
G01 X50.9980 Y5.1511 Z0.1400
G01 X51.5327 Y5.1719 Z0.1400
G01 X51.5334 Y5.1719 Z0.1400
G01 X52.0687 Y5.1933 Z0.1400
G01 X52.0703 Y5.1933 Z0.1400
G01 X52.6030 Y5.2153 Z0.1400
G01 X52.6035 Y5.2153 Z0.1400
G01 X52.6044 Y5.2153 Z0.1400
G01 X53.1387 Y5.2381 Z0.1400
G01 X53.1396 Y5.2381 Z0.1400
G01 X53.6734 Y5.2614 Z0.1400
G01 X53.6740 Y5.2614 Z0.1400
G01 X53.6763 Y5.2615 Z0.1400
G01 X54.2056 Y5.2853 Z0.1400
G01 X54.2071 Y5.2854 Z0.1400
G01 X54.2099 Y5.2855 Z0.1400
G01 X54.7442 Y5.3102 Z0.1400
G01 X54.7454 Y5.3103 Z0.1400
G01 X54.7461 Y5.3103 Z0.1400
G01 X55.2796 Y5.3357 Z0.1400
G01 X55.2809 Y5.3357 Z0.1400
G01 X55.8138 Y5.3616 Z0.1400
G01 X55.8144 Y5.3617 Z0.1400
G01 X55.8154 Y5.3617 Z0.1400
G01 X56.3501 Y5.3885 Z0.1400
G01 X56.3519 Y5.3885 Z0.1400
G01 X56.8841 Y5.4157 Z0.1400
G01 X56.8851 Y5.4157 Z0.1400
G01 X56.8864 Y5.4158 Z0.1400
G01 X57.4197 Y5.4438 Z0.1400
G01 X57.4208 Y5.4438 Z0.1400
G01 X57.9523 Y5.4723 Z0.1400
G01 X57.9532 Y5.4724 Z0.1400
G01 X57.9564 Y5.4725 Z0.1400
G01 X58.4877 Y5.5017 Z0.1400
G01 X58.4900 Y5.5018 Z0.1400
G01 X58.4906 Y5.5019 Z0.1400
G01 X59.0238 Y5.5318 Z0.1400
G01 X59.0255 Y5.5319 Z0.1400
G01 X59.5604 Y5.5625 Z0.1400
G01 X59.5614 Y5.5626 Z0.1400
G01 X59.5622 Y5.5627 Z0.1400
G01 X60.0931 Y5.5938 Z0.1400
G01 X60.0950 Y5.5939 Z0.1400
G01 X63.7166 Y5.8106 Z0.1400
G01 X63.7789 Y4.7700 Z0.1400
G01 X60.1577 Y4.5533 Z0.1400
G01 X60.1564 Y4.5533 Z0.1400
G01 X59.6216 Y4.5219 Z0.1400
G01 X59.6196 Y4.5218 Z0.1400
G01 X59.6190 Y4.5218 Z0.1400
G01 X59.0862 Y4.4912 Z0.1400
G01 X59.0854 Y4.4912 Z0.1400
G01 X59.0839 Y4.4911 Z0.1400
G01 X58.5490 Y4.4611 Z0.1400
G01 X58.5475 Y4.4610 Z0.1400
G01 X58.0128 Y4.4316 Z0.1400
G01 X58.0115 Y4.4316 Z0.1400
G01 X57.4799 Y4.4031 Z0.1400
G01 X57.4773 Y4.4029 Z0.1400
G01 X57.4752 Y4.4028 Z0.1400
G01 X56.9402 Y4.3748 Z0.1400
G01 X56.9387 Y4.3747 Z0.1400
G01 X56.4055 Y4.3474 Z0.1400
G01 X56.4025 Y4.3473 Z0.1400
G01 X55.8674 Y4.3205 Z0.1400
G01 X55.8657 Y4.3205 Z0.1400
G01 X55.3309 Y4.2944 Z0.1400
G01 X55.3298 Y4.2944 Z0.1400
G01 X55.3285 Y4.2943 Z0.1400
G01 X54.7945 Y4.2690 Z0.1400
G01 X54.7937 Y4.2689 Z0.1400
G01 X54.7932 Y4.2689 Z0.1400
G01 X54.2597 Y4.2443 Z0.1400
G01 X54.2570 Y4.2442 Z0.1400
G01 X53.7225 Y4.2201 Z0.1400
G01 X53.7201 Y4.2201 Z0.1400
G01 X53.1857 Y4.1967 Z0.1400
G01 X53.1843 Y4.1966 Z0.1400
G01 X53.1834 Y4.1966 Z0.1400
G01 X52.6493 Y4.1739 Z0.1400
G01 X52.6485 Y4.1738 Z0.1400
G01 X52.6461 Y4.1737 Z0.1400
G01 X52.1136 Y4.1518 Z0.1400
G01 X52.1121 Y4.1517 Z0.1400
G01 X52.1103 Y4.1517 Z0.1400
G01 X51.5758 Y4.1303 Z0.1400
G01 X51.5737 Y4.1302 Z0.1400
G01 X51.0405 Y4.1095 Z0.1400
G01 X51.0369 Y4.1094 Z0.1400
G01 X50.5020 Y4.0893 Z0.1400
G01 X50.5015 Y4.0893 Z0.1400
G01 X50.5003 Y4.0893 Z0.1400
G01 X49.9657 Y4.0699 Z0.1400
G01 X49.9636 Y4.0698 Z0.1400
G01 X49.9614 Y4.0697 Z0.1400
G01 X49.4290 Y4.0511 Z0.1400
G01 X49.4268 Y4.0510 Z0.1400
G01 X48.8946 Y4.0330 Z0.1400
G01 X48.8918 Y4.0330 Z0.1400
G01 X48.8883 Y4.0328 Z0.1400
G01 X48.8875 Y4.0328 Z0.1400
G01 X48.3554 Y4.0155 Z0.1400
G01 X48.3539 Y4.0154 Z0.1400
G01 X48.3534 Y4.0154 Z0.1400
G01 X47.8186 Y3.9987 Z0.1400
G01 X47.8165 Y3.9986 Z0.1400
G01 X47.2818 Y3.9825 Z0.1400
G01 X47.2801 Y3.9824 Z0.1400
G01 X47.2782 Y3.9824 Z0.1400
G01 X46.7449 Y3.9670 Z0.1400
G01 X46.7418 Y3.9669 Z0.1400
G01 X46.2084 Y3.9522 Z0.1400
G01 X46.2061 Y3.9521 Z0.1400
G01 X46.2044 Y3.9521 Z0.1400
G01 X45.6714 Y3.9381 Z0.1400
G01 X45.6684 Y3.9379 Z0.1400
G01 X45.6677 Y3.9379 Z0.1400
G01 X45.1350 Y3.9245 Z0.1400
G01 X45.1321 Y3.9245 Z0.1400
G01 X45.1308 Y3.9244 Z0.1400
G01 X44.5977 Y3.9117 Z0.1400
G01 X44.5950 Y3.9116 Z0.1400
G01 X44.5929 Y3.9115 Z0.1400
G01 X44.0609 Y3.8995 Z0.1400
G01 X44.0578 Y3.8994 Z0.1400
G01 X44.0568 Y3.8994 Z0.1400
G01 X43.5246 Y3.8880 Z0.1400
G01 X43.5240 Y3.8880 Z0.1400
G01 X43.5204 Y3.8880 Z0.1400
G01 X43.5180 Y3.8879 Z0.1400
G01 X42.9892 Y3.8772 Z0.1400
G01 X42.9887 Y3.8772 Z0.1400
G01 X42.9851 Y3.8772 Z0.1400
G01 X42.9826 Y3.8770 Z0.1400
G01 X42.4496 Y3.8669 Z0.1400
G01 X42.4464 Y3.8669 Z0.1400
G01 X42.4457 Y3.8669 Z0.1400
G01 X41.9118 Y3.8575 Z0.1400
G01 X41.9090 Y3.8574 Z0.1400
G01 X41.9081 Y3.8574 Z0.1400
G01 X41.3748 Y3.8486 Z0.1400
G01 X41.3723 Y3.8486 Z0.1400
G01 X40.8377 Y3.8405 Z0.1400
G01 X40.8362 Y3.8404 Z0.1400
G01 X40.3007 Y3.8329 Z0.1400
G01 X40.2975 Y3.8329 Z0.1400
G01 X40.2967 Y3.8329 Z0.1400
G01 X39.7638 Y3.8261 Z0.1400
G01 X39.7614 Y3.8261 Z0.1400
G01 X39.2267 Y3.8199 Z0.1400
G01 X39.2239 Y3.8199 Z0.1400
G01 X38.6897 Y3.8144 Z0.1400
G01 X38.6855 Y3.8143 Z0.1400
G01 X38.1538 Y3.8095 Z0.1400
G01 X38.1513 Y3.8095 Z0.1400
G01 X38.1495 Y3.8094 Z0.1400
G01 X37.6156 Y3.8053 Z0.1400
G01 X37.6142 Y3.8053 Z0.1400
G01 X37.0784 Y3.8018 Z0.1400
G01 X37.0772 Y3.8018 Z0.1400
G01 X36.5415 Y3.7989 Z0.1400
G01 X36.5401 Y3.7989 Z0.1400
G01 X36.0044 Y3.7967 Z0.1400
G01 X36.0031 Y3.7967 Z0.1400
G01 X35.4673 Y3.7951 Z0.1400
G01 X35.4660 Y3.7951 Z0.1400
G01 X34.9302 Y3.7943 Z0.1400
G01 X34.9289 Y3.7943 Z0.1400
G01 X34.3931 Y3.7941 Z0.1400
G01 X34.3918 Y3.7941 Z0.1400
G01 X33.8561 Y3.7946 Z0.1400
G01 X33.8548 Y3.7946 Z0.1400
G01 X33.3190 Y3.7957 Z0.1400
G01 X33.3177 Y3.7957 Z0.1400
G01 X32.7820 Y3.7974 Z0.1400
G01 X32.7806 Y3.7974 Z0.1400
G01 X32.2449 Y3.7999 Z0.1400
G01 X32.2436 Y3.7999 Z0.1400
G01 X31.7078 Y3.8030 Z0.1400
G01 X31.7065 Y3.8030 Z0.1400
G01 X31.1739 Y3.8067 Z0.1400
G01 X31.1734 Y3.8068 Z0.1400
G01 X31.1699 Y3.8068 Z0.1400
G01 X30.6353 Y3.8112 Z0.1400
G01 X30.6348 Y3.8112 Z0.1400
G01 X30.6325 Y3.8113 Z0.1400
G01 X30.0991 Y3.8163 Z0.1400
G01 X30.0954 Y3.8164 Z0.1400
G01 X29.5610 Y3.8221 Z0.1400
G01 X29.5583 Y3.8221 Z0.1400
G01 X29.0234 Y3.8286 Z0.1400
G01 X29.0214 Y3.8286 Z0.1400
G01 X28.4883 Y3.8356 Z0.1400
G01 X28.4875 Y3.8356 Z0.1400
G01 X28.4842 Y3.8357 Z0.1400
G01 X27.9487 Y3.8434 Z0.1400
G01 X27.9472 Y3.8435 Z0.1400
G01 X27.4127 Y3.8519 Z0.1400
G01 X27.4103 Y3.8519 Z0.1400
G01 X26.8769 Y3.8609 Z0.1400
G01 X26.8760 Y3.8609 Z0.1400
G01 X26.8725 Y3.8610 Z0.1400
G01 X26.8710 Y3.8610 Z0.1400
G01 X26.3387 Y3.8707 Z0.1400
G01 X26.3373 Y3.8707 Z0.1400
G01 X26.3362 Y3.8707 Z0.1400
G01 X25.8018 Y3.8811 Z0.1400
G01 X25.8012 Y3.8811 Z0.1400
G01 X25.7987 Y3.8812 Z0.1400
G01 X25.2671 Y3.8921 Z0.1400
G01 X25.2646 Y3.8922 Z0.1400
G01 X25.2611 Y3.8923 Z0.1400
G01 X25.2605 Y3.8923 Z0.1400
G01 X24.7275 Y3.9040 Z0.1400
G01 X24.7261 Y3.9040 Z0.1400
G01 X24.7254 Y3.9040 Z0.1400
G01 X24.1931 Y3.9163 Z0.1400
G01 X24.1905 Y3.9164 Z0.1400
G01 X24.1870 Y3.9164 Z0.1400
G01 X23.6542 Y3.9294 Z0.1400
G01 X23.6529 Y3.9295 Z0.1400
G01 X23.6502 Y3.9295 Z0.1400
G01 X23.1179 Y3.9431 Z0.1400
G01 X23.1160 Y3.9432 Z0.1400
G01 X23.1136 Y3.9433 Z0.1400
G01 X22.5805 Y3.9576 Z0.1400
G01 X22.5788 Y3.9576 Z0.1400
G01 X22.5767 Y3.9577 Z0.1400
G01 X22.0429 Y3.9726 Z0.1400
G01 X22.0402 Y3.9728 Z0.1400
G01 X21.5054 Y3.9885 Z0.1400
G01 X21.5042 Y3.9885 Z0.1400
G01 X20.9686 Y4.0048 Z0.1400
G01 X20.9659 Y4.0049 Z0.1400
G01 X20.9641 Y4.0050 Z0.1400
G01 X20.4317 Y4.0219 Z0.1400
G01 X20.4301 Y4.0220 Z0.1400
G01 X19.8966 Y4.0396 Z0.1400
G01 X19.8941 Y4.0397 Z0.1400
G01 X19.8926 Y4.0397 Z0.1400
G01 X19.3597 Y4.0580 Z0.1400
G01 X19.3571 Y4.0581 Z0.1400
G01 X19.3550 Y4.0581 Z0.1400
G01 X18.8230 Y4.0770 Z0.1400
G01 X18.8212 Y4.0771 Z0.1400
G01 X18.8194 Y4.0772 Z0.1400
G01 X18.2857 Y4.0968 Z0.1400
G01 X18.2851 Y4.0968 Z0.1400
G01 X18.2828 Y4.0969 Z0.1400
G01 X17.7481 Y4.1172 Z0.1400
G01 X17.7467 Y4.1172 Z0.1400
G01 X17.2114 Y4.1383 Z0.1400
G01 X17.2087 Y4.1384 Z0.1400
G01 X17.2067 Y4.1384 Z0.1400
G01 X16.6754 Y4.1599 Z0.1400
G01 X16.6737 Y4.1600 Z0.1400
G01 X16.1382 Y4.1823 Z0.1400
G01 X16.1363 Y4.1824 Z0.1400
G01 X16.1355 Y4.1824 Z0.1400
G01 X15.6016 Y4.2053 Z0.1400
G01 X15.6000 Y4.2054 Z0.1400
G01 X15.5994 Y4.2055 Z0.1400
G01 X15.0651 Y4.2291 Z0.1400
G01 X15.0632 Y4.2292 Z0.1400
G01 X14.5286 Y4.2535 Z0.1400
G01 X14.5273 Y4.2535 Z0.1400
G01 X13.9921 Y4.2785 Z0.1400
G01 X13.9897 Y4.2786 Z0.1400
G01 X13.9884 Y4.2786 Z0.1400
G01 X13.4561 Y4.3041 Z0.1400
G01 X13.4514 Y4.3044 Z0.1400
G01 X12.9200 Y4.3305 Z0.1400
G01 X12.9185 Y4.3305 Z0.1400
G01 X12.9179 Y4.3306 Z0.1400
G01 X12.3828 Y4.3575 Z0.1400
G01 X12.3784 Y4.3578 Z0.1400
G01 X12.3777 Y4.3578 Z0.1400
G01 X12.3768 Y4.3579 Z0.1400
G01 X11.8464 Y4.3853 Z0.1400
G01 X11.8457 Y4.3853 Z0.1400
G01 X11.8451 Y4.3853 Z0.1400
G01 X11.3101 Y4.4136 Z0.1400
G01 X11.3070 Y4.4138 Z0.1400
G01 X11.3063 Y4.4138 Z0.1400
G01 X11.3057 Y4.4138 Z0.1400
G01 X10.7738 Y4.4426 Z0.1400
G01 X10.7704 Y4.4427 Z0.1400
G01 X10.2375 Y4.4722 Z0.1400
G01 X10.2357 Y4.4724 Z0.1400
G01 X10.2351 Y4.4724 Z0.1400
G01 X9.7013 Y4.5026 Z0.1400
G01 X9.7000 Y4.5026 Z0.1400
G01 X9.1652 Y4.5336 Z0.1400
G01 X9.1639 Y4.5337 Z0.1400
G01 X8.6291 Y4.5653 Z0.1400
G01 X8.6277 Y4.5653 Z0.1400
G01 X8.0929 Y4.5976 Z0.1400
G01 X8.0913 Y4.5977 Z0.1400
G01 X8.0907 Y4.5977 Z0.1400
G01 X7.5586 Y4.6305 Z0.1400
G01 X7.5576 Y4.6306 Z0.1400
G01 X7.5555 Y4.6307 Z0.1400
G01 X3.9366 Y4.8582 Z0.1400
G01 X3.9366 Y4.8582 Z0.0000
G01 X4.0019 Y5.8986 Z0.0000
G01 X7.6209 Y5.6711 Z0.0000
G01 X8.1551 Y5.6382 Z0.0000
G01 X8.1556 Y5.6382 Z0.0000
G01 X8.1561 Y5.6381 Z0.0000
G01 X8.1568 Y5.6381 Z0.0000
G01 X8.6874 Y5.6061 Z0.0000
G01 X8.6880 Y5.6061 Z0.0000
G01 X8.6887 Y5.6060 Z0.0000
G01 X8.6905 Y5.6059 Z0.0000
G01 X9.2253 Y5.5743 Z0.0000
G01 X9.2269 Y5.5742 Z0.0000
G01 X9.7602 Y5.5434 Z0.0000
G01 X9.7607 Y5.5433 Z0.0000
G01 X9.7614 Y5.5433 Z0.0000
G01 X10.2951 Y5.5131 Z0.0000
G01 X10.2963 Y5.5131 Z0.0000
G01 X10.2970 Y5.5130 Z0.0000
G01 X10.8289 Y5.4836 Z0.0000
G01 X10.8310 Y5.4835 Z0.0000
G01 X10.8320 Y5.4834 Z0.0000
G01 X11.3651 Y5.4546 Z0.0000
G01 X11.3676 Y5.4544 Z0.0000
G01 X11.3683 Y5.4544 Z0.0000
G01 X11.3690 Y5.4544 Z0.0000
G01 X11.9002 Y5.4263 Z0.0000
G01 X11.9014 Y5.4262 Z0.0000
G01 X12.4352 Y5.3987 Z0.0000
G01 X12.4399 Y5.3984 Z0.0000
G01 X12.4405 Y5.3984 Z0.0000
G01 X12.9682 Y5.3718 Z0.0000
G01 X12.9692 Y5.3717 Z0.0000
G01 X12.9716 Y5.3716 Z0.0000
G01 X13.5045 Y5.3454 Z0.0000
G01 X13.5072 Y5.3453 Z0.0000
G01 X13.5084 Y5.3452 Z0.0000
G01 X14.0391 Y5.3198 Z0.0000
G01 X14.0407 Y5.3198 Z0.0000
G01 X14.5759 Y5.2948 Z0.0000
G01 X14.5768 Y5.2948 Z0.0000
G01 X14.5779 Y5.2947 Z0.0000
G01 X15.1111 Y5.2705 Z0.0000
G01 X15.1118 Y5.2705 Z0.0000
G01 X15.6463 Y5.2468 Z0.0000
G01 X15.6472 Y5.2468 Z0.0000
G01 X16.1800 Y5.2239 Z0.0000
G01 X16.1820 Y5.2238 Z0.0000
G01 X16.1834 Y5.2238 Z0.0000
G01 X16.7165 Y5.2016 Z0.0000
G01 X16.7176 Y5.2015 Z0.0000
G01 X17.2512 Y5.1800 Z0.0000
G01 X17.2545 Y5.1798 Z0.0000
G01 X17.2557 Y5.1797 Z0.0000
G01 X17.7859 Y5.1589 Z0.0000
G01 X17.7877 Y5.1588 Z0.0000
G01 X18.3231 Y5.1385 Z0.0000
G01 X18.3236 Y5.1385 Z0.0000
G01 X18.8585 Y5.1188 Z0.0000
G01 X18.8591 Y5.1188 Z0.0000
G01 X19.3939 Y5.0998 Z0.0000
G01 X19.9294 Y5.0815 Z0.0000
G01 X19.9307 Y5.0814 Z0.0000
G01 X20.4628 Y5.0639 Z0.0000
G01 X20.4644 Y5.0638 Z0.0000
G01 X20.4658 Y5.0638 Z0.0000
G01 X20.9995 Y5.0468 Z0.0000
G01 X21.0017 Y5.0467 Z0.0000
G01 X21.0038 Y5.0466 Z0.0000
G01 X21.5335 Y5.0305 Z0.0000
G01 X21.5351 Y5.0304 Z0.0000
G01 X21.5371 Y5.0304 Z0.0000
G01 X22.0715 Y5.0147 Z0.0000
G01 X22.0721 Y5.0147 Z0.0000
G01 X22.6070 Y4.9997 Z0.0000
G01 X23.1426 Y4.9853 Z0.0000
G01 X23.1433 Y4.9853 Z0.0000
G01 X23.6783 Y4.9716 Z0.0000
G01 X24.2112 Y4.9586 Z0.0000
G01 X24.2123 Y4.9586 Z0.0000
G01 X24.2148 Y4.9585 Z0.0000
G01 X24.7489 Y4.9462 Z0.0000
G01 X24.7516 Y4.9461 Z0.0000
G01 X25.2822 Y4.9345 Z0.0000
G01 X25.2832 Y4.9345 Z0.0000
G01 X25.2859 Y4.9344 Z0.0000
G01 X25.8208 Y4.9234 Z0.0000
G01 X26.3547 Y4.9131 Z0.0000
G01 X26.3555 Y4.9130 Z0.0000
G01 X26.3585 Y4.9129 Z0.0000
G01 X26.8887 Y4.9033 Z0.0000
G01 X26.8895 Y4.9033 Z0.0000
G01 X26.8922 Y4.9032 Z0.0000
G01 X27.4279 Y4.8942 Z0.0000
G01 X27.9620 Y4.8858 Z0.0000
G01 X27.9655 Y4.8857 Z0.0000
G01 X28.4954 Y4.8780 Z0.0000
G01 X28.4993 Y4.8780 Z0.0000
G01 X29.0351 Y4.8709 Z0.0000
G01 X29.5708 Y4.8645 Z0.0000
G01 X30.1066 Y4.8587 Z0.0000
G01 X30.6412 Y4.8537 Z0.0000
G01 X30.6439 Y4.8536 Z0.0000
G01 X31.1734 Y4.8492 Z0.0000
G01 X31.1781 Y4.8492 Z0.0000
G01 X31.7139 Y4.8454 Z0.0000
G01 X32.2496 Y4.8423 Z0.0000
G01 X32.7854 Y4.8399 Z0.0000
G01 X33.3212 Y4.8381 Z0.0000
G01 X33.8570 Y4.8370 Z0.0000
G01 X34.3927 Y4.8365 Z0.0000
G01 X34.9284 Y4.8367 Z0.0000
G01 X35.4642 Y4.8376 Z0.0000
G01 X36.0000 Y4.8391 Z0.0000
G01 X36.5357 Y4.8413 Z0.0000
G01 X37.0715 Y4.8442 Z0.0000
G01 X37.6073 Y4.8477 Z0.0000
G01 X38.1430 Y4.8519 Z0.0000
G01 X38.6788 Y4.8567 Z0.0000
G01 X39.2145 Y4.8622 Z0.0000
G01 X39.7503 Y4.8684 Z0.0000
G01 X40.2862 Y4.8753 Z0.0000
G01 X40.2904 Y4.8753 Z0.0000
G01 X40.8201 Y4.8827 Z0.0000
G01 X40.8224 Y4.8827 Z0.0000
G01 X41.3575 Y4.8909 Z0.0000
G01 X41.8933 Y4.8997 Z0.0000
G01 X41.8962 Y4.8998 Z0.0000
G01 X41.8971 Y4.8998 Z0.0000
G01 X42.4289 Y4.9092 Z0.0000
G01 X42.9627 Y4.9193 Z0.0000
G01 X42.9656 Y4.9194 Z0.0000
G01 X42.9664 Y4.9194 Z0.0000
G01 X43.4995 Y4.9302 Z0.0000
G01 X43.5025 Y4.9302 Z0.0000
G01 X43.5035 Y4.9303 Z0.0000
G01 X44.0359 Y4.9416 Z0.0000
G01 X44.5708 Y4.9538 Z0.0000
G01 X44.5717 Y4.9538 Z0.0000
G01 X45.1072 Y4.9666 Z0.0000
G01 X45.6424 Y4.9801 Z0.0000
G01 X45.6429 Y4.9801 Z0.0000
G01 X46.1784 Y4.9942 Z0.0000
G01 X46.7134 Y5.0090 Z0.0000
G01 X46.7141 Y5.0090 Z0.0000
G01 X47.2495 Y5.0244 Z0.0000
G01 X47.7848 Y5.0405 Z0.0000
G01 X48.3199 Y5.0573 Z0.0000
G01 X48.3213 Y5.0574 Z0.0000
G01 X48.3230 Y5.0574 Z0.0000
G01 X48.8536 Y5.0747 Z0.0000
G01 X48.8553 Y5.0747 Z0.0000
G01 X48.8579 Y5.0748 Z0.0000
G01 X49.3912 Y5.0929 Z0.0000
G01 X49.3920 Y5.0929 Z0.0000
G01 X49.3937 Y5.0929 Z0.0000
G01 X49.9262 Y5.1116 Z0.0000
G01 X49.9272 Y5.1116 Z0.0000
G01 X50.4625 Y5.1310 Z0.0000
G01 X50.4645 Y5.1311 Z0.0000
G01 X50.9935 Y5.1509 Z0.0000
G01 X50.9945 Y5.1509 Z0.0000
G01 X50.9980 Y5.1511 Z0.0000
G01 X51.5327 Y5.1719 Z0.0000
G01 X51.5334 Y5.1719 Z0.0000
G01 X52.0687 Y5.1933 Z0.0000
G01 X52.0703 Y5.1933 Z0.0000
G01 X52.6030 Y5.2153 Z0.0000
G01 X52.6035 Y5.2153 Z0.0000
G01 X52.6044 Y5.2153 Z0.0000
G01 X53.1387 Y5.2381 Z0.0000
G01 X53.1396 Y5.2381 Z0.0000
G01 X53.6734 Y5.2614 Z0.0000
G01 X53.6740 Y5.2614 Z0.0000
G01 X53.6763 Y5.2615 Z0.0000
G01 X54.2056 Y5.2853 Z0.0000
G01 X54.2071 Y5.2854 Z0.0000
G01 X54.2099 Y5.2855 Z0.0000
G01 X54.7442 Y5.3102 Z0.0000
G01 X54.7454 Y5.3103 Z0.0000
G01 X54.7461 Y5.3103 Z0.0000
G01 X55.2796 Y5.3357 Z0.0000
G01 X55.2809 Y5.3357 Z0.0000
G01 X55.8138 Y5.3616 Z0.0000
G01 X55.8144 Y5.3617 Z0.0000
G01 X55.8154 Y5.3617 Z0.0000
G01 X56.3501 Y5.3885 Z0.0000
G01 X56.3519 Y5.3885 Z0.0000
G01 X56.8841 Y5.4157 Z0.0000
G01 X56.8851 Y5.4157 Z0.0000
G01 X56.8864 Y5.4158 Z0.0000
G01 X57.4197 Y5.4438 Z0.0000
G01 X57.4208 Y5.4438 Z0.0000
G01 X57.9523 Y5.4723 Z0.0000
G01 X57.9532 Y5.4724 Z0.0000
G01 X57.9564 Y5.4725 Z0.0000
G01 X58.4877 Y5.5017 Z0.0000
G01 X58.4900 Y5.5018 Z0.0000
G01 X58.4906 Y5.5019 Z0.0000
G01 X59.0238 Y5.5318 Z0.0000
G01 X59.0255 Y5.5319 Z0.0000
G01 X59.5604 Y5.5625 Z0.0000
G01 X59.5614 Y5.5626 Z0.0000
G01 X59.5622 Y5.5627 Z0.0000
G01 X60.0931 Y5.5938 Z0.0000
G01 X60.0950 Y5.5939 Z0.0000
G01 X63.7166 Y5.8106 Z0.0000
G01 X63.7789 Y4.7700 Z0.0000
G01 X60.1577 Y4.5533 Z0.0000
G01 X60.1564 Y4.5533 Z0.0000
G01 X59.6216 Y4.5219 Z0.0000
G01 X59.6196 Y4.5218 Z0.0000
G01 X59.6190 Y4.5218 Z0.0000
G01 X59.0862 Y4.4912 Z0.0000
G01 X59.0854 Y4.4912 Z0.0000
G01 X59.0839 Y4.4911 Z0.0000
G01 X58.5490 Y4.4611 Z0.0000
G01 X58.5475 Y4.4610 Z0.0000
G01 X58.0128 Y4.4316 Z0.0000
G01 X58.0115 Y4.4316 Z0.0000
G01 X57.4799 Y4.4031 Z0.0000
G01 X57.4773 Y4.4029 Z0.0000
G01 X57.4752 Y4.4028 Z0.0000
G01 X56.9402 Y4.3748 Z0.0000
G01 X56.9387 Y4.3747 Z0.0000
G01 X56.4055 Y4.3474 Z0.0000
G01 X56.4025 Y4.3473 Z0.0000
G01 X55.8674 Y4.3205 Z0.0000
G01 X55.8657 Y4.3205 Z0.0000
G01 X55.3309 Y4.2944 Z0.0000
G01 X55.3298 Y4.2944 Z0.0000
G01 X55.3285 Y4.2943 Z0.0000
G01 X54.7945 Y4.2690 Z0.0000
G01 X54.7937 Y4.2689 Z0.0000
G01 X54.7932 Y4.2689 Z0.0000
G01 X54.2597 Y4.2443 Z0.0000
G01 X54.2570 Y4.2442 Z0.0000
G01 X53.7225 Y4.2201 Z0.0000
G01 X53.7201 Y4.2201 Z0.0000
G01 X53.1857 Y4.1967 Z0.0000
G01 X53.1843 Y4.1966 Z0.0000
G01 X53.1834 Y4.1966 Z0.0000
G01 X52.6493 Y4.1739 Z0.0000
G01 X52.6485 Y4.1738 Z0.0000
G01 X52.6461 Y4.1737 Z0.0000
G01 X52.1136 Y4.1518 Z0.0000
G01 X52.1121 Y4.1517 Z0.0000
G01 X52.1103 Y4.1517 Z0.0000
G01 X51.5758 Y4.1303 Z0.0000
G01 X51.5737 Y4.1302 Z0.0000
G01 X51.0405 Y4.1095 Z0.0000
G01 X51.0369 Y4.1094 Z0.0000
G01 X50.5020 Y4.0893 Z0.0000
G01 X50.5015 Y4.0893 Z0.0000
G01 X50.5003 Y4.0893 Z0.0000
G01 X49.9657 Y4.0699 Z0.0000
G01 X49.9636 Y4.0698 Z0.0000
G01 X49.9614 Y4.0697 Z0.0000
G01 X49.4290 Y4.0511 Z0.0000
G01 X49.4268 Y4.0510 Z0.0000
G01 X48.8946 Y4.0330 Z0.0000
G01 X48.8918 Y4.0330 Z0.0000
G01 X48.8883 Y4.0328 Z0.0000
G01 X48.8875 Y4.0328 Z0.0000
G01 X48.3554 Y4.0155 Z0.0000
G01 X48.3539 Y4.0154 Z0.0000
G01 X48.3534 Y4.0154 Z0.0000
G01 X47.8186 Y3.9987 Z0.0000
G01 X47.8165 Y3.9986 Z0.0000
G01 X47.2818 Y3.9825 Z0.0000
G01 X47.2801 Y3.9824 Z0.0000
G01 X47.2782 Y3.9824 Z0.0000
G01 X46.7449 Y3.9670 Z0.0000
G01 X46.7418 Y3.9669 Z0.0000
G01 X46.2084 Y3.9522 Z0.0000
G01 X46.2061 Y3.9521 Z0.0000
G01 X46.2044 Y3.9521 Z0.0000
G01 X45.6714 Y3.9381 Z0.0000
G01 X45.6684 Y3.9379 Z0.0000
G01 X45.6677 Y3.9379 Z0.0000
G01 X45.1350 Y3.9245 Z0.0000
G01 X45.1321 Y3.9245 Z0.0000
G01 X45.1308 Y3.9244 Z0.0000
G01 X44.5977 Y3.9117 Z0.0000
G01 X44.5950 Y3.9116 Z0.0000
G01 X44.5929 Y3.9115 Z0.0000
G01 X44.0609 Y3.8995 Z0.0000
G01 X44.0578 Y3.8994 Z0.0000
G01 X44.0568 Y3.8994 Z0.0000
G01 X43.5246 Y3.8880 Z0.0000
G01 X43.5240 Y3.8880 Z0.0000
G01 X43.5204 Y3.8880 Z0.0000
G01 X43.5180 Y3.8879 Z0.0000
G01 X42.9892 Y3.8772 Z0.0000
G01 X42.9887 Y3.8772 Z0.0000
G01 X42.9851 Y3.8772 Z0.0000
G01 X42.9826 Y3.8770 Z0.0000
G01 X42.4496 Y3.8669 Z0.0000
G01 X42.4464 Y3.8669 Z0.0000
G01 X42.4457 Y3.8669 Z0.0000
G01 X41.9118 Y3.8575 Z0.0000
G01 X41.9090 Y3.8574 Z0.0000
G01 X41.9081 Y3.8574 Z0.0000
G01 X41.3748 Y3.8486 Z0.0000
G01 X41.3723 Y3.8486 Z0.0000
G01 X40.8377 Y3.8405 Z0.0000
G01 X40.8362 Y3.8404 Z0.0000
G01 X40.3007 Y3.8329 Z0.0000
G01 X40.2975 Y3.8329 Z0.0000
G01 X40.2967 Y3.8329 Z0.0000
G01 X39.7638 Y3.8261 Z0.0000
G01 X39.7614 Y3.8261 Z0.0000
G01 X39.2267 Y3.8199 Z0.0000
G01 X39.2239 Y3.8199 Z0.0000
G01 X38.6897 Y3.8144 Z0.0000
G01 X38.6855 Y3.8143 Z0.0000
G01 X38.1538 Y3.8095 Z0.0000
G01 X38.1513 Y3.8095 Z0.0000
G01 X38.1495 Y3.8094 Z0.0000
G01 X37.6156 Y3.8053 Z0.0000
G01 X37.6142 Y3.8053 Z0.0000
G01 X37.0784 Y3.8018 Z0.0000
G01 X37.0772 Y3.8018 Z0.0000
G01 X36.5415 Y3.7989 Z0.0000
G01 X36.5401 Y3.7989 Z0.0000
G01 X36.0044 Y3.7967 Z0.0000
G01 X36.0031 Y3.7967 Z0.0000
G01 X35.4673 Y3.7951 Z0.0000
G01 X35.4660 Y3.7951 Z0.0000
G01 X34.9302 Y3.7943 Z0.0000
G01 X34.9289 Y3.7943 Z0.0000
G01 X34.3931 Y3.7941 Z0.0000
G01 X34.3918 Y3.7941 Z0.0000
G01 X33.8561 Y3.7946 Z0.0000
G01 X33.8548 Y3.7946 Z0.0000
G01 X33.3190 Y3.7957 Z0.0000
G01 X33.3177 Y3.7957 Z0.0000
G01 X32.7820 Y3.7974 Z0.0000
G01 X32.7806 Y3.7974 Z0.0000
G01 X32.2449 Y3.7999 Z0.0000
G01 X32.2436 Y3.7999 Z0.0000
G01 X31.7078 Y3.8030 Z0.0000
G01 X31.7065 Y3.8030 Z0.0000
G01 X31.1739 Y3.8067 Z0.0000
G01 X31.1734 Y3.8068 Z0.0000
G01 X31.1699 Y3.8068 Z0.0000
G01 X30.6353 Y3.8112 Z0.0000
G01 X30.6348 Y3.8112 Z0.0000
G01 X30.6325 Y3.8113 Z0.0000
G01 X30.0991 Y3.8163 Z0.0000
G01 X30.0954 Y3.8164 Z0.0000
G01 X29.5610 Y3.8221 Z0.0000
G01 X29.5583 Y3.8221 Z0.0000
G01 X29.0234 Y3.8286 Z0.0000
G01 X29.0214 Y3.8286 Z0.0000
G01 X28.4883 Y3.8356 Z0.0000
G01 X28.4875 Y3.8356 Z0.0000
G01 X28.4842 Y3.8357 Z0.0000
G01 X27.9487 Y3.8434 Z0.0000
G01 X27.9472 Y3.8435 Z0.0000
G01 X27.4127 Y3.8519 Z0.0000
G01 X27.4103 Y3.8519 Z0.0000
G01 X26.8769 Y3.8609 Z0.0000
G01 X26.8760 Y3.8609 Z0.0000
G01 X26.8725 Y3.8610 Z0.0000
G01 X26.8710 Y3.8610 Z0.0000
G01 X26.3387 Y3.8707 Z0.0000
G01 X26.3373 Y3.8707 Z0.0000
G01 X26.3362 Y3.8707 Z0.0000
G01 X25.8018 Y3.8811 Z0.0000
G01 X25.8012 Y3.8811 Z0.0000
G01 X25.7987 Y3.8812 Z0.0000
G01 X25.2671 Y3.8921 Z0.0000
G01 X25.2646 Y3.8922 Z0.0000
G01 X25.2611 Y3.8923 Z0.0000
G01 X25.2605 Y3.8923 Z0.0000
G01 X24.7275 Y3.9040 Z0.0000
G01 X24.7261 Y3.9040 Z0.0000
G01 X24.7254 Y3.9040 Z0.0000
G01 X24.1931 Y3.9163 Z0.0000
G01 X24.1905 Y3.9164 Z0.0000
G01 X24.1870 Y3.9164 Z0.0000
G01 X23.6542 Y3.9294 Z0.0000
G01 X23.6529 Y3.9295 Z0.0000
G01 X23.6502 Y3.9295 Z0.0000
G01 X23.1179 Y3.9431 Z0.0000
G01 X23.1160 Y3.9432 Z0.0000
G01 X23.1136 Y3.9433 Z0.0000
G01 X22.5805 Y3.9576 Z0.0000
G01 X22.5788 Y3.9576 Z0.0000
G01 X22.5767 Y3.9577 Z0.0000
G01 X22.0429 Y3.9726 Z0.0000
G01 X22.0402 Y3.9728 Z0.0000
G01 X21.5054 Y3.9885 Z0.0000
G01 X21.5042 Y3.9885 Z0.0000
G01 X20.9686 Y4.0048 Z0.0000
G01 X20.9659 Y4.0049 Z0.0000
G01 X20.9641 Y4.0050 Z0.0000
G01 X20.4317 Y4.0219 Z0.0000
G01 X20.4301 Y4.0220 Z0.0000
G01 X19.8966 Y4.0396 Z0.0000
G01 X19.8941 Y4.0397 Z0.0000
G01 X19.8926 Y4.0397 Z0.0000
G01 X19.3597 Y4.0580 Z0.0000
G01 X19.3571 Y4.0581 Z0.0000
G01 X19.3550 Y4.0581 Z0.0000
G01 X18.8230 Y4.0770 Z0.0000
G01 X18.8212 Y4.0771 Z0.0000
G01 X18.8194 Y4.0772 Z0.0000
G01 X18.2857 Y4.0968 Z0.0000
G01 X18.2851 Y4.0968 Z0.0000
G01 X18.2828 Y4.0969 Z0.0000
G01 X17.7481 Y4.1172 Z0.0000
G01 X17.7467 Y4.1172 Z0.0000
G01 X17.2114 Y4.1383 Z0.0000
G01 X17.2087 Y4.1384 Z0.0000
G01 X17.2067 Y4.1384 Z0.0000
G01 X16.6754 Y4.1599 Z0.0000
G01 X16.6737 Y4.1600 Z0.0000
G01 X16.1382 Y4.1823 Z0.0000
G01 X16.1363 Y4.1824 Z0.0000
G01 X16.1355 Y4.1824 Z0.0000
G01 X15.6016 Y4.2053 Z0.0000
G01 X15.6000 Y4.2054 Z0.0000
G01 X15.5994 Y4.2055 Z0.0000
G01 X15.0651 Y4.2291 Z0.0000
G01 X15.0632 Y4.2292 Z0.0000
G01 X14.5286 Y4.2535 Z0.0000
G01 X14.5273 Y4.2535 Z0.0000
G01 X13.9921 Y4.2785 Z0.0000
G01 X13.9897 Y4.2786 Z0.0000
G01 X13.9884 Y4.2786 Z0.0000
G01 X13.4561 Y4.3041 Z0.0000
G01 X13.4514 Y4.3044 Z0.0000
G01 X12.9200 Y4.3305 Z0.0000
G01 X12.9185 Y4.3305 Z0.0000
G01 X12.9179 Y4.3306 Z0.0000
G01 X12.3828 Y4.3575 Z0.0000
G01 X12.3784 Y4.3578 Z0.0000
G01 X12.3777 Y4.3578 Z0.0000
G01 X12.3768 Y4.3579 Z0.0000
G01 X11.8464 Y4.3853 Z0.0000
G01 X11.8457 Y4.3853 Z0.0000
G01 X11.8451 Y4.3853 Z0.0000
G01 X11.3101 Y4.4136 Z0.0000
G01 X11.3070 Y4.4138 Z0.0000
G01 X11.3063 Y4.4138 Z0.0000
G01 X11.3057 Y4.4138 Z0.0000
G01 X10.7738 Y4.4426 Z0.0000
G01 X10.7704 Y4.4427 Z0.0000
G01 X10.2375 Y4.4722 Z0.0000
G01 X10.2357 Y4.4724 Z0.0000
G01 X10.2351 Y4.4724 Z0.0000
G01 X9.7013 Y4.5026 Z0.0000
G01 X9.7000 Y4.5026 Z0.0000
G01 X9.1652 Y4.5336 Z0.0000
G01 X9.1639 Y4.5337 Z0.0000
G01 X8.6291 Y4.5653 Z0.0000
G01 X8.6277 Y4.5653 Z0.0000
G01 X8.0929 Y4.5976 Z0.0000
G01 X8.0913 Y4.5977 Z0.0000
G01 X8.0907 Y4.5977 Z0.0000
G01 X7.5586 Y4.6305 Z0.0000
G01 X7.5576 Y4.6306 Z0.0000
G01 X7.5555 Y4.6307 Z0.0000
G01 X3.9366 Y4.8582 Z0.0000
G00 X3.9366 Y4.8582 Z0.6000
G00 X3.9366 Y-4.8582 Z0.6000
G01 X3.9366 Y-4.8582 Z0.2800
G01 X7.5555 Y-4.6307 Z0.2800
G01 X7.5576 Y-4.6306 Z0.2800
G01 X7.5583 Y-4.6305 Z0.2800
G01 X8.0907 Y-4.5977 Z0.2800
G01 X8.0913 Y-4.5977 Z0.2800
G01 X8.0927 Y-4.5977 Z0.2800
G01 X8.6277 Y-4.5653 Z0.2800
G01 X8.6291 Y-4.5653 Z0.2800
G01 X9.1639 Y-4.5337 Z0.2800
G01 X9.1652 Y-4.5336 Z0.2800
G01 X9.7000 Y-4.5027 Z0.2800
G01 X9.7010 Y-4.5026 Z0.2800
G01 X10.2348 Y-4.4724 Z0.2800
G01 X10.2357 Y-4.4724 Z0.2800
G01 X10.2372 Y-4.4723 Z0.2800
G01 X10.7703 Y-4.4427 Z0.2800
G01 X10.7738 Y-4.4426 Z0.2800
G01 X11.3057 Y-4.4138 Z0.2800
G01 X11.3063 Y-4.4138 Z0.2800
G01 X11.3070 Y-4.4138 Z0.2800
G01 X11.3099 Y-4.4136 Z0.2800
G01 X11.8451 Y-4.3853 Z0.2800
G01 X11.8457 Y-4.3853 Z0.2800
G01 X11.8464 Y-4.3853 Z0.2800
G01 X12.3768 Y-4.3579 Z0.2800
G01 X12.3777 Y-4.3578 Z0.2800
G01 X12.3784 Y-4.3578 Z0.2800
G01 X12.3828 Y-4.3575 Z0.2800
G01 X12.9179 Y-4.3306 Z0.2800
G01 X12.9185 Y-4.3305 Z0.2800
G01 X12.9198 Y-4.3305 Z0.2800
G01 X13.4512 Y-4.3044 Z0.2800
G01 X13.4561 Y-4.3041 Z0.2800
G01 X13.9884 Y-4.2786 Z0.2800
G01 X13.9897 Y-4.2786 Z0.2800
G01 X13.9921 Y-4.2785 Z0.2800
G01 X14.5273 Y-4.2535 Z0.2800
G01 X14.5282 Y-4.2535 Z0.2800
G01 X15.0632 Y-4.2292 Z0.2800
G01 X15.0650 Y-4.2291 Z0.2800
G01 X15.5994 Y-4.2055 Z0.2800
G01 X15.6000 Y-4.2054 Z0.2800
G01 X15.6016 Y-4.2053 Z0.2800
G01 X16.1355 Y-4.1824 Z0.2800
G01 X16.1363 Y-4.1824 Z0.2800
G01 X16.1382 Y-4.1823 Z0.2800
G01 X16.6732 Y-4.1600 Z0.2800
G01 X16.6754 Y-4.1599 Z0.2800
G01 X17.2067 Y-4.1384 Z0.2800
G01 X17.2087 Y-4.1384 Z0.2800
G01 X17.2114 Y-4.1383 Z0.2800
G01 X17.7467 Y-4.1172 Z0.2800
G01 X17.7481 Y-4.1172 Z0.2800
G01 X18.2828 Y-4.0969 Z0.2800
G01 X18.2851 Y-4.0968 Z0.2800
G01 X18.2857 Y-4.0968 Z0.2800
G01 X18.8194 Y-4.0772 Z0.2800
G01 X18.8212 Y-4.0771 Z0.2800
G01 X18.8230 Y-4.0770 Z0.2800
G01 X19.3550 Y-4.0581 Z0.2800
G01 X19.3571 Y-4.0581 Z0.2800
G01 X19.3597 Y-4.0580 Z0.2800
G01 X19.8926 Y-4.0397 Z0.2800
G01 X19.8941 Y-4.0397 Z0.2800
G01 X19.8966 Y-4.0396 Z0.2800
G01 X20.4301 Y-4.0219 Z0.2800
G01 X20.4314 Y-4.0219 Z0.2800
G01 X20.9641 Y-4.0050 Z0.2800
G01 X20.9659 Y-4.0049 Z0.2800
G01 X20.9686 Y-4.0048 Z0.2800
G01 X21.5042 Y-3.9885 Z0.2800
G01 X21.5053 Y-3.9885 Z0.2800
G01 X22.0402 Y-3.9728 Z0.2800
G01 X22.0429 Y-3.9726 Z0.2800
G01 X22.5767 Y-3.9577 Z0.2800
G01 X22.5788 Y-3.9576 Z0.2800
G01 X22.5805 Y-3.9576 Z0.2800
G01 X23.1136 Y-3.9433 Z0.2800
G01 X23.1160 Y-3.9432 Z0.2800
G01 X23.1179 Y-3.9431 Z0.2800
G01 X23.6502 Y-3.9295 Z0.2800
G01 X23.6529 Y-3.9295 Z0.2800
G01 X23.6542 Y-3.9294 Z0.2800
G01 X24.1868 Y-3.9164 Z0.2800
G01 X24.1905 Y-3.9164 Z0.2800
G01 X24.1931 Y-3.9163 Z0.2800
G01 X24.7254 Y-3.9040 Z0.2800
G01 X24.7261 Y-3.9040 Z0.2800
G01 X24.7275 Y-3.9040 Z0.2800
G01 X25.2605 Y-3.8923 Z0.2800
G01 X25.2611 Y-3.8923 Z0.2800
G01 X25.2646 Y-3.8922 Z0.2800
G01 X25.2671 Y-3.8921 Z0.2800
G01 X25.7987 Y-3.8811 Z0.2800
G01 X25.8012 Y-3.8811 Z0.2800
G01 X25.8018 Y-3.8811 Z0.2800
G01 X26.3362 Y-3.8707 Z0.2800
G01 X26.3373 Y-3.8707 Z0.2800
G01 X26.3387 Y-3.8707 Z0.2800
G01 X26.8710 Y-3.8610 Z0.2800
G01 X26.8725 Y-3.8610 Z0.2800
G01 X26.8760 Y-3.8609 Z0.2800
G01 X26.8769 Y-3.8609 Z0.2800
G01 X27.4103 Y-3.8519 Z0.2800
G01 X27.4127 Y-3.8519 Z0.2800
G01 X27.9472 Y-3.8435 Z0.2800
G01 X27.9486 Y-3.8434 Z0.2800
G01 X28.4842 Y-3.8357 Z0.2800
G01 X28.4875 Y-3.8356 Z0.2800
G01 X28.4883 Y-3.8356 Z0.2800
G01 X29.0214 Y-3.8286 Z0.2800
G01 X29.0234 Y-3.8286 Z0.2800
G01 X29.5583 Y-3.8221 Z0.2800
G01 X29.5610 Y-3.8221 Z0.2800
G01 X30.0954 Y-3.8164 Z0.2800
G01 X30.0991 Y-3.8163 Z0.2800
G01 X30.6325 Y-3.8113 Z0.2800
G01 X30.6348 Y-3.8112 Z0.2800
G01 X30.6353 Y-3.8112 Z0.2800
G01 X31.1694 Y-3.8068 Z0.2800
G01 X31.1734 Y-3.8068 Z0.2800
G01 X31.1739 Y-3.8067 Z0.2800
G01 X31.7065 Y-3.8030 Z0.2800
G01 X31.7078 Y-3.8030 Z0.2800
G01 X32.2436 Y-3.7999 Z0.2800
G01 X32.2449 Y-3.7999 Z0.2800
G01 X32.7806 Y-3.7974 Z0.2800
G01 X32.7820 Y-3.7974 Z0.2800
G01 X33.3177 Y-3.7957 Z0.2800
G01 X33.3190 Y-3.7957 Z0.2800
G01 X33.8548 Y-3.7946 Z0.2800
G01 X33.8561 Y-3.7946 Z0.2800
G01 X34.3918 Y-3.7941 Z0.2800
G01 X34.3931 Y-3.7941 Z0.2800
G01 X34.9289 Y-3.7943 Z0.2800
G01 X34.9302 Y-3.7943 Z0.2800
G01 X35.4660 Y-3.7951 Z0.2800
G01 X35.4673 Y-3.7951 Z0.2800
G01 X36.0031 Y-3.7967 Z0.2800
G01 X36.0044 Y-3.7967 Z0.2800
G01 X36.5401 Y-3.7989 Z0.2800
G01 X36.5415 Y-3.7989 Z0.2800
G01 X37.0772 Y-3.8018 Z0.2800
G01 X37.0784 Y-3.8018 Z0.2800
G01 X37.6142 Y-3.8053 Z0.2800
G01 X37.6156 Y-3.8053 Z0.2800
G01 X38.1495 Y-3.8094 Z0.2800
G01 X38.1513 Y-3.8095 Z0.2800
G01 X38.1538 Y-3.8095 Z0.2800
G01 X38.6855 Y-3.8143 Z0.2800
G01 X38.6897 Y-3.8144 Z0.2800
G01 X39.2239 Y-3.8199 Z0.2800
G01 X39.2267 Y-3.8199 Z0.2800
G01 X39.7614 Y-3.8261 Z0.2800
G01 X39.7638 Y-3.8261 Z0.2800
G01 X40.2967 Y-3.8329 Z0.2800
G01 X40.2975 Y-3.8329 Z0.2800
G01 X40.3007 Y-3.8329 Z0.2800
G01 X40.8359 Y-3.8404 Z0.2800
G01 X40.8377 Y-3.8405 Z0.2800
G01 X41.3720 Y-3.8486 Z0.2800
G01 X41.3748 Y-3.8486 Z0.2800
G01 X41.9081 Y-3.8574 Z0.2800
G01 X41.9090 Y-3.8574 Z0.2800
G01 X41.9118 Y-3.8575 Z0.2800
G01 X42.4457 Y-3.8669 Z0.2800
G01 X42.4464 Y-3.8669 Z0.2800
G01 X42.4496 Y-3.8670 Z0.2800
G01 X42.9826 Y-3.8770 Z0.2800
G01 X42.9851 Y-3.8772 Z0.2800
G01 X42.9887 Y-3.8772 Z0.2800
G01 X42.9892 Y-3.8772 Z0.2800
G01 X43.5180 Y-3.8879 Z0.2800
G01 X43.5204 Y-3.8880 Z0.2800
G01 X43.5240 Y-3.8880 Z0.2800
G01 X43.5246 Y-3.8880 Z0.2800
G01 X44.0568 Y-3.8994 Z0.2800
G01 X44.0578 Y-3.8994 Z0.2800
G01 X44.0609 Y-3.8995 Z0.2800
G01 X44.5929 Y-3.9115 Z0.2800
G01 X44.5950 Y-3.9116 Z0.2800
G01 X44.5977 Y-3.9117 Z0.2800
G01 X45.1308 Y-3.9244 Z0.2800
G01 X45.1321 Y-3.9245 Z0.2800
G01 X45.1350 Y-3.9245 Z0.2800
G01 X45.6677 Y-3.9379 Z0.2800
G01 X45.6684 Y-3.9379 Z0.2800
G01 X45.6714 Y-3.9381 Z0.2800
G01 X46.2044 Y-3.9521 Z0.2800
G01 X46.2061 Y-3.9521 Z0.2800
G01 X46.2084 Y-3.9522 Z0.2800
G01 X46.7418 Y-3.9669 Z0.2800
G01 X46.7449 Y-3.9670 Z0.2800
G01 X47.2782 Y-3.9824 Z0.2800
G01 X47.2801 Y-3.9824 Z0.2800
G01 X47.2818 Y-3.9825 Z0.2800
G01 X47.8165 Y-3.9986 Z0.2800
G01 X47.8186 Y-3.9987 Z0.2800
G01 X48.3534 Y-4.0154 Z0.2800
G01 X48.3539 Y-4.0154 Z0.2800
G01 X48.3554 Y-4.0155 Z0.2800
G01 X48.8875 Y-4.0328 Z0.2800
G01 X48.8883 Y-4.0328 Z0.2800
G01 X48.8918 Y-4.0330 Z0.2800
G01 X48.8946 Y-4.0330 Z0.2800
G01 X49.4268 Y-4.0510 Z0.2800
G01 X49.4290 Y-4.0511 Z0.2800
G01 X49.9614 Y-4.0697 Z0.2800
G01 X49.9636 Y-4.0698 Z0.2800
G01 X49.9657 Y-4.0699 Z0.2800
G01 X50.5003 Y-4.0893 Z0.2800
G01 X50.5015 Y-4.0893 Z0.2800
G01 X50.5020 Y-4.0893 Z0.2800
G01 X51.0364 Y-4.1094 Z0.2800
G01 X51.0404 Y-4.1095 Z0.2800
G01 X51.5736 Y-4.1302 Z0.2800
G01 X51.5758 Y-4.1303 Z0.2800
G01 X52.1103 Y-4.1517 Z0.2800
G01 X52.1121 Y-4.1517 Z0.2800
G01 X52.1136 Y-4.1518 Z0.2800
G01 X52.6461 Y-4.1737 Z0.2800
G01 X52.6485 Y-4.1738 Z0.2800
G01 X52.6493 Y-4.1739 Z0.2800
G01 X53.1834 Y-4.1966 Z0.2800
G01 X53.1843 Y-4.1966 Z0.2800
G01 X53.1857 Y-4.1967 Z0.2800
G01 X53.7201 Y-4.2201 Z0.2800
G01 X53.7222 Y-4.2201 Z0.2800
G01 X54.2567 Y-4.2442 Z0.2800
G01 X54.2605 Y-4.2443 Z0.2800
G01 X54.7932 Y-4.2689 Z0.2800
G01 X54.7937 Y-4.2689 Z0.2800
G01 X54.7945 Y-4.2690 Z0.2800
G01 X55.3285 Y-4.2943 Z0.2800
G01 X55.3298 Y-4.2944 Z0.2800
G01 X55.3309 Y-4.2944 Z0.2800
G01 X55.8657 Y-4.3205 Z0.2800
G01 X55.8672 Y-4.3205 Z0.2800
G01 X56.4025 Y-4.3473 Z0.2800
G01 X56.4051 Y-4.3474 Z0.2800
G01 X56.9387 Y-4.3747 Z0.2800
G01 X56.9401 Y-4.3748 Z0.2800
G01 X57.4752 Y-4.4028 Z0.2800
G01 X57.4773 Y-4.4029 Z0.2800
G01 X57.4799 Y-4.4031 Z0.2800
G01 X58.0115 Y-4.4316 Z0.2800
G01 X58.0128 Y-4.4316 Z0.2800
G01 X58.5475 Y-4.4610 Z0.2800
G01 X58.5489 Y-4.4611 Z0.2800
G01 X59.0839 Y-4.4911 Z0.2800
G01 X59.0854 Y-4.4912 Z0.2800
G01 X59.0861 Y-4.4912 Z0.2800
G01 X59.6190 Y-4.5218 Z0.2800
G01 X59.6196 Y-4.5218 Z0.2800
G01 X59.6216 Y-4.5219 Z0.2800
G01 X60.1564 Y-4.5533 Z0.2800
G01 X60.1577 Y-4.5534 Z0.2800
G01 X63.7789 Y-4.7700 Z0.2800
G01 X63.7166 Y-5.8106 Z0.2800
G01 X60.0953 Y-5.5940 Z0.2800
G01 X60.0931 Y-5.5938 Z0.2800
G01 X59.5625 Y-5.5627 Z0.2800
G01 X59.5614 Y-5.5626 Z0.2800
G01 X59.5604 Y-5.5625 Z0.2800
G01 X59.0256 Y-5.5319 Z0.2800
G01 X59.0238 Y-5.5318 Z0.2800
G01 X58.4906 Y-5.5019 Z0.2800
G01 X58.4900 Y-5.5018 Z0.2800
G01 X58.4877 Y-5.5017 Z0.2800
G01 X57.9564 Y-5.4725 Z0.2800
G01 X57.9532 Y-5.4724 Z0.2800
G01 X57.9523 Y-5.4723 Z0.2800
G01 X57.4208 Y-5.4438 Z0.2800
G01 X57.4197 Y-5.4438 Z0.2800
G01 X56.8864 Y-5.4158 Z0.2800
G01 X56.8851 Y-5.4157 Z0.2800
G01 X56.8841 Y-5.4157 Z0.2800
G01 X56.3519 Y-5.3885 Z0.2800
G01 X56.3501 Y-5.3885 Z0.2800
G01 X55.8154 Y-5.3617 Z0.2800
G01 X55.8144 Y-5.3617 Z0.2800
G01 X55.8138 Y-5.3616 Z0.2800
G01 X55.2809 Y-5.3357 Z0.2800
G01 X55.2796 Y-5.3357 Z0.2800
G01 X54.7461 Y-5.3103 Z0.2800
G01 X54.7454 Y-5.3103 Z0.2800
G01 X54.7442 Y-5.3102 Z0.2800
G01 X54.2099 Y-5.2855 Z0.2800
G01 X54.2071 Y-5.2854 Z0.2800
G01 X54.2056 Y-5.2853 Z0.2800
G01 X53.6763 Y-5.2615 Z0.2800
G01 X53.6740 Y-5.2614 Z0.2800
G01 X53.6734 Y-5.2614 Z0.2800
G01 X53.1396 Y-5.2381 Z0.2800
G01 X53.1387 Y-5.2381 Z0.2800
G01 X52.6044 Y-5.2153 Z0.2800
G01 X52.6035 Y-5.2153 Z0.2800
G01 X52.6030 Y-5.2153 Z0.2800
G01 X52.0703 Y-5.1933 Z0.2800
G01 X52.0687 Y-5.1933 Z0.2800
G01 X51.5334 Y-5.1719 Z0.2800
G01 X51.5327 Y-5.1719 Z0.2800
G01 X50.9980 Y-5.1511 Z0.2800
G01 X50.9945 Y-5.1509 Z0.2800
G01 X50.9935 Y-5.1509 Z0.2800
G01 X50.4645 Y-5.1311 Z0.2800
G01 X50.4627 Y-5.1310 Z0.2800
G01 X49.9272 Y-5.1116 Z0.2800
G01 X49.9262 Y-5.1116 Z0.2800
G01 X49.3937 Y-5.0929 Z0.2800
G01 X49.3920 Y-5.0929 Z0.2800
G01 X49.3912 Y-5.0929 Z0.2800
G01 X48.8579 Y-5.0748 Z0.2800
G01 X48.8553 Y-5.0747 Z0.2800
G01 X48.8536 Y-5.0747 Z0.2800
G01 X48.3230 Y-5.0574 Z0.2800
G01 X48.3213 Y-5.0574 Z0.2800
G01 X48.3199 Y-5.0573 Z0.2800
G01 X47.7852 Y-5.0406 Z0.2800
G01 X47.2497 Y-5.0244 Z0.2800
G01 X46.7141 Y-5.0090 Z0.2800
G01 X46.7134 Y-5.0090 Z0.2800
G01 X46.1786 Y-4.9942 Z0.2800
G01 X45.6429 Y-4.9801 Z0.2800
G01 X45.6424 Y-4.9801 Z0.2800
G01 X45.1073 Y-4.9666 Z0.2800
G01 X44.5717 Y-4.9538 Z0.2800
G01 X44.5708 Y-4.9538 Z0.2800
G01 X44.0361 Y-4.9416 Z0.2800
G01 X43.5035 Y-4.9303 Z0.2800
G01 X43.5025 Y-4.9302 Z0.2800
G01 X43.4995 Y-4.9302 Z0.2800
G01 X42.9664 Y-4.9194 Z0.2800
G01 X42.9656 Y-4.9194 Z0.2800
G01 X42.9627 Y-4.9193 Z0.2800
G01 X42.4290 Y-4.9092 Z0.2800
G01 X41.8971 Y-4.8998 Z0.2800
G01 X41.8962 Y-4.8998 Z0.2800
G01 X41.8933 Y-4.8997 Z0.2800
G01 X41.3576 Y-4.8909 Z0.2800
G01 X40.8224 Y-4.8827 Z0.2800
G01 X40.8201 Y-4.8827 Z0.2800
G01 X40.2904 Y-4.8753 Z0.2800
G01 X40.2862 Y-4.8753 Z0.2800
G01 X39.7505 Y-4.8684 Z0.2800
G01 X39.2147 Y-4.8622 Z0.2800
G01 X38.6790 Y-4.8567 Z0.2800
G01 X38.1432 Y-4.8519 Z0.2800
G01 X37.6074 Y-4.8477 Z0.2800
G01 X37.0716 Y-4.8442 Z0.2800
G01 X36.5359 Y-4.8413 Z0.2800
G01 X36.0001 Y-4.8391 Z0.2800
G01 X35.4643 Y-4.8376 Z0.2800
G01 X34.9286 Y-4.8367 Z0.2800
G01 X34.3928 Y-4.8365 Z0.2800
G01 X33.8571 Y-4.8370 Z0.2800
G01 X33.3214 Y-4.8381 Z0.2800
G01 X32.7856 Y-4.8399 Z0.2800
G01 X32.2498 Y-4.8423 Z0.2800
G01 X31.7140 Y-4.8454 Z0.2800
G01 X31.1781 Y-4.8492 Z0.2800
G01 X31.1734 Y-4.8492 Z0.2800
G01 X30.6439 Y-4.8536 Z0.2800
G01 X30.6416 Y-4.8537 Z0.2800
G01 X30.1067 Y-4.8587 Z0.2800
G01 X29.5710 Y-4.8645 Z0.2800
G01 X29.0352 Y-4.8709 Z0.2800
G01 X28.4993 Y-4.8780 Z0.2800
G01 X28.4954 Y-4.8780 Z0.2800
G01 X27.9655 Y-4.8857 Z0.2800
G01 X27.9620 Y-4.8858 Z0.2800
G01 X27.4281 Y-4.8942 Z0.2800
G01 X26.8922 Y-4.9032 Z0.2800
G01 X26.8895 Y-4.9033 Z0.2800
G01 X26.8887 Y-4.9033 Z0.2800
G01 X26.3585 Y-4.9129 Z0.2800
G01 X26.3555 Y-4.9130 Z0.2800
G01 X26.3547 Y-4.9131 Z0.2800
G01 X25.8210 Y-4.9234 Z0.2800
G01 X25.2859 Y-4.9345 Z0.2800
G01 X25.2832 Y-4.9345 Z0.2800
G01 X25.2822 Y-4.9345 Z0.2800
G01 X24.7516 Y-4.9461 Z0.2800
G01 X24.7492 Y-4.9462 Z0.2800
G01 X24.2148 Y-4.9585 Z0.2800
G01 X24.2123 Y-4.9586 Z0.2800
G01 X24.2112 Y-4.9586 Z0.2800
G01 X23.6784 Y-4.9716 Z0.2800
G01 X23.1433 Y-4.9853 Z0.2800
G01 X23.1426 Y-4.9853 Z0.2800
G01 X22.6072 Y-4.9997 Z0.2800
G01 X22.0721 Y-5.0147 Z0.2800
G01 X22.0715 Y-5.0147 Z0.2800
G01 X21.5371 Y-5.0304 Z0.2800
G01 X21.5351 Y-5.0304 Z0.2800
G01 X21.5335 Y-5.0305 Z0.2800
G01 X21.0038 Y-5.0466 Z0.2800
G01 X21.0017 Y-5.0467 Z0.2800
G01 X20.9995 Y-5.0468 Z0.2800
G01 X20.4658 Y-5.0638 Z0.2800
G01 X20.4644 Y-5.0638 Z0.2800
G01 X20.4628 Y-5.0639 Z0.2800
G01 X19.9307 Y-5.0814 Z0.2800
G01 X19.9294 Y-5.0815 Z0.2800
G01 X19.3941 Y-5.0998 Z0.2800
G01 X18.8591 Y-5.1188 Z0.2800
G01 X18.8585 Y-5.1188 Z0.2800
G01 X18.3236 Y-5.1385 Z0.2800
G01 X18.3231 Y-5.1385 Z0.2800
G01 X17.7877 Y-5.1588 Z0.2800
G01 X17.7859 Y-5.1589 Z0.2800
G01 X17.2557 Y-5.1797 Z0.2800
G01 X17.2545 Y-5.1798 Z0.2800
G01 X17.2512 Y-5.1800 Z0.2800
G01 X16.7176 Y-5.2015 Z0.2800
G01 X16.7165 Y-5.2016 Z0.2800
G01 X16.1834 Y-5.2238 Z0.2800
G01 X16.1820 Y-5.2238 Z0.2800
G01 X16.1800 Y-5.2239 Z0.2800
G01 X15.6472 Y-5.2468 Z0.2800
G01 X15.6463 Y-5.2468 Z0.2800
G01 X15.1118 Y-5.2705 Z0.2800
G01 X15.1111 Y-5.2705 Z0.2800
G01 X14.5779 Y-5.2947 Z0.2800
G01 X14.5768 Y-5.2948 Z0.2800
G01 X14.5759 Y-5.2948 Z0.2800
G01 X14.0407 Y-5.3198 Z0.2800
G01 X14.0391 Y-5.3198 Z0.2800
G01 X13.5084 Y-5.3452 Z0.2800
G01 X13.5072 Y-5.3453 Z0.2800
G01 X13.5045 Y-5.3454 Z0.2800
G01 X12.9716 Y-5.3716 Z0.2800
G01 X12.9692 Y-5.3717 Z0.2800
G01 X12.9682 Y-5.3718 Z0.2800
G01 X12.4405 Y-5.3984 Z0.2800
G01 X12.4399 Y-5.3984 Z0.2800
G01 X12.4353 Y-5.3987 Z0.2800
G01 X11.9014 Y-5.4262 Z0.2800
G01 X11.9002 Y-5.4263 Z0.2800
G01 X11.3690 Y-5.4544 Z0.2800
G01 X11.3683 Y-5.4544 Z0.2800
G01 X11.3676 Y-5.4544 Z0.2800
G01 X11.3654 Y-5.4546 Z0.2800
G01 X10.8320 Y-5.4834 Z0.2800
G01 X10.8310 Y-5.4835 Z0.2800
G01 X10.8289 Y-5.4836 Z0.2800
G01 X10.2974 Y-5.5130 Z0.2800
G01 X10.2963 Y-5.5130 Z0.2800
G01 X10.2955 Y-5.5131 Z0.2800
G01 X9.7617 Y-5.5433 Z0.2800
G01 X9.7607 Y-5.5433 Z0.2800
G01 X9.7603 Y-5.5434 Z0.2800
G01 X9.2269 Y-5.5742 Z0.2800
G01 X9.2256 Y-5.5743 Z0.2800
G01 X8.6905 Y-5.6059 Z0.2800
G01 X8.6890 Y-5.6060 Z0.2800
G01 X8.6880 Y-5.6061 Z0.2800
G01 X8.6874 Y-5.6061 Z0.2800
G01 X8.1570 Y-5.6381 Z0.2800
G01 X8.1561 Y-5.6381 Z0.2800
G01 X8.1556 Y-5.6382 Z0.2800
G01 X8.1550 Y-5.6382 Z0.2800
G01 X7.6211 Y-5.6711 Z0.2800
G01 X4.0019 Y-5.8986 Z0.2800
G01 X3.9366 Y-4.8582 Z0.2800
G01 X3.9366 Y-4.8582 Z0.1400
G01 X7.5555 Y-4.6307 Z0.1400
G01 X7.5576 Y-4.6306 Z0.1400
G01 X7.5583 Y-4.6305 Z0.1400
G01 X8.0907 Y-4.5977 Z0.1400
G01 X8.0913 Y-4.5977 Z0.1400
G01 X8.0927 Y-4.5977 Z0.1400
G01 X8.6277 Y-4.5653 Z0.1400
G01 X8.6291 Y-4.5653 Z0.1400
G01 X9.1639 Y-4.5337 Z0.1400
G01 X9.1652 Y-4.5336 Z0.1400
G01 X9.7000 Y-4.5027 Z0.1400
G01 X9.7010 Y-4.5026 Z0.1400
G01 X10.2348 Y-4.4724 Z0.1400
G01 X10.2357 Y-4.4724 Z0.1400
G01 X10.2372 Y-4.4723 Z0.1400
G01 X10.7703 Y-4.4427 Z0.1400
G01 X10.7738 Y-4.4426 Z0.1400
G01 X11.3057 Y-4.4138 Z0.1400
G01 X11.3063 Y-4.4138 Z0.1400
G01 X11.3070 Y-4.4138 Z0.1400
G01 X11.3099 Y-4.4136 Z0.1400
G01 X11.8451 Y-4.3853 Z0.1400
G01 X11.8457 Y-4.3853 Z0.1400
G01 X11.8464 Y-4.3853 Z0.1400
G01 X12.3768 Y-4.3579 Z0.1400
G01 X12.3777 Y-4.3578 Z0.1400
G01 X12.3784 Y-4.3578 Z0.1400
G01 X12.3828 Y-4.3575 Z0.1400
G01 X12.9179 Y-4.3306 Z0.1400
G01 X12.9185 Y-4.3305 Z0.1400
G01 X12.9198 Y-4.3305 Z0.1400
G01 X13.4512 Y-4.3044 Z0.1400
G01 X13.4561 Y-4.3041 Z0.1400
G01 X13.9884 Y-4.2786 Z0.1400
G01 X13.9897 Y-4.2786 Z0.1400
G01 X13.9921 Y-4.2785 Z0.1400
G01 X14.5273 Y-4.2535 Z0.1400
G01 X14.5282 Y-4.2535 Z0.1400
G01 X15.0632 Y-4.2292 Z0.1400
G01 X15.0650 Y-4.2291 Z0.1400
G01 X15.5994 Y-4.2055 Z0.1400
G01 X15.6000 Y-4.2054 Z0.1400
G01 X15.6016 Y-4.2053 Z0.1400
G01 X16.1355 Y-4.1824 Z0.1400
G01 X16.1363 Y-4.1824 Z0.1400
G01 X16.1382 Y-4.1823 Z0.1400
G01 X16.6732 Y-4.1600 Z0.1400
G01 X16.6754 Y-4.1599 Z0.1400
G01 X17.2067 Y-4.1384 Z0.1400
G01 X17.2087 Y-4.1384 Z0.1400
G01 X17.2114 Y-4.1383 Z0.1400
G01 X17.7467 Y-4.1172 Z0.1400
G01 X17.7481 Y-4.1172 Z0.1400
G01 X18.2828 Y-4.0969 Z0.1400
G01 X18.2851 Y-4.0968 Z0.1400
G01 X18.2857 Y-4.0968 Z0.1400
G01 X18.8194 Y-4.0772 Z0.1400
G01 X18.8212 Y-4.0771 Z0.1400
G01 X18.8230 Y-4.0770 Z0.1400
G01 X19.3550 Y-4.0581 Z0.1400
G01 X19.3571 Y-4.0581 Z0.1400
G01 X19.3597 Y-4.0580 Z0.1400
G01 X19.8926 Y-4.0397 Z0.1400
G01 X19.8941 Y-4.0397 Z0.1400
G01 X19.8966 Y-4.0396 Z0.1400
G01 X20.4301 Y-4.0219 Z0.1400
G01 X20.4314 Y-4.0219 Z0.1400
G01 X20.9641 Y-4.0050 Z0.1400
G01 X20.9659 Y-4.0049 Z0.1400
G01 X20.9686 Y-4.0048 Z0.1400
G01 X21.5042 Y-3.9885 Z0.1400
G01 X21.5053 Y-3.9885 Z0.1400
G01 X22.0402 Y-3.9728 Z0.1400
G01 X22.0429 Y-3.9726 Z0.1400
G01 X22.5767 Y-3.9577 Z0.1400
G01 X22.5788 Y-3.9576 Z0.1400
G01 X22.5805 Y-3.9576 Z0.1400
G01 X23.1136 Y-3.9433 Z0.1400
G01 X23.1160 Y-3.9432 Z0.1400
G01 X23.1179 Y-3.9431 Z0.1400
G01 X23.6502 Y-3.9295 Z0.1400
G01 X23.6529 Y-3.9295 Z0.1400
G01 X23.6542 Y-3.9294 Z0.1400
G01 X24.1868 Y-3.9164 Z0.1400
G01 X24.1905 Y-3.9164 Z0.1400
G01 X24.1931 Y-3.9163 Z0.1400
G01 X24.7254 Y-3.9040 Z0.1400
G01 X24.7261 Y-3.9040 Z0.1400
G01 X24.7275 Y-3.9040 Z0.1400
G01 X25.2605 Y-3.8923 Z0.1400
G01 X25.2611 Y-3.8923 Z0.1400
G01 X25.2646 Y-3.8922 Z0.1400
G01 X25.2671 Y-3.8921 Z0.1400
G01 X25.7987 Y-3.8811 Z0.1400
G01 X25.8012 Y-3.8811 Z0.1400
G01 X25.8018 Y-3.8811 Z0.1400
G01 X26.3362 Y-3.8707 Z0.1400
G01 X26.3373 Y-3.8707 Z0.1400
G01 X26.3387 Y-3.8707 Z0.1400
G01 X26.8710 Y-3.8610 Z0.1400
G01 X26.8725 Y-3.8610 Z0.1400
G01 X26.8760 Y-3.8609 Z0.1400
G01 X26.8769 Y-3.8609 Z0.1400
G01 X27.4103 Y-3.8519 Z0.1400
G01 X27.4127 Y-3.8519 Z0.1400
G01 X27.9472 Y-3.8435 Z0.1400
G01 X27.9486 Y-3.8434 Z0.1400
G01 X28.4842 Y-3.8357 Z0.1400
G01 X28.4875 Y-3.8356 Z0.1400
G01 X28.4883 Y-3.8356 Z0.1400
G01 X29.0214 Y-3.8286 Z0.1400
G01 X29.0234 Y-3.8286 Z0.1400
G01 X29.5583 Y-3.8221 Z0.1400
G01 X29.5610 Y-3.8221 Z0.1400
G01 X30.0954 Y-3.8164 Z0.1400
G01 X30.0991 Y-3.8163 Z0.1400
G01 X30.6325 Y-3.8113 Z0.1400
G01 X30.6348 Y-3.8112 Z0.1400
G01 X30.6353 Y-3.8112 Z0.1400
G01 X31.1694 Y-3.8068 Z0.1400
G01 X31.1734 Y-3.8068 Z0.1400
G01 X31.1739 Y-3.8067 Z0.1400
G01 X31.7065 Y-3.8030 Z0.1400
G01 X31.7078 Y-3.8030 Z0.1400
G01 X32.2436 Y-3.7999 Z0.1400
G01 X32.2449 Y-3.7999 Z0.1400
G01 X32.7806 Y-3.7974 Z0.1400
G01 X32.7820 Y-3.7974 Z0.1400
G01 X33.3177 Y-3.7957 Z0.1400
G01 X33.3190 Y-3.7957 Z0.1400
G01 X33.8548 Y-3.7946 Z0.1400
G01 X33.8561 Y-3.7946 Z0.1400
G01 X34.3918 Y-3.7941 Z0.1400
G01 X34.3931 Y-3.7941 Z0.1400
G01 X34.9289 Y-3.7943 Z0.1400
G01 X34.9302 Y-3.7943 Z0.1400
G01 X35.4660 Y-3.7951 Z0.1400
G01 X35.4673 Y-3.7951 Z0.1400
G01 X36.0031 Y-3.7967 Z0.1400
G01 X36.0044 Y-3.7967 Z0.1400
G01 X36.5401 Y-3.7989 Z0.1400
G01 X36.5415 Y-3.7989 Z0.1400
G01 X37.0772 Y-3.8018 Z0.1400
G01 X37.0784 Y-3.8018 Z0.1400
G01 X37.6142 Y-3.8053 Z0.1400
G01 X37.6156 Y-3.8053 Z0.1400
G01 X38.1495 Y-3.8094 Z0.1400
G01 X38.1513 Y-3.8095 Z0.1400
G01 X38.1538 Y-3.8095 Z0.1400
G01 X38.6855 Y-3.8143 Z0.1400
G01 X38.6897 Y-3.8144 Z0.1400
G01 X39.2239 Y-3.8199 Z0.1400
G01 X39.2267 Y-3.8199 Z0.1400
G01 X39.7614 Y-3.8261 Z0.1400
G01 X39.7638 Y-3.8261 Z0.1400
G01 X40.2967 Y-3.8329 Z0.1400
G01 X40.2975 Y-3.8329 Z0.1400
G01 X40.3007 Y-3.8329 Z0.1400
G01 X40.8359 Y-3.8404 Z0.1400
G01 X40.8377 Y-3.8405 Z0.1400
G01 X41.3720 Y-3.8486 Z0.1400
G01 X41.3748 Y-3.8486 Z0.1400
G01 X41.9081 Y-3.8574 Z0.1400
G01 X41.9090 Y-3.8574 Z0.1400
G01 X41.9118 Y-3.8575 Z0.1400
G01 X42.4457 Y-3.8669 Z0.1400
G01 X42.4464 Y-3.8669 Z0.1400
G01 X42.4496 Y-3.8670 Z0.1400
G01 X42.9826 Y-3.8770 Z0.1400
G01 X42.9851 Y-3.8772 Z0.1400
G01 X42.9887 Y-3.8772 Z0.1400
G01 X42.9892 Y-3.8772 Z0.1400
G01 X43.5180 Y-3.8879 Z0.1400
G01 X43.5204 Y-3.8880 Z0.1400
G01 X43.5240 Y-3.8880 Z0.1400
G01 X43.5246 Y-3.8880 Z0.1400
G01 X44.0568 Y-3.8994 Z0.1400
G01 X44.0578 Y-3.8994 Z0.1400
G01 X44.0609 Y-3.8995 Z0.1400
G01 X44.5929 Y-3.9115 Z0.1400
G01 X44.5950 Y-3.9116 Z0.1400
G01 X44.5977 Y-3.9117 Z0.1400
G01 X45.1308 Y-3.9244 Z0.1400
G01 X45.1321 Y-3.9245 Z0.1400
G01 X45.1350 Y-3.9245 Z0.1400
G01 X45.6677 Y-3.9379 Z0.1400
G01 X45.6684 Y-3.9379 Z0.1400
G01 X45.6714 Y-3.9381 Z0.1400
G01 X46.2044 Y-3.9521 Z0.1400
G01 X46.2061 Y-3.9521 Z0.1400
G01 X46.2084 Y-3.9522 Z0.1400
G01 X46.7418 Y-3.9669 Z0.1400
G01 X46.7449 Y-3.9670 Z0.1400
G01 X47.2782 Y-3.9824 Z0.1400
G01 X47.2801 Y-3.9824 Z0.1400
G01 X47.2818 Y-3.9825 Z0.1400
G01 X47.8165 Y-3.9986 Z0.1400
G01 X47.8186 Y-3.9987 Z0.1400
G01 X48.3534 Y-4.0154 Z0.1400
G01 X48.3539 Y-4.0154 Z0.1400
G01 X48.3554 Y-4.0155 Z0.1400
G01 X48.8875 Y-4.0328 Z0.1400
G01 X48.8883 Y-4.0328 Z0.1400
G01 X48.8918 Y-4.0330 Z0.1400
G01 X48.8946 Y-4.0330 Z0.1400
G01 X49.4268 Y-4.0510 Z0.1400
G01 X49.4290 Y-4.0511 Z0.1400
G01 X49.9614 Y-4.0697 Z0.1400
G01 X49.9636 Y-4.0698 Z0.1400
G01 X49.9657 Y-4.0699 Z0.1400
G01 X50.5003 Y-4.0893 Z0.1400
G01 X50.5015 Y-4.0893 Z0.1400
G01 X50.5020 Y-4.0893 Z0.1400
G01 X51.0364 Y-4.1094 Z0.1400
G01 X51.0404 Y-4.1095 Z0.1400
G01 X51.5736 Y-4.1302 Z0.1400
G01 X51.5758 Y-4.1303 Z0.1400
G01 X52.1103 Y-4.1517 Z0.1400
G01 X52.1121 Y-4.1517 Z0.1400
G01 X52.1136 Y-4.1518 Z0.1400
G01 X52.6461 Y-4.1737 Z0.1400
G01 X52.6485 Y-4.1738 Z0.1400
G01 X52.6493 Y-4.1739 Z0.1400
G01 X53.1834 Y-4.1966 Z0.1400
G01 X53.1843 Y-4.1966 Z0.1400
G01 X53.1857 Y-4.1967 Z0.1400
G01 X53.7201 Y-4.2201 Z0.1400
G01 X53.7222 Y-4.2201 Z0.1400
G01 X54.2567 Y-4.2442 Z0.1400
G01 X54.2605 Y-4.2443 Z0.1400
G01 X54.7932 Y-4.2689 Z0.1400
G01 X54.7937 Y-4.2689 Z0.1400
G01 X54.7945 Y-4.2690 Z0.1400
G01 X55.3285 Y-4.2943 Z0.1400
G01 X55.3298 Y-4.2944 Z0.1400
G01 X55.3309 Y-4.2944 Z0.1400
G01 X55.8657 Y-4.3205 Z0.1400
G01 X55.8672 Y-4.3205 Z0.1400
G01 X56.4025 Y-4.3473 Z0.1400
G01 X56.4051 Y-4.3474 Z0.1400
G01 X56.9387 Y-4.3747 Z0.1400
G01 X56.9401 Y-4.3748 Z0.1400
G01 X57.4752 Y-4.4028 Z0.1400
G01 X57.4773 Y-4.4029 Z0.1400
G01 X57.4799 Y-4.4031 Z0.1400
G01 X58.0115 Y-4.4316 Z0.1400
G01 X58.0128 Y-4.4316 Z0.1400
G01 X58.5475 Y-4.4610 Z0.1400
G01 X58.5489 Y-4.4611 Z0.1400
G01 X59.0839 Y-4.4911 Z0.1400
G01 X59.0854 Y-4.4912 Z0.1400
G01 X59.0861 Y-4.4912 Z0.1400
G01 X59.6190 Y-4.5218 Z0.1400
G01 X59.6196 Y-4.5218 Z0.1400
G01 X59.6216 Y-4.5219 Z0.1400
G01 X60.1564 Y-4.5533 Z0.1400
G01 X60.1577 Y-4.5534 Z0.1400
G01 X63.7789 Y-4.7700 Z0.1400
G01 X63.7166 Y-5.8106 Z0.1400
G01 X60.0953 Y-5.5940 Z0.1400
G01 X60.0931 Y-5.5938 Z0.1400
G01 X59.5625 Y-5.5627 Z0.1400
G01 X59.5614 Y-5.5626 Z0.1400
G01 X59.5604 Y-5.5625 Z0.1400
G01 X59.0256 Y-5.5319 Z0.1400
G01 X59.0238 Y-5.5318 Z0.1400
G01 X58.4906 Y-5.5019 Z0.1400
G01 X58.4900 Y-5.5018 Z0.1400
G01 X58.4877 Y-5.5017 Z0.1400
G01 X57.9564 Y-5.4725 Z0.1400
G01 X57.9532 Y-5.4724 Z0.1400
G01 X57.9523 Y-5.4723 Z0.1400
G01 X57.4208 Y-5.4438 Z0.1400
G01 X57.4197 Y-5.4438 Z0.1400
G01 X56.8864 Y-5.4158 Z0.1400
G01 X56.8851 Y-5.4157 Z0.1400
G01 X56.8841 Y-5.4157 Z0.1400
G01 X56.3519 Y-5.3885 Z0.1400
G01 X56.3501 Y-5.3885 Z0.1400
G01 X55.8154 Y-5.3617 Z0.1400
G01 X55.8144 Y-5.3617 Z0.1400
G01 X55.8138 Y-5.3616 Z0.1400
G01 X55.2809 Y-5.3357 Z0.1400
G01 X55.2796 Y-5.3357 Z0.1400
G01 X54.7461 Y-5.3103 Z0.1400
G01 X54.7454 Y-5.3103 Z0.1400
G01 X54.7442 Y-5.3102 Z0.1400
G01 X54.2099 Y-5.2855 Z0.1400
G01 X54.2071 Y-5.2854 Z0.1400
G01 X54.2056 Y-5.2853 Z0.1400
G01 X53.6763 Y-5.2615 Z0.1400
G01 X53.6740 Y-5.2614 Z0.1400
G01 X53.6734 Y-5.2614 Z0.1400
G01 X53.1396 Y-5.2381 Z0.1400
G01 X53.1387 Y-5.2381 Z0.1400
G01 X52.6044 Y-5.2153 Z0.1400
G01 X52.6035 Y-5.2153 Z0.1400
G01 X52.6030 Y-5.2153 Z0.1400
G01 X52.0703 Y-5.1933 Z0.1400
G01 X52.0687 Y-5.1933 Z0.1400
G01 X51.5334 Y-5.1719 Z0.1400
G01 X51.5327 Y-5.1719 Z0.1400
G01 X50.9980 Y-5.1511 Z0.1400
G01 X50.9945 Y-5.1509 Z0.1400
G01 X50.9935 Y-5.1509 Z0.1400
G01 X50.4645 Y-5.1311 Z0.1400
G01 X50.4627 Y-5.1310 Z0.1400
G01 X49.9272 Y-5.1116 Z0.1400
G01 X49.9262 Y-5.1116 Z0.1400
G01 X49.3937 Y-5.0929 Z0.1400
G01 X49.3920 Y-5.0929 Z0.1400
G01 X49.3912 Y-5.0929 Z0.1400
G01 X48.8579 Y-5.0748 Z0.1400
G01 X48.8553 Y-5.0747 Z0.1400
G01 X48.8536 Y-5.0747 Z0.1400
G01 X48.3230 Y-5.0574 Z0.1400
G01 X48.3213 Y-5.0574 Z0.1400
G01 X48.3199 Y-5.0573 Z0.1400
G01 X47.7852 Y-5.0406 Z0.1400
G01 X47.2497 Y-5.0244 Z0.1400
G01 X46.7141 Y-5.0090 Z0.1400
G01 X46.7134 Y-5.0090 Z0.1400
G01 X46.1786 Y-4.9942 Z0.1400
G01 X45.6429 Y-4.9801 Z0.1400
G01 X45.6424 Y-4.9801 Z0.1400
G01 X45.1073 Y-4.9666 Z0.1400
G01 X44.5717 Y-4.9538 Z0.1400
G01 X44.5708 Y-4.9538 Z0.1400
G01 X44.0361 Y-4.9416 Z0.1400
G01 X43.5035 Y-4.9303 Z0.1400
G01 X43.5025 Y-4.9302 Z0.1400
G01 X43.4995 Y-4.9302 Z0.1400
G01 X42.9664 Y-4.9194 Z0.1400
G01 X42.9656 Y-4.9194 Z0.1400
G01 X42.9627 Y-4.9193 Z0.1400
G01 X42.4290 Y-4.9092 Z0.1400
G01 X41.8971 Y-4.8998 Z0.1400
G01 X41.8962 Y-4.8998 Z0.1400
G01 X41.8933 Y-4.8997 Z0.1400
G01 X41.3576 Y-4.8909 Z0.1400
G01 X40.8224 Y-4.8827 Z0.1400
G01 X40.8201 Y-4.8827 Z0.1400
G01 X40.2904 Y-4.8753 Z0.1400
G01 X40.2862 Y-4.8753 Z0.1400
G01 X39.7505 Y-4.8684 Z0.1400
G01 X39.2147 Y-4.8622 Z0.1400
G01 X38.6790 Y-4.8567 Z0.1400
G01 X38.1432 Y-4.8519 Z0.1400
G01 X37.6074 Y-4.8477 Z0.1400
G01 X37.0716 Y-4.8442 Z0.1400
G01 X36.5359 Y-4.8413 Z0.1400
G01 X36.0001 Y-4.8391 Z0.1400
G01 X35.4643 Y-4.8376 Z0.1400
G01 X34.9286 Y-4.8367 Z0.1400
G01 X34.3928 Y-4.8365 Z0.1400
G01 X33.8571 Y-4.8370 Z0.1400
G01 X33.3214 Y-4.8381 Z0.1400
G01 X32.7856 Y-4.8399 Z0.1400
G01 X32.2498 Y-4.8423 Z0.1400
G01 X31.7140 Y-4.8454 Z0.1400
G01 X31.1781 Y-4.8492 Z0.1400
G01 X31.1734 Y-4.8492 Z0.1400
G01 X30.6439 Y-4.8536 Z0.1400
G01 X30.6416 Y-4.8537 Z0.1400
G01 X30.1067 Y-4.8587 Z0.1400
G01 X29.5710 Y-4.8645 Z0.1400
G01 X29.0352 Y-4.8709 Z0.1400
G01 X28.4993 Y-4.8780 Z0.1400
G01 X28.4954 Y-4.8780 Z0.1400
G01 X27.9655 Y-4.8857 Z0.1400
G01 X27.9620 Y-4.8858 Z0.1400
G01 X27.4281 Y-4.8942 Z0.1400
G01 X26.8922 Y-4.9032 Z0.1400
G01 X26.8895 Y-4.9033 Z0.1400
G01 X26.8887 Y-4.9033 Z0.1400
G01 X26.3585 Y-4.9129 Z0.1400
G01 X26.3555 Y-4.9130 Z0.1400
G01 X26.3547 Y-4.9131 Z0.1400
G01 X25.8210 Y-4.9234 Z0.1400
G01 X25.2859 Y-4.9345 Z0.1400
G01 X25.2832 Y-4.9345 Z0.1400
G01 X25.2822 Y-4.9345 Z0.1400
G01 X24.7516 Y-4.9461 Z0.1400
G01 X24.7492 Y-4.9462 Z0.1400
G01 X24.2148 Y-4.9585 Z0.1400
G01 X24.2123 Y-4.9586 Z0.1400
G01 X24.2112 Y-4.9586 Z0.1400
G01 X23.6784 Y-4.9716 Z0.1400
G01 X23.1433 Y-4.9853 Z0.1400
G01 X23.1426 Y-4.9853 Z0.1400
G01 X22.6072 Y-4.9997 Z0.1400
G01 X22.0721 Y-5.0147 Z0.1400
G01 X22.0715 Y-5.0147 Z0.1400
G01 X21.5371 Y-5.0304 Z0.1400
G01 X21.5351 Y-5.0304 Z0.1400
G01 X21.5335 Y-5.0305 Z0.1400
G01 X21.0038 Y-5.0466 Z0.1400
G01 X21.0017 Y-5.0467 Z0.1400
G01 X20.9995 Y-5.0468 Z0.1400
G01 X20.4658 Y-5.0638 Z0.1400
G01 X20.4644 Y-5.0638 Z0.1400
G01 X20.4628 Y-5.0639 Z0.1400
G01 X19.9307 Y-5.0814 Z0.1400
G01 X19.9294 Y-5.0815 Z0.1400
G01 X19.3941 Y-5.0998 Z0.1400
G01 X18.8591 Y-5.1188 Z0.1400
G01 X18.8585 Y-5.1188 Z0.1400
G01 X18.3236 Y-5.1385 Z0.1400
G01 X18.3231 Y-5.1385 Z0.1400
G01 X17.7877 Y-5.1588 Z0.1400
G01 X17.7859 Y-5.1589 Z0.1400
G01 X17.2557 Y-5.1797 Z0.1400
G01 X17.2545 Y-5.1798 Z0.1400
G01 X17.2512 Y-5.1800 Z0.1400
G01 X16.7176 Y-5.2015 Z0.1400
G01 X16.7165 Y-5.2016 Z0.1400
G01 X16.1834 Y-5.2238 Z0.1400
G01 X16.1820 Y-5.2238 Z0.1400
G01 X16.1800 Y-5.2239 Z0.1400
G01 X15.6472 Y-5.2468 Z0.1400
G01 X15.6463 Y-5.2468 Z0.1400
G01 X15.1118 Y-5.2705 Z0.1400
G01 X15.1111 Y-5.2705 Z0.1400
G01 X14.5779 Y-5.2947 Z0.1400
G01 X14.5768 Y-5.2948 Z0.1400
G01 X14.5759 Y-5.2948 Z0.1400
G01 X14.0407 Y-5.3198 Z0.1400
G01 X14.0391 Y-5.3198 Z0.1400
G01 X13.5084 Y-5.3452 Z0.1400
G01 X13.5072 Y-5.3453 Z0.1400
G01 X13.5045 Y-5.3454 Z0.1400
G01 X12.9716 Y-5.3716 Z0.1400
G01 X12.9692 Y-5.3717 Z0.1400
G01 X12.9682 Y-5.3718 Z0.1400
G01 X12.4405 Y-5.3984 Z0.1400
G01 X12.4399 Y-5.3984 Z0.1400
G01 X12.4353 Y-5.3987 Z0.1400
G01 X11.9014 Y-5.4262 Z0.1400
G01 X11.9002 Y-5.4263 Z0.1400
G01 X11.3690 Y-5.4544 Z0.1400
G01 X11.3683 Y-5.4544 Z0.1400
G01 X11.3676 Y-5.4544 Z0.1400
G01 X11.3654 Y-5.4546 Z0.1400
G01 X10.8320 Y-5.4834 Z0.1400
G01 X10.8310 Y-5.4835 Z0.1400
G01 X10.8289 Y-5.4836 Z0.1400
G01 X10.2974 Y-5.5130 Z0.1400
G01 X10.2963 Y-5.5130 Z0.1400
G01 X10.2955 Y-5.5131 Z0.1400
G01 X9.7617 Y-5.5433 Z0.1400
G01 X9.7607 Y-5.5433 Z0.1400
G01 X9.7603 Y-5.5434 Z0.1400
G01 X9.2269 Y-5.5742 Z0.1400
G01 X9.2256 Y-5.5743 Z0.1400
G01 X8.6905 Y-5.6059 Z0.1400
G01 X8.6890 Y-5.6060 Z0.1400
G01 X8.6880 Y-5.6061 Z0.1400
G01 X8.6874 Y-5.6061 Z0.1400
G01 X8.1570 Y-5.6381 Z0.1400
G01 X8.1561 Y-5.6381 Z0.1400
G01 X8.1556 Y-5.6382 Z0.1400
G01 X8.1550 Y-5.6382 Z0.1400
G01 X7.6211 Y-5.6711 Z0.1400
G01 X4.0019 Y-5.8986 Z0.1400
G01 X3.9366 Y-4.8582 Z0.1400
G01 X3.9366 Y-4.8582 Z0.0000
G01 X7.5555 Y-4.6307 Z0.0000
G01 X7.5576 Y-4.6306 Z0.0000
G01 X7.5583 Y-4.6305 Z0.0000
G01 X8.0907 Y-4.5977 Z0.0000
G01 X8.0913 Y-4.5977 Z0.0000
G01 X8.0927 Y-4.5977 Z0.0000
G01 X8.6277 Y-4.5653 Z0.0000
G01 X8.6291 Y-4.5653 Z0.0000
G01 X9.1639 Y-4.5337 Z0.0000
G01 X9.1652 Y-4.5336 Z0.0000
G01 X9.7000 Y-4.5027 Z0.0000
G01 X9.7010 Y-4.5026 Z0.0000
G01 X10.2348 Y-4.4724 Z0.0000
G01 X10.2357 Y-4.4724 Z0.0000
G01 X10.2372 Y-4.4723 Z0.0000
G01 X10.7703 Y-4.4427 Z0.0000
G01 X10.7738 Y-4.4426 Z0.0000
G01 X11.3057 Y-4.4138 Z0.0000
G01 X11.3063 Y-4.4138 Z0.0000
G01 X11.3070 Y-4.4138 Z0.0000
G01 X11.3099 Y-4.4136 Z0.0000
G01 X11.8451 Y-4.3853 Z0.0000
G01 X11.8457 Y-4.3853 Z0.0000
G01 X11.8464 Y-4.3853 Z0.0000
G01 X12.3768 Y-4.3579 Z0.0000
G01 X12.3777 Y-4.3578 Z0.0000
G01 X12.3784 Y-4.3578 Z0.0000
G01 X12.3828 Y-4.3575 Z0.0000
G01 X12.9179 Y-4.3306 Z0.0000
G01 X12.9185 Y-4.3305 Z0.0000
G01 X12.9198 Y-4.3305 Z0.0000
G01 X13.4512 Y-4.3044 Z0.0000
G01 X13.4561 Y-4.3041 Z0.0000
G01 X13.9884 Y-4.2786 Z0.0000
G01 X13.9897 Y-4.2786 Z0.0000
G01 X13.9921 Y-4.2785 Z0.0000
G01 X14.5273 Y-4.2535 Z0.0000
G01 X14.5282 Y-4.2535 Z0.0000
G01 X15.0632 Y-4.2292 Z0.0000
G01 X15.0650 Y-4.2291 Z0.0000
G01 X15.5994 Y-4.2055 Z0.0000
G01 X15.6000 Y-4.2054 Z0.0000
G01 X15.6016 Y-4.2053 Z0.0000
G01 X16.1355 Y-4.1824 Z0.0000
G01 X16.1363 Y-4.1824 Z0.0000
G01 X16.1382 Y-4.1823 Z0.0000
G01 X16.6732 Y-4.1600 Z0.0000
G01 X16.6754 Y-4.1599 Z0.0000
G01 X17.2067 Y-4.1384 Z0.0000
G01 X17.2087 Y-4.1384 Z0.0000
G01 X17.2114 Y-4.1383 Z0.0000
G01 X17.7467 Y-4.1172 Z0.0000
G01 X17.7481 Y-4.1172 Z0.0000
G01 X18.2828 Y-4.0969 Z0.0000
G01 X18.2851 Y-4.0968 Z0.0000
G01 X18.2857 Y-4.0968 Z0.0000
G01 X18.8194 Y-4.0772 Z0.0000
G01 X18.8212 Y-4.0771 Z0.0000
G01 X18.8230 Y-4.0770 Z0.0000
G01 X19.3550 Y-4.0581 Z0.0000
G01 X19.3571 Y-4.0581 Z0.0000
G01 X19.3597 Y-4.0580 Z0.0000
G01 X19.8926 Y-4.0397 Z0.0000
G01 X19.8941 Y-4.0397 Z0.0000
G01 X19.8966 Y-4.0396 Z0.0000
G01 X20.4301 Y-4.0219 Z0.0000
G01 X20.4314 Y-4.0219 Z0.0000
G01 X20.9641 Y-4.0050 Z0.0000
G01 X20.9659 Y-4.0049 Z0.0000
G01 X20.9686 Y-4.0048 Z0.0000
G01 X21.5042 Y-3.9885 Z0.0000
G01 X21.5053 Y-3.9885 Z0.0000
G01 X22.0402 Y-3.9728 Z0.0000
G01 X22.0429 Y-3.9726 Z0.0000
G01 X22.5767 Y-3.9577 Z0.0000
G01 X22.5788 Y-3.9576 Z0.0000
G01 X22.5805 Y-3.9576 Z0.0000
G01 X23.1136 Y-3.9433 Z0.0000
G01 X23.1160 Y-3.9432 Z0.0000
G01 X23.1179 Y-3.9431 Z0.0000
G01 X23.6502 Y-3.9295 Z0.0000
G01 X23.6529 Y-3.9295 Z0.0000
G01 X23.6542 Y-3.9294 Z0.0000
G01 X24.1868 Y-3.9164 Z0.0000
G01 X24.1905 Y-3.9164 Z0.0000
G01 X24.1931 Y-3.9163 Z0.0000
G01 X24.7254 Y-3.9040 Z0.0000
G01 X24.7261 Y-3.9040 Z0.0000
G01 X24.7275 Y-3.9040 Z0.0000
G01 X25.2605 Y-3.8923 Z0.0000
G01 X25.2611 Y-3.8923 Z0.0000
G01 X25.2646 Y-3.8922 Z0.0000
G01 X25.2671 Y-3.8921 Z0.0000
G01 X25.7987 Y-3.8811 Z0.0000
G01 X25.8012 Y-3.8811 Z0.0000
G01 X25.8018 Y-3.8811 Z0.0000
G01 X26.3362 Y-3.8707 Z0.0000
G01 X26.3373 Y-3.8707 Z0.0000
G01 X26.3387 Y-3.8707 Z0.0000
G01 X26.8710 Y-3.8610 Z0.0000
G01 X26.8725 Y-3.8610 Z0.0000
G01 X26.8760 Y-3.8609 Z0.0000
G01 X26.8769 Y-3.8609 Z0.0000
G01 X27.4103 Y-3.8519 Z0.0000
G01 X27.4127 Y-3.8519 Z0.0000
G01 X27.9472 Y-3.8435 Z0.0000
G01 X27.9486 Y-3.8434 Z0.0000
G01 X28.4842 Y-3.8357 Z0.0000
G01 X28.4875 Y-3.8356 Z0.0000
G01 X28.4883 Y-3.8356 Z0.0000
G01 X29.0214 Y-3.8286 Z0.0000
G01 X29.0234 Y-3.8286 Z0.0000
G01 X29.5583 Y-3.8221 Z0.0000
G01 X29.5610 Y-3.8221 Z0.0000
G01 X30.0954 Y-3.8164 Z0.0000
G01 X30.0991 Y-3.8163 Z0.0000
G01 X30.6325 Y-3.8113 Z0.0000
G01 X30.6348 Y-3.8112 Z0.0000
G01 X30.6353 Y-3.8112 Z0.0000
G01 X31.1694 Y-3.8068 Z0.0000
G01 X31.1734 Y-3.8068 Z0.0000
G01 X31.1739 Y-3.8067 Z0.0000
G01 X31.7065 Y-3.8030 Z0.0000
G01 X31.7078 Y-3.8030 Z0.0000
G01 X32.2436 Y-3.7999 Z0.0000
G01 X32.2449 Y-3.7999 Z0.0000
G01 X32.7806 Y-3.7974 Z0.0000
G01 X32.7820 Y-3.7974 Z0.0000
G01 X33.3177 Y-3.7957 Z0.0000
G01 X33.3190 Y-3.7957 Z0.0000
G01 X33.8548 Y-3.7946 Z0.0000
G01 X33.8561 Y-3.7946 Z0.0000
G01 X34.3918 Y-3.7941 Z0.0000
G01 X34.3931 Y-3.7941 Z0.0000
G01 X34.9289 Y-3.7943 Z0.0000
G01 X34.9302 Y-3.7943 Z0.0000
G01 X35.4660 Y-3.7951 Z0.0000
G01 X35.4673 Y-3.7951 Z0.0000
G01 X36.0031 Y-3.7967 Z0.0000
G01 X36.0044 Y-3.7967 Z0.0000
G01 X36.5401 Y-3.7989 Z0.0000
G01 X36.5415 Y-3.7989 Z0.0000
G01 X37.0772 Y-3.8018 Z0.0000
G01 X37.0784 Y-3.8018 Z0.0000
G01 X37.6142 Y-3.8053 Z0.0000
G01 X37.6156 Y-3.8053 Z0.0000
G01 X38.1495 Y-3.8094 Z0.0000
G01 X38.1513 Y-3.8095 Z0.0000
G01 X38.1538 Y-3.8095 Z0.0000
G01 X38.6855 Y-3.8143 Z0.0000
G01 X38.6897 Y-3.8144 Z0.0000
G01 X39.2239 Y-3.8199 Z0.0000
G01 X39.2267 Y-3.8199 Z0.0000
G01 X39.7614 Y-3.8261 Z0.0000
G01 X39.7638 Y-3.8261 Z0.0000
G01 X40.2967 Y-3.8329 Z0.0000
G01 X40.2975 Y-3.8329 Z0.0000
G01 X40.3007 Y-3.8329 Z0.0000
G01 X40.8359 Y-3.8404 Z0.0000
G01 X40.8377 Y-3.8405 Z0.0000
G01 X41.3720 Y-3.8486 Z0.0000
G01 X41.3748 Y-3.8486 Z0.0000
G01 X41.9081 Y-3.8574 Z0.0000
G01 X41.9090 Y-3.8574 Z0.0000
G01 X41.9118 Y-3.8575 Z0.0000
G01 X42.4457 Y-3.8669 Z0.0000
G01 X42.4464 Y-3.8669 Z0.0000
G01 X42.4496 Y-3.8670 Z0.0000
G01 X42.9826 Y-3.8770 Z0.0000
G01 X42.9851 Y-3.8772 Z0.0000
G01 X42.9887 Y-3.8772 Z0.0000
G01 X42.9892 Y-3.8772 Z0.0000
G01 X43.5180 Y-3.8879 Z0.0000
G01 X43.5204 Y-3.8880 Z0.0000
G01 X43.5240 Y-3.8880 Z0.0000
G01 X43.5246 Y-3.8880 Z0.0000
G01 X44.0568 Y-3.8994 Z0.0000
G01 X44.0578 Y-3.8994 Z0.0000
G01 X44.0609 Y-3.8995 Z0.0000
G01 X44.5929 Y-3.9115 Z0.0000
G01 X44.5950 Y-3.9116 Z0.0000
G01 X44.5977 Y-3.9117 Z0.0000
G01 X45.1308 Y-3.9244 Z0.0000
G01 X45.1321 Y-3.9245 Z0.0000
G01 X45.1350 Y-3.9245 Z0.0000
G01 X45.6677 Y-3.9379 Z0.0000
G01 X45.6684 Y-3.9379 Z0.0000
G01 X45.6714 Y-3.9381 Z0.0000
G01 X46.2044 Y-3.9521 Z0.0000
G01 X46.2061 Y-3.9521 Z0.0000
G01 X46.2084 Y-3.9522 Z0.0000
G01 X46.7418 Y-3.9669 Z0.0000
G01 X46.7449 Y-3.9670 Z0.0000
G01 X47.2782 Y-3.9824 Z0.0000
G01 X47.2801 Y-3.9824 Z0.0000
G01 X47.2818 Y-3.9825 Z0.0000
G01 X47.8165 Y-3.9986 Z0.0000
G01 X47.8186 Y-3.9987 Z0.0000
G01 X48.3534 Y-4.0154 Z0.0000
G01 X48.3539 Y-4.0154 Z0.0000
G01 X48.3554 Y-4.0155 Z0.0000
G01 X48.8875 Y-4.0328 Z0.0000
G01 X48.8883 Y-4.0328 Z0.0000
G01 X48.8918 Y-4.0330 Z0.0000
G01 X48.8946 Y-4.0330 Z0.0000
G01 X49.4268 Y-4.0510 Z0.0000
G01 X49.4290 Y-4.0511 Z0.0000
G01 X49.9614 Y-4.0697 Z0.0000
G01 X49.9636 Y-4.0698 Z0.0000
G01 X49.9657 Y-4.0699 Z0.0000
G01 X50.5003 Y-4.0893 Z0.0000
G01 X50.5015 Y-4.0893 Z0.0000
G01 X50.5020 Y-4.0893 Z0.0000
G01 X51.0364 Y-4.1094 Z0.0000
G01 X51.0404 Y-4.1095 Z0.0000
G01 X51.5736 Y-4.1302 Z0.0000
G01 X51.5758 Y-4.1303 Z0.0000
G01 X52.1103 Y-4.1517 Z0.0000
G01 X52.1121 Y-4.1517 Z0.0000
G01 X52.1136 Y-4.1518 Z0.0000
G01 X52.6461 Y-4.1737 Z0.0000
G01 X52.6485 Y-4.1738 Z0.0000
G01 X52.6493 Y-4.1739 Z0.0000
G01 X53.1834 Y-4.1966 Z0.0000
G01 X53.1843 Y-4.1966 Z0.0000
G01 X53.1857 Y-4.1967 Z0.0000
G01 X53.7201 Y-4.2201 Z0.0000
G01 X53.7222 Y-4.2201 Z0.0000
G01 X54.2567 Y-4.2442 Z0.0000
G01 X54.2605 Y-4.2443 Z0.0000
G01 X54.7932 Y-4.2689 Z0.0000
G01 X54.7937 Y-4.2689 Z0.0000
G01 X54.7945 Y-4.2690 Z0.0000
G01 X55.3285 Y-4.2943 Z0.0000
G01 X55.3298 Y-4.2944 Z0.0000
G01 X55.3309 Y-4.2944 Z0.0000
G01 X55.8657 Y-4.3205 Z0.0000
G01 X55.8672 Y-4.3205 Z0.0000
G01 X56.4025 Y-4.3473 Z0.0000
G01 X56.4051 Y-4.3474 Z0.0000
G01 X56.9387 Y-4.3747 Z0.0000
G01 X56.9401 Y-4.3748 Z0.0000
G01 X57.4752 Y-4.4028 Z0.0000
G01 X57.4773 Y-4.4029 Z0.0000
G01 X57.4799 Y-4.4031 Z0.0000
G01 X58.0115 Y-4.4316 Z0.0000
G01 X58.0128 Y-4.4316 Z0.0000
G01 X58.5475 Y-4.4610 Z0.0000
G01 X58.5489 Y-4.4611 Z0.0000
G01 X59.0839 Y-4.4911 Z0.0000
G01 X59.0854 Y-4.4912 Z0.0000
G01 X59.0861 Y-4.4912 Z0.0000
G01 X59.6190 Y-4.5218 Z0.0000
G01 X59.6196 Y-4.5218 Z0.0000
G01 X59.6216 Y-4.5219 Z0.0000
G01 X60.1564 Y-4.5533 Z0.0000
G01 X60.1577 Y-4.5534 Z0.0000
G01 X63.7789 Y-4.7700 Z0.0000
G01 X63.7166 Y-5.8106 Z0.0000
G01 X60.0953 Y-5.5940 Z0.0000
G01 X60.0931 Y-5.5938 Z0.0000
G01 X59.5625 Y-5.5627 Z0.0000
G01 X59.5614 Y-5.5626 Z0.0000
G01 X59.5604 Y-5.5625 Z0.0000
G01 X59.0256 Y-5.5319 Z0.0000
G01 X59.0238 Y-5.5318 Z0.0000
G01 X58.4906 Y-5.5019 Z0.0000
G01 X58.4900 Y-5.5018 Z0.0000
G01 X58.4877 Y-5.5017 Z0.0000
G01 X57.9564 Y-5.4725 Z0.0000
G01 X57.9532 Y-5.4724 Z0.0000
G01 X57.9523 Y-5.4723 Z0.0000
G01 X57.4208 Y-5.4438 Z0.0000
G01 X57.4197 Y-5.4438 Z0.0000
G01 X56.8864 Y-5.4158 Z0.0000
G01 X56.8851 Y-5.4157 Z0.0000
G01 X56.8841 Y-5.4157 Z0.0000
G01 X56.3519 Y-5.3885 Z0.0000
G01 X56.3501 Y-5.3885 Z0.0000
G01 X55.8154 Y-5.3617 Z0.0000
G01 X55.8144 Y-5.3617 Z0.0000
G01 X55.8138 Y-5.3616 Z0.0000
G01 X55.2809 Y-5.3357 Z0.0000
G01 X55.2796 Y-5.3357 Z0.0000
G01 X54.7461 Y-5.3103 Z0.0000
G01 X54.7454 Y-5.3103 Z0.0000
G01 X54.7442 Y-5.3102 Z0.0000
G01 X54.2099 Y-5.2855 Z0.0000
G01 X54.2071 Y-5.2854 Z0.0000
G01 X54.2056 Y-5.2853 Z0.0000
G01 X53.6763 Y-5.2615 Z0.0000
G01 X53.6740 Y-5.2614 Z0.0000
G01 X53.6734 Y-5.2614 Z0.0000
G01 X53.1396 Y-5.2381 Z0.0000
G01 X53.1387 Y-5.2381 Z0.0000
G01 X52.6044 Y-5.2153 Z0.0000
G01 X52.6035 Y-5.2153 Z0.0000
G01 X52.6030 Y-5.2153 Z0.0000
G01 X52.0703 Y-5.1933 Z0.0000
G01 X52.0687 Y-5.1933 Z0.0000
G01 X51.5334 Y-5.1719 Z0.0000
G01 X51.5327 Y-5.1719 Z0.0000
G01 X50.9980 Y-5.1511 Z0.0000
G01 X50.9945 Y-5.1509 Z0.0000
G01 X50.9935 Y-5.1509 Z0.0000
G01 X50.4645 Y-5.1311 Z0.0000
G01 X50.4627 Y-5.1310 Z0.0000
G01 X49.9272 Y-5.1116 Z0.0000
G01 X49.9262 Y-5.1116 Z0.0000
G01 X49.3937 Y-5.0929 Z0.0000
G01 X49.3920 Y-5.0929 Z0.0000
G01 X49.3912 Y-5.0929 Z0.0000
G01 X48.8579 Y-5.0748 Z0.0000
G01 X48.8553 Y-5.0747 Z0.0000
G01 X48.8536 Y-5.0747 Z0.0000
G01 X48.3230 Y-5.0574 Z0.0000
G01 X48.3213 Y-5.0574 Z0.0000
G01 X48.3199 Y-5.0573 Z0.0000
G01 X47.7852 Y-5.0406 Z0.0000
G01 X47.2497 Y-5.0244 Z0.0000
G01 X46.7141 Y-5.0090 Z0.0000
G01 X46.7134 Y-5.0090 Z0.0000
G01 X46.1786 Y-4.9942 Z0.0000
G01 X45.6429 Y-4.9801 Z0.0000
G01 X45.6424 Y-4.9801 Z0.0000
G01 X45.1073 Y-4.9666 Z0.0000
G01 X44.5717 Y-4.9538 Z0.0000
G01 X44.5708 Y-4.9538 Z0.0000
G01 X44.0361 Y-4.9416 Z0.0000
G01 X43.5035 Y-4.9303 Z0.0000
G01 X43.5025 Y-4.9302 Z0.0000
G01 X43.4995 Y-4.9302 Z0.0000
G01 X42.9664 Y-4.9194 Z0.0000
G01 X42.9656 Y-4.9194 Z0.0000
G01 X42.9627 Y-4.9193 Z0.0000
G01 X42.4290 Y-4.9092 Z0.0000
G01 X41.8971 Y-4.8998 Z0.0000
G01 X41.8962 Y-4.8998 Z0.0000
G01 X41.8933 Y-4.8997 Z0.0000
G01 X41.3576 Y-4.8909 Z0.0000
G01 X40.8224 Y-4.8827 Z0.0000
G01 X40.8201 Y-4.8827 Z0.0000
G01 X40.2904 Y-4.8753 Z0.0000
G01 X40.2862 Y-4.8753 Z0.0000
G01 X39.7505 Y-4.8684 Z0.0000
G01 X39.2147 Y-4.8622 Z0.0000
G01 X38.6790 Y-4.8567 Z0.0000
G01 X38.1432 Y-4.8519 Z0.0000
G01 X37.6074 Y-4.8477 Z0.0000
G01 X37.0716 Y-4.8442 Z0.0000
G01 X36.5359 Y-4.8413 Z0.0000
G01 X36.0001 Y-4.8391 Z0.0000
G01 X35.4643 Y-4.8376 Z0.0000
G01 X34.9286 Y-4.8367 Z0.0000
G01 X34.3928 Y-4.8365 Z0.0000
G01 X33.8571 Y-4.8370 Z0.0000
G01 X33.3214 Y-4.8381 Z0.0000
G01 X32.7856 Y-4.8399 Z0.0000
G01 X32.2498 Y-4.8423 Z0.0000
G01 X31.7140 Y-4.8454 Z0.0000
G01 X31.1781 Y-4.8492 Z0.0000
G01 X31.1734 Y-4.8492 Z0.0000
G01 X30.6439 Y-4.8536 Z0.0000
G01 X30.6416 Y-4.8537 Z0.0000
G01 X30.1067 Y-4.8587 Z0.0000
G01 X29.5710 Y-4.8645 Z0.0000
G01 X29.0352 Y-4.8709 Z0.0000
G01 X28.4993 Y-4.8780 Z0.0000
G01 X28.4954 Y-4.8780 Z0.0000
G01 X27.9655 Y-4.8857 Z0.0000
G01 X27.9620 Y-4.8858 Z0.0000
G01 X27.4281 Y-4.8942 Z0.0000
G01 X26.8922 Y-4.9032 Z0.0000
G01 X26.8895 Y-4.9033 Z0.0000
G01 X26.8887 Y-4.9033 Z0.0000
G01 X26.3585 Y-4.9129 Z0.0000
G01 X26.3555 Y-4.9130 Z0.0000
G01 X26.3547 Y-4.9131 Z0.0000
G01 X25.8210 Y-4.9234 Z0.0000
G01 X25.2859 Y-4.9345 Z0.0000
G01 X25.2832 Y-4.9345 Z0.0000
G01 X25.2822 Y-4.9345 Z0.0000
G01 X24.7516 Y-4.9461 Z0.0000
G01 X24.7492 Y-4.9462 Z0.0000
G01 X24.2148 Y-4.9585 Z0.0000
G01 X24.2123 Y-4.9586 Z0.0000
G01 X24.2112 Y-4.9586 Z0.0000
G01 X23.6784 Y-4.9716 Z0.0000
G01 X23.1433 Y-4.9853 Z0.0000
G01 X23.1426 Y-4.9853 Z0.0000
G01 X22.6072 Y-4.9997 Z0.0000
G01 X22.0721 Y-5.0147 Z0.0000
G01 X22.0715 Y-5.0147 Z0.0000
G01 X21.5371 Y-5.0304 Z0.0000
G01 X21.5351 Y-5.0304 Z0.0000
G01 X21.5335 Y-5.0305 Z0.0000
G01 X21.0038 Y-5.0466 Z0.0000
G01 X21.0017 Y-5.0467 Z0.0000
G01 X20.9995 Y-5.0468 Z0.0000
G01 X20.4658 Y-5.0638 Z0.0000
G01 X20.4644 Y-5.0638 Z0.0000
G01 X20.4628 Y-5.0639 Z0.0000
G01 X19.9307 Y-5.0814 Z0.0000
G01 X19.9294 Y-5.0815 Z0.0000
G01 X19.3941 Y-5.0998 Z0.0000
G01 X18.8591 Y-5.1188 Z0.0000
G01 X18.8585 Y-5.1188 Z0.0000
G01 X18.3236 Y-5.1385 Z0.0000
G01 X18.3231 Y-5.1385 Z0.0000
G01 X17.7877 Y-5.1588 Z0.0000
G01 X17.7859 Y-5.1589 Z0.0000
G01 X17.2557 Y-5.1797 Z0.0000
G01 X17.2545 Y-5.1798 Z0.0000
G01 X17.2512 Y-5.1800 Z0.0000
G01 X16.7176 Y-5.2015 Z0.0000
G01 X16.7165 Y-5.2016 Z0.0000
G01 X16.1834 Y-5.2238 Z0.0000
G01 X16.1820 Y-5.2238 Z0.0000
G01 X16.1800 Y-5.2239 Z0.0000
G01 X15.6472 Y-5.2468 Z0.0000
G01 X15.6463 Y-5.2468 Z0.0000
G01 X15.1118 Y-5.2705 Z0.0000
G01 X15.1111 Y-5.2705 Z0.0000
G01 X14.5779 Y-5.2947 Z0.0000
G01 X14.5768 Y-5.2948 Z0.0000
G01 X14.5759 Y-5.2948 Z0.0000
G01 X14.0407 Y-5.3198 Z0.0000
G01 X14.0391 Y-5.3198 Z0.0000
G01 X13.5084 Y-5.3452 Z0.0000
G01 X13.5072 Y-5.3453 Z0.0000
G01 X13.5045 Y-5.3454 Z0.0000
G01 X12.9716 Y-5.3716 Z0.0000
G01 X12.9692 Y-5.3717 Z0.0000
G01 X12.9682 Y-5.3718 Z0.0000
G01 X12.4405 Y-5.3984 Z0.0000
G01 X12.4399 Y-5.3984 Z0.0000
G01 X12.4353 Y-5.3987 Z0.0000
G01 X11.9014 Y-5.4262 Z0.0000
G01 X11.9002 Y-5.4263 Z0.0000
G01 X11.3690 Y-5.4544 Z0.0000
G01 X11.3683 Y-5.4544 Z0.0000
G01 X11.3676 Y-5.4544 Z0.0000
G01 X11.3654 Y-5.4546 Z0.0000
G01 X10.8320 Y-5.4834 Z0.0000
G01 X10.8310 Y-5.4835 Z0.0000
G01 X10.8289 Y-5.4836 Z0.0000
G01 X10.2974 Y-5.5130 Z0.0000
G01 X10.2963 Y-5.5130 Z0.0000
G01 X10.2955 Y-5.5131 Z0.0000
G01 X9.7617 Y-5.5433 Z0.0000
G01 X9.7607 Y-5.5433 Z0.0000
G01 X9.7603 Y-5.5434 Z0.0000
G01 X9.2269 Y-5.5742 Z0.0000
G01 X9.2256 Y-5.5743 Z0.0000
G01 X8.6905 Y-5.6059 Z0.0000
G01 X8.6890 Y-5.6060 Z0.0000
G01 X8.6880 Y-5.6061 Z0.0000
G01 X8.6874 Y-5.6061 Z0.0000
G01 X8.1570 Y-5.6381 Z0.0000
G01 X8.1561 Y-5.6381 Z0.0000
G01 X8.1556 Y-5.6382 Z0.0000
G01 X8.1550 Y-5.6382 Z0.0000
G01 X7.6211 Y-5.6711 Z0.0000
G01 X4.0019 Y-5.8986 Z0.0000
G01 X3.9366 Y-4.8582 Z0.0000
G00 X3.9366 Y-4.8582 Z0.6000
M05
G00 X0.0000 Y0.0000 Z0.6000
G49
G01 G55 Z0 F20
G00 G55 X0 Y0 Z0
M30
