( Sample-ski-core-alignment-marks.nc                                           )
( Generated by MonkeyCAM v4.0.6 master@84b5271                                 )
(   at 2017-08-19 00:09:56 PDT                                                 )
(                                                                              )
( This GCode program is provided on an "AS IS" BASIS WITHOUT WARRANTIES OR     )
( CONDITIONS OF ANY KIND, either express or implied. You should inspect this   )
( program very carefully to confirm you understand its operation. YOU ARE      )
( RESPONSIBLE FOR ENSURING THIS PROGRAM WILL NOT DAMAGE YOUR MACHINE OR        )
( MATERIALS.                                                                   )
(                                                                              )
( See http://www.github.com/mikemag/MonkeyCAM for License and documentation.   )
(                                                                              )
( * Rapid height: 0.2000" [0.5080cm]                                           )
( * Tool: T1, Quarter Inch V, diameter 0.2500" [0.6350cm]                      )
( * Height baseline [Z=0.0] is the top of the material.                        )
( * XY origin is the left side of the table, Y is center of the part.          )
( * Requires G54 to be the part work coordinate offsets [WCO]. [0, 0] is the   )
(   center of the nose, with the board extending to positive X. The cutter may )
(   move to negative values of X.                                              )
( * Requires G55 to be the machine WCO, with Z above the rapid height.         )
( * Units are inches                                                           )
( * Center of the board in G54:                                                )
(     X=36.0236 Y=0.0000 Z=0.0000                                              )
( * Cutter bounding box in G54:                                                )
(     X-0.5000 Y-0.9767 Z-0.1500 to X70.7755 Y1.0000 Z0.2000                   )

G90 G20 G17 G40 G49
G43 H1 T1
G00 G54 X0 Y0 Z0.2000

M03
G04 P5
G00 X-0.5000 Y1.0000 Z0.2000
G01 X-0.5000 Y1.0000 Z-0.1500 F80
G00 X-0.5000 Y1.0000 Z0.2000
G00 X1.2874 Y0.0000 Z0.2000
G01 X1.2874 Y0.0000 Z-0.0200
G00 X1.2874 Y0.0000 Z0.2000
G00 X5.2244 Y0.0000 Z0.2000
G01 X5.2244 Y0.0000 Z-0.0200
G00 X5.2244 Y0.0000 Z0.2000
G00 X35.1377 Y-0.9767 Z0.2000
G01 X35.1377 Y-0.9767 Z-0.0200
G00 X35.1377 Y-0.9767 Z0.2000
G00 X35.1377 Y0.0000 Z0.2000
G01 X35.1377 Y0.0000 Z-0.0200
G00 X35.1377 Y0.0000 Z0.2000
G00 X35.1377 Y0.9767 Z0.2000
G01 X35.1377 Y0.9767 Z-0.0200
G00 X35.1377 Y0.9767 Z0.2000
G00 X36.0236 Y-0.9767 Z0.2000
G01 X36.0236 Y-0.9767 Z-0.0200
G00 X36.0236 Y-0.9767 Z0.2000
G00 X36.0236 Y0.0000 Z0.2000
G01 X36.0236 Y0.0000 Z-0.0200
G00 X36.0236 Y0.0000 Z0.2000
G00 X36.0236 Y0.9767 Z0.2000
G01 X36.0236 Y0.9767 Z-0.0200
G00 X36.0236 Y0.9767 Z0.2000
G00 X65.0511 Y0.0000 Z0.2000
G01 X65.0511 Y0.0000 Z-0.0200
G00 X65.0511 Y0.0000 Z0.2000
G00 X68.9881 Y0.0000 Z0.2000
G01 X68.9881 Y0.0000 Z-0.0200
G00 X68.9881 Y0.0000 Z0.2000
G00 X70.7755 Y1.0000 Z0.2000
G01 X70.7755 Y1.0000 Z-0.1500
G00 X70.7755 Y1.0000 Z0.2000
M05
G00 X0.0000 Y0.0000 Z0.2000
G49
G01 G55 Z0 F20
G00 G55 X0 Y0 Z0
M30
