( Sample-snowboard-core-edge-groove.nc                                         )
( Generated by MonkeyCAM v4.0 at 2013-09-20 01:23:03                           )
(                                                                              )
( This GCode program is provided on an 'AS IS' BASIS WITHOUT WARRANTIES OR     )
( CONDITIONS OF ANY KIND, either express or implied. You should inspect this   )
( program very carefully to confirm you understand its operation. YOU ARE      )
( RESPONSIBLE FOR ENSURING THIS PROGRAM WILL NOT DAMAGE YOUR MACHINE OR        )
( MATERIALS.                                                                   )
(                                                                              )
( See http://www.github.com/MonkeyCAM for License and documentation.           )
(                                                                              )
( * Rapid height: 0.1000" (0.2540cm)                                           )
( * Tool: T1, Quarter Inch Upcut Spiral, diameter 0.2469" (0.6273cm)           )
( * Height basline (Z=0.0) is the top of the material.                         )
( * XY origin is the left side of the table, Y is center of the part.          )
( * Requires G54 to be the part work coordinate offsets (WCO). (0, 0) is the   )
(   center of the nose, with the board extending to positive X. The cutter may )
(   move to negative values of X.                                              )
( * Requires G55 to be the machine WCO, with Z above the rapid height.         )
( * Units are inches                                                           )
( * Cutter bounding box in G54:                                                )
(     X-0.0085 Y-5.7186 Z-0.0250 to X66.1502 Y5.7186 Z0.1000)                  )

G90 G20 G17 G40 G49
G00 G55 X0 Y0 Z0
G43 H1 T1
G00 G54 X0.0000 Y0.0000 Z0.1000

G00 G54 X-0.0085 Y-0.0014 Z0.1000
M03
G04 P5
G01 G54 X-0.0085 Y-0.0014 Z-0.0250 F70
G01 G54 X-0.0064 Y-0.1694 Z-0.0250
G01 G54 X-0.0063 Y-0.1716 Z-0.0250
G01 G54 X0.0001 Y-0.3427 Z-0.0250
G01 G54 X0.0002 Y-0.3450 Z-0.0250
G01 G54 X0.0109 Y-0.5126 Z-0.0250
G01 G54 X0.0111 Y-0.5149 Z-0.0250
G01 G54 X0.0264 Y-0.6845 Z-0.0250
G01 G54 X0.0266 Y-0.6868 Z-0.0250
G01 G54 X0.0462 Y-0.8534 Z-0.0250
G01 G54 X0.0466 Y-0.8558 Z-0.0250
G01 G54 X0.0709 Y-1.0230 Z-0.0250
G01 G54 X0.0713 Y-1.0255 Z-0.0250
G01 G54 X0.1004 Y-1.1919 Z-0.0250
G01 G54 X0.1009 Y-1.1944 Z-0.0250
G01 G54 X0.1344 Y-1.3581 Z-0.0250
G01 G54 X0.1350 Y-1.3606 Z-0.0250
G01 G54 X0.1740 Y-1.5260 Z-0.0250
G01 G54 X0.1746 Y-1.5286 Z-0.0250
G01 G54 X0.2183 Y-1.6914 Z-0.0250
G01 G54 X0.2190 Y-1.6940 Z-0.0250
G01 G54 X0.2675 Y-1.8550 Z-0.0250
G01 G54 X0.2683 Y-1.8577 Z-0.0250
G01 G54 X0.3222 Y-2.0181 Z-0.0250
G01 G54 X0.3232 Y-2.0207 Z-0.0250
G01 G54 X0.3820 Y-2.1786 Z-0.0250
G01 G54 X0.3830 Y-2.1813 Z-0.0250
G01 G54 X0.4468 Y-2.3369 Z-0.0250
G01 G54 X0.4480 Y-2.3396 Z-0.0250
G01 G54 X0.5177 Y-2.4945 Z-0.0250
G01 G54 X0.5190 Y-2.4972 Z-0.0250
G01 G54 X0.5943 Y-2.6504 Z-0.0250
G01 G54 X0.5957 Y-2.6531 Z-0.0250
G01 G54 X0.6755 Y-2.8022 Z-0.0250
G01 G54 X0.6770 Y-2.8048 Z-0.0250
G01 G54 X0.7634 Y-2.9534 Z-0.0250
G01 G54 X0.7651 Y-2.9561 Z-0.0250
G01 G54 X0.8570 Y-3.1019 Z-0.0250
G01 G54 X0.8588 Y-3.1045 Z-0.0250
G01 G54 X0.9560 Y-3.2470 Z-0.0250
G01 G54 X0.9578 Y-3.2496 Z-0.0250
G01 G54 X1.0609 Y-3.3896 Z-0.0250
G01 G54 X1.0629 Y-3.3922 Z-0.0250
G01 G54 X1.1722 Y-3.5296 Z-0.0250
G01 G54 X1.1743 Y-3.5320 Z-0.0250
G01 G54 X1.2892 Y-3.6659 Z-0.0250
G01 G54 X1.2913 Y-3.6683 Z-0.0250
G01 G54 X1.4133 Y-3.8003 Z-0.0250
G01 G54 X1.4155 Y-3.8026 Z-0.0250
G01 G54 X1.5432 Y-3.9307 Z-0.0250
G01 G54 X1.5455 Y-3.9330 Z-0.0250
G01 G54 X1.6796 Y-4.0578 Z-0.0250
G01 G54 X1.6820 Y-4.0600 Z-0.0250
G01 G54 X1.8217 Y-4.1808 Z-0.0250
G01 G54 X1.8242 Y-4.1829 Z-0.0250
G01 G54 X1.9717 Y-4.3011 Z-0.0250
G01 G54 X1.9743 Y-4.3031 Z-0.0250
G01 G54 X2.1275 Y-4.4168 Z-0.0250
G01 G54 X2.1301 Y-4.4187 Z-0.0250
G01 G54 X2.2898 Y-4.5284 Z-0.0250
G01 G54 X2.2924 Y-4.5301 Z-0.0250
G01 G54 X2.4597 Y-4.6365 Z-0.0250
G01 G54 X2.4624 Y-4.6381 Z-0.0250
G01 G54 X2.6353 Y-4.7396 Z-0.0250
G01 G54 X2.6380 Y-4.7411 Z-0.0250
G01 G54 X2.8205 Y-4.8397 Z-0.0250
G01 G54 X2.8231 Y-4.8411 Z-0.0250
G01 G54 X3.0087 Y-4.9332 Z-0.0250
G01 G54 X3.0114 Y-4.9344 Z-0.0250
G01 G54 X3.2078 Y-5.0237 Z-0.0250
G01 G54 X3.2104 Y-5.0249 Z-0.0250
G01 G54 X3.4118 Y-5.1085 Z-0.0250
G01 G54 X3.4144 Y-5.1096 Z-0.0250
G01 G54 X3.6248 Y-5.1890 Z-0.0250
G01 G54 X3.6274 Y-5.1900 Z-0.0250
G01 G54 X3.8427 Y-5.2636 Z-0.0250
G01 G54 X3.8453 Y-5.2644 Z-0.0250
G01 G54 X4.0705 Y-5.3337 Z-0.0250
G01 G54 X4.0730 Y-5.3344 Z-0.0250
G01 G54 X4.3062 Y-5.3985 Z-0.0250
G01 G54 X4.3087 Y-5.3991 Z-0.0250
G01 G54 X4.5469 Y-5.4571 Z-0.0250
G01 G54 X4.5493 Y-5.4577 Z-0.0250
G01 G54 X4.7973 Y-5.5106 Z-0.0250
G01 G54 X4.7997 Y-5.5111 Z-0.0250
G01 G54 X5.0552 Y-5.5582 Z-0.0250
G01 G54 X5.0575 Y-5.5586 Z-0.0250
G01 G54 X5.3215 Y-5.6001 Z-0.0250
G01 G54 X5.3238 Y-5.6004 Z-0.0250
G01 G54 X5.5943 Y-5.6356 Z-0.0250
G01 G54 X5.5965 Y-5.6359 Z-0.0250
G01 G54 X5.8754 Y-5.6650 Z-0.0250
G01 G54 X5.8775 Y-5.6652 Z-0.0250
G01 G54 X6.1664 Y-5.6883 Z-0.0250
G01 G54 X6.1685 Y-5.6885 Z-0.0250
G01 G54 X6.4644 Y-5.7051 Z-0.0250
G01 G54 X6.4664 Y-5.7051 Z-0.0250
G01 G54 X6.7707 Y-5.7152 Z-0.0250
G01 G54 X6.7726 Y-5.7152 Z-0.0250
G01 G54 X7.0837 Y-5.7186 Z-0.0250
G01 G54 X7.0901 Y-5.7185 Z-0.0250
G01 G54 X7.6218 Y-5.6851 Z-0.0250
G01 G54 X8.1565 Y-5.6522 Z-0.0250
G01 G54 X8.6913 Y-5.6199 Z-0.0250
G01 G54 X8.6929 Y-5.6198 Z-0.0250
G01 G54 X9.2262 Y-5.5883 Z-0.0250
G01 G54 X9.7610 Y-5.5573 Z-0.0250
G01 G54 X10.2948 Y-5.5271 Z-0.0250
G01 G54 X10.2959 Y-5.5271 Z-0.0250
G01 G54 X10.8308 Y-5.4975 Z-0.0250
G01 G54 X10.8309 Y-5.4975 Z-0.0250
G01 G54 X11.3659 Y-5.4685 Z-0.0250
G01 G54 X11.9009 Y-5.4403 Z-0.0250
G01 G54 X12.4359 Y-5.4126 Z-0.0250
G01 G54 X12.9711 Y-5.3857 Z-0.0250
G01 G54 X12.9737 Y-5.3855 Z-0.0250
G01 G54 X12.9738 Y-5.3855 Z-0.0250
G01 G54 X13.5062 Y-5.3593 Z-0.0250
G01 G54 X14.0399 Y-5.3338 Z-0.0250
G01 G54 X14.0413 Y-5.3337 Z-0.0250
G01 G54 X14.5765 Y-5.3088 Z-0.0250
G01 G54 X15.1116 Y-5.2845 Z-0.0250
G01 G54 X15.1117 Y-5.2845 Z-0.0250
G01 G54 X15.6470 Y-5.2608 Z-0.0250
G01 G54 X16.1822 Y-5.2378 Z-0.0250
G01 G54 X16.7175 Y-5.2155 Z-0.0250
G01 G54 X17.2529 Y-5.1938 Z-0.0250
G01 G54 X17.7882 Y-5.1728 Z-0.0250
G01 G54 X17.7909 Y-5.1727 Z-0.0250
G01 G54 X17.7913 Y-5.1727 Z-0.0250
G01 G54 X18.3220 Y-5.1525 Z-0.0250
G01 G54 X18.3236 Y-5.1525 Z-0.0250
G01 G54 X18.8590 Y-5.1328 Z-0.0250
G01 G54 X19.3944 Y-5.1138 Z-0.0250
G01 G54 X19.9299 Y-5.0955 Z-0.0250
G01 G54 X20.4653 Y-5.0778 Z-0.0250
G01 G54 X21.0008 Y-5.0607 Z-0.0250
G01 G54 X21.5364 Y-5.0444 Z-0.0250
G01 G54 X22.0719 Y-5.0287 Z-0.0250
G01 G54 X22.6074 Y-5.0137 Z-0.0250
G01 G54 X23.1429 Y-4.9993 Z-0.0250
G01 G54 X23.1430 Y-4.9993 Z-0.0250
G01 G54 X23.6786 Y-4.9856 Z-0.0250
G01 G54 X24.2142 Y-4.9725 Z-0.0250
G01 G54 X24.7498 Y-4.9601 Z-0.0250
G01 G54 X24.7526 Y-4.9601 Z-0.0250
G01 G54 X24.7530 Y-4.9600 Z-0.0250
G01 G54 X25.2837 Y-4.9484 Z-0.0250
G01 G54 X25.2855 Y-4.9484 Z-0.0250
G01 G54 X25.8211 Y-4.9374 Z-0.0250
G01 G54 X26.3568 Y-4.9270 Z-0.0250
G01 G54 X26.8924 Y-4.9172 Z-0.0250
G01 G54 X27.4281 Y-4.9081 Z-0.0250
G01 G54 X27.4281 Y-4.9081 Z-0.0250
G01 G54 X27.9638 Y-4.8997 Z-0.0250
G01 G54 X28.4995 Y-4.8920 Z-0.0250
G01 G54 X29.0353 Y-4.8849 Z-0.0250
G01 G54 X29.5710 Y-4.8785 Z-0.0250
G01 G54 X30.1068 Y-4.8727 Z-0.0250
G01 G54 X30.6425 Y-4.8676 Z-0.0250
G01 G54 X31.1782 Y-4.8632 Z-0.0250
G01 G54 X31.1782 Y-4.8632 Z-0.0250
G01 G54 X31.7140 Y-4.8594 Z-0.0250
G01 G54 X32.2497 Y-4.8563 Z-0.0250
G01 G54 X32.7855 Y-4.8538 Z-0.0250
G01 G54 X33.3212 Y-4.8521 Z-0.0250
G01 G54 X33.3212 Y-4.8521 Z-0.0250
G01 G54 X33.8570 Y-4.8510 Z-0.0250
G01 G54 X34.3927 Y-4.8505 Z-0.0250
G01 G54 X34.9285 Y-4.8507 Z-0.0250
G01 G54 X35.4643 Y-4.8516 Z-0.0250
G01 G54 X35.4643 Y-4.8516 Z-0.0250
G01 G54 X36.0000 Y-4.8531 Z-0.0250
G01 G54 X36.5358 Y-4.8553 Z-0.0250
G01 G54 X37.0716 Y-4.8582 Z-0.0250
G01 G54 X37.6074 Y-4.8617 Z-0.0250
G01 G54 X38.1431 Y-4.8659 Z-0.0250
G01 G54 X38.6788 Y-4.8707 Z-0.0250
G01 G54 X39.2145 Y-4.8762 Z-0.0250
G01 G54 X39.7503 Y-4.8824 Z-0.0250
G01 G54 X39.7503 Y-4.8824 Z-0.0250
G01 G54 X40.2860 Y-4.8892 Z-0.0250
G01 G54 X40.8217 Y-4.8967 Z-0.0250
G01 G54 X41.3574 Y-4.9049 Z-0.0250
G01 G54 X41.3574 Y-4.9049 Z-0.0250
G01 G54 X41.8931 Y-4.9137 Z-0.0250
G01 G54 X42.4288 Y-4.9232 Z-0.0250
G01 G54 X42.9644 Y-4.9333 Z-0.0250
G01 G54 X43.5001 Y-4.9442 Z-0.0250
G01 G54 X43.5020 Y-4.9442 Z-0.0250
G01 G54 X44.0326 Y-4.9555 Z-0.0250
G01 G54 X44.0330 Y-4.9555 Z-0.0250
G01 G54 X44.0357 Y-4.9556 Z-0.0250
G01 G54 X44.5714 Y-4.9677 Z-0.0250
G01 G54 X45.1070 Y-4.9806 Z-0.0250
G01 G54 X45.6425 Y-4.9940 Z-0.0250
G01 G54 X45.6427 Y-4.9940 Z-0.0250
G01 G54 X46.1781 Y-5.0081 Z-0.0250
G01 G54 X46.7137 Y-5.0229 Z-0.0250
G01 G54 X47.2492 Y-5.0384 Z-0.0250
G01 G54 X47.7848 Y-5.0545 Z-0.0250
G01 G54 X47.7849 Y-5.0545 Z-0.0250
G01 G54 X48.3203 Y-5.0713 Z-0.0250
G01 G54 X48.8557 Y-5.0887 Z-0.0250
G01 G54 X49.3912 Y-5.1068 Z-0.0250
G01 G54 X49.9266 Y-5.1256 Z-0.0250
G01 G54 X50.4621 Y-5.1450 Z-0.0250
G01 G54 X50.4637 Y-5.1450 Z-0.0250
G01 G54 X50.9942 Y-5.1649 Z-0.0250
G01 G54 X50.9947 Y-5.1650 Z-0.0250
G01 G54 X50.9975 Y-5.1651 Z-0.0250
G01 G54 X51.5329 Y-5.1859 Z-0.0250
G01 G54 X52.0681 Y-5.2072 Z-0.0250
G01 G54 X52.6035 Y-5.2293 Z-0.0250
G01 G54 X53.1387 Y-5.2521 Z-0.0250
G01 G54 X53.6740 Y-5.2755 Z-0.0250
G01 G54 X53.6741 Y-5.2755 Z-0.0250
G01 G54 X54.2092 Y-5.2995 Z-0.0250
G01 G54 X54.7444 Y-5.3242 Z-0.0250
G01 G54 X55.2796 Y-5.3496 Z-0.0250
G01 G54 X55.2809 Y-5.3497 Z-0.0250
G01 G54 X55.8147 Y-5.3756 Z-0.0250
G01 G54 X56.3480 Y-5.4023 Z-0.0250
G01 G54 X56.3498 Y-5.4024 Z-0.0250
G01 G54 X56.8849 Y-5.4298 Z-0.0250
G01 G54 X57.4199 Y-5.4578 Z-0.0250
G01 G54 X57.9549 Y-5.4865 Z-0.0250
G01 G54 X57.9550 Y-5.4865 Z-0.0250
G01 G54 X58.4899 Y-5.5159 Z-0.0250
G01 G54 X59.0248 Y-5.5459 Z-0.0250
G01 G54 X59.0259 Y-5.5459 Z-0.0250
G01 G54 X59.5597 Y-5.5765 Z-0.0250
G01 G54 X60.0918 Y-5.6077 Z-0.0250
G01 G54 X60.0918 Y-5.6077 Z-0.0250
G01 G54 X60.0945 Y-5.6079 Z-0.0250
G01 G54 X60.6261 Y-5.6397 Z-0.0250
G01 G54 X60.6325 Y-5.6399 Z-0.0250
G01 G54 X60.8742 Y-5.6365 Z-0.0250
G01 G54 X60.8766 Y-5.6364 Z-0.0250
G01 G54 X61.1116 Y-5.6266 Z-0.0250
G01 G54 X61.1142 Y-5.6265 Z-0.0250
G01 G54 X61.3437 Y-5.6102 Z-0.0250
G01 G54 X61.3462 Y-5.6100 Z-0.0250
G01 G54 X61.5692 Y-5.5874 Z-0.0250
G01 G54 X61.5719 Y-5.5871 Z-0.0250
G01 G54 X61.7894 Y-5.5582 Z-0.0250
G01 G54 X61.7921 Y-5.5578 Z-0.0250
G01 G54 X62.0007 Y-5.5233 Z-0.0250
G01 G54 X62.0035 Y-5.5228 Z-0.0250
G01 G54 X62.2090 Y-5.4819 Z-0.0250
G01 G54 X62.2118 Y-5.4813 Z-0.0250
G01 G54 X62.4080 Y-5.4355 Z-0.0250
G01 G54 X62.4109 Y-5.4347 Z-0.0250
G01 G54 X62.6035 Y-5.3826 Z-0.0250
G01 G54 X62.6065 Y-5.3817 Z-0.0250
G01 G54 X62.7913 Y-5.3246 Z-0.0250
G01 G54 X62.7943 Y-5.3237 Z-0.0250
G01 G54 X62.9750 Y-5.2607 Z-0.0250
G01 G54 X62.9780 Y-5.2596 Z-0.0250
G01 G54 X63.1500 Y-5.1925 Z-0.0250
G01 G54 X63.1530 Y-5.1913 Z-0.0250
G01 G54 X63.3216 Y-5.1182 Z-0.0250
G01 G54 X63.3246 Y-5.1169 Z-0.0250
G01 G54 X63.4865 Y-5.0393 Z-0.0250
G01 G54 X63.4895 Y-5.0378 Z-0.0250
G01 G54 X63.6461 Y-4.9553 Z-0.0250
G01 G54 X63.6490 Y-4.9537 Z-0.0250
G01 G54 X63.8000 Y-4.8667 Z-0.0250
G01 G54 X63.8029 Y-4.8649 Z-0.0250
G01 G54 X63.9483 Y-4.7734 Z-0.0250
G01 G54 X63.9511 Y-4.7715 Z-0.0250
G01 G54 X64.0908 Y-4.6759 Z-0.0250
G01 G54 X64.0935 Y-4.6739 Z-0.0250
G01 G54 X64.2281 Y-4.5738 Z-0.0250
G01 G54 X64.2307 Y-4.5718 Z-0.0250
G01 G54 X64.3597 Y-4.4678 Z-0.0250
G01 G54 X64.3623 Y-4.4657 Z-0.0250
G01 G54 X64.4868 Y-4.3571 Z-0.0250
G01 G54 X64.4893 Y-4.3549 Z-0.0250
G01 G54 X64.6076 Y-4.2435 Z-0.0250
G01 G54 X64.6100 Y-4.2412 Z-0.0250
G01 G54 X64.7249 Y-4.1244 Z-0.0250
G01 G54 X64.7271 Y-4.1220 Z-0.0250
G01 G54 X64.8351 Y-4.0038 Z-0.0250
G01 G54 X64.8372 Y-4.0013 Z-0.0250
G01 G54 X64.9412 Y-3.8785 Z-0.0250
G01 G54 X64.9433 Y-3.8760 Z-0.0250
G01 G54 X65.0431 Y-3.7489 Z-0.0250
G01 G54 X65.0450 Y-3.7464 Z-0.0250
G01 G54 X65.1383 Y-3.6184 Z-0.0250
G01 G54 X65.1401 Y-3.6159 Z-0.0250
G01 G54 X65.2306 Y-3.4821 Z-0.0250
G01 G54 X65.2323 Y-3.4796 Z-0.0250
G01 G54 X65.3169 Y-3.3448 Z-0.0250
G01 G54 X65.3184 Y-3.3422 Z-0.0250
G01 G54 X65.3990 Y-3.2036 Z-0.0250
G01 G54 X65.4004 Y-3.2011 Z-0.0250
G01 G54 X65.4754 Y-3.0616 Z-0.0250
G01 G54 X65.4767 Y-3.0591 Z-0.0250
G01 G54 X65.5488 Y-2.9142 Z-0.0250
G01 G54 X65.5500 Y-2.9117 Z-0.0250
G01 G54 X65.6174 Y-2.7648 Z-0.0250
G01 G54 X65.6184 Y-2.7624 Z-0.0250
G01 G54 X65.6801 Y-2.6162 Z-0.0250
G01 G54 X65.6811 Y-2.6138 Z-0.0250
G01 G54 X65.7400 Y-2.4622 Z-0.0250
G01 G54 X65.7409 Y-2.4598 Z-0.0250
G01 G54 X65.7950 Y-2.3072 Z-0.0250
G01 G54 X65.7957 Y-2.3049 Z-0.0250
G01 G54 X65.8457 Y-2.1502 Z-0.0250
G01 G54 X65.8464 Y-2.1480 Z-0.0250
G01 G54 X65.8927 Y-1.9907 Z-0.0250
G01 G54 X65.8933 Y-1.9885 Z-0.0250
G01 G54 X65.9346 Y-1.8325 Z-0.0250
G01 G54 X65.9352 Y-1.8303 Z-0.0250
G01 G54 X65.9733 Y-1.6698 Z-0.0250
G01 G54 X65.9738 Y-1.6677 Z-0.0250
G01 G54 X66.0080 Y-1.5058 Z-0.0250
G01 G54 X66.0084 Y-1.5037 Z-0.0250
G01 G54 X66.0386 Y-1.3415 Z-0.0250
G01 G54 X66.0389 Y-1.3394 Z-0.0250
G01 G54 X66.0650 Y-1.1779 Z-0.0250
G01 G54 X66.0653 Y-1.1760 Z-0.0250
G01 G54 X66.0879 Y-1.0116 Z-0.0250
G01 G54 X66.0882 Y-1.0097 Z-0.0250
G01 G54 X66.1074 Y-0.8428 Z-0.0250
G01 G54 X66.1076 Y-0.8409 Z-0.0250
G01 G54 X66.1229 Y-0.6767 Z-0.0250
G01 G54 X66.1230 Y-0.6748 Z-0.0250
G01 G54 X66.1350 Y-0.5067 Z-0.0250
G01 G54 X66.1351 Y-0.5049 Z-0.0250
G01 G54 X66.1434 Y-0.3396 Z-0.0250
G01 G54 X66.1435 Y-0.3379 Z-0.0250
G01 G54 X66.1485 Y-0.1707 Z-0.0250
G01 G54 X66.1485 Y-0.1689 Z-0.0250
G01 G54 X66.1502 Y-0.0018 Z-0.0250
G01 G54 X66.1502 Y0.0000 Z-0.0250
G01 G54 X66.1485 Y0.1685 Z-0.0250
G01 G54 X66.1485 Y0.1703 Z-0.0250
G01 G54 X66.1435 Y0.3379 Z-0.0250
G01 G54 X66.1434 Y0.3396 Z-0.0250
G01 G54 X66.1351 Y0.5049 Z-0.0250
G01 G54 X66.1350 Y0.5067 Z-0.0250
G01 G54 X66.1230 Y0.6748 Z-0.0250
G01 G54 X66.1229 Y0.6767 Z-0.0250
G01 G54 X66.1076 Y0.8409 Z-0.0250
G01 G54 X66.1074 Y0.8428 Z-0.0250
G01 G54 X66.0882 Y1.0096 Z-0.0250
G01 G54 X66.0879 Y1.0115 Z-0.0250
G01 G54 X66.0653 Y1.1753 Z-0.0250
G01 G54 X66.0651 Y1.1772 Z-0.0250
G01 G54 X66.0389 Y1.3394 Z-0.0250
G01 G54 X66.0386 Y1.3415 Z-0.0250
G01 G54 X66.0084 Y1.5037 Z-0.0250
G01 G54 X66.0080 Y1.5058 Z-0.0250
G01 G54 X65.9738 Y1.6677 Z-0.0250
G01 G54 X65.9733 Y1.6698 Z-0.0250
G01 G54 X65.9353 Y1.8300 Z-0.0250
G01 G54 X65.9347 Y1.8321 Z-0.0250
G01 G54 X65.8933 Y1.9885 Z-0.0250
G01 G54 X65.8927 Y1.9907 Z-0.0250
G01 G54 X65.8464 Y2.1480 Z-0.0250
G01 G54 X65.8457 Y2.1502 Z-0.0250
G01 G54 X65.7957 Y2.3049 Z-0.0250
G01 G54 X65.7950 Y2.3072 Z-0.0250
G01 G54 X65.7409 Y2.4598 Z-0.0250
G01 G54 X65.7400 Y2.4622 Z-0.0250
G01 G54 X65.6812 Y2.6135 Z-0.0250
G01 G54 X65.6803 Y2.6159 Z-0.0250
G01 G54 X65.6184 Y2.7624 Z-0.0250
G01 G54 X65.6174 Y2.7648 Z-0.0250
G01 G54 X65.5500 Y2.9117 Z-0.0250
G01 G54 X65.5488 Y2.9142 Z-0.0250
G01 G54 X65.4768 Y3.0590 Z-0.0250
G01 G54 X65.4755 Y3.0615 Z-0.0250
G01 G54 X65.4004 Y3.2011 Z-0.0250
G01 G54 X65.3990 Y3.2036 Z-0.0250
G01 G54 X65.3184 Y3.3422 Z-0.0250
G01 G54 X65.3169 Y3.3448 Z-0.0250
G01 G54 X65.2323 Y3.4796 Z-0.0250
G01 G54 X65.2306 Y3.4821 Z-0.0250
G01 G54 X65.1401 Y3.6159 Z-0.0250
G01 G54 X65.1383 Y3.6184 Z-0.0250
G01 G54 X65.0450 Y3.7464 Z-0.0250
G01 G54 X65.0431 Y3.7489 Z-0.0250
G01 G54 X64.9433 Y3.8760 Z-0.0250
G01 G54 X64.9412 Y3.8785 Z-0.0250
G01 G54 X64.8372 Y4.0013 Z-0.0250
G01 G54 X64.8351 Y4.0038 Z-0.0250
G01 G54 X64.7271 Y4.1220 Z-0.0250
G01 G54 X64.7249 Y4.1244 Z-0.0250
G01 G54 X64.6100 Y4.2412 Z-0.0250
G01 G54 X64.6076 Y4.2435 Z-0.0250
G01 G54 X64.4893 Y4.3549 Z-0.0250
G01 G54 X64.4868 Y4.3571 Z-0.0250
G01 G54 X64.3623 Y4.4657 Z-0.0250
G01 G54 X64.3597 Y4.4678 Z-0.0250
G01 G54 X64.2307 Y4.5718 Z-0.0250
G01 G54 X64.2281 Y4.5738 Z-0.0250
G01 G54 X64.0935 Y4.6739 Z-0.0250
G01 G54 X64.0908 Y4.6759 Z-0.0250
G01 G54 X63.9511 Y4.7715 Z-0.0250
G01 G54 X63.9483 Y4.7734 Z-0.0250
G01 G54 X63.8029 Y4.8649 Z-0.0250
G01 G54 X63.8000 Y4.8667 Z-0.0250
G01 G54 X63.6490 Y4.9537 Z-0.0250
G01 G54 X63.6461 Y4.9553 Z-0.0250
G01 G54 X63.4895 Y5.0378 Z-0.0250
G01 G54 X63.4865 Y5.0393 Z-0.0250
G01 G54 X63.3246 Y5.1169 Z-0.0250
G01 G54 X63.3216 Y5.1182 Z-0.0250
G01 G54 X63.1530 Y5.1913 Z-0.0250
G01 G54 X63.1500 Y5.1925 Z-0.0250
G01 G54 X62.9780 Y5.2596 Z-0.0250
G01 G54 X62.9750 Y5.2607 Z-0.0250
G01 G54 X62.7943 Y5.3237 Z-0.0250
G01 G54 X62.7913 Y5.3246 Z-0.0250
G01 G54 X62.6065 Y5.3817 Z-0.0250
G01 G54 X62.6035 Y5.3826 Z-0.0250
G01 G54 X62.4109 Y5.4347 Z-0.0250
G01 G54 X62.4080 Y5.4355 Z-0.0250
G01 G54 X62.2118 Y5.4813 Z-0.0250
G01 G54 X62.2090 Y5.4819 Z-0.0250
G01 G54 X62.0035 Y5.5228 Z-0.0250
G01 G54 X62.0007 Y5.5233 Z-0.0250
G01 G54 X61.7921 Y5.5578 Z-0.0250
G01 G54 X61.7894 Y5.5582 Z-0.0250
G01 G54 X61.5719 Y5.5871 Z-0.0250
G01 G54 X61.5692 Y5.5874 Z-0.0250
G01 G54 X61.3462 Y5.6100 Z-0.0250
G01 G54 X61.3437 Y5.6102 Z-0.0250
G01 G54 X61.1142 Y5.6265 Z-0.0250
G01 G54 X61.1116 Y5.6266 Z-0.0250
G01 G54 X60.8766 Y5.6364 Z-0.0250
G01 G54 X60.8742 Y5.6365 Z-0.0250
G01 G54 X60.6325 Y5.6399 Z-0.0250
G01 G54 X60.6261 Y5.6397 Z-0.0250
G01 G54 X60.0945 Y5.6079 Z-0.0250
G01 G54 X60.0918 Y5.6077 Z-0.0250
G01 G54 X60.0918 Y5.6077 Z-0.0250
G01 G54 X59.5597 Y5.5765 Z-0.0250
G01 G54 X59.0259 Y5.5459 Z-0.0250
G01 G54 X59.0248 Y5.5459 Z-0.0250
G01 G54 X58.4899 Y5.5159 Z-0.0250
G01 G54 X57.9550 Y5.4865 Z-0.0250
G01 G54 X57.9549 Y5.4865 Z-0.0250
G01 G54 X57.4199 Y5.4578 Z-0.0250
G01 G54 X56.8849 Y5.4298 Z-0.0250
G01 G54 X56.3498 Y5.4024 Z-0.0250
G01 G54 X56.3480 Y5.4023 Z-0.0250
G01 G54 X55.8147 Y5.3756 Z-0.0250
G01 G54 X55.2809 Y5.3497 Z-0.0250
G01 G54 X55.2796 Y5.3496 Z-0.0250
G01 G54 X54.7444 Y5.3242 Z-0.0250
G01 G54 X54.2092 Y5.2995 Z-0.0250
G01 G54 X53.6741 Y5.2755 Z-0.0250
G01 G54 X53.6740 Y5.2755 Z-0.0250
G01 G54 X53.1387 Y5.2521 Z-0.0250
G01 G54 X52.6035 Y5.2293 Z-0.0250
G01 G54 X52.0681 Y5.2072 Z-0.0250
G01 G54 X51.5329 Y5.1859 Z-0.0250
G01 G54 X50.9975 Y5.1651 Z-0.0250
G01 G54 X50.9947 Y5.1650 Z-0.0250
G01 G54 X50.9942 Y5.1649 Z-0.0250
G01 G54 X50.4637 Y5.1450 Z-0.0250
G01 G54 X50.4621 Y5.1450 Z-0.0250
G01 G54 X49.9266 Y5.1256 Z-0.0250
G01 G54 X49.3912 Y5.1068 Z-0.0250
G01 G54 X48.8557 Y5.0887 Z-0.0250
G01 G54 X48.3203 Y5.0713 Z-0.0250
G01 G54 X47.7849 Y5.0545 Z-0.0250
G01 G54 X47.7848 Y5.0545 Z-0.0250
G01 G54 X47.2492 Y5.0384 Z-0.0250
G01 G54 X46.7137 Y5.0229 Z-0.0250
G01 G54 X46.1781 Y5.0081 Z-0.0250
G01 G54 X45.6427 Y4.9940 Z-0.0250
G01 G54 X45.6425 Y4.9940 Z-0.0250
G01 G54 X45.1070 Y4.9806 Z-0.0250
G01 G54 X44.5714 Y4.9677 Z-0.0250
G01 G54 X44.0357 Y4.9556 Z-0.0250
G01 G54 X44.0330 Y4.9555 Z-0.0250
G01 G54 X44.0326 Y4.9555 Z-0.0250
G01 G54 X43.5020 Y4.9442 Z-0.0250
G01 G54 X43.5001 Y4.9442 Z-0.0250
G01 G54 X42.9644 Y4.9333 Z-0.0250
G01 G54 X42.4288 Y4.9232 Z-0.0250
G01 G54 X41.8931 Y4.9137 Z-0.0250
G01 G54 X41.3574 Y4.9049 Z-0.0250
G01 G54 X41.3574 Y4.9049 Z-0.0250
G01 G54 X40.8217 Y4.8967 Z-0.0250
G01 G54 X40.2860 Y4.8892 Z-0.0250
G01 G54 X39.7503 Y4.8824 Z-0.0250
G01 G54 X39.7503 Y4.8824 Z-0.0250
G01 G54 X39.2145 Y4.8762 Z-0.0250
G01 G54 X38.6788 Y4.8707 Z-0.0250
G01 G54 X38.1431 Y4.8659 Z-0.0250
G01 G54 X37.6074 Y4.8617 Z-0.0250
G01 G54 X37.0716 Y4.8582 Z-0.0250
G01 G54 X36.5358 Y4.8553 Z-0.0250
G01 G54 X36.0000 Y4.8531 Z-0.0250
G01 G54 X35.4643 Y4.8516 Z-0.0250
G01 G54 X35.4643 Y4.8516 Z-0.0250
G01 G54 X34.9285 Y4.8507 Z-0.0250
G01 G54 X34.3927 Y4.8505 Z-0.0250
G01 G54 X33.8570 Y4.8510 Z-0.0250
G01 G54 X33.3212 Y4.8521 Z-0.0250
G01 G54 X33.3212 Y4.8521 Z-0.0250
G01 G54 X32.7855 Y4.8538 Z-0.0250
G01 G54 X32.2497 Y4.8563 Z-0.0250
G01 G54 X31.7140 Y4.8594 Z-0.0250
G01 G54 X31.1782 Y4.8632 Z-0.0250
G01 G54 X31.1782 Y4.8632 Z-0.0250
G01 G54 X30.6425 Y4.8676 Z-0.0250
G01 G54 X30.1068 Y4.8727 Z-0.0250
G01 G54 X29.5710 Y4.8785 Z-0.0250
G01 G54 X29.0353 Y4.8849 Z-0.0250
G01 G54 X28.4995 Y4.8920 Z-0.0250
G01 G54 X27.9638 Y4.8997 Z-0.0250
G01 G54 X27.4281 Y4.9081 Z-0.0250
G01 G54 X27.4281 Y4.9081 Z-0.0250
G01 G54 X26.8924 Y4.9172 Z-0.0250
G01 G54 X26.3568 Y4.9270 Z-0.0250
G01 G54 X25.8211 Y4.9374 Z-0.0250
G01 G54 X25.2855 Y4.9484 Z-0.0250
G01 G54 X25.2837 Y4.9484 Z-0.0250
G01 G54 X24.7530 Y4.9600 Z-0.0250
G01 G54 X24.7526 Y4.9601 Z-0.0250
G01 G54 X24.7498 Y4.9601 Z-0.0250
G01 G54 X24.2142 Y4.9725 Z-0.0250
G01 G54 X23.6786 Y4.9856 Z-0.0250
G01 G54 X23.1430 Y4.9993 Z-0.0250
G01 G54 X23.1429 Y4.9993 Z-0.0250
G01 G54 X22.6074 Y5.0137 Z-0.0250
G01 G54 X22.0719 Y5.0287 Z-0.0250
G01 G54 X21.5364 Y5.0444 Z-0.0250
G01 G54 X21.0008 Y5.0607 Z-0.0250
G01 G54 X20.4653 Y5.0778 Z-0.0250
G01 G54 X19.9299 Y5.0955 Z-0.0250
G01 G54 X19.3944 Y5.1138 Z-0.0250
G01 G54 X18.8590 Y5.1328 Z-0.0250
G01 G54 X18.3236 Y5.1525 Z-0.0250
G01 G54 X18.3220 Y5.1525 Z-0.0250
G01 G54 X17.7913 Y5.1727 Z-0.0250
G01 G54 X17.7909 Y5.1727 Z-0.0250
G01 G54 X17.7882 Y5.1728 Z-0.0250
G01 G54 X17.2529 Y5.1938 Z-0.0250
G01 G54 X16.7175 Y5.2155 Z-0.0250
G01 G54 X16.1822 Y5.2378 Z-0.0250
G01 G54 X15.6470 Y5.2608 Z-0.0250
G01 G54 X15.1117 Y5.2845 Z-0.0250
G01 G54 X15.1116 Y5.2845 Z-0.0250
G01 G54 X14.5765 Y5.3088 Z-0.0250
G01 G54 X14.0413 Y5.3337 Z-0.0250
G01 G54 X14.0399 Y5.3338 Z-0.0250
G01 G54 X13.5062 Y5.3593 Z-0.0250
G01 G54 X12.9738 Y5.3855 Z-0.0250
G01 G54 X12.9737 Y5.3855 Z-0.0250
G01 G54 X12.9711 Y5.3857 Z-0.0250
G01 G54 X12.4359 Y5.4126 Z-0.0250
G01 G54 X11.9009 Y5.4403 Z-0.0250
G01 G54 X11.3659 Y5.4685 Z-0.0250
G01 G54 X10.8309 Y5.4975 Z-0.0250
G01 G54 X10.8308 Y5.4975 Z-0.0250
G01 G54 X10.2959 Y5.5271 Z-0.0250
G01 G54 X10.2948 Y5.5271 Z-0.0250
G01 G54 X9.7610 Y5.5573 Z-0.0250
G01 G54 X9.2262 Y5.5883 Z-0.0250
G01 G54 X8.6929 Y5.6198 Z-0.0250
G01 G54 X8.6913 Y5.6199 Z-0.0250
G01 G54 X8.1565 Y5.6522 Z-0.0250
G01 G54 X7.6218 Y5.6851 Z-0.0250
G01 G54 X7.0901 Y5.7185 Z-0.0250
G01 G54 X7.0837 Y5.7186 Z-0.0250
G01 G54 X6.7726 Y5.7152 Z-0.0250
G01 G54 X6.7707 Y5.7152 Z-0.0250
G01 G54 X6.4664 Y5.7051 Z-0.0250
G01 G54 X6.4644 Y5.7051 Z-0.0250
G01 G54 X6.1685 Y5.6885 Z-0.0250
G01 G54 X6.1664 Y5.6883 Z-0.0250
G01 G54 X5.8775 Y5.6652 Z-0.0250
G01 G54 X5.8754 Y5.6650 Z-0.0250
G01 G54 X5.5965 Y5.6359 Z-0.0250
G01 G54 X5.5943 Y5.6356 Z-0.0250
G01 G54 X5.3238 Y5.6004 Z-0.0250
G01 G54 X5.3215 Y5.6001 Z-0.0250
G01 G54 X5.0575 Y5.5586 Z-0.0250
G01 G54 X5.0552 Y5.5582 Z-0.0250
G01 G54 X4.7997 Y5.5111 Z-0.0250
G01 G54 X4.7973 Y5.5106 Z-0.0250
G01 G54 X4.5493 Y5.4577 Z-0.0250
G01 G54 X4.5469 Y5.4571 Z-0.0250
G01 G54 X4.3087 Y5.3991 Z-0.0250
G01 G54 X4.3062 Y5.3985 Z-0.0250
G01 G54 X4.0730 Y5.3344 Z-0.0250
G01 G54 X4.0705 Y5.3337 Z-0.0250
G01 G54 X3.8453 Y5.2644 Z-0.0250
G01 G54 X3.8427 Y5.2636 Z-0.0250
G01 G54 X3.6274 Y5.1900 Z-0.0250
G01 G54 X3.6248 Y5.1890 Z-0.0250
G01 G54 X3.4144 Y5.1096 Z-0.0250
G01 G54 X3.4118 Y5.1085 Z-0.0250
G01 G54 X3.2104 Y5.0249 Z-0.0250
G01 G54 X3.2078 Y5.0237 Z-0.0250
G01 G54 X3.0114 Y4.9344 Z-0.0250
G01 G54 X3.0087 Y4.9332 Z-0.0250
G01 G54 X2.8229 Y4.8409 Z-0.0250
G01 G54 X2.8203 Y4.8396 Z-0.0250
G01 G54 X2.6380 Y4.7411 Z-0.0250
G01 G54 X2.6353 Y4.7396 Z-0.0250
G01 G54 X2.4624 Y4.6381 Z-0.0250
G01 G54 X2.4597 Y4.6365 Z-0.0250
G01 G54 X2.2924 Y4.5301 Z-0.0250
G01 G54 X2.2898 Y4.5284 Z-0.0250
G01 G54 X2.1301 Y4.4187 Z-0.0250
G01 G54 X2.1275 Y4.4168 Z-0.0250
G01 G54 X1.9743 Y4.3031 Z-0.0250
G01 G54 X1.9717 Y4.3011 Z-0.0250
G01 G54 X1.8242 Y4.1829 Z-0.0250
G01 G54 X1.8217 Y4.1808 Z-0.0250
G01 G54 X1.6820 Y4.0600 Z-0.0250
G01 G54 X1.6796 Y4.0578 Z-0.0250
G01 G54 X1.5455 Y3.9330 Z-0.0250
G01 G54 X1.5432 Y3.9307 Z-0.0250
G01 G54 X1.4155 Y3.8026 Z-0.0250
G01 G54 X1.4133 Y3.8003 Z-0.0250
G01 G54 X1.2913 Y3.6683 Z-0.0250
G01 G54 X1.2892 Y3.6659 Z-0.0250
G01 G54 X1.1743 Y3.5320 Z-0.0250
G01 G54 X1.1722 Y3.5296 Z-0.0250
G01 G54 X1.0629 Y3.3922 Z-0.0250
G01 G54 X1.0609 Y3.3896 Z-0.0250
G01 G54 X0.9578 Y3.2496 Z-0.0250
G01 G54 X0.9560 Y3.2470 Z-0.0250
G01 G54 X0.8588 Y3.1045 Z-0.0250
G01 G54 X0.8570 Y3.1019 Z-0.0250
G01 G54 X0.7650 Y2.9560 Z-0.0250
G01 G54 X0.7634 Y2.9533 Z-0.0250
G01 G54 X0.6770 Y2.8048 Z-0.0250
G01 G54 X0.6755 Y2.8022 Z-0.0250
G01 G54 X0.5957 Y2.6531 Z-0.0250
G01 G54 X0.5943 Y2.6504 Z-0.0250
G01 G54 X0.5190 Y2.4972 Z-0.0250
G01 G54 X0.5177 Y2.4945 Z-0.0250
G01 G54 X0.4480 Y2.3396 Z-0.0250
G01 G54 X0.4468 Y2.3369 Z-0.0250
G01 G54 X0.3830 Y2.1813 Z-0.0250
G01 G54 X0.3820 Y2.1786 Z-0.0250
G01 G54 X0.3232 Y2.0207 Z-0.0250
G01 G54 X0.3222 Y2.0181 Z-0.0250
G01 G54 X0.2683 Y1.8577 Z-0.0250
G01 G54 X0.2675 Y1.8550 Z-0.0250
G01 G54 X0.2190 Y1.6940 Z-0.0250
G01 G54 X0.2183 Y1.6914 Z-0.0250
G01 G54 X0.1746 Y1.5286 Z-0.0250
G01 G54 X0.1740 Y1.5260 Z-0.0250
G01 G54 X0.1350 Y1.3606 Z-0.0250
G01 G54 X0.1344 Y1.3581 Z-0.0250
G01 G54 X0.1009 Y1.1944 Z-0.0250
G01 G54 X0.1004 Y1.1919 Z-0.0250
G01 G54 X0.0713 Y1.0255 Z-0.0250
G01 G54 X0.0709 Y1.0230 Z-0.0250
G01 G54 X0.0466 Y0.8558 Z-0.0250
G01 G54 X0.0462 Y0.8534 Z-0.0250
G01 G54 X0.0266 Y0.6863 Z-0.0250
G01 G54 X0.0264 Y0.6840 Z-0.0250
G01 G54 X0.0111 Y0.5149 Z-0.0250
G01 G54 X0.0109 Y0.5126 Z-0.0250
G01 G54 X0.0001 Y0.3445 Z-0.0250
G01 G54 X0.0001 Y0.3422 Z-0.0250
G01 G54 X-0.0063 Y0.1716 Z-0.0250
G01 G54 X-0.0064 Y0.1693 Z-0.0250
G01 G54 X-0.0085 Y0.0006 Z-0.0250
G01 G54 X-0.0085 Y-0.0014 Z-0.0250
G01 G54 X0.1914 Y-0.0003 Z-0.0250
G01 G54 X0.1935 Y-0.1657 Z-0.0250
G01 G54 X0.1999 Y-0.3340 Z-0.0250
G01 G54 X0.2104 Y-0.4987 Z-0.0250
G01 G54 X0.2254 Y-0.6649 Z-0.0250
G01 G54 X0.2446 Y-0.8281 Z-0.0250
G01 G54 X0.2687 Y-0.9928 Z-0.0250
G01 G54 X0.2970 Y-1.1551 Z-0.0250
G01 G54 X0.3300 Y-1.3163 Z-0.0250
G01 G54 X0.3684 Y-1.4792 Z-0.0250
G01 G54 X0.4110 Y-1.6381 Z-0.0250
G01 G54 X0.4584 Y-1.7952 Z-0.0250
G01 G54 X0.5113 Y-1.9529 Z-0.0250
G01 G54 X0.5686 Y-2.1067 Z-0.0250
G01 G54 X0.6312 Y-2.2594 Z-0.0250
G01 G54 X0.6994 Y-2.4108 Z-0.0250
G01 G54 X0.7729 Y-2.5603 Z-0.0250
G01 G54 X0.8509 Y-2.7059 Z-0.0250
G01 G54 X0.9356 Y-2.8516 Z-0.0250
G01 G54 X1.0249 Y-2.9931 Z-0.0250
G01 G54 X1.1199 Y-3.1324 Z-0.0250
G01 G54 X1.2211 Y-3.2697 Z-0.0250
G01 G54 X1.3270 Y-3.4029 Z-0.0250
G01 G54 X1.4400 Y-3.5345 Z-0.0250
G01 G54 X1.5588 Y-3.6630 Z-0.0250
G01 G54 X1.6831 Y-3.7878 Z-0.0250
G01 G54 X1.8143 Y-3.9100 Z-0.0250
G01 G54 X1.9511 Y-4.0283 Z-0.0250
G01 G54 X2.0957 Y-4.1442 Z-0.0250
G01 G54 X2.2448 Y-4.2549 Z-0.0250
G01 G54 X2.4012 Y-4.3624 Z-0.0250
G01 G54 X2.5654 Y-4.4667 Z-0.0250
G01 G54 X2.7340 Y-4.5656 Z-0.0250
G01 G54 X2.9148 Y-4.6633 Z-0.0250
G01 G54 X3.0957 Y-4.7531 Z-0.0250
G01 G54 X3.2883 Y-4.8407 Z-0.0250
G01 G54 X3.4874 Y-4.9233 Z-0.0250
G01 G54 X3.6933 Y-5.0012 Z-0.0250
G01 G54 X3.9053 Y-5.0737 Z-0.0250
G01 G54 X4.1278 Y-5.1421 Z-0.0250
G01 G54 X4.3576 Y-5.2052 Z-0.0250
G01 G54 X4.5930 Y-5.2625 Z-0.0250
G01 G54 X4.8385 Y-5.3149 Z-0.0250
G01 G54 X5.0897 Y-5.3612 Z-0.0250
G01 G54 X5.3507 Y-5.4022 Z-0.0250
G01 G54 X5.6192 Y-5.4372 Z-0.0250
G01 G54 X5.8940 Y-5.4659 Z-0.0250
G01 G54 X6.1804 Y-5.4888 Z-0.0250
G01 G54 X6.4755 Y-5.5053 Z-0.0250
G01 G54 X6.7749 Y-5.5152 Z-0.0250
G01 G54 X7.0820 Y-5.5186 Z-0.0250
G01 G54 X7.6093 Y-5.4855 Z-0.0250
G01 G54 X7.6095 Y-5.4855 Z-0.0250
G01 G54 X7.6095 Y-5.4854 Z-0.0250
G01 G54 X8.1442 Y-5.4525 Z-0.0250
G01 G54 X8.1446 Y-5.4525 Z-0.0250
G01 G54 X8.6776 Y-5.4203 Z-0.0250
G01 G54 X8.6795 Y-5.4202 Z-0.0250
G01 G54 X9.2144 Y-5.3886 Z-0.0250
G01 G54 X9.2148 Y-5.3886 Z-0.0250
G01 G54 X9.7495 Y-5.3577 Z-0.0250
G01 G54 X9.7500 Y-5.3577 Z-0.0250
G01 G54 X10.2846 Y-5.3274 Z-0.0250
G01 G54 X10.2849 Y-5.3274 Z-0.0250
G01 G54 X10.2849 Y-5.3274 Z-0.0250
G01 G54 X10.8198 Y-5.2977 Z-0.0250
G01 G54 X10.8203 Y-5.2977 Z-0.0250
G01 G54 X11.3551 Y-5.2688 Z-0.0250
G01 G54 X11.3555 Y-5.2688 Z-0.0250
G01 G54 X11.8903 Y-5.2405 Z-0.0250
G01 G54 X11.8908 Y-5.2405 Z-0.0250
G01 G54 X12.4256 Y-5.2129 Z-0.0250
G01 G54 X12.4261 Y-5.2129 Z-0.0250
G01 G54 X12.9578 Y-5.1861 Z-0.0250
G01 G54 X12.9578 Y-5.1861 Z-0.0250
G01 G54 X12.9612 Y-5.1859 Z-0.0250
G01 G54 X13.4963 Y-5.1596 Z-0.0250
G01 G54 X13.4968 Y-5.1596 Z-0.0250
G01 G54 X14.0317 Y-5.1339 Z-0.0250
G01 G54 X14.0322 Y-5.1339 Z-0.0250
G01 G54 X14.5672 Y-5.1090 Z-0.0250
G01 G54 X14.5676 Y-5.1090 Z-0.0250
G01 G54 X15.1026 Y-5.0847 Z-0.0250
G01 G54 X15.1032 Y-5.0847 Z-0.0250
G01 G54 X15.6381 Y-5.0610 Z-0.0250
G01 G54 X15.6386 Y-5.0610 Z-0.0250
G01 G54 X16.1736 Y-5.0380 Z-0.0250
G01 G54 X16.1739 Y-5.0380 Z-0.0250
G01 G54 X16.1739 Y-5.0380 Z-0.0250
G01 G54 X16.7092 Y-5.0157 Z-0.0250
G01 G54 X16.7096 Y-5.0157 Z-0.0250
G01 G54 X17.2448 Y-4.9940 Z-0.0250
G01 G54 X17.2452 Y-4.9940 Z-0.0250
G01 G54 X17.7774 Y-4.9731 Z-0.0250
G01 G54 X17.7806 Y-4.9729 Z-0.0250
G01 G54 X18.3160 Y-4.9526 Z-0.0250
G01 G54 X18.3165 Y-4.9526 Z-0.0250
G01 G54 X18.8517 Y-4.9329 Z-0.0250
G01 G54 X18.8521 Y-4.9329 Z-0.0250
G01 G54 X19.3873 Y-4.9139 Z-0.0250
G01 G54 X19.3879 Y-4.9139 Z-0.0250
G01 G54 X19.9230 Y-4.8956 Z-0.0250
G01 G54 X19.9237 Y-4.8956 Z-0.0250
G01 G54 X20.4588 Y-4.8779 Z-0.0250
G01 G54 X20.4590 Y-4.8779 Z-0.0250
G01 G54 X20.4590 Y-4.8779 Z-0.0250
G01 G54 X20.9944 Y-4.8608 Z-0.0250
G01 G54 X20.9949 Y-4.8608 Z-0.0250
G01 G54 X21.5303 Y-4.8445 Z-0.0250
G01 G54 X21.5306 Y-4.8445 Z-0.0250
G01 G54 X22.0660 Y-4.8288 Z-0.0250
G01 G54 X22.0665 Y-4.8288 Z-0.0250
G01 G54 X22.6018 Y-4.8137 Z-0.0250
G01 G54 X22.6022 Y-4.8137 Z-0.0250
G01 G54 X23.1376 Y-4.7994 Z-0.0250
G01 G54 X23.1382 Y-4.7994 Z-0.0250
G01 G54 X23.6735 Y-4.7857 Z-0.0250
G01 G54 X23.6739 Y-4.7857 Z-0.0250
G01 G54 X24.2093 Y-4.7726 Z-0.0250
G01 G54 X24.2100 Y-4.7726 Z-0.0250
G01 G54 X24.7427 Y-4.7603 Z-0.0250
G01 G54 X24.7454 Y-4.7602 Z-0.0250
G01 G54 X25.2811 Y-4.7485 Z-0.0250
G01 G54 X25.2822 Y-4.7485 Z-0.0250
G01 G54 X25.8170 Y-4.7374 Z-0.0250
G01 G54 X25.8186 Y-4.7374 Z-0.0250
G01 G54 X26.3529 Y-4.7270 Z-0.0250
G01 G54 X26.3531 Y-4.7270 Z-0.0250
G01 G54 X26.3531 Y-4.7270 Z-0.0250
G01 G54 X26.8888 Y-4.7172 Z-0.0250
G01 G54 X26.8890 Y-4.7172 Z-0.0250
G01 G54 X27.4248 Y-4.7081 Z-0.0250
G01 G54 X27.4250 Y-4.7081 Z-0.0250
G01 G54 X27.9607 Y-4.6997 Z-0.0250
G01 G54 X27.9609 Y-4.6997 Z-0.0250
G01 G54 X28.4966 Y-4.6920 Z-0.0250
G01 G54 X28.4969 Y-4.6920 Z-0.0250
G01 G54 X29.0326 Y-4.6849 Z-0.0250
G01 G54 X29.0328 Y-4.6849 Z-0.0250
G01 G54 X29.5686 Y-4.6785 Z-0.0250
G01 G54 X29.5688 Y-4.6785 Z-0.0250
G01 G54 X30.1046 Y-4.6727 Z-0.0250
G01 G54 X30.1048 Y-4.6727 Z-0.0250
G01 G54 X30.6406 Y-4.6676 Z-0.0250
G01 G54 X30.6408 Y-4.6676 Z-0.0250
G01 G54 X31.1765 Y-4.6632 Z-0.0250
G01 G54 X31.1768 Y-4.6632 Z-0.0250
G01 G54 X31.7125 Y-4.6594 Z-0.0250
G01 G54 X31.7127 Y-4.6594 Z-0.0250
G01 G54 X32.2485 Y-4.6563 Z-0.0250
G01 G54 X32.2488 Y-4.6563 Z-0.0250
G01 G54 X32.7846 Y-4.6538 Z-0.0250
G01 G54 X32.7848 Y-4.6538 Z-0.0250
G01 G54 X33.3206 Y-4.6521 Z-0.0250
G01 G54 X33.3208 Y-4.6521 Z-0.0250
G01 G54 X33.8566 Y-4.6510 Z-0.0250
G01 G54 X33.8568 Y-4.6510 Z-0.0250
G01 G54 X34.3925 Y-4.6505 Z-0.0250
G01 G54 X34.3928 Y-4.6505 Z-0.0250
G01 G54 X34.9286 Y-4.6507 Z-0.0250
G01 G54 X34.9288 Y-4.6507 Z-0.0250
G01 G54 X35.4646 Y-4.6516 Z-0.0250
G01 G54 X35.4649 Y-4.6516 Z-0.0250
G01 G54 X36.0006 Y-4.6531 Z-0.0250
G01 G54 X36.0009 Y-4.6531 Z-0.0250
G01 G54 X36.5366 Y-4.6553 Z-0.0250
G01 G54 X36.5369 Y-4.6553 Z-0.0250
G01 G54 X37.0726 Y-4.6582 Z-0.0250
G01 G54 X37.0729 Y-4.6582 Z-0.0250
G01 G54 X37.6087 Y-4.6617 Z-0.0250
G01 G54 X37.6089 Y-4.6617 Z-0.0250
G01 G54 X38.1446 Y-4.6659 Z-0.0250
G01 G54 X38.1449 Y-4.6659 Z-0.0250
G01 G54 X38.6806 Y-4.6707 Z-0.0250
G01 G54 X38.6809 Y-4.6707 Z-0.0250
G01 G54 X39.2166 Y-4.6762 Z-0.0250
G01 G54 X39.2168 Y-4.6762 Z-0.0250
G01 G54 X39.7526 Y-4.6824 Z-0.0250
G01 G54 X39.7529 Y-4.6824 Z-0.0250
G01 G54 X40.2886 Y-4.6892 Z-0.0250
G01 G54 X40.2888 Y-4.6892 Z-0.0250
G01 G54 X40.8245 Y-4.6967 Z-0.0250
G01 G54 X40.8248 Y-4.6967 Z-0.0250
G01 G54 X41.3605 Y-4.7049 Z-0.0250
G01 G54 X41.3607 Y-4.7049 Z-0.0250
G01 G54 X41.8964 Y-4.7137 Z-0.0250
G01 G54 X41.8966 Y-4.7137 Z-0.0250
G01 G54 X42.4323 Y-4.7232 Z-0.0250
G01 G54 X42.4323 Y-4.7232 Z-0.0250
G01 G54 X42.4325 Y-4.7232 Z-0.0250
G01 G54 X42.9662 Y-4.7333 Z-0.0250
G01 G54 X42.9662 Y-4.7333 Z-0.0250
G01 G54 X42.9685 Y-4.7334 Z-0.0250
G01 G54 X43.5031 Y-4.7442 Z-0.0250
G01 G54 X43.5044 Y-4.7442 Z-0.0250
G01 G54 X44.0400 Y-4.7557 Z-0.0250
G01 G54 X44.0427 Y-4.7557 Z-0.0250
G01 G54 X44.5754 Y-4.7678 Z-0.0250
G01 G54 X44.5762 Y-4.7678 Z-0.0250
G01 G54 X45.1115 Y-4.7807 Z-0.0250
G01 G54 X45.1120 Y-4.7807 Z-0.0250
G01 G54 X45.6473 Y-4.7941 Z-0.0250
G01 G54 X45.6478 Y-4.7941 Z-0.0250
G01 G54 X46.1832 Y-4.8082 Z-0.0250
G01 G54 X46.1837 Y-4.8082 Z-0.0250
G01 G54 X46.7190 Y-4.8230 Z-0.0250
G01 G54 X46.7195 Y-4.8230 Z-0.0250
G01 G54 X47.2549 Y-4.8385 Z-0.0250
G01 G54 X47.2553 Y-4.8385 Z-0.0250
G01 G54 X47.7907 Y-4.8546 Z-0.0250
G01 G54 X47.7911 Y-4.8546 Z-0.0250
G01 G54 X48.3266 Y-4.8714 Z-0.0250
G01 G54 X48.3266 Y-4.8714 Z-0.0250
G01 G54 X48.3268 Y-4.8714 Z-0.0250
G01 G54 X48.8619 Y-4.8888 Z-0.0250
G01 G54 X48.8625 Y-4.8888 Z-0.0250
G01 G54 X49.3976 Y-4.9069 Z-0.0250
G01 G54 X49.3982 Y-4.9069 Z-0.0250
G01 G54 X49.9334 Y-4.9257 Z-0.0250
G01 G54 X49.9339 Y-4.9257 Z-0.0250
G01 G54 X50.4691 Y-4.9451 Z-0.0250
G01 G54 X50.4696 Y-4.9451 Z-0.0250
G01 G54 X51.0050 Y-4.9652 Z-0.0250
G01 G54 X51.0078 Y-4.9653 Z-0.0250
G01 G54 X51.5405 Y-4.9860 Z-0.0250
G01 G54 X51.5408 Y-4.9860 Z-0.0250
G01 G54 X52.0760 Y-5.0074 Z-0.0250
G01 G54 X52.0764 Y-5.0074 Z-0.0250
G01 G54 X52.6117 Y-5.0295 Z-0.0250
G01 G54 X52.6117 Y-5.0295 Z-0.0250
G01 G54 X52.6120 Y-5.0295 Z-0.0250
G01 G54 X53.1470 Y-5.0523 Z-0.0250
G01 G54 X53.1475 Y-5.0523 Z-0.0250
G01 G54 X53.6824 Y-5.0757 Z-0.0250
G01 G54 X53.6830 Y-5.0757 Z-0.0250
G01 G54 X54.2181 Y-5.0997 Z-0.0250
G01 G54 X54.2185 Y-5.0997 Z-0.0250
G01 G54 X54.7534 Y-5.1244 Z-0.0250
G01 G54 X54.7539 Y-5.1244 Z-0.0250
G01 G54 X55.2889 Y-5.1498 Z-0.0250
G01 G54 X55.2893 Y-5.1498 Z-0.0250
G01 G54 X55.8244 Y-5.1759 Z-0.0250
G01 G54 X55.8244 Y-5.1759 Z-0.0250
G01 G54 X55.8247 Y-5.1759 Z-0.0250
G01 G54 X56.3598 Y-5.2026 Z-0.0250
G01 G54 X56.3631 Y-5.2028 Z-0.0250
G01 G54 X56.3632 Y-5.2028 Z-0.0250
G01 G54 X56.8948 Y-5.2300 Z-0.0250
G01 G54 X56.8954 Y-5.2300 Z-0.0250
G01 G54 X57.4302 Y-5.2581 Z-0.0250
G01 G54 X57.4306 Y-5.2581 Z-0.0250
G01 G54 X57.9654 Y-5.2868 Z-0.0250
G01 G54 X57.9659 Y-5.2868 Z-0.0250
G01 G54 X58.5007 Y-5.3161 Z-0.0250
G01 G54 X58.5011 Y-5.3161 Z-0.0250
G01 G54 X59.0360 Y-5.3461 Z-0.0250
G01 G54 X59.0360 Y-5.3462 Z-0.0250
G01 G54 X59.0362 Y-5.3462 Z-0.0250
G01 G54 X59.5708 Y-5.3768 Z-0.0250
G01 G54 X59.5714 Y-5.3768 Z-0.0250
G01 G54 X60.1062 Y-5.4082 Z-0.0250
G01 G54 X60.1083 Y-5.4084 Z-0.0250
G01 G54 X60.6338 Y-5.4398 Z-0.0250
G01 G54 X60.8696 Y-5.4366 Z-0.0250
G01 G54 X61.1020 Y-5.4268 Z-0.0250
G01 G54 X61.3285 Y-5.4108 Z-0.0250
G01 G54 X61.5469 Y-5.3886 Z-0.0250
G01 G54 X61.7608 Y-5.3603 Z-0.0250
G01 G54 X61.9666 Y-5.3262 Z-0.0250
G01 G54 X62.1680 Y-5.2862 Z-0.0250
G01 G54 X62.3603 Y-5.2412 Z-0.0250
G01 G54 X62.5503 Y-5.1898 Z-0.0250
G01 G54 X62.7302 Y-5.1342 Z-0.0250
G01 G54 X62.9075 Y-5.0724 Z-0.0250
G01 G54 X63.0748 Y-5.0072 Z-0.0250
G01 G54 X63.2404 Y-4.9354 Z-0.0250
G01 G54 X63.3980 Y-4.8600 Z-0.0250
G01 G54 X63.5514 Y-4.7791 Z-0.0250
G01 G54 X63.6983 Y-4.6945 Z-0.0250
G01 G54 X63.8396 Y-4.6055 Z-0.0250
G01 G54 X63.9760 Y-4.5121 Z-0.0250
G01 G54 X64.1069 Y-4.4148 Z-0.0250
G01 G54 X64.2324 Y-4.3136 Z-0.0250
G01 G54 X64.3536 Y-4.2079 Z-0.0250
G01 G54 X64.4687 Y-4.0995 Z-0.0250
G01 G54 X64.5813 Y-3.9851 Z-0.0250
G01 G54 X64.6856 Y-3.8709 Z-0.0250
G01 G54 X64.7877 Y-3.7502 Z-0.0250
G01 G54 X64.8842 Y-3.6274 Z-0.0250
G01 G54 X64.9757 Y-3.5019 Z-0.0250
G01 G54 X65.0640 Y-3.3716 Z-0.0250
G01 G54 X65.1465 Y-3.2400 Z-0.0250
G01 G54 X65.2251 Y-3.1048 Z-0.0250
G01 G54 X65.2984 Y-2.9685 Z-0.0250
G01 G54 X65.3690 Y-2.8265 Z-0.0250
G01 G54 X65.4350 Y-2.6828 Z-0.0250
G01 G54 X65.4951 Y-2.5404 Z-0.0250
G01 G54 X65.5530 Y-2.3910 Z-0.0250
G01 G54 X65.6057 Y-2.2426 Z-0.0250
G01 G54 X65.6549 Y-2.0903 Z-0.0250
G01 G54 X65.7008 Y-1.9343 Z-0.0250
G01 G54 X65.7410 Y-1.7825 Z-0.0250
G01 G54 X65.7783 Y-1.6254 Z-0.0250
G01 G54 X65.8118 Y-1.4671 Z-0.0250
G01 G54 X65.8419 Y-1.3049 Z-0.0250
G01 G54 X65.8672 Y-1.1486 Z-0.0250
G01 G54 X65.8897 Y-0.9854 Z-0.0250
G01 G54 X65.9085 Y-0.8224 Z-0.0250
G01 G54 X65.9236 Y-0.6593 Z-0.0250
G01 G54 X65.9355 Y-0.4925 Z-0.0250
G01 G54 X65.9435 Y-0.3319 Z-0.0250
G01 G54 X65.9485 Y-0.1647 Z-0.0250
G01 G54 X65.9502 Y-0.0017 Z-0.0250
G01 G54 X65.9485 Y0.1643 Z-0.0250
G01 G54 X65.9435 Y0.3318 Z-0.0250
G01 G54 X65.9355 Y0.4925 Z-0.0250
G01 G54 X65.9236 Y0.6593 Z-0.0250
G01 G54 X65.9085 Y0.8219 Z-0.0250
G01 G54 X65.8897 Y0.9852 Z-0.0250
G01 G54 X65.8676 Y1.1454 Z-0.0250
G01 G54 X65.8416 Y1.3066 Z-0.0250
G01 G54 X65.8119 Y1.4666 Z-0.0250
G01 G54 X65.7783 Y1.6254 Z-0.0250
G01 G54 X65.7410 Y1.7825 Z-0.0250
G01 G54 X65.7008 Y1.9343 Z-0.0250
G01 G54 X65.6549 Y2.0903 Z-0.0250
G01 G54 X65.6057 Y2.2426 Z-0.0250
G01 G54 X65.5529 Y2.3914 Z-0.0250
G01 G54 X65.4954 Y2.5397 Z-0.0250
G01 G54 X65.4350 Y2.6827 Z-0.0250
G01 G54 X65.3688 Y2.8270 Z-0.0250
G01 G54 X65.2988 Y2.9679 Z-0.0250
G01 G54 X65.2251 Y3.1048 Z-0.0250
G01 G54 X65.1465 Y3.2400 Z-0.0250
G01 G54 X65.0640 Y3.3716 Z-0.0250
G01 G54 X64.9757 Y3.5019 Z-0.0250
G01 G54 X64.8842 Y3.6274 Z-0.0250
G01 G54 X64.7877 Y3.7502 Z-0.0250
G01 G54 X64.6856 Y3.8709 Z-0.0250
G01 G54 X64.5813 Y3.9851 Z-0.0250
G01 G54 X64.4687 Y4.0995 Z-0.0250
G01 G54 X64.3536 Y4.2079 Z-0.0250
G01 G54 X64.2324 Y4.3136 Z-0.0250
G01 G54 X64.1069 Y4.4148 Z-0.0250
G01 G54 X63.9760 Y4.5121 Z-0.0250
G01 G54 X63.8396 Y4.6055 Z-0.0250
G01 G54 X63.6983 Y4.6945 Z-0.0250
G01 G54 X63.5514 Y4.7791 Z-0.0250
G01 G54 X63.3980 Y4.8600 Z-0.0250
G01 G54 X63.2404 Y4.9354 Z-0.0250
G01 G54 X63.0748 Y5.0072 Z-0.0250
G01 G54 X62.9075 Y5.0724 Z-0.0250
G01 G54 X62.7302 Y5.1342 Z-0.0250
G01 G54 X62.5503 Y5.1898 Z-0.0250
G01 G54 X62.3603 Y5.2412 Z-0.0250
G01 G54 X62.1680 Y5.2862 Z-0.0250
G01 G54 X61.9666 Y5.3262 Z-0.0250
G01 G54 X61.7608 Y5.3603 Z-0.0250
G01 G54 X61.5469 Y5.3886 Z-0.0250
G01 G54 X61.3285 Y5.4108 Z-0.0250
G01 G54 X61.1020 Y5.4268 Z-0.0250
G01 G54 X60.8696 Y5.4366 Z-0.0250
G01 G54 X60.6338 Y5.4398 Z-0.0250
G01 G54 X60.1083 Y5.4084 Z-0.0250
G01 G54 X60.1062 Y5.4082 Z-0.0250
G01 G54 X59.5714 Y5.3768 Z-0.0250
G01 G54 X59.5708 Y5.3768 Z-0.0250
G01 G54 X59.0362 Y5.3462 Z-0.0250
G01 G54 X59.0360 Y5.3462 Z-0.0250
G01 G54 X59.0360 Y5.3461 Z-0.0250
G01 G54 X58.5011 Y5.3161 Z-0.0250
G01 G54 X58.5007 Y5.3161 Z-0.0250
G01 G54 X57.9659 Y5.2868 Z-0.0250
G01 G54 X57.9654 Y5.2868 Z-0.0250
G01 G54 X57.4306 Y5.2581 Z-0.0250
G01 G54 X57.4302 Y5.2581 Z-0.0250
G01 G54 X56.8954 Y5.2300 Z-0.0250
G01 G54 X56.8948 Y5.2300 Z-0.0250
G01 G54 X56.3632 Y5.2028 Z-0.0250
G01 G54 X56.3631 Y5.2028 Z-0.0250
G01 G54 X56.3598 Y5.2026 Z-0.0250
G01 G54 X55.8247 Y5.1759 Z-0.0250
G01 G54 X55.8244 Y5.1759 Z-0.0250
G01 G54 X55.8244 Y5.1759 Z-0.0250
G01 G54 X55.2893 Y5.1498 Z-0.0250
G01 G54 X55.2889 Y5.1498 Z-0.0250
G01 G54 X54.7539 Y5.1244 Z-0.0250
G01 G54 X54.7534 Y5.1244 Z-0.0250
G01 G54 X54.2185 Y5.0997 Z-0.0250
G01 G54 X54.2181 Y5.0997 Z-0.0250
G01 G54 X53.6830 Y5.0757 Z-0.0250
G01 G54 X53.6824 Y5.0757 Z-0.0250
G01 G54 X53.1475 Y5.0523 Z-0.0250
G01 G54 X53.1470 Y5.0523 Z-0.0250
G01 G54 X52.6120 Y5.0295 Z-0.0250
G01 G54 X52.6117 Y5.0295 Z-0.0250
G01 G54 X52.6117 Y5.0295 Z-0.0250
G01 G54 X52.0764 Y5.0074 Z-0.0250
G01 G54 X52.0760 Y5.0074 Z-0.0250
G01 G54 X51.5408 Y4.9860 Z-0.0250
G01 G54 X51.5405 Y4.9860 Z-0.0250
G01 G54 X51.0078 Y4.9653 Z-0.0250
G01 G54 X51.0050 Y4.9652 Z-0.0250
G01 G54 X50.4696 Y4.9451 Z-0.0250
G01 G54 X50.4691 Y4.9451 Z-0.0250
G01 G54 X49.9339 Y4.9257 Z-0.0250
G01 G54 X49.9334 Y4.9257 Z-0.0250
G01 G54 X49.3982 Y4.9069 Z-0.0250
G01 G54 X49.3976 Y4.9069 Z-0.0250
G01 G54 X48.8625 Y4.8888 Z-0.0250
G01 G54 X48.8619 Y4.8888 Z-0.0250
G01 G54 X48.3268 Y4.8714 Z-0.0250
G01 G54 X48.3266 Y4.8714 Z-0.0250
G01 G54 X48.3266 Y4.8714 Z-0.0250
G01 G54 X47.7911 Y4.8546 Z-0.0250
G01 G54 X47.7907 Y4.8546 Z-0.0250
G01 G54 X47.2553 Y4.8385 Z-0.0250
G01 G54 X47.2549 Y4.8385 Z-0.0250
G01 G54 X46.7195 Y4.8230 Z-0.0250
G01 G54 X46.7190 Y4.8230 Z-0.0250
G01 G54 X46.1837 Y4.8082 Z-0.0250
G01 G54 X46.1832 Y4.8082 Z-0.0250
G01 G54 X45.6478 Y4.7941 Z-0.0250
G01 G54 X45.6473 Y4.7941 Z-0.0250
G01 G54 X45.1120 Y4.7807 Z-0.0250
G01 G54 X45.1115 Y4.7807 Z-0.0250
G01 G54 X44.5762 Y4.7678 Z-0.0250
G01 G54 X44.5754 Y4.7678 Z-0.0250
G01 G54 X44.0427 Y4.7557 Z-0.0250
G01 G54 X44.0400 Y4.7557 Z-0.0250
G01 G54 X43.5044 Y4.7442 Z-0.0250
G01 G54 X43.5031 Y4.7442 Z-0.0250
G01 G54 X42.9685 Y4.7334 Z-0.0250
G01 G54 X42.9662 Y4.7333 Z-0.0250
G01 G54 X42.9662 Y4.7333 Z-0.0250
G01 G54 X42.4325 Y4.7232 Z-0.0250
G01 G54 X42.4323 Y4.7232 Z-0.0250
G01 G54 X42.4323 Y4.7232 Z-0.0250
G01 G54 X41.8966 Y4.7137 Z-0.0250
G01 G54 X41.8964 Y4.7137 Z-0.0250
G01 G54 X41.3607 Y4.7049 Z-0.0250
G01 G54 X41.3605 Y4.7049 Z-0.0250
G01 G54 X40.8248 Y4.6967 Z-0.0250
G01 G54 X40.8245 Y4.6967 Z-0.0250
G01 G54 X40.2888 Y4.6892 Z-0.0250
G01 G54 X40.2886 Y4.6892 Z-0.0250
G01 G54 X39.7529 Y4.6824 Z-0.0250
G01 G54 X39.7526 Y4.6824 Z-0.0250
G01 G54 X39.2168 Y4.6762 Z-0.0250
G01 G54 X39.2166 Y4.6762 Z-0.0250
G01 G54 X38.6809 Y4.6707 Z-0.0250
G01 G54 X38.6806 Y4.6707 Z-0.0250
G01 G54 X38.1449 Y4.6659 Z-0.0250
G01 G54 X38.1446 Y4.6659 Z-0.0250
G01 G54 X37.6089 Y4.6617 Z-0.0250
G01 G54 X37.6087 Y4.6617 Z-0.0250
G01 G54 X37.0729 Y4.6582 Z-0.0250
G01 G54 X37.0726 Y4.6582 Z-0.0250
G01 G54 X36.5369 Y4.6553 Z-0.0250
G01 G54 X36.5366 Y4.6553 Z-0.0250
G01 G54 X36.0009 Y4.6531 Z-0.0250
G01 G54 X36.0006 Y4.6531 Z-0.0250
G01 G54 X35.4649 Y4.6516 Z-0.0250
G01 G54 X35.4646 Y4.6516 Z-0.0250
G01 G54 X34.9288 Y4.6507 Z-0.0250
G01 G54 X34.9286 Y4.6507 Z-0.0250
G01 G54 X34.3928 Y4.6505 Z-0.0250
G01 G54 X34.3925 Y4.6505 Z-0.0250
G01 G54 X33.8568 Y4.6510 Z-0.0250
G01 G54 X33.8566 Y4.6510 Z-0.0250
G01 G54 X33.3208 Y4.6521 Z-0.0250
G01 G54 X33.3206 Y4.6521 Z-0.0250
G01 G54 X32.7848 Y4.6538 Z-0.0250
G01 G54 X32.7846 Y4.6538 Z-0.0250
G01 G54 X32.2488 Y4.6563 Z-0.0250
G01 G54 X32.2485 Y4.6563 Z-0.0250
G01 G54 X31.7127 Y4.6594 Z-0.0250
G01 G54 X31.7125 Y4.6594 Z-0.0250
G01 G54 X31.1768 Y4.6632 Z-0.0250
G01 G54 X31.1765 Y4.6632 Z-0.0250
G01 G54 X30.6408 Y4.6676 Z-0.0250
G01 G54 X30.6406 Y4.6676 Z-0.0250
G01 G54 X30.1048 Y4.6727 Z-0.0250
G01 G54 X30.1046 Y4.6727 Z-0.0250
G01 G54 X29.5688 Y4.6785 Z-0.0250
G01 G54 X29.5686 Y4.6785 Z-0.0250
G01 G54 X29.0328 Y4.6849 Z-0.0250
G01 G54 X29.0326 Y4.6849 Z-0.0250
G01 G54 X28.4969 Y4.6920 Z-0.0250
G01 G54 X28.4966 Y4.6920 Z-0.0250
G01 G54 X27.9609 Y4.6997 Z-0.0250
G01 G54 X27.9607 Y4.6997 Z-0.0250
G01 G54 X27.4250 Y4.7081 Z-0.0250
G01 G54 X27.4248 Y4.7081 Z-0.0250
G01 G54 X26.8890 Y4.7172 Z-0.0250
G01 G54 X26.8888 Y4.7172 Z-0.0250
G01 G54 X26.3531 Y4.7270 Z-0.0250
G01 G54 X26.3531 Y4.7270 Z-0.0250
G01 G54 X26.3529 Y4.7270 Z-0.0250
G01 G54 X25.8186 Y4.7374 Z-0.0250
G01 G54 X25.8170 Y4.7374 Z-0.0250
G01 G54 X25.2822 Y4.7485 Z-0.0250
G01 G54 X25.2811 Y4.7485 Z-0.0250
G01 G54 X24.7454 Y4.7602 Z-0.0250
G01 G54 X24.7427 Y4.7603 Z-0.0250
G01 G54 X24.2100 Y4.7726 Z-0.0250
G01 G54 X24.2093 Y4.7726 Z-0.0250
G01 G54 X23.6739 Y4.7857 Z-0.0250
G01 G54 X23.6735 Y4.7857 Z-0.0250
G01 G54 X23.1382 Y4.7994 Z-0.0250
G01 G54 X23.1376 Y4.7994 Z-0.0250
G01 G54 X22.6022 Y4.8137 Z-0.0250
G01 G54 X22.6018 Y4.8137 Z-0.0250
G01 G54 X22.0665 Y4.8288 Z-0.0250
G01 G54 X22.0660 Y4.8288 Z-0.0250
G01 G54 X21.5306 Y4.8445 Z-0.0250
G01 G54 X21.5303 Y4.8445 Z-0.0250
G01 G54 X20.9949 Y4.8608 Z-0.0250
G01 G54 X20.9944 Y4.8608 Z-0.0250
G01 G54 X20.4590 Y4.8779 Z-0.0250
G01 G54 X20.4590 Y4.8779 Z-0.0250
G01 G54 X20.4588 Y4.8779 Z-0.0250
G01 G54 X19.9237 Y4.8956 Z-0.0250
G01 G54 X19.9230 Y4.8956 Z-0.0250
G01 G54 X19.3879 Y4.9139 Z-0.0250
G01 G54 X19.3873 Y4.9139 Z-0.0250
G01 G54 X18.8521 Y4.9329 Z-0.0250
G01 G54 X18.8517 Y4.9329 Z-0.0250
G01 G54 X18.3165 Y4.9526 Z-0.0250
G01 G54 X18.3160 Y4.9526 Z-0.0250
G01 G54 X17.7806 Y4.9729 Z-0.0250
G01 G54 X17.7775 Y4.9731 Z-0.0250
G01 G54 X17.2452 Y4.9940 Z-0.0250
G01 G54 X17.2448 Y4.9940 Z-0.0250
G01 G54 X16.7096 Y5.0157 Z-0.0250
G01 G54 X16.7092 Y5.0157 Z-0.0250
G01 G54 X16.1739 Y5.0380 Z-0.0250
G01 G54 X16.1739 Y5.0380 Z-0.0250
G01 G54 X16.1736 Y5.0380 Z-0.0250
G01 G54 X15.6386 Y5.0610 Z-0.0250
G01 G54 X15.6381 Y5.0610 Z-0.0250
G01 G54 X15.1032 Y5.0847 Z-0.0250
G01 G54 X15.1026 Y5.0847 Z-0.0250
G01 G54 X14.5676 Y5.1090 Z-0.0250
G01 G54 X14.5672 Y5.1090 Z-0.0250
G01 G54 X14.0322 Y5.1339 Z-0.0250
G01 G54 X14.0317 Y5.1339 Z-0.0250
G01 G54 X13.4968 Y5.1596 Z-0.0250
G01 G54 X13.4963 Y5.1596 Z-0.0250
G01 G54 X12.9612 Y5.1859 Z-0.0250
G01 G54 X12.9578 Y5.1861 Z-0.0250
G01 G54 X12.9578 Y5.1861 Z-0.0250
G01 G54 X12.4261 Y5.2129 Z-0.0250
G01 G54 X12.4256 Y5.2129 Z-0.0250
G01 G54 X11.8908 Y5.2405 Z-0.0250
G01 G54 X11.8903 Y5.2405 Z-0.0250
G01 G54 X11.3555 Y5.2688 Z-0.0250
G01 G54 X11.3551 Y5.2688 Z-0.0250
G01 G54 X10.8203 Y5.2977 Z-0.0250
G01 G54 X10.8198 Y5.2977 Z-0.0250
G01 G54 X10.2849 Y5.3274 Z-0.0250
G01 G54 X10.2849 Y5.3274 Z-0.0250
G01 G54 X10.2846 Y5.3274 Z-0.0250
G01 G54 X9.7500 Y5.3577 Z-0.0250
G01 G54 X9.7495 Y5.3577 Z-0.0250
G01 G54 X9.2148 Y5.3886 Z-0.0250
G01 G54 X9.2144 Y5.3886 Z-0.0250
G01 G54 X8.6795 Y5.4202 Z-0.0250
G01 G54 X8.6776 Y5.4203 Z-0.0250
G01 G54 X8.1446 Y5.4525 Z-0.0250
G01 G54 X8.1442 Y5.4525 Z-0.0250
G01 G54 X7.6095 Y5.4854 Z-0.0250
G01 G54 X7.6095 Y5.4855 Z-0.0250
G01 G54 X7.6093 Y5.4855 Z-0.0250
G01 G54 X7.0820 Y5.5186 Z-0.0250
G01 G54 X6.7749 Y5.5152 Z-0.0250
G01 G54 X6.4755 Y5.5053 Z-0.0250
G01 G54 X6.1804 Y5.4888 Z-0.0250
G01 G54 X5.8940 Y5.4659 Z-0.0250
G01 G54 X5.6192 Y5.4372 Z-0.0250
G01 G54 X5.3507 Y5.4022 Z-0.0250
G01 G54 X5.0897 Y5.3612 Z-0.0250
G01 G54 X4.8385 Y5.3149 Z-0.0250
G01 G54 X4.5929 Y5.2625 Z-0.0250
G01 G54 X4.3576 Y5.2052 Z-0.0250
G01 G54 X4.1278 Y5.1421 Z-0.0250
G01 G54 X3.9053 Y5.0737 Z-0.0250
G01 G54 X3.6933 Y5.0012 Z-0.0250
G01 G54 X3.4874 Y4.9233 Z-0.0250
G01 G54 X3.2883 Y4.8407 Z-0.0250
G01 G54 X3.0962 Y4.7533 Z-0.0250
G01 G54 X2.9137 Y4.6627 Z-0.0250
G01 G54 X2.7344 Y4.5659 Z-0.0250
G01 G54 X2.5654 Y4.4667 Z-0.0250
G01 G54 X2.4012 Y4.3624 Z-0.0250
G01 G54 X2.2448 Y4.2549 Z-0.0250
G01 G54 X2.0957 Y4.1442 Z-0.0250
G01 G54 X1.9511 Y4.0283 Z-0.0250
G01 G54 X1.8143 Y3.9100 Z-0.0250
G01 G54 X1.6831 Y3.7878 Z-0.0250
G01 G54 X1.5588 Y3.6630 Z-0.0250
G01 G54 X1.4400 Y3.5345 Z-0.0250
G01 G54 X1.3270 Y3.4029 Z-0.0250
G01 G54 X1.2211 Y3.2697 Z-0.0250
G01 G54 X1.1199 Y3.1324 Z-0.0250
G01 G54 X1.0254 Y2.9939 Z-0.0250
G01 G54 X0.9351 Y2.8507 Z-0.0250
G01 G54 X0.8509 Y2.7059 Z-0.0250
G01 G54 X0.7729 Y2.5603 Z-0.0250
G01 G54 X0.6994 Y2.4108 Z-0.0250
G01 G54 X0.6312 Y2.2594 Z-0.0250
G01 G54 X0.5686 Y2.1067 Z-0.0250
G01 G54 X0.5113 Y1.9529 Z-0.0250
G01 G54 X0.4584 Y1.7952 Z-0.0250
G01 G54 X0.4110 Y1.6381 Z-0.0250
G01 G54 X0.3684 Y1.4792 Z-0.0250
G01 G54 X0.3300 Y1.3163 Z-0.0250
G01 G54 X0.2970 Y1.1551 Z-0.0250
G01 G54 X0.2687 Y0.9928 Z-0.0250
G01 G54 X0.2446 Y0.8279 Z-0.0250
G01 G54 X0.2254 Y0.6646 Z-0.0250
G01 G54 X0.2104 Y0.4986 Z-0.0250
G01 G54 X0.1999 Y0.3336 Z-0.0250
G01 G54 X0.1935 Y0.1657 Z-0.0250
G01 G54 X0.1914 Y-0.0003 Z-0.0250
G00 G54 X0.1914 Y-0.0003 Z0.1000
M05
G00 G54 X0.0000 Y0.0000 Z0.1000
G49
G01 G55 Z0 F20
G00 G55 X0 Y0 Z0
M30
