( Sample-ski-edge-trench.nc                                                    )
( Generated by MonkeyCAM v4.0.3 at 2014-10-16 22:28:10 PDT                     )
(                                                                              )
( This GCode program is provided on an "AS IS" BASIS WITHOUT WARRANTIES OR     )
( CONDITIONS OF ANY KIND, either express or implied. You should inspect this   )
( program very carefully to confirm you understand its operation. YOU ARE      )
( RESPONSIBLE FOR ENSURING THIS PROGRAM WILL NOT DAMAGE YOUR MACHINE OR        )
( MATERIALS.                                                                   )
(                                                                              )
( See http://www.github.com/mikemag/MonkeyCAM for License and documentation.   )
(                                                                              )
( * Rapid height: 0.6000" [1.5240cm]                                           )
( * Tool: T1, Quarter Inch Upcut Spiral, diameter 0.2469" [0.6273cm]           )
( * Height baseline [Z=0.0] is the top of the table.                           )
( * XY origin is the left side of the table, Y is center of the part.          )
( * Requires G54 to be the part work coordinate offsets [WCO]. [0, 0] is the   )
(   center of the nose, with the board extending to positive X. The cutter may )
(   move to negative values of X.                                              )
( * Requires G55 to be the machine WCO, with Z above the rapid height.         )
( * Units are inches                                                           )
( * Center of the board in G54:                                                )
(     X=36.0236 Y=0.0000 Z=0.0000                                              )
( * Cutter bounding box in G54:                                                )
(     X0.0000 Y-2.6537 Z0.0000 to X70.8547 Y2.6537 Z0.6000                     )

G90 G20 G17 G40 G49
G43 H1 T1
G00 G54 X0 Y0 Z0.6000

G00 X1.1890 Y1.6142 Z0.6000
M03
G04 P5
G01 X1.1890 Y1.6142 Z0.2800 F70
G01 X4.9219 Y1.4654 Z0.2800
G01 X4.9247 Y1.4653 Z0.2800
G01 X5.5568 Y1.4405 Z0.2800
G01 X5.5585 Y1.4405 Z0.2800
G01 X6.1911 Y1.4162 Z0.2800
G01 X6.1918 Y1.4162 Z0.2800
G01 X6.8240 Y1.3924 Z0.2800
G01 X6.8251 Y1.3924 Z0.2800
G01 X6.8287 Y1.3922 Z0.2800
G01 X7.4596 Y1.3689 Z0.2800
G01 X7.4612 Y1.3689 Z0.2800
G01 X8.0934 Y1.3460 Z0.2800
G01 X8.0962 Y1.3459 Z0.2800
G01 X8.7277 Y1.3235 Z0.2800
G01 X8.7287 Y1.3234 Z0.2800
G01 X8.7299 Y1.3234 Z0.2800
G01 X9.3610 Y1.3014 Z0.2800
G01 X9.3629 Y1.3014 Z0.2800
G01 X9.3664 Y1.3012 Z0.2800
G01 X9.9972 Y1.2798 Z0.2800
G01 X9.9992 Y1.2797 Z0.2800
G01 X10.6307 Y1.2586 Z0.2800
G01 X10.6319 Y1.2586 Z0.2800
G01 X10.6332 Y1.2585 Z0.2800
G01 X11.2639 Y1.2380 Z0.2800
G01 X11.2662 Y1.2379 Z0.2800
G01 X11.2698 Y1.2378 Z0.2800
G01 X11.9003 Y1.2176 Z0.2800
G01 X11.9020 Y1.2176 Z0.2800
G01 X11.9029 Y1.2175 Z0.2800
G01 X12.5338 Y1.1979 Z0.2800
G01 X12.5355 Y1.1978 Z0.2800
G01 X12.5364 Y1.1978 Z0.2800
G01 X13.1689 Y1.1785 Z0.2800
G01 X13.1699 Y1.1785 Z0.2800
G01 X13.1723 Y1.1784 Z0.2800
G01 X13.8037 Y1.1596 Z0.2800
G01 X13.8046 Y1.1596 Z0.2800
G01 X13.8054 Y1.1596 Z0.2800
G01 X14.4383 Y1.1412 Z0.2800
G01 X14.4394 Y1.1412 Z0.2800
G01 X15.0722 Y1.1233 Z0.2800
G01 X15.0735 Y1.1233 Z0.2800
G01 X15.0760 Y1.1231 Z0.2800
G01 X15.7072 Y1.1057 Z0.2800
G01 X15.7083 Y1.1057 Z0.2800
G01 X16.3417 Y1.0887 Z0.2800
G01 X16.3429 Y1.0886 Z0.2800
G01 X16.9755 Y1.0720 Z0.2800
G01 X16.9787 Y1.0719 Z0.2800
G01 X17.6108 Y1.0558 Z0.2800
G01 X17.6122 Y1.0558 Z0.2800
G01 X18.2453 Y1.0401 Z0.2800
G01 X18.2469 Y1.0401 Z0.2800
G01 X18.8786 Y1.0250 Z0.2800
G01 X18.8813 Y1.0249 Z0.2800
G01 X18.8838 Y1.0248 Z0.2800
G01 X19.5145 Y1.0101 Z0.2800
G01 X19.5163 Y1.0100 Z0.2800
G01 X20.1473 Y0.9958 Z0.2800
G01 X20.1479 Y0.9958 Z0.2800
G01 X20.1506 Y0.9957 Z0.2800
G01 X20.7837 Y0.9818 Z0.2800
G01 X20.7853 Y0.9818 Z0.2800
G01 X21.4165 Y0.9685 Z0.2800
G01 X21.4200 Y0.9685 Z0.2800
G01 X21.4225 Y0.9683 Z0.2800
G01 X22.0509 Y0.9555 Z0.2800
G01 X22.0519 Y0.9555 Z0.2800
G01 X22.0543 Y0.9554 Z0.2800
G01 X22.6875 Y0.9429 Z0.2800
G01 X22.6906 Y0.9428 Z0.2800
G01 X23.3201 Y0.9309 Z0.2800
G01 X23.3215 Y0.9309 Z0.2800
G01 X23.3238 Y0.9308 Z0.2800
G01 X23.9568 Y0.9192 Z0.2800
G01 X23.9587 Y0.9192 Z0.2800
G01 X24.5914 Y0.9081 Z0.2800
G01 X24.5936 Y0.9081 Z0.2800
G01 X24.5945 Y0.9080 Z0.2800
G01 X25.2261 Y0.8974 Z0.2800
G01 X25.2275 Y0.8974 Z0.2800
G01 X25.8608 Y0.8871 Z0.2800
G01 X25.8624 Y0.8871 Z0.2800
G01 X26.4955 Y0.8774 Z0.2800
G01 X26.4970 Y0.8773 Z0.2800
G01 X27.1300 Y0.8679 Z0.2800
G01 X27.1323 Y0.8679 Z0.2800
G01 X27.7648 Y0.8591 Z0.2800
G01 X27.7675 Y0.8590 Z0.2800
G01 X27.7683 Y0.8590 Z0.2800
G01 X28.3996 Y0.8506 Z0.2800
G01 X28.4007 Y0.8506 Z0.2800
G01 X29.0342 Y0.8426 Z0.2800
G01 X29.0355 Y0.8426 Z0.2800
G01 X29.6689 Y0.8351 Z0.2800
G01 X29.6704 Y0.8351 Z0.2800
G01 X30.3037 Y0.8281 Z0.2800
G01 X30.3052 Y0.8281 Z0.2800
G01 X30.9383 Y0.8214 Z0.2800
G01 X30.9403 Y0.8214 Z0.2800
G01 X31.5731 Y0.8153 Z0.2800
G01 X31.5758 Y0.8153 Z0.2800
G01 X32.2077 Y0.8096 Z0.2800
G01 X32.2096 Y0.8095 Z0.2800
G01 X32.8425 Y0.8043 Z0.2800
G01 X32.8458 Y0.8042 Z0.2800
G01 X32.8463 Y0.8042 Z0.2800
G01 X33.4772 Y0.7994 Z0.2800
G01 X33.4780 Y0.7994 Z0.2800
G01 X34.1120 Y0.7951 Z0.2800
G01 X34.1127 Y0.7951 Z0.2800
G01 X34.7466 Y0.7912 Z0.2800
G01 X34.7475 Y0.7912 Z0.2800
G01 X35.3814 Y0.7878 Z0.2800
G01 X35.3822 Y0.7878 Z0.2800
G01 X36.0162 Y0.7848 Z0.2800
G01 X36.0169 Y0.7848 Z0.2800
G01 X36.6509 Y0.7823 Z0.2800
G01 X36.6516 Y0.7823 Z0.2800
G01 X37.2856 Y0.7802 Z0.2800
G01 X37.2864 Y0.7802 Z0.2800
G01 X37.9204 Y0.7786 Z0.2800
G01 X37.9211 Y0.7786 Z0.2800
G01 X38.5551 Y0.7774 Z0.2800
G01 X38.5559 Y0.7774 Z0.2800
G01 X39.1900 Y0.7767 Z0.2800
G01 X39.1906 Y0.7767 Z0.2800
G01 X39.8246 Y0.7764 Z0.2800
G01 X39.8254 Y0.7764 Z0.2800
G01 X40.4594 Y0.7766 Z0.2800
G01 X40.4601 Y0.7766 Z0.2800
G01 X41.0941 Y0.7772 Z0.2800
G01 X41.0949 Y0.7772 Z0.2800
G01 X41.7289 Y0.7783 Z0.2800
G01 X41.7297 Y0.7783 Z0.2800
G01 X42.3637 Y0.7799 Z0.2800
G01 X42.3644 Y0.7799 Z0.2800
G01 X42.9984 Y0.7819 Z0.2800
G01 X42.9991 Y0.7819 Z0.2800
G01 X43.6331 Y0.7844 Z0.2800
G01 X43.6339 Y0.7844 Z0.2800
G01 X44.2679 Y0.7873 Z0.2800
G01 X44.2685 Y0.7873 Z0.2800
G01 X44.9025 Y0.7907 Z0.2800
G01 X44.9033 Y0.7907 Z0.2800
G01 X45.5373 Y0.7945 Z0.2800
G01 X45.5381 Y0.7945 Z0.2800
G01 X46.1721 Y0.7988 Z0.2800
G01 X46.1728 Y0.7988 Z0.2800
G01 X46.8037 Y0.8035 Z0.2800
G01 X46.8042 Y0.8035 Z0.2800
G01 X46.8075 Y0.8035 Z0.2800
G01 X47.4409 Y0.8087 Z0.2800
G01 X47.4423 Y0.8088 Z0.2800
G01 X48.0740 Y0.8144 Z0.2800
G01 X48.0770 Y0.8144 Z0.2800
G01 X48.7097 Y0.8205 Z0.2800
G01 X48.7118 Y0.8205 Z0.2800
G01 X49.3447 Y0.8270 Z0.2800
G01 X49.3464 Y0.8270 Z0.2800
G01 X49.9797 Y0.8340 Z0.2800
G01 X49.9811 Y0.8340 Z0.2800
G01 X50.6144 Y0.8415 Z0.2800
G01 X50.6159 Y0.8415 Z0.2800
G01 X51.2494 Y0.8494 Z0.2800
G01 X51.2505 Y0.8494 Z0.2800
G01 X51.8818 Y0.8577 Z0.2800
G01 X51.8825 Y0.8577 Z0.2800
G01 X51.8852 Y0.8578 Z0.2800
G01 X52.5178 Y0.8666 Z0.2800
G01 X52.5200 Y0.8666 Z0.2800
G01 X53.1533 Y0.8759 Z0.2800
G01 X53.1546 Y0.8759 Z0.2800
G01 X53.7875 Y0.8856 Z0.2800
G01 X53.7894 Y0.8856 Z0.2800
G01 X54.4226 Y0.8958 Z0.2800
G01 X54.4239 Y0.8958 Z0.2800
G01 X55.0573 Y0.9064 Z0.2800
G01 X55.0585 Y0.9064 Z0.2800
G01 X55.6902 Y0.9175 Z0.2800
G01 X55.6911 Y0.9175 Z0.2800
G01 X55.6946 Y0.9175 Z0.2800
G01 X55.6954 Y0.9175 Z0.2800
G01 X56.3261 Y0.9290 Z0.2800
G01 X56.3283 Y0.9291 Z0.2800
G01 X56.3300 Y0.9291 Z0.2800
G01 X56.9604 Y0.9410 Z0.2800
G01 X56.9625 Y0.9411 Z0.2800
G01 X57.5957 Y0.9535 Z0.2800
G01 X57.5981 Y0.9536 Z0.2800
G01 X57.5991 Y0.9536 Z0.2800
G01 X58.2276 Y0.9664 Z0.2800
G01 X58.2300 Y0.9665 Z0.2800
G01 X58.2336 Y0.9665 Z0.2800
G01 X58.8647 Y0.9798 Z0.2800
G01 X58.8673 Y0.9799 Z0.2800
G01 X58.8681 Y0.9799 Z0.2800
G01 X59.4992 Y0.9936 Z0.2800
G01 X59.5011 Y0.9936 Z0.2800
G01 X60.1340 Y1.0079 Z0.2800
G01 X60.1355 Y1.0079 Z0.2800
G01 X60.7661 Y1.0225 Z0.2800
G01 X60.7687 Y1.0227 Z0.2800
G01 X60.7715 Y1.0227 Z0.2800
G01 X61.4033 Y1.0379 Z0.2800
G01 X61.4062 Y1.0379 Z0.2800
G01 X62.0375 Y1.0534 Z0.2800
G01 X62.0393 Y1.0535 Z0.2800
G01 X62.6722 Y1.0695 Z0.2800
G01 X62.6742 Y1.0696 Z0.2800
G01 X63.3064 Y1.0861 Z0.2800
G01 X63.3073 Y1.0861 Z0.2800
G01 X63.3084 Y1.0861 Z0.2800
G01 X63.9414 Y1.1031 Z0.2800
G01 X63.9429 Y1.1031 Z0.2800
G01 X64.5759 Y1.1206 Z0.2800
G01 X64.5783 Y1.1206 Z0.2800
G01 X65.2099 Y1.1384 Z0.2800
G01 X65.2125 Y1.1385 Z0.2800
G01 X65.8448 Y1.1568 Z0.2800
G01 X65.8453 Y1.1568 Z0.2800
G01 X65.8463 Y1.1569 Z0.2800
G01 X66.4778 Y1.1756 Z0.2800
G01 X66.4801 Y1.1757 Z0.2800
G01 X66.4812 Y1.1757 Z0.2800
G01 X67.1136 Y1.1949 Z0.2800
G01 X67.1146 Y1.1949 Z0.2800
G01 X67.1164 Y1.1950 Z0.2800
G01 X70.8547 Y1.3112 Z0.2800
G01 X70.8223 Y2.3512 Z0.2800
G01 X67.0830 Y2.2348 Z0.2800
G01 X66.4516 Y2.2156 Z0.2800
G01 X66.4500 Y2.2156 Z0.2800
G01 X66.4483 Y2.2155 Z0.2800
G01 X65.8155 Y2.1968 Z0.2800
G01 X65.1818 Y2.1785 Z0.2800
G01 X64.5480 Y2.1606 Z0.2800
G01 X63.9142 Y2.1431 Z0.2800
G01 X63.2805 Y2.1261 Z0.2800
G01 X62.6467 Y2.1096 Z0.2800
G01 X62.0129 Y2.0935 Z0.2800
G01 X61.3790 Y2.0779 Z0.2800
G01 X60.7481 Y2.0628 Z0.2800
G01 X60.7469 Y2.0628 Z0.2800
G01 X60.7441 Y2.0627 Z0.2800
G01 X60.1120 Y2.0481 Z0.2800
G01 X60.1105 Y2.0480 Z0.2800
G01 X59.4776 Y2.0338 Z0.2800
G01 X58.8437 Y2.0200 Z0.2800
G01 X58.2131 Y2.0067 Z0.2800
G01 X58.2120 Y2.0067 Z0.2800
G01 X58.2089 Y2.0066 Z0.2800
G01 X57.5760 Y1.9938 Z0.2800
G01 X56.9446 Y1.9814 Z0.2800
G01 X56.9411 Y1.9813 Z0.2800
G01 X56.3082 Y1.9693 Z0.2800
G01 X55.6778 Y1.9578 Z0.2800
G01 X55.6770 Y1.9578 Z0.2800
G01 X55.6744 Y1.9577 Z0.2800
G01 X55.0404 Y1.9467 Z0.2800
G01 X54.4065 Y1.9361 Z0.2800
G01 X53.7726 Y1.9259 Z0.2800
G01 X53.1393 Y1.9162 Z0.2800
G01 X53.1378 Y1.9161 Z0.2800
G01 X52.5047 Y1.9068 Z0.2800
G01 X51.8750 Y1.8981 Z0.2800
G01 X51.8708 Y1.8981 Z0.2800
G01 X51.2368 Y1.8897 Z0.2800
G01 X50.6029 Y1.8818 Z0.2800
G01 X49.9689 Y1.8744 Z0.2800
G01 X49.3350 Y1.8674 Z0.2800
G01 X48.7010 Y1.8608 Z0.2800
G01 X48.0670 Y1.8547 Z0.2800
G01 X47.4339 Y1.8491 Z0.2800
G01 X47.4321 Y1.8490 Z0.2800
G01 X46.8038 Y1.8439 Z0.2800
G01 X46.7990 Y1.8439 Z0.2800
G01 X46.1650 Y1.8392 Z0.2800
G01 X45.5310 Y1.8349 Z0.2800
G01 X44.8971 Y1.8311 Z0.2800
G01 X44.2631 Y1.8277 Z0.2800
G01 X43.6291 Y1.8248 Z0.2800
G01 X42.9951 Y1.8223 Z0.2800
G01 X42.3611 Y1.8203 Z0.2800
G01 X41.7271 Y1.8187 Z0.2800
G01 X41.0931 Y1.8176 Z0.2800
G01 X40.4591 Y1.8170 Z0.2800
G01 X39.8251 Y1.8168 Z0.2800
G01 X39.1912 Y1.8171 Z0.2800
G01 X38.5571 Y1.8178 Z0.2800
G01 X37.9231 Y1.8190 Z0.2800
G01 X37.2892 Y1.8206 Z0.2800
G01 X36.6551 Y1.8227 Z0.2800
G01 X36.0212 Y1.8252 Z0.2800
G01 X35.3871 Y1.8282 Z0.2800
G01 X34.7532 Y1.8316 Z0.2800
G01 X34.1192 Y1.8355 Z0.2800
G01 X33.4852 Y1.8398 Z0.2800
G01 X32.8511 Y1.8446 Z0.2800
G01 X32.8463 Y1.8446 Z0.2800
G01 X32.2181 Y1.8498 Z0.2800
G01 X32.2162 Y1.8499 Z0.2800
G01 X31.5833 Y1.8556 Z0.2800
G01 X30.9493 Y1.8618 Z0.2800
G01 X30.3153 Y1.8684 Z0.2800
G01 X29.6813 Y1.8754 Z0.2800
G01 X29.0474 Y1.8829 Z0.2800
G01 X28.4134 Y1.8909 Z0.2800
G01 X27.7794 Y1.8994 Z0.2800
G01 X27.7751 Y1.8994 Z0.2800
G01 X27.1455 Y1.9082 Z0.2800
G01 X26.5124 Y1.9175 Z0.2800
G01 X26.5113 Y1.9176 Z0.2800
G01 X25.8777 Y1.9274 Z0.2800
G01 X25.2437 Y1.9376 Z0.2800
G01 X24.6097 Y1.9483 Z0.2800
G01 X24.6068 Y1.9483 Z0.2800
G01 X24.6060 Y1.9483 Z0.2800
G01 X23.9759 Y1.9594 Z0.2800
G01 X23.3420 Y1.9711 Z0.2800
G01 X22.7091 Y1.9831 Z0.2800
G01 X22.7070 Y1.9831 Z0.2800
G01 X22.0742 Y1.9957 Z0.2800
G01 X21.4412 Y2.0087 Z0.2800
G01 X21.4381 Y2.0087 Z0.2800
G01 X21.4371 Y2.0087 Z0.2800
G01 X20.8065 Y2.0220 Z0.2800
G01 X20.1727 Y2.0359 Z0.2800
G01 X19.5398 Y2.0502 Z0.2800
G01 X19.5380 Y2.0503 Z0.2800
G01 X18.9060 Y2.0650 Z0.2800
G01 X18.9033 Y2.0650 Z0.2800
G01 X18.9021 Y2.0651 Z0.2800
G01 X18.2712 Y2.0802 Z0.2800
G01 X17.6374 Y2.0959 Z0.2800
G01 X17.0037 Y2.1120 Z0.2800
G01 X16.3698 Y2.1287 Z0.2800
G01 X15.7361 Y2.1457 Z0.2800
G01 X15.1035 Y2.1632 Z0.2800
G01 X15.1011 Y2.1632 Z0.2800
G01 X15.0996 Y2.1633 Z0.2800
G01 X14.4695 Y2.1811 Z0.2800
G01 X14.4677 Y2.1812 Z0.2800
G01 X13.8348 Y2.1996 Z0.2800
G01 X13.2020 Y2.2184 Z0.2800
G01 X13.2002 Y2.2184 Z0.2800
G01 X13.1986 Y2.2185 Z0.2800
G01 X12.5674 Y2.2377 Z0.2800
G01 X11.9348 Y2.2575 Z0.2800
G01 X11.9319 Y2.2576 Z0.2800
G01 X11.3005 Y2.2777 Z0.2800
G01 X11.2994 Y2.2778 Z0.2800
G01 X11.2977 Y2.2778 Z0.2800
G01 X10.6663 Y2.2984 Z0.2800
G01 X10.0337 Y2.3195 Z0.2800
G01 X10.0318 Y2.3196 Z0.2800
G01 X9.3993 Y2.3412 Z0.2800
G01 X9.3987 Y2.3412 Z0.2800
G01 X9.3970 Y2.3412 Z0.2800
G01 X8.7654 Y2.3632 Z0.2800
G01 X8.1321 Y2.3857 Z0.2800
G01 X7.4981 Y2.4086 Z0.2800
G01 X6.8645 Y2.4320 Z0.2800
G01 X6.8626 Y2.4320 Z0.2800
G01 X6.2323 Y2.4558 Z0.2800
G01 X6.2308 Y2.4559 Z0.2800
G01 X5.5975 Y2.4801 Z0.2800
G01 X4.9642 Y2.5049 Z0.2800
G01 X1.2304 Y2.6537 Z0.2800
G01 X1.1890 Y1.6142 Z0.2800
G01 X1.1890 Y1.6142 Z0.1400
G01 X4.9219 Y1.4654 Z0.1400
G01 X4.9247 Y1.4653 Z0.1400
G01 X5.5568 Y1.4405 Z0.1400
G01 X5.5585 Y1.4405 Z0.1400
G01 X6.1911 Y1.4162 Z0.1400
G01 X6.1918 Y1.4162 Z0.1400
G01 X6.8240 Y1.3924 Z0.1400
G01 X6.8251 Y1.3924 Z0.1400
G01 X6.8287 Y1.3922 Z0.1400
G01 X7.4596 Y1.3689 Z0.1400
G01 X7.4612 Y1.3689 Z0.1400
G01 X8.0934 Y1.3460 Z0.1400
G01 X8.0962 Y1.3459 Z0.1400
G01 X8.7277 Y1.3235 Z0.1400
G01 X8.7287 Y1.3234 Z0.1400
G01 X8.7299 Y1.3234 Z0.1400
G01 X9.3610 Y1.3014 Z0.1400
G01 X9.3629 Y1.3014 Z0.1400
G01 X9.3664 Y1.3012 Z0.1400
G01 X9.9972 Y1.2798 Z0.1400
G01 X9.9992 Y1.2797 Z0.1400
G01 X10.6307 Y1.2586 Z0.1400
G01 X10.6319 Y1.2586 Z0.1400
G01 X10.6332 Y1.2585 Z0.1400
G01 X11.2639 Y1.2380 Z0.1400
G01 X11.2662 Y1.2379 Z0.1400
G01 X11.2698 Y1.2378 Z0.1400
G01 X11.9003 Y1.2176 Z0.1400
G01 X11.9020 Y1.2176 Z0.1400
G01 X11.9029 Y1.2175 Z0.1400
G01 X12.5338 Y1.1979 Z0.1400
G01 X12.5355 Y1.1978 Z0.1400
G01 X12.5364 Y1.1978 Z0.1400
G01 X13.1689 Y1.1785 Z0.1400
G01 X13.1699 Y1.1785 Z0.1400
G01 X13.1723 Y1.1784 Z0.1400
G01 X13.8037 Y1.1596 Z0.1400
G01 X13.8046 Y1.1596 Z0.1400
G01 X13.8054 Y1.1596 Z0.1400
G01 X14.4383 Y1.1412 Z0.1400
G01 X14.4394 Y1.1412 Z0.1400
G01 X15.0722 Y1.1233 Z0.1400
G01 X15.0735 Y1.1233 Z0.1400
G01 X15.0760 Y1.1231 Z0.1400
G01 X15.7072 Y1.1057 Z0.1400
G01 X15.7083 Y1.1057 Z0.1400
G01 X16.3417 Y1.0887 Z0.1400
G01 X16.3429 Y1.0886 Z0.1400
G01 X16.9755 Y1.0720 Z0.1400
G01 X16.9787 Y1.0719 Z0.1400
G01 X17.6108 Y1.0558 Z0.1400
G01 X17.6122 Y1.0558 Z0.1400
G01 X18.2453 Y1.0401 Z0.1400
G01 X18.2469 Y1.0401 Z0.1400
G01 X18.8786 Y1.0250 Z0.1400
G01 X18.8813 Y1.0249 Z0.1400
G01 X18.8838 Y1.0248 Z0.1400
G01 X19.5145 Y1.0101 Z0.1400
G01 X19.5163 Y1.0100 Z0.1400
G01 X20.1473 Y0.9958 Z0.1400
G01 X20.1479 Y0.9958 Z0.1400
G01 X20.1506 Y0.9957 Z0.1400
G01 X20.7837 Y0.9818 Z0.1400
G01 X20.7853 Y0.9818 Z0.1400
G01 X21.4165 Y0.9685 Z0.1400
G01 X21.4200 Y0.9685 Z0.1400
G01 X21.4225 Y0.9683 Z0.1400
G01 X22.0509 Y0.9555 Z0.1400
G01 X22.0519 Y0.9555 Z0.1400
G01 X22.0543 Y0.9554 Z0.1400
G01 X22.6875 Y0.9429 Z0.1400
G01 X22.6906 Y0.9428 Z0.1400
G01 X23.3201 Y0.9309 Z0.1400
G01 X23.3215 Y0.9309 Z0.1400
G01 X23.3238 Y0.9308 Z0.1400
G01 X23.9568 Y0.9192 Z0.1400
G01 X23.9587 Y0.9192 Z0.1400
G01 X24.5914 Y0.9081 Z0.1400
G01 X24.5936 Y0.9081 Z0.1400
G01 X24.5945 Y0.9080 Z0.1400
G01 X25.2261 Y0.8974 Z0.1400
G01 X25.2275 Y0.8974 Z0.1400
G01 X25.8608 Y0.8871 Z0.1400
G01 X25.8624 Y0.8871 Z0.1400
G01 X26.4955 Y0.8774 Z0.1400
G01 X26.4970 Y0.8773 Z0.1400
G01 X27.1300 Y0.8679 Z0.1400
G01 X27.1323 Y0.8679 Z0.1400
G01 X27.7648 Y0.8591 Z0.1400
G01 X27.7675 Y0.8590 Z0.1400
G01 X27.7683 Y0.8590 Z0.1400
G01 X28.3996 Y0.8506 Z0.1400
G01 X28.4007 Y0.8506 Z0.1400
G01 X29.0342 Y0.8426 Z0.1400
G01 X29.0355 Y0.8426 Z0.1400
G01 X29.6689 Y0.8351 Z0.1400
G01 X29.6704 Y0.8351 Z0.1400
G01 X30.3037 Y0.8281 Z0.1400
G01 X30.3052 Y0.8281 Z0.1400
G01 X30.9383 Y0.8214 Z0.1400
G01 X30.9403 Y0.8214 Z0.1400
G01 X31.5731 Y0.8153 Z0.1400
G01 X31.5758 Y0.8153 Z0.1400
G01 X32.2077 Y0.8096 Z0.1400
G01 X32.2096 Y0.8095 Z0.1400
G01 X32.8425 Y0.8043 Z0.1400
G01 X32.8458 Y0.8042 Z0.1400
G01 X32.8463 Y0.8042 Z0.1400
G01 X33.4772 Y0.7994 Z0.1400
G01 X33.4780 Y0.7994 Z0.1400
G01 X34.1120 Y0.7951 Z0.1400
G01 X34.1127 Y0.7951 Z0.1400
G01 X34.7466 Y0.7912 Z0.1400
G01 X34.7475 Y0.7912 Z0.1400
G01 X35.3814 Y0.7878 Z0.1400
G01 X35.3822 Y0.7878 Z0.1400
G01 X36.0162 Y0.7848 Z0.1400
G01 X36.0169 Y0.7848 Z0.1400
G01 X36.6509 Y0.7823 Z0.1400
G01 X36.6516 Y0.7823 Z0.1400
G01 X37.2856 Y0.7802 Z0.1400
G01 X37.2864 Y0.7802 Z0.1400
G01 X37.9204 Y0.7786 Z0.1400
G01 X37.9211 Y0.7786 Z0.1400
G01 X38.5551 Y0.7774 Z0.1400
G01 X38.5559 Y0.7774 Z0.1400
G01 X39.1900 Y0.7767 Z0.1400
G01 X39.1906 Y0.7767 Z0.1400
G01 X39.8246 Y0.7764 Z0.1400
G01 X39.8254 Y0.7764 Z0.1400
G01 X40.4594 Y0.7766 Z0.1400
G01 X40.4601 Y0.7766 Z0.1400
G01 X41.0941 Y0.7772 Z0.1400
G01 X41.0949 Y0.7772 Z0.1400
G01 X41.7289 Y0.7783 Z0.1400
G01 X41.7297 Y0.7783 Z0.1400
G01 X42.3637 Y0.7799 Z0.1400
G01 X42.3644 Y0.7799 Z0.1400
G01 X42.9984 Y0.7819 Z0.1400
G01 X42.9991 Y0.7819 Z0.1400
G01 X43.6331 Y0.7844 Z0.1400
G01 X43.6339 Y0.7844 Z0.1400
G01 X44.2679 Y0.7873 Z0.1400
G01 X44.2685 Y0.7873 Z0.1400
G01 X44.9025 Y0.7907 Z0.1400
G01 X44.9033 Y0.7907 Z0.1400
G01 X45.5373 Y0.7945 Z0.1400
G01 X45.5381 Y0.7945 Z0.1400
G01 X46.1721 Y0.7988 Z0.1400
G01 X46.1728 Y0.7988 Z0.1400
G01 X46.8037 Y0.8035 Z0.1400
G01 X46.8042 Y0.8035 Z0.1400
G01 X46.8075 Y0.8035 Z0.1400
G01 X47.4409 Y0.8087 Z0.1400
G01 X47.4423 Y0.8088 Z0.1400
G01 X48.0740 Y0.8144 Z0.1400
G01 X48.0770 Y0.8144 Z0.1400
G01 X48.7097 Y0.8205 Z0.1400
G01 X48.7118 Y0.8205 Z0.1400
G01 X49.3447 Y0.8270 Z0.1400
G01 X49.3464 Y0.8270 Z0.1400
G01 X49.9797 Y0.8340 Z0.1400
G01 X49.9811 Y0.8340 Z0.1400
G01 X50.6144 Y0.8415 Z0.1400
G01 X50.6159 Y0.8415 Z0.1400
G01 X51.2494 Y0.8494 Z0.1400
G01 X51.2505 Y0.8494 Z0.1400
G01 X51.8818 Y0.8577 Z0.1400
G01 X51.8825 Y0.8577 Z0.1400
G01 X51.8852 Y0.8578 Z0.1400
G01 X52.5178 Y0.8666 Z0.1400
G01 X52.5200 Y0.8666 Z0.1400
G01 X53.1533 Y0.8759 Z0.1400
G01 X53.1546 Y0.8759 Z0.1400
G01 X53.7875 Y0.8856 Z0.1400
G01 X53.7894 Y0.8856 Z0.1400
G01 X54.4226 Y0.8958 Z0.1400
G01 X54.4239 Y0.8958 Z0.1400
G01 X55.0573 Y0.9064 Z0.1400
G01 X55.0585 Y0.9064 Z0.1400
G01 X55.6902 Y0.9175 Z0.1400
G01 X55.6911 Y0.9175 Z0.1400
G01 X55.6946 Y0.9175 Z0.1400
G01 X55.6954 Y0.9175 Z0.1400
G01 X56.3261 Y0.9290 Z0.1400
G01 X56.3283 Y0.9291 Z0.1400
G01 X56.3300 Y0.9291 Z0.1400
G01 X56.9604 Y0.9410 Z0.1400
G01 X56.9625 Y0.9411 Z0.1400
G01 X57.5957 Y0.9535 Z0.1400
G01 X57.5981 Y0.9536 Z0.1400
G01 X57.5991 Y0.9536 Z0.1400
G01 X58.2276 Y0.9664 Z0.1400
G01 X58.2300 Y0.9665 Z0.1400
G01 X58.2336 Y0.9665 Z0.1400
G01 X58.8647 Y0.9798 Z0.1400
G01 X58.8673 Y0.9799 Z0.1400
G01 X58.8681 Y0.9799 Z0.1400
G01 X59.4992 Y0.9936 Z0.1400
G01 X59.5011 Y0.9936 Z0.1400
G01 X60.1340 Y1.0079 Z0.1400
G01 X60.1355 Y1.0079 Z0.1400
G01 X60.7661 Y1.0225 Z0.1400
G01 X60.7687 Y1.0227 Z0.1400
G01 X60.7715 Y1.0227 Z0.1400
G01 X61.4033 Y1.0379 Z0.1400
G01 X61.4062 Y1.0379 Z0.1400
G01 X62.0375 Y1.0534 Z0.1400
G01 X62.0393 Y1.0535 Z0.1400
G01 X62.6722 Y1.0695 Z0.1400
G01 X62.6742 Y1.0696 Z0.1400
G01 X63.3064 Y1.0861 Z0.1400
G01 X63.3073 Y1.0861 Z0.1400
G01 X63.3084 Y1.0861 Z0.1400
G01 X63.9414 Y1.1031 Z0.1400
G01 X63.9429 Y1.1031 Z0.1400
G01 X64.5759 Y1.1206 Z0.1400
G01 X64.5783 Y1.1206 Z0.1400
G01 X65.2099 Y1.1384 Z0.1400
G01 X65.2125 Y1.1385 Z0.1400
G01 X65.8448 Y1.1568 Z0.1400
G01 X65.8453 Y1.1568 Z0.1400
G01 X65.8463 Y1.1569 Z0.1400
G01 X66.4778 Y1.1756 Z0.1400
G01 X66.4801 Y1.1757 Z0.1400
G01 X66.4812 Y1.1757 Z0.1400
G01 X67.1136 Y1.1949 Z0.1400
G01 X67.1146 Y1.1949 Z0.1400
G01 X67.1164 Y1.1950 Z0.1400
G01 X70.8547 Y1.3112 Z0.1400
G01 X70.8223 Y2.3512 Z0.1400
G01 X67.0830 Y2.2348 Z0.1400
G01 X66.4516 Y2.2156 Z0.1400
G01 X66.4500 Y2.2156 Z0.1400
G01 X66.4483 Y2.2155 Z0.1400
G01 X65.8155 Y2.1968 Z0.1400
G01 X65.1818 Y2.1785 Z0.1400
G01 X64.5480 Y2.1606 Z0.1400
G01 X63.9142 Y2.1431 Z0.1400
G01 X63.2805 Y2.1261 Z0.1400
G01 X62.6467 Y2.1096 Z0.1400
G01 X62.0129 Y2.0935 Z0.1400
G01 X61.3790 Y2.0779 Z0.1400
G01 X60.7481 Y2.0628 Z0.1400
G01 X60.7469 Y2.0628 Z0.1400
G01 X60.7441 Y2.0627 Z0.1400
G01 X60.1120 Y2.0481 Z0.1400
G01 X60.1105 Y2.0480 Z0.1400
G01 X59.4776 Y2.0338 Z0.1400
G01 X58.8437 Y2.0200 Z0.1400
G01 X58.2131 Y2.0067 Z0.1400
G01 X58.2120 Y2.0067 Z0.1400
G01 X58.2089 Y2.0066 Z0.1400
G01 X57.5760 Y1.9938 Z0.1400
G01 X56.9446 Y1.9814 Z0.1400
G01 X56.9411 Y1.9813 Z0.1400
G01 X56.3082 Y1.9693 Z0.1400
G01 X55.6778 Y1.9578 Z0.1400
G01 X55.6770 Y1.9578 Z0.1400
G01 X55.6744 Y1.9577 Z0.1400
G01 X55.0404 Y1.9467 Z0.1400
G01 X54.4065 Y1.9361 Z0.1400
G01 X53.7726 Y1.9259 Z0.1400
G01 X53.1393 Y1.9162 Z0.1400
G01 X53.1378 Y1.9161 Z0.1400
G01 X52.5047 Y1.9068 Z0.1400
G01 X51.8750 Y1.8981 Z0.1400
G01 X51.8708 Y1.8981 Z0.1400
G01 X51.2368 Y1.8897 Z0.1400
G01 X50.6029 Y1.8818 Z0.1400
G01 X49.9689 Y1.8744 Z0.1400
G01 X49.3350 Y1.8674 Z0.1400
G01 X48.7010 Y1.8608 Z0.1400
G01 X48.0670 Y1.8547 Z0.1400
G01 X47.4339 Y1.8491 Z0.1400
G01 X47.4321 Y1.8490 Z0.1400
G01 X46.8038 Y1.8439 Z0.1400
G01 X46.7990 Y1.8439 Z0.1400
G01 X46.1650 Y1.8392 Z0.1400
G01 X45.5310 Y1.8349 Z0.1400
G01 X44.8971 Y1.8311 Z0.1400
G01 X44.2631 Y1.8277 Z0.1400
G01 X43.6291 Y1.8248 Z0.1400
G01 X42.9951 Y1.8223 Z0.1400
G01 X42.3611 Y1.8203 Z0.1400
G01 X41.7271 Y1.8187 Z0.1400
G01 X41.0931 Y1.8176 Z0.1400
G01 X40.4591 Y1.8170 Z0.1400
G01 X39.8251 Y1.8168 Z0.1400
G01 X39.1912 Y1.8171 Z0.1400
G01 X38.5571 Y1.8178 Z0.1400
G01 X37.9231 Y1.8190 Z0.1400
G01 X37.2892 Y1.8206 Z0.1400
G01 X36.6551 Y1.8227 Z0.1400
G01 X36.0212 Y1.8252 Z0.1400
G01 X35.3871 Y1.8282 Z0.1400
G01 X34.7532 Y1.8316 Z0.1400
G01 X34.1192 Y1.8355 Z0.1400
G01 X33.4852 Y1.8398 Z0.1400
G01 X32.8511 Y1.8446 Z0.1400
G01 X32.8463 Y1.8446 Z0.1400
G01 X32.2181 Y1.8498 Z0.1400
G01 X32.2162 Y1.8499 Z0.1400
G01 X31.5833 Y1.8556 Z0.1400
G01 X30.9493 Y1.8618 Z0.1400
G01 X30.3153 Y1.8684 Z0.1400
G01 X29.6813 Y1.8754 Z0.1400
G01 X29.0474 Y1.8829 Z0.1400
G01 X28.4134 Y1.8909 Z0.1400
G01 X27.7794 Y1.8994 Z0.1400
G01 X27.7751 Y1.8994 Z0.1400
G01 X27.1455 Y1.9082 Z0.1400
G01 X26.5124 Y1.9175 Z0.1400
G01 X26.5113 Y1.9176 Z0.1400
G01 X25.8777 Y1.9274 Z0.1400
G01 X25.2437 Y1.9376 Z0.1400
G01 X24.6097 Y1.9483 Z0.1400
G01 X24.6068 Y1.9483 Z0.1400
G01 X24.6060 Y1.9483 Z0.1400
G01 X23.9759 Y1.9594 Z0.1400
G01 X23.3420 Y1.9711 Z0.1400
G01 X22.7091 Y1.9831 Z0.1400
G01 X22.7070 Y1.9831 Z0.1400
G01 X22.0742 Y1.9957 Z0.1400
G01 X21.4412 Y2.0087 Z0.1400
G01 X21.4381 Y2.0087 Z0.1400
G01 X21.4371 Y2.0087 Z0.1400
G01 X20.8065 Y2.0220 Z0.1400
G01 X20.1727 Y2.0359 Z0.1400
G01 X19.5398 Y2.0502 Z0.1400
G01 X19.5380 Y2.0503 Z0.1400
G01 X18.9060 Y2.0650 Z0.1400
G01 X18.9033 Y2.0650 Z0.1400
G01 X18.9021 Y2.0651 Z0.1400
G01 X18.2712 Y2.0802 Z0.1400
G01 X17.6374 Y2.0959 Z0.1400
G01 X17.0037 Y2.1120 Z0.1400
G01 X16.3698 Y2.1287 Z0.1400
G01 X15.7361 Y2.1457 Z0.1400
G01 X15.1035 Y2.1632 Z0.1400
G01 X15.1011 Y2.1632 Z0.1400
G01 X15.0996 Y2.1633 Z0.1400
G01 X14.4695 Y2.1811 Z0.1400
G01 X14.4677 Y2.1812 Z0.1400
G01 X13.8348 Y2.1996 Z0.1400
G01 X13.2020 Y2.2184 Z0.1400
G01 X13.2002 Y2.2184 Z0.1400
G01 X13.1986 Y2.2185 Z0.1400
G01 X12.5674 Y2.2377 Z0.1400
G01 X11.9348 Y2.2575 Z0.1400
G01 X11.9319 Y2.2576 Z0.1400
G01 X11.3005 Y2.2777 Z0.1400
G01 X11.2994 Y2.2778 Z0.1400
G01 X11.2977 Y2.2778 Z0.1400
G01 X10.6663 Y2.2984 Z0.1400
G01 X10.0337 Y2.3195 Z0.1400
G01 X10.0318 Y2.3196 Z0.1400
G01 X9.3993 Y2.3412 Z0.1400
G01 X9.3987 Y2.3412 Z0.1400
G01 X9.3970 Y2.3412 Z0.1400
G01 X8.7654 Y2.3632 Z0.1400
G01 X8.1321 Y2.3857 Z0.1400
G01 X7.4981 Y2.4086 Z0.1400
G01 X6.8645 Y2.4320 Z0.1400
G01 X6.8626 Y2.4320 Z0.1400
G01 X6.2323 Y2.4558 Z0.1400
G01 X6.2308 Y2.4559 Z0.1400
G01 X5.5975 Y2.4801 Z0.1400
G01 X4.9642 Y2.5049 Z0.1400
G01 X1.2304 Y2.6537 Z0.1400
G01 X1.1890 Y1.6142 Z0.1400
G01 X1.1890 Y1.6142 Z0.0000
G01 X4.9219 Y1.4654 Z0.0000
G01 X4.9247 Y1.4653 Z0.0000
G01 X5.5568 Y1.4405 Z0.0000
G01 X5.5585 Y1.4405 Z0.0000
G01 X6.1911 Y1.4162 Z0.0000
G01 X6.1918 Y1.4162 Z0.0000
G01 X6.8240 Y1.3924 Z0.0000
G01 X6.8251 Y1.3924 Z0.0000
G01 X6.8287 Y1.3922 Z0.0000
G01 X7.4596 Y1.3689 Z0.0000
G01 X7.4612 Y1.3689 Z0.0000
G01 X8.0934 Y1.3460 Z0.0000
G01 X8.0962 Y1.3459 Z0.0000
G01 X8.7277 Y1.3235 Z0.0000
G01 X8.7287 Y1.3234 Z0.0000
G01 X8.7299 Y1.3234 Z0.0000
G01 X9.3610 Y1.3014 Z0.0000
G01 X9.3629 Y1.3014 Z0.0000
G01 X9.3664 Y1.3012 Z0.0000
G01 X9.9972 Y1.2798 Z0.0000
G01 X9.9992 Y1.2797 Z0.0000
G01 X10.6307 Y1.2586 Z0.0000
G01 X10.6319 Y1.2586 Z0.0000
G01 X10.6332 Y1.2585 Z0.0000
G01 X11.2639 Y1.2380 Z0.0000
G01 X11.2662 Y1.2379 Z0.0000
G01 X11.2698 Y1.2378 Z0.0000
G01 X11.9003 Y1.2176 Z0.0000
G01 X11.9020 Y1.2176 Z0.0000
G01 X11.9029 Y1.2175 Z0.0000
G01 X12.5338 Y1.1979 Z0.0000
G01 X12.5355 Y1.1978 Z0.0000
G01 X12.5364 Y1.1978 Z0.0000
G01 X13.1689 Y1.1785 Z0.0000
G01 X13.1699 Y1.1785 Z0.0000
G01 X13.1723 Y1.1784 Z0.0000
G01 X13.8037 Y1.1596 Z0.0000
G01 X13.8046 Y1.1596 Z0.0000
G01 X13.8054 Y1.1596 Z0.0000
G01 X14.4383 Y1.1412 Z0.0000
G01 X14.4394 Y1.1412 Z0.0000
G01 X15.0722 Y1.1233 Z0.0000
G01 X15.0735 Y1.1233 Z0.0000
G01 X15.0760 Y1.1231 Z0.0000
G01 X15.7072 Y1.1057 Z0.0000
G01 X15.7083 Y1.1057 Z0.0000
G01 X16.3417 Y1.0887 Z0.0000
G01 X16.3429 Y1.0886 Z0.0000
G01 X16.9755 Y1.0720 Z0.0000
G01 X16.9787 Y1.0719 Z0.0000
G01 X17.6108 Y1.0558 Z0.0000
G01 X17.6122 Y1.0558 Z0.0000
G01 X18.2453 Y1.0401 Z0.0000
G01 X18.2469 Y1.0401 Z0.0000
G01 X18.8786 Y1.0250 Z0.0000
G01 X18.8813 Y1.0249 Z0.0000
G01 X18.8838 Y1.0248 Z0.0000
G01 X19.5145 Y1.0101 Z0.0000
G01 X19.5163 Y1.0100 Z0.0000
G01 X20.1473 Y0.9958 Z0.0000
G01 X20.1479 Y0.9958 Z0.0000
G01 X20.1506 Y0.9957 Z0.0000
G01 X20.7837 Y0.9818 Z0.0000
G01 X20.7853 Y0.9818 Z0.0000
G01 X21.4165 Y0.9685 Z0.0000
G01 X21.4200 Y0.9685 Z0.0000
G01 X21.4225 Y0.9683 Z0.0000
G01 X22.0509 Y0.9555 Z0.0000
G01 X22.0519 Y0.9555 Z0.0000
G01 X22.0543 Y0.9554 Z0.0000
G01 X22.6875 Y0.9429 Z0.0000
G01 X22.6906 Y0.9428 Z0.0000
G01 X23.3201 Y0.9309 Z0.0000
G01 X23.3215 Y0.9309 Z0.0000
G01 X23.3238 Y0.9308 Z0.0000
G01 X23.9568 Y0.9192 Z0.0000
G01 X23.9587 Y0.9192 Z0.0000
G01 X24.5914 Y0.9081 Z0.0000
G01 X24.5936 Y0.9081 Z0.0000
G01 X24.5945 Y0.9080 Z0.0000
G01 X25.2261 Y0.8974 Z0.0000
G01 X25.2275 Y0.8974 Z0.0000
G01 X25.8608 Y0.8871 Z0.0000
G01 X25.8624 Y0.8871 Z0.0000
G01 X26.4955 Y0.8774 Z0.0000
G01 X26.4970 Y0.8773 Z0.0000
G01 X27.1300 Y0.8679 Z0.0000
G01 X27.1323 Y0.8679 Z0.0000
G01 X27.7648 Y0.8591 Z0.0000
G01 X27.7675 Y0.8590 Z0.0000
G01 X27.7683 Y0.8590 Z0.0000
G01 X28.3996 Y0.8506 Z0.0000
G01 X28.4007 Y0.8506 Z0.0000
G01 X29.0342 Y0.8426 Z0.0000
G01 X29.0355 Y0.8426 Z0.0000
G01 X29.6689 Y0.8351 Z0.0000
G01 X29.6704 Y0.8351 Z0.0000
G01 X30.3037 Y0.8281 Z0.0000
G01 X30.3052 Y0.8281 Z0.0000
G01 X30.9383 Y0.8214 Z0.0000
G01 X30.9403 Y0.8214 Z0.0000
G01 X31.5731 Y0.8153 Z0.0000
G01 X31.5758 Y0.8153 Z0.0000
G01 X32.2077 Y0.8096 Z0.0000
G01 X32.2096 Y0.8095 Z0.0000
G01 X32.8425 Y0.8043 Z0.0000
G01 X32.8458 Y0.8042 Z0.0000
G01 X32.8463 Y0.8042 Z0.0000
G01 X33.4772 Y0.7994 Z0.0000
G01 X33.4780 Y0.7994 Z0.0000
G01 X34.1120 Y0.7951 Z0.0000
G01 X34.1127 Y0.7951 Z0.0000
G01 X34.7466 Y0.7912 Z0.0000
G01 X34.7475 Y0.7912 Z0.0000
G01 X35.3814 Y0.7878 Z0.0000
G01 X35.3822 Y0.7878 Z0.0000
G01 X36.0162 Y0.7848 Z0.0000
G01 X36.0169 Y0.7848 Z0.0000
G01 X36.6509 Y0.7823 Z0.0000
G01 X36.6516 Y0.7823 Z0.0000
G01 X37.2856 Y0.7802 Z0.0000
G01 X37.2864 Y0.7802 Z0.0000
G01 X37.9204 Y0.7786 Z0.0000
G01 X37.9211 Y0.7786 Z0.0000
G01 X38.5551 Y0.7774 Z0.0000
G01 X38.5559 Y0.7774 Z0.0000
G01 X39.1900 Y0.7767 Z0.0000
G01 X39.1906 Y0.7767 Z0.0000
G01 X39.8246 Y0.7764 Z0.0000
G01 X39.8254 Y0.7764 Z0.0000
G01 X40.4594 Y0.7766 Z0.0000
G01 X40.4601 Y0.7766 Z0.0000
G01 X41.0941 Y0.7772 Z0.0000
G01 X41.0949 Y0.7772 Z0.0000
G01 X41.7289 Y0.7783 Z0.0000
G01 X41.7297 Y0.7783 Z0.0000
G01 X42.3637 Y0.7799 Z0.0000
G01 X42.3644 Y0.7799 Z0.0000
G01 X42.9984 Y0.7819 Z0.0000
G01 X42.9991 Y0.7819 Z0.0000
G01 X43.6331 Y0.7844 Z0.0000
G01 X43.6339 Y0.7844 Z0.0000
G01 X44.2679 Y0.7873 Z0.0000
G01 X44.2685 Y0.7873 Z0.0000
G01 X44.9025 Y0.7907 Z0.0000
G01 X44.9033 Y0.7907 Z0.0000
G01 X45.5373 Y0.7945 Z0.0000
G01 X45.5381 Y0.7945 Z0.0000
G01 X46.1721 Y0.7988 Z0.0000
G01 X46.1728 Y0.7988 Z0.0000
G01 X46.8037 Y0.8035 Z0.0000
G01 X46.8042 Y0.8035 Z0.0000
G01 X46.8075 Y0.8035 Z0.0000
G01 X47.4409 Y0.8087 Z0.0000
G01 X47.4423 Y0.8088 Z0.0000
G01 X48.0740 Y0.8144 Z0.0000
G01 X48.0770 Y0.8144 Z0.0000
G01 X48.7097 Y0.8205 Z0.0000
G01 X48.7118 Y0.8205 Z0.0000
G01 X49.3447 Y0.8270 Z0.0000
G01 X49.3464 Y0.8270 Z0.0000
G01 X49.9797 Y0.8340 Z0.0000
G01 X49.9811 Y0.8340 Z0.0000
G01 X50.6144 Y0.8415 Z0.0000
G01 X50.6159 Y0.8415 Z0.0000
G01 X51.2494 Y0.8494 Z0.0000
G01 X51.2505 Y0.8494 Z0.0000
G01 X51.8818 Y0.8577 Z0.0000
G01 X51.8825 Y0.8577 Z0.0000
G01 X51.8852 Y0.8578 Z0.0000
G01 X52.5178 Y0.8666 Z0.0000
G01 X52.5200 Y0.8666 Z0.0000
G01 X53.1533 Y0.8759 Z0.0000
G01 X53.1546 Y0.8759 Z0.0000
G01 X53.7875 Y0.8856 Z0.0000
G01 X53.7894 Y0.8856 Z0.0000
G01 X54.4226 Y0.8958 Z0.0000
G01 X54.4239 Y0.8958 Z0.0000
G01 X55.0573 Y0.9064 Z0.0000
G01 X55.0585 Y0.9064 Z0.0000
G01 X55.6902 Y0.9175 Z0.0000
G01 X55.6911 Y0.9175 Z0.0000
G01 X55.6946 Y0.9175 Z0.0000
G01 X55.6954 Y0.9175 Z0.0000
G01 X56.3261 Y0.9290 Z0.0000
G01 X56.3283 Y0.9291 Z0.0000
G01 X56.3300 Y0.9291 Z0.0000
G01 X56.9604 Y0.9410 Z0.0000
G01 X56.9625 Y0.9411 Z0.0000
G01 X57.5957 Y0.9535 Z0.0000
G01 X57.5981 Y0.9536 Z0.0000
G01 X57.5991 Y0.9536 Z0.0000
G01 X58.2276 Y0.9664 Z0.0000
G01 X58.2300 Y0.9665 Z0.0000
G01 X58.2336 Y0.9665 Z0.0000
G01 X58.8647 Y0.9798 Z0.0000
G01 X58.8673 Y0.9799 Z0.0000
G01 X58.8681 Y0.9799 Z0.0000
G01 X59.4992 Y0.9936 Z0.0000
G01 X59.5011 Y0.9936 Z0.0000
G01 X60.1340 Y1.0079 Z0.0000
G01 X60.1355 Y1.0079 Z0.0000
G01 X60.7661 Y1.0225 Z0.0000
G01 X60.7687 Y1.0227 Z0.0000
G01 X60.7715 Y1.0227 Z0.0000
G01 X61.4033 Y1.0379 Z0.0000
G01 X61.4062 Y1.0379 Z0.0000
G01 X62.0375 Y1.0534 Z0.0000
G01 X62.0393 Y1.0535 Z0.0000
G01 X62.6722 Y1.0695 Z0.0000
G01 X62.6742 Y1.0696 Z0.0000
G01 X63.3064 Y1.0861 Z0.0000
G01 X63.3073 Y1.0861 Z0.0000
G01 X63.3084 Y1.0861 Z0.0000
G01 X63.9414 Y1.1031 Z0.0000
G01 X63.9429 Y1.1031 Z0.0000
G01 X64.5759 Y1.1206 Z0.0000
G01 X64.5783 Y1.1206 Z0.0000
G01 X65.2099 Y1.1384 Z0.0000
G01 X65.2125 Y1.1385 Z0.0000
G01 X65.8448 Y1.1568 Z0.0000
G01 X65.8453 Y1.1568 Z0.0000
G01 X65.8463 Y1.1569 Z0.0000
G01 X66.4778 Y1.1756 Z0.0000
G01 X66.4801 Y1.1757 Z0.0000
G01 X66.4812 Y1.1757 Z0.0000
G01 X67.1136 Y1.1949 Z0.0000
G01 X67.1146 Y1.1949 Z0.0000
G01 X67.1164 Y1.1950 Z0.0000
G01 X70.8547 Y1.3112 Z0.0000
G01 X70.8223 Y2.3512 Z0.0000
G01 X67.0830 Y2.2348 Z0.0000
G01 X66.4516 Y2.2156 Z0.0000
G01 X66.4500 Y2.2156 Z0.0000
G01 X66.4483 Y2.2155 Z0.0000
G01 X65.8155 Y2.1968 Z0.0000
G01 X65.1818 Y2.1785 Z0.0000
G01 X64.5480 Y2.1606 Z0.0000
G01 X63.9142 Y2.1431 Z0.0000
G01 X63.2805 Y2.1261 Z0.0000
G01 X62.6467 Y2.1096 Z0.0000
G01 X62.0129 Y2.0935 Z0.0000
G01 X61.3790 Y2.0779 Z0.0000
G01 X60.7481 Y2.0628 Z0.0000
G01 X60.7469 Y2.0628 Z0.0000
G01 X60.7441 Y2.0627 Z0.0000
G01 X60.1120 Y2.0481 Z0.0000
G01 X60.1105 Y2.0480 Z0.0000
G01 X59.4776 Y2.0338 Z0.0000
G01 X58.8437 Y2.0200 Z0.0000
G01 X58.2131 Y2.0067 Z0.0000
G01 X58.2120 Y2.0067 Z0.0000
G01 X58.2089 Y2.0066 Z0.0000
G01 X57.5760 Y1.9938 Z0.0000
G01 X56.9446 Y1.9814 Z0.0000
G01 X56.9411 Y1.9813 Z0.0000
G01 X56.3082 Y1.9693 Z0.0000
G01 X55.6778 Y1.9578 Z0.0000
G01 X55.6770 Y1.9578 Z0.0000
G01 X55.6744 Y1.9577 Z0.0000
G01 X55.0404 Y1.9467 Z0.0000
G01 X54.4065 Y1.9361 Z0.0000
G01 X53.7726 Y1.9259 Z0.0000
G01 X53.1393 Y1.9162 Z0.0000
G01 X53.1378 Y1.9161 Z0.0000
G01 X52.5047 Y1.9068 Z0.0000
G01 X51.8750 Y1.8981 Z0.0000
G01 X51.8708 Y1.8981 Z0.0000
G01 X51.2368 Y1.8897 Z0.0000
G01 X50.6029 Y1.8818 Z0.0000
G01 X49.9689 Y1.8744 Z0.0000
G01 X49.3350 Y1.8674 Z0.0000
G01 X48.7010 Y1.8608 Z0.0000
G01 X48.0670 Y1.8547 Z0.0000
G01 X47.4339 Y1.8491 Z0.0000
G01 X47.4321 Y1.8490 Z0.0000
G01 X46.8038 Y1.8439 Z0.0000
G01 X46.7990 Y1.8439 Z0.0000
G01 X46.1650 Y1.8392 Z0.0000
G01 X45.5310 Y1.8349 Z0.0000
G01 X44.8971 Y1.8311 Z0.0000
G01 X44.2631 Y1.8277 Z0.0000
G01 X43.6291 Y1.8248 Z0.0000
G01 X42.9951 Y1.8223 Z0.0000
G01 X42.3611 Y1.8203 Z0.0000
G01 X41.7271 Y1.8187 Z0.0000
G01 X41.0931 Y1.8176 Z0.0000
G01 X40.4591 Y1.8170 Z0.0000
G01 X39.8251 Y1.8168 Z0.0000
G01 X39.1912 Y1.8171 Z0.0000
G01 X38.5571 Y1.8178 Z0.0000
G01 X37.9231 Y1.8190 Z0.0000
G01 X37.2892 Y1.8206 Z0.0000
G01 X36.6551 Y1.8227 Z0.0000
G01 X36.0212 Y1.8252 Z0.0000
G01 X35.3871 Y1.8282 Z0.0000
G01 X34.7532 Y1.8316 Z0.0000
G01 X34.1192 Y1.8355 Z0.0000
G01 X33.4852 Y1.8398 Z0.0000
G01 X32.8511 Y1.8446 Z0.0000
G01 X32.8463 Y1.8446 Z0.0000
G01 X32.2181 Y1.8498 Z0.0000
G01 X32.2162 Y1.8499 Z0.0000
G01 X31.5833 Y1.8556 Z0.0000
G01 X30.9493 Y1.8618 Z0.0000
G01 X30.3153 Y1.8684 Z0.0000
G01 X29.6813 Y1.8754 Z0.0000
G01 X29.0474 Y1.8829 Z0.0000
G01 X28.4134 Y1.8909 Z0.0000
G01 X27.7794 Y1.8994 Z0.0000
G01 X27.7751 Y1.8994 Z0.0000
G01 X27.1455 Y1.9082 Z0.0000
G01 X26.5124 Y1.9175 Z0.0000
G01 X26.5113 Y1.9176 Z0.0000
G01 X25.8777 Y1.9274 Z0.0000
G01 X25.2437 Y1.9376 Z0.0000
G01 X24.6097 Y1.9483 Z0.0000
G01 X24.6068 Y1.9483 Z0.0000
G01 X24.6060 Y1.9483 Z0.0000
G01 X23.9759 Y1.9594 Z0.0000
G01 X23.3420 Y1.9711 Z0.0000
G01 X22.7091 Y1.9831 Z0.0000
G01 X22.7070 Y1.9831 Z0.0000
G01 X22.0742 Y1.9957 Z0.0000
G01 X21.4412 Y2.0087 Z0.0000
G01 X21.4381 Y2.0087 Z0.0000
G01 X21.4371 Y2.0087 Z0.0000
G01 X20.8065 Y2.0220 Z0.0000
G01 X20.1727 Y2.0359 Z0.0000
G01 X19.5398 Y2.0502 Z0.0000
G01 X19.5380 Y2.0503 Z0.0000
G01 X18.9060 Y2.0650 Z0.0000
G01 X18.9033 Y2.0650 Z0.0000
G01 X18.9021 Y2.0651 Z0.0000
G01 X18.2712 Y2.0802 Z0.0000
G01 X17.6374 Y2.0959 Z0.0000
G01 X17.0037 Y2.1120 Z0.0000
G01 X16.3698 Y2.1287 Z0.0000
G01 X15.7361 Y2.1457 Z0.0000
G01 X15.1035 Y2.1632 Z0.0000
G01 X15.1011 Y2.1632 Z0.0000
G01 X15.0996 Y2.1633 Z0.0000
G01 X14.4695 Y2.1811 Z0.0000
G01 X14.4677 Y2.1812 Z0.0000
G01 X13.8348 Y2.1996 Z0.0000
G01 X13.2020 Y2.2184 Z0.0000
G01 X13.2002 Y2.2184 Z0.0000
G01 X13.1986 Y2.2185 Z0.0000
G01 X12.5674 Y2.2377 Z0.0000
G01 X11.9348 Y2.2575 Z0.0000
G01 X11.9319 Y2.2576 Z0.0000
G01 X11.3005 Y2.2777 Z0.0000
G01 X11.2994 Y2.2778 Z0.0000
G01 X11.2977 Y2.2778 Z0.0000
G01 X10.6663 Y2.2984 Z0.0000
G01 X10.0337 Y2.3195 Z0.0000
G01 X10.0318 Y2.3196 Z0.0000
G01 X9.3993 Y2.3412 Z0.0000
G01 X9.3987 Y2.3412 Z0.0000
G01 X9.3970 Y2.3412 Z0.0000
G01 X8.7654 Y2.3632 Z0.0000
G01 X8.1321 Y2.3857 Z0.0000
G01 X7.4981 Y2.4086 Z0.0000
G01 X6.8645 Y2.4320 Z0.0000
G01 X6.8626 Y2.4320 Z0.0000
G01 X6.2323 Y2.4558 Z0.0000
G01 X6.2308 Y2.4559 Z0.0000
G01 X5.5975 Y2.4801 Z0.0000
G01 X4.9642 Y2.5049 Z0.0000
G01 X1.2304 Y2.6537 Z0.0000
G01 X1.1890 Y1.6142 Z0.0000
G00 X1.1890 Y1.6142 Z0.6000
G00 X1.1890 Y-1.6142 Z0.6000
G01 X1.1890 Y-1.6142 Z0.2800
G01 X1.2304 Y-2.6537 Z0.2800
G01 X4.9639 Y-2.5049 Z0.2800
G01 X5.5974 Y-2.4801 Z0.2800
G01 X6.2308 Y-2.4559 Z0.2800
G01 X6.2323 Y-2.4558 Z0.2800
G01 X6.8626 Y-2.4320 Z0.2800
G01 X6.8645 Y-2.4320 Z0.2800
G01 X7.4981 Y-2.4086 Z0.2800
G01 X8.1317 Y-2.3857 Z0.2800
G01 X8.7653 Y-2.3632 Z0.2800
G01 X9.3970 Y-2.3412 Z0.2800
G01 X9.3987 Y-2.3412 Z0.2800
G01 X9.3993 Y-2.3412 Z0.2800
G01 X10.0318 Y-2.3196 Z0.2800
G01 X10.0337 Y-2.3195 Z0.2800
G01 X10.6662 Y-2.2984 Z0.2800
G01 X11.2977 Y-2.2778 Z0.2800
G01 X11.2994 Y-2.2778 Z0.2800
G01 X11.3005 Y-2.2777 Z0.2800
G01 X11.9319 Y-2.2576 Z0.2800
G01 X11.9348 Y-2.2575 Z0.2800
G01 X12.5673 Y-2.2377 Z0.2800
G01 X13.1986 Y-2.2185 Z0.2800
G01 X13.2002 Y-2.2184 Z0.2800
G01 X13.2020 Y-2.2184 Z0.2800
G01 X13.8347 Y-2.1996 Z0.2800
G01 X14.4677 Y-2.1812 Z0.2800
G01 X14.4695 Y-2.1811 Z0.2800
G01 X15.0996 Y-2.1633 Z0.2800
G01 X15.1011 Y-2.1632 Z0.2800
G01 X15.1035 Y-2.1632 Z0.2800
G01 X15.7359 Y-2.1457 Z0.2800
G01 X16.3697 Y-2.1287 Z0.2800
G01 X17.0035 Y-2.1120 Z0.2800
G01 X17.6373 Y-2.0959 Z0.2800
G01 X18.2711 Y-2.0802 Z0.2800
G01 X18.9021 Y-2.0651 Z0.2800
G01 X18.9033 Y-2.0650 Z0.2800
G01 X18.9060 Y-2.0650 Z0.2800
G01 X19.5380 Y-2.0503 Z0.2800
G01 X19.5398 Y-2.0502 Z0.2800
G01 X20.1726 Y-2.0359 Z0.2800
G01 X20.8064 Y-2.0220 Z0.2800
G01 X21.4371 Y-2.0087 Z0.2800
G01 X21.4381 Y-2.0087 Z0.2800
G01 X21.4412 Y-2.0086 Z0.2800
G01 X22.0742 Y-1.9957 Z0.2800
G01 X22.7070 Y-1.9831 Z0.2800
G01 X22.7091 Y-1.9831 Z0.2800
G01 X23.3420 Y-1.9711 Z0.2800
G01 X23.9758 Y-1.9594 Z0.2800
G01 X24.6060 Y-1.9483 Z0.2800
G01 X24.6068 Y-1.9483 Z0.2800
G01 X24.6097 Y-1.9483 Z0.2800
G01 X25.2436 Y-1.9376 Z0.2800
G01 X25.8775 Y-1.9274 Z0.2800
G01 X26.5113 Y-1.9176 Z0.2800
G01 X26.5124 Y-1.9175 Z0.2800
G01 X27.1455 Y-1.9082 Z0.2800
G01 X27.7751 Y-1.8994 Z0.2800
G01 X27.7794 Y-1.8994 Z0.2800
G01 X28.4133 Y-1.8909 Z0.2800
G01 X29.0473 Y-1.8829 Z0.2800
G01 X29.6812 Y-1.8754 Z0.2800
G01 X30.3152 Y-1.8684 Z0.2800
G01 X30.9492 Y-1.8618 Z0.2800
G01 X31.5831 Y-1.8556 Z0.2800
G01 X32.2162 Y-1.8499 Z0.2800
G01 X32.2181 Y-1.8498 Z0.2800
G01 X32.8463 Y-1.8446 Z0.2800
G01 X32.8511 Y-1.8446 Z0.2800
G01 X33.4851 Y-1.8398 Z0.2800
G01 X34.1191 Y-1.8355 Z0.2800
G01 X34.7531 Y-1.8316 Z0.2800
G01 X35.3870 Y-1.8282 Z0.2800
G01 X36.0211 Y-1.8252 Z0.2800
G01 X36.6551 Y-1.8227 Z0.2800
G01 X37.2891 Y-1.8206 Z0.2800
G01 X37.9231 Y-1.8190 Z0.2800
G01 X38.5570 Y-1.8178 Z0.2800
G01 X39.1911 Y-1.8171 Z0.2800
G01 X39.8250 Y-1.8168 Z0.2800
G01 X40.4590 Y-1.8170 Z0.2800
G01 X41.0930 Y-1.8176 Z0.2800
G01 X41.7270 Y-1.8187 Z0.2800
G01 X42.3610 Y-1.8203 Z0.2800
G01 X42.9950 Y-1.8223 Z0.2800
G01 X43.6290 Y-1.8248 Z0.2800
G01 X44.2630 Y-1.8277 Z0.2800
G01 X44.8970 Y-1.8311 Z0.2800
G01 X45.5309 Y-1.8349 Z0.2800
G01 X46.1650 Y-1.8392 Z0.2800
G01 X46.7990 Y-1.8439 Z0.2800
G01 X46.8038 Y-1.8439 Z0.2800
G01 X47.4321 Y-1.8490 Z0.2800
G01 X47.4339 Y-1.8491 Z0.2800
G01 X48.0670 Y-1.8547 Z0.2800
G01 X48.7009 Y-1.8608 Z0.2800
G01 X49.3348 Y-1.8674 Z0.2800
G01 X49.9688 Y-1.8744 Z0.2800
G01 X50.6028 Y-1.8818 Z0.2800
G01 X51.2368 Y-1.8897 Z0.2800
G01 X51.8708 Y-1.8981 Z0.2800
G01 X51.8750 Y-1.8981 Z0.2800
G01 X52.5046 Y-1.9068 Z0.2800
G01 X53.1378 Y-1.9161 Z0.2800
G01 X53.1393 Y-1.9162 Z0.2800
G01 X53.7725 Y-1.9259 Z0.2800
G01 X54.4064 Y-1.9361 Z0.2800
G01 X55.0403 Y-1.9467 Z0.2800
G01 X55.6744 Y-1.9577 Z0.2800
G01 X55.6770 Y-1.9578 Z0.2800
G01 X55.6778 Y-1.9578 Z0.2800
G01 X56.3081 Y-1.9693 Z0.2800
G01 X56.9411 Y-1.9813 Z0.2800
G01 X56.9444 Y-1.9814 Z0.2800
G01 X57.5759 Y-1.9938 Z0.2800
G01 X58.2089 Y-2.0066 Z0.2800
G01 X58.2120 Y-2.0067 Z0.2800
G01 X58.2131 Y-2.0067 Z0.2800
G01 X58.8437 Y-2.0200 Z0.2800
G01 X59.4775 Y-2.0338 Z0.2800
G01 X60.1105 Y-2.0480 Z0.2800
G01 X60.1120 Y-2.0481 Z0.2800
G01 X60.7441 Y-2.0627 Z0.2800
G01 X60.7469 Y-2.0628 Z0.2800
G01 X60.7481 Y-2.0628 Z0.2800
G01 X61.3790 Y-2.0779 Z0.2800
G01 X62.0128 Y-2.0935 Z0.2800
G01 X62.6465 Y-2.1096 Z0.2800
G01 X63.2804 Y-2.1261 Z0.2800
G01 X63.9141 Y-2.1431 Z0.2800
G01 X64.5479 Y-2.1606 Z0.2800
G01 X65.1814 Y-2.1785 Z0.2800
G01 X65.8154 Y-2.1968 Z0.2800
G01 X66.4483 Y-2.2155 Z0.2800
G01 X66.4500 Y-2.2156 Z0.2800
G01 X66.4516 Y-2.2156 Z0.2800
G01 X67.0829 Y-2.2348 Z0.2800
G01 X70.8223 Y-2.3512 Z0.2800
G01 X70.8547 Y-1.3112 Z0.2800
G01 X67.1164 Y-1.1950 Z0.2800
G01 X67.1146 Y-1.1949 Z0.2800
G01 X67.1136 Y-1.1949 Z0.2800
G01 X66.4812 Y-1.1757 Z0.2800
G01 X66.4801 Y-1.1757 Z0.2800
G01 X66.4778 Y-1.1756 Z0.2800
G01 X65.8463 Y-1.1569 Z0.2800
G01 X65.8453 Y-1.1568 Z0.2800
G01 X65.8448 Y-1.1568 Z0.2800
G01 X65.2125 Y-1.1385 Z0.2800
G01 X65.2099 Y-1.1384 Z0.2800
G01 X64.5783 Y-1.1206 Z0.2800
G01 X64.5759 Y-1.1206 Z0.2800
G01 X63.9429 Y-1.1031 Z0.2800
G01 X63.9416 Y-1.1031 Z0.2800
G01 X63.3084 Y-1.0861 Z0.2800
G01 X63.3073 Y-1.0861 Z0.2800
G01 X63.3064 Y-1.0861 Z0.2800
G01 X62.6742 Y-1.0696 Z0.2800
G01 X62.6722 Y-1.0695 Z0.2800
G01 X62.0393 Y-1.0535 Z0.2800
G01 X62.0379 Y-1.0534 Z0.2800
G01 X61.4062 Y-1.0379 Z0.2800
G01 X61.4033 Y-1.0379 Z0.2800
G01 X60.7715 Y-1.0227 Z0.2800
G01 X60.7687 Y-1.0227 Z0.2800
G01 X60.7661 Y-1.0225 Z0.2800
G01 X60.1355 Y-1.0079 Z0.2800
G01 X60.1340 Y-1.0079 Z0.2800
G01 X59.5011 Y-0.9936 Z0.2800
G01 X59.4994 Y-0.9936 Z0.2800
G01 X58.8681 Y-0.9799 Z0.2800
G01 X58.8673 Y-0.9799 Z0.2800
G01 X58.8647 Y-0.9798 Z0.2800
G01 X58.2336 Y-0.9665 Z0.2800
G01 X58.2300 Y-0.9665 Z0.2800
G01 X58.2276 Y-0.9664 Z0.2800
G01 X57.5991 Y-0.9536 Z0.2800
G01 X57.5981 Y-0.9536 Z0.2800
G01 X57.5957 Y-0.9535 Z0.2800
G01 X56.9625 Y-0.9411 Z0.2800
G01 X56.9604 Y-0.9410 Z0.2800
G01 X56.3300 Y-0.9291 Z0.2800
G01 X56.3283 Y-0.9291 Z0.2800
G01 X56.3261 Y-0.9290 Z0.2800
G01 X55.6954 Y-0.9175 Z0.2800
G01 X55.6946 Y-0.9175 Z0.2800
G01 X55.6911 Y-0.9175 Z0.2800
G01 X55.6902 Y-0.9175 Z0.2800
G01 X55.0585 Y-0.9064 Z0.2800
G01 X55.0573 Y-0.9064 Z0.2800
G01 X54.4239 Y-0.8958 Z0.2800
G01 X54.4226 Y-0.8958 Z0.2800
G01 X53.7894 Y-0.8856 Z0.2800
G01 X53.7875 Y-0.8856 Z0.2800
G01 X53.1546 Y-0.8759 Z0.2800
G01 X53.1533 Y-0.8759 Z0.2800
G01 X52.5200 Y-0.8666 Z0.2800
G01 X52.5178 Y-0.8666 Z0.2800
G01 X51.8852 Y-0.8578 Z0.2800
G01 X51.8825 Y-0.8577 Z0.2800
G01 X51.8818 Y-0.8577 Z0.2800
G01 X51.2505 Y-0.8494 Z0.2800
G01 X51.2494 Y-0.8494 Z0.2800
G01 X50.6159 Y-0.8415 Z0.2800
G01 X50.6144 Y-0.8415 Z0.2800
G01 X49.9811 Y-0.8340 Z0.2800
G01 X49.9797 Y-0.8340 Z0.2800
G01 X49.3464 Y-0.8270 Z0.2800
G01 X49.3447 Y-0.8270 Z0.2800
G01 X48.7118 Y-0.8205 Z0.2800
G01 X48.7097 Y-0.8205 Z0.2800
G01 X48.0770 Y-0.8144 Z0.2800
G01 X48.0740 Y-0.8144 Z0.2800
G01 X47.4423 Y-0.8088 Z0.2800
G01 X47.4409 Y-0.8087 Z0.2800
G01 X46.8075 Y-0.8035 Z0.2800
G01 X46.8042 Y-0.8035 Z0.2800
G01 X46.8037 Y-0.8035 Z0.2800
G01 X46.1728 Y-0.7988 Z0.2800
G01 X46.1721 Y-0.7988 Z0.2800
G01 X45.5381 Y-0.7945 Z0.2800
G01 X45.5373 Y-0.7945 Z0.2800
G01 X44.9033 Y-0.7907 Z0.2800
G01 X44.9025 Y-0.7907 Z0.2800
G01 X44.2685 Y-0.7873 Z0.2800
G01 X44.2679 Y-0.7873 Z0.2800
G01 X43.6339 Y-0.7844 Z0.2800
G01 X43.6331 Y-0.7844 Z0.2800
G01 X42.9991 Y-0.7819 Z0.2800
G01 X42.9984 Y-0.7819 Z0.2800
G01 X42.3644 Y-0.7799 Z0.2800
G01 X42.3637 Y-0.7799 Z0.2800
G01 X41.7297 Y-0.7783 Z0.2800
G01 X41.7289 Y-0.7783 Z0.2800
G01 X41.0949 Y-0.7772 Z0.2800
G01 X41.0941 Y-0.7772 Z0.2800
G01 X40.4601 Y-0.7766 Z0.2800
G01 X40.4594 Y-0.7766 Z0.2800
G01 X39.8254 Y-0.7764 Z0.2800
G01 X39.8246 Y-0.7764 Z0.2800
G01 X39.1906 Y-0.7767 Z0.2800
G01 X39.1900 Y-0.7767 Z0.2800
G01 X38.5559 Y-0.7774 Z0.2800
G01 X38.5551 Y-0.7774 Z0.2800
G01 X37.9211 Y-0.7786 Z0.2800
G01 X37.9204 Y-0.7786 Z0.2800
G01 X37.2864 Y-0.7802 Z0.2800
G01 X37.2856 Y-0.7802 Z0.2800
G01 X36.6516 Y-0.7823 Z0.2800
G01 X36.6509 Y-0.7823 Z0.2800
G01 X36.0169 Y-0.7848 Z0.2800
G01 X36.0162 Y-0.7848 Z0.2800
G01 X35.3822 Y-0.7878 Z0.2800
G01 X35.3814 Y-0.7878 Z0.2800
G01 X34.7475 Y-0.7912 Z0.2800
G01 X34.7466 Y-0.7912 Z0.2800
G01 X34.1127 Y-0.7951 Z0.2800
G01 X34.1120 Y-0.7951 Z0.2800
G01 X33.4780 Y-0.7994 Z0.2800
G01 X33.4772 Y-0.7994 Z0.2800
G01 X32.8463 Y-0.8042 Z0.2800
G01 X32.8458 Y-0.8042 Z0.2800
G01 X32.8425 Y-0.8043 Z0.2800
G01 X32.2096 Y-0.8095 Z0.2800
G01 X32.2077 Y-0.8096 Z0.2800
G01 X31.5758 Y-0.8153 Z0.2800
G01 X31.5731 Y-0.8153 Z0.2800
G01 X30.9403 Y-0.8214 Z0.2800
G01 X30.9383 Y-0.8214 Z0.2800
G01 X30.3052 Y-0.8281 Z0.2800
G01 X30.3037 Y-0.8281 Z0.2800
G01 X29.6704 Y-0.8351 Z0.2800
G01 X29.6689 Y-0.8351 Z0.2800
G01 X29.0355 Y-0.8426 Z0.2800
G01 X29.0342 Y-0.8426 Z0.2800
G01 X28.4007 Y-0.8506 Z0.2800
G01 X28.3996 Y-0.8506 Z0.2800
G01 X27.7683 Y-0.8590 Z0.2800
G01 X27.7675 Y-0.8590 Z0.2800
G01 X27.7648 Y-0.8591 Z0.2800
G01 X27.1323 Y-0.8679 Z0.2800
G01 X27.1300 Y-0.8679 Z0.2800
G01 X26.4970 Y-0.8773 Z0.2800
G01 X26.4955 Y-0.8774 Z0.2800
G01 X25.8624 Y-0.8871 Z0.2800
G01 X25.8608 Y-0.8871 Z0.2800
G01 X25.2275 Y-0.8974 Z0.2800
G01 X25.2261 Y-0.8974 Z0.2800
G01 X24.5945 Y-0.9080 Z0.2800
G01 X24.5936 Y-0.9081 Z0.2800
G01 X24.5914 Y-0.9081 Z0.2800
G01 X23.9587 Y-0.9192 Z0.2800
G01 X23.9569 Y-0.9192 Z0.2800
G01 X23.3238 Y-0.9308 Z0.2800
G01 X23.3215 Y-0.9309 Z0.2800
G01 X23.3201 Y-0.9309 Z0.2800
G01 X22.6908 Y-0.9428 Z0.2800
G01 X22.6875 Y-0.9429 Z0.2800
G01 X22.0543 Y-0.9554 Z0.2800
G01 X22.0519 Y-0.9555 Z0.2800
G01 X22.0509 Y-0.9555 Z0.2800
G01 X21.4225 Y-0.9683 Z0.2800
G01 X21.4200 Y-0.9685 Z0.2800
G01 X21.4165 Y-0.9685 Z0.2800
G01 X20.7855 Y-0.9818 Z0.2800
G01 X20.7837 Y-0.9818 Z0.2800
G01 X20.1506 Y-0.9957 Z0.2800
G01 X20.1479 Y-0.9958 Z0.2800
G01 X20.1473 Y-0.9958 Z0.2800
G01 X19.5163 Y-1.0100 Z0.2800
G01 X19.5145 Y-1.0101 Z0.2800
G01 X18.8838 Y-1.0248 Z0.2800
G01 X18.8813 Y-1.0249 Z0.2800
G01 X18.8786 Y-1.0250 Z0.2800
G01 X18.2469 Y-1.0401 Z0.2800
G01 X18.2453 Y-1.0401 Z0.2800
G01 X17.6124 Y-1.0558 Z0.2800
G01 X17.6108 Y-1.0558 Z0.2800
G01 X16.9788 Y-1.0719 Z0.2800
G01 X16.9755 Y-1.0720 Z0.2800
G01 X16.3433 Y-1.0886 Z0.2800
G01 X16.3417 Y-1.0887 Z0.2800
G01 X15.7088 Y-1.1057 Z0.2800
G01 X15.7072 Y-1.1057 Z0.2800
G01 X15.0760 Y-1.1231 Z0.2800
G01 X15.0735 Y-1.1233 Z0.2800
G01 X15.0722 Y-1.1233 Z0.2800
G01 X14.4394 Y-1.1412 Z0.2800
G01 X14.4383 Y-1.1412 Z0.2800
G01 X13.8054 Y-1.1596 Z0.2800
G01 X13.8046 Y-1.1596 Z0.2800
G01 X13.8037 Y-1.1596 Z0.2800
G01 X13.1723 Y-1.1784 Z0.2800
G01 X13.1699 Y-1.1785 Z0.2800
G01 X13.1689 Y-1.1785 Z0.2800
G01 X12.5364 Y-1.1978 Z0.2800
G01 X12.5355 Y-1.1978 Z0.2800
G01 X12.5338 Y-1.1979 Z0.2800
G01 X11.9029 Y-1.2175 Z0.2800
G01 X11.9020 Y-1.2176 Z0.2800
G01 X11.9003 Y-1.2176 Z0.2800
G01 X11.2702 Y-1.2377 Z0.2800
G01 X11.2662 Y-1.2379 Z0.2800
G01 X11.2639 Y-1.2380 Z0.2800
G01 X10.6332 Y-1.2585 Z0.2800
G01 X10.6319 Y-1.2586 Z0.2800
G01 X10.6307 Y-1.2586 Z0.2800
G01 X9.9993 Y-1.2797 Z0.2800
G01 X9.9972 Y-1.2798 Z0.2800
G01 X9.3668 Y-1.3012 Z0.2800
G01 X9.3629 Y-1.3014 Z0.2800
G01 X9.3610 Y-1.3014 Z0.2800
G01 X8.7299 Y-1.3234 Z0.2800
G01 X8.7287 Y-1.3234 Z0.2800
G01 X8.7277 Y-1.3235 Z0.2800
G01 X8.0962 Y-1.3459 Z0.2800
G01 X8.0934 Y-1.3460 Z0.2800
G01 X7.4612 Y-1.3689 Z0.2800
G01 X7.4598 Y-1.3689 Z0.2800
G01 X6.8290 Y-1.3922 Z0.2800
G01 X6.8251 Y-1.3924 Z0.2800
G01 X6.8240 Y-1.3924 Z0.2800
G01 X6.1918 Y-1.4162 Z0.2800
G01 X6.1911 Y-1.4162 Z0.2800
G01 X5.5585 Y-1.4405 Z0.2800
G01 X5.5568 Y-1.4405 Z0.2800
G01 X4.9247 Y-1.4653 Z0.2800
G01 X4.9219 Y-1.4654 Z0.2800
G01 X1.1890 Y-1.6142 Z0.2800
G01 X1.1890 Y-1.6142 Z0.1400
G01 X1.2304 Y-2.6537 Z0.1400
G01 X4.9639 Y-2.5049 Z0.1400
G01 X5.5974 Y-2.4801 Z0.1400
G01 X6.2308 Y-2.4559 Z0.1400
G01 X6.2323 Y-2.4558 Z0.1400
G01 X6.8626 Y-2.4320 Z0.1400
G01 X6.8645 Y-2.4320 Z0.1400
G01 X7.4981 Y-2.4086 Z0.1400
G01 X8.1317 Y-2.3857 Z0.1400
G01 X8.7653 Y-2.3632 Z0.1400
G01 X9.3970 Y-2.3412 Z0.1400
G01 X9.3987 Y-2.3412 Z0.1400
G01 X9.3993 Y-2.3412 Z0.1400
G01 X10.0318 Y-2.3196 Z0.1400
G01 X10.0337 Y-2.3195 Z0.1400
G01 X10.6662 Y-2.2984 Z0.1400
G01 X11.2977 Y-2.2778 Z0.1400
G01 X11.2994 Y-2.2778 Z0.1400
G01 X11.3005 Y-2.2777 Z0.1400
G01 X11.9319 Y-2.2576 Z0.1400
G01 X11.9348 Y-2.2575 Z0.1400
G01 X12.5673 Y-2.2377 Z0.1400
G01 X13.1986 Y-2.2185 Z0.1400
G01 X13.2002 Y-2.2184 Z0.1400
G01 X13.2020 Y-2.2184 Z0.1400
G01 X13.8347 Y-2.1996 Z0.1400
G01 X14.4677 Y-2.1812 Z0.1400
G01 X14.4695 Y-2.1811 Z0.1400
G01 X15.0996 Y-2.1633 Z0.1400
G01 X15.1011 Y-2.1632 Z0.1400
G01 X15.1035 Y-2.1632 Z0.1400
G01 X15.7359 Y-2.1457 Z0.1400
G01 X16.3697 Y-2.1287 Z0.1400
G01 X17.0035 Y-2.1120 Z0.1400
G01 X17.6373 Y-2.0959 Z0.1400
G01 X18.2711 Y-2.0802 Z0.1400
G01 X18.9021 Y-2.0651 Z0.1400
G01 X18.9033 Y-2.0650 Z0.1400
G01 X18.9060 Y-2.0650 Z0.1400
G01 X19.5380 Y-2.0503 Z0.1400
G01 X19.5398 Y-2.0502 Z0.1400
G01 X20.1726 Y-2.0359 Z0.1400
G01 X20.8064 Y-2.0220 Z0.1400
G01 X21.4371 Y-2.0087 Z0.1400
G01 X21.4381 Y-2.0087 Z0.1400
G01 X21.4412 Y-2.0086 Z0.1400
G01 X22.0742 Y-1.9957 Z0.1400
G01 X22.7070 Y-1.9831 Z0.1400
G01 X22.7091 Y-1.9831 Z0.1400
G01 X23.3420 Y-1.9711 Z0.1400
G01 X23.9758 Y-1.9594 Z0.1400
G01 X24.6060 Y-1.9483 Z0.1400
G01 X24.6068 Y-1.9483 Z0.1400
G01 X24.6097 Y-1.9483 Z0.1400
G01 X25.2436 Y-1.9376 Z0.1400
G01 X25.8775 Y-1.9274 Z0.1400
G01 X26.5113 Y-1.9176 Z0.1400
G01 X26.5124 Y-1.9175 Z0.1400
G01 X27.1455 Y-1.9082 Z0.1400
G01 X27.7751 Y-1.8994 Z0.1400
G01 X27.7794 Y-1.8994 Z0.1400
G01 X28.4133 Y-1.8909 Z0.1400
G01 X29.0473 Y-1.8829 Z0.1400
G01 X29.6812 Y-1.8754 Z0.1400
G01 X30.3152 Y-1.8684 Z0.1400
G01 X30.9492 Y-1.8618 Z0.1400
G01 X31.5831 Y-1.8556 Z0.1400
G01 X32.2162 Y-1.8499 Z0.1400
G01 X32.2181 Y-1.8498 Z0.1400
G01 X32.8463 Y-1.8446 Z0.1400
G01 X32.8511 Y-1.8446 Z0.1400
G01 X33.4851 Y-1.8398 Z0.1400
G01 X34.1191 Y-1.8355 Z0.1400
G01 X34.7531 Y-1.8316 Z0.1400
G01 X35.3870 Y-1.8282 Z0.1400
G01 X36.0211 Y-1.8252 Z0.1400
G01 X36.6551 Y-1.8227 Z0.1400
G01 X37.2891 Y-1.8206 Z0.1400
G01 X37.9231 Y-1.8190 Z0.1400
G01 X38.5570 Y-1.8178 Z0.1400
G01 X39.1911 Y-1.8171 Z0.1400
G01 X39.8250 Y-1.8168 Z0.1400
G01 X40.4590 Y-1.8170 Z0.1400
G01 X41.0930 Y-1.8176 Z0.1400
G01 X41.7270 Y-1.8187 Z0.1400
G01 X42.3610 Y-1.8203 Z0.1400
G01 X42.9950 Y-1.8223 Z0.1400
G01 X43.6290 Y-1.8248 Z0.1400
G01 X44.2630 Y-1.8277 Z0.1400
G01 X44.8970 Y-1.8311 Z0.1400
G01 X45.5309 Y-1.8349 Z0.1400
G01 X46.1650 Y-1.8392 Z0.1400
G01 X46.7990 Y-1.8439 Z0.1400
G01 X46.8038 Y-1.8439 Z0.1400
G01 X47.4321 Y-1.8490 Z0.1400
G01 X47.4339 Y-1.8491 Z0.1400
G01 X48.0670 Y-1.8547 Z0.1400
G01 X48.7009 Y-1.8608 Z0.1400
G01 X49.3348 Y-1.8674 Z0.1400
G01 X49.9688 Y-1.8744 Z0.1400
G01 X50.6028 Y-1.8818 Z0.1400
G01 X51.2368 Y-1.8897 Z0.1400
G01 X51.8708 Y-1.8981 Z0.1400
G01 X51.8750 Y-1.8981 Z0.1400
G01 X52.5046 Y-1.9068 Z0.1400
G01 X53.1378 Y-1.9161 Z0.1400
G01 X53.1393 Y-1.9162 Z0.1400
G01 X53.7725 Y-1.9259 Z0.1400
G01 X54.4064 Y-1.9361 Z0.1400
G01 X55.0403 Y-1.9467 Z0.1400
G01 X55.6744 Y-1.9577 Z0.1400
G01 X55.6770 Y-1.9578 Z0.1400
G01 X55.6778 Y-1.9578 Z0.1400
G01 X56.3081 Y-1.9693 Z0.1400
G01 X56.9411 Y-1.9813 Z0.1400
G01 X56.9444 Y-1.9814 Z0.1400
G01 X57.5759 Y-1.9938 Z0.1400
G01 X58.2089 Y-2.0066 Z0.1400
G01 X58.2120 Y-2.0067 Z0.1400
G01 X58.2131 Y-2.0067 Z0.1400
G01 X58.8437 Y-2.0200 Z0.1400
G01 X59.4775 Y-2.0338 Z0.1400
G01 X60.1105 Y-2.0480 Z0.1400
G01 X60.1120 Y-2.0481 Z0.1400
G01 X60.7441 Y-2.0627 Z0.1400
G01 X60.7469 Y-2.0628 Z0.1400
G01 X60.7481 Y-2.0628 Z0.1400
G01 X61.3790 Y-2.0779 Z0.1400
G01 X62.0128 Y-2.0935 Z0.1400
G01 X62.6465 Y-2.1096 Z0.1400
G01 X63.2804 Y-2.1261 Z0.1400
G01 X63.9141 Y-2.1431 Z0.1400
G01 X64.5479 Y-2.1606 Z0.1400
G01 X65.1814 Y-2.1785 Z0.1400
G01 X65.8154 Y-2.1968 Z0.1400
G01 X66.4483 Y-2.2155 Z0.1400
G01 X66.4500 Y-2.2156 Z0.1400
G01 X66.4516 Y-2.2156 Z0.1400
G01 X67.0829 Y-2.2348 Z0.1400
G01 X70.8223 Y-2.3512 Z0.1400
G01 X70.8547 Y-1.3112 Z0.1400
G01 X67.1164 Y-1.1950 Z0.1400
G01 X67.1146 Y-1.1949 Z0.1400
G01 X67.1136 Y-1.1949 Z0.1400
G01 X66.4812 Y-1.1757 Z0.1400
G01 X66.4801 Y-1.1757 Z0.1400
G01 X66.4778 Y-1.1756 Z0.1400
G01 X65.8463 Y-1.1569 Z0.1400
G01 X65.8453 Y-1.1568 Z0.1400
G01 X65.8448 Y-1.1568 Z0.1400
G01 X65.2125 Y-1.1385 Z0.1400
G01 X65.2099 Y-1.1384 Z0.1400
G01 X64.5783 Y-1.1206 Z0.1400
G01 X64.5759 Y-1.1206 Z0.1400
G01 X63.9429 Y-1.1031 Z0.1400
G01 X63.9416 Y-1.1031 Z0.1400
G01 X63.3084 Y-1.0861 Z0.1400
G01 X63.3073 Y-1.0861 Z0.1400
G01 X63.3064 Y-1.0861 Z0.1400
G01 X62.6742 Y-1.0696 Z0.1400
G01 X62.6722 Y-1.0695 Z0.1400
G01 X62.0393 Y-1.0535 Z0.1400
G01 X62.0379 Y-1.0534 Z0.1400
G01 X61.4062 Y-1.0379 Z0.1400
G01 X61.4033 Y-1.0379 Z0.1400
G01 X60.7715 Y-1.0227 Z0.1400
G01 X60.7687 Y-1.0227 Z0.1400
G01 X60.7661 Y-1.0225 Z0.1400
G01 X60.1355 Y-1.0079 Z0.1400
G01 X60.1340 Y-1.0079 Z0.1400
G01 X59.5011 Y-0.9936 Z0.1400
G01 X59.4994 Y-0.9936 Z0.1400
G01 X58.8681 Y-0.9799 Z0.1400
G01 X58.8673 Y-0.9799 Z0.1400
G01 X58.8647 Y-0.9798 Z0.1400
G01 X58.2336 Y-0.9665 Z0.1400
G01 X58.2300 Y-0.9665 Z0.1400
G01 X58.2276 Y-0.9664 Z0.1400
G01 X57.5991 Y-0.9536 Z0.1400
G01 X57.5981 Y-0.9536 Z0.1400
G01 X57.5957 Y-0.9535 Z0.1400
G01 X56.9625 Y-0.9411 Z0.1400
G01 X56.9604 Y-0.9410 Z0.1400
G01 X56.3300 Y-0.9291 Z0.1400
G01 X56.3283 Y-0.9291 Z0.1400
G01 X56.3261 Y-0.9290 Z0.1400
G01 X55.6954 Y-0.9175 Z0.1400
G01 X55.6946 Y-0.9175 Z0.1400
G01 X55.6911 Y-0.9175 Z0.1400
G01 X55.6902 Y-0.9175 Z0.1400
G01 X55.0585 Y-0.9064 Z0.1400
G01 X55.0573 Y-0.9064 Z0.1400
G01 X54.4239 Y-0.8958 Z0.1400
G01 X54.4226 Y-0.8958 Z0.1400
G01 X53.7894 Y-0.8856 Z0.1400
G01 X53.7875 Y-0.8856 Z0.1400
G01 X53.1546 Y-0.8759 Z0.1400
G01 X53.1533 Y-0.8759 Z0.1400
G01 X52.5200 Y-0.8666 Z0.1400
G01 X52.5178 Y-0.8666 Z0.1400
G01 X51.8852 Y-0.8578 Z0.1400
G01 X51.8825 Y-0.8577 Z0.1400
G01 X51.8818 Y-0.8577 Z0.1400
G01 X51.2505 Y-0.8494 Z0.1400
G01 X51.2494 Y-0.8494 Z0.1400
G01 X50.6159 Y-0.8415 Z0.1400
G01 X50.6144 Y-0.8415 Z0.1400
G01 X49.9811 Y-0.8340 Z0.1400
G01 X49.9797 Y-0.8340 Z0.1400
G01 X49.3464 Y-0.8270 Z0.1400
G01 X49.3447 Y-0.8270 Z0.1400
G01 X48.7118 Y-0.8205 Z0.1400
G01 X48.7097 Y-0.8205 Z0.1400
G01 X48.0770 Y-0.8144 Z0.1400
G01 X48.0740 Y-0.8144 Z0.1400
G01 X47.4423 Y-0.8088 Z0.1400
G01 X47.4409 Y-0.8087 Z0.1400
G01 X46.8075 Y-0.8035 Z0.1400
G01 X46.8042 Y-0.8035 Z0.1400
G01 X46.8037 Y-0.8035 Z0.1400
G01 X46.1728 Y-0.7988 Z0.1400
G01 X46.1721 Y-0.7988 Z0.1400
G01 X45.5381 Y-0.7945 Z0.1400
G01 X45.5373 Y-0.7945 Z0.1400
G01 X44.9033 Y-0.7907 Z0.1400
G01 X44.9025 Y-0.7907 Z0.1400
G01 X44.2685 Y-0.7873 Z0.1400
G01 X44.2679 Y-0.7873 Z0.1400
G01 X43.6339 Y-0.7844 Z0.1400
G01 X43.6331 Y-0.7844 Z0.1400
G01 X42.9991 Y-0.7819 Z0.1400
G01 X42.9984 Y-0.7819 Z0.1400
G01 X42.3644 Y-0.7799 Z0.1400
G01 X42.3637 Y-0.7799 Z0.1400
G01 X41.7297 Y-0.7783 Z0.1400
G01 X41.7289 Y-0.7783 Z0.1400
G01 X41.0949 Y-0.7772 Z0.1400
G01 X41.0941 Y-0.7772 Z0.1400
G01 X40.4601 Y-0.7766 Z0.1400
G01 X40.4594 Y-0.7766 Z0.1400
G01 X39.8254 Y-0.7764 Z0.1400
G01 X39.8246 Y-0.7764 Z0.1400
G01 X39.1906 Y-0.7767 Z0.1400
G01 X39.1900 Y-0.7767 Z0.1400
G01 X38.5559 Y-0.7774 Z0.1400
G01 X38.5551 Y-0.7774 Z0.1400
G01 X37.9211 Y-0.7786 Z0.1400
G01 X37.9204 Y-0.7786 Z0.1400
G01 X37.2864 Y-0.7802 Z0.1400
G01 X37.2856 Y-0.7802 Z0.1400
G01 X36.6516 Y-0.7823 Z0.1400
G01 X36.6509 Y-0.7823 Z0.1400
G01 X36.0169 Y-0.7848 Z0.1400
G01 X36.0162 Y-0.7848 Z0.1400
G01 X35.3822 Y-0.7878 Z0.1400
G01 X35.3814 Y-0.7878 Z0.1400
G01 X34.7475 Y-0.7912 Z0.1400
G01 X34.7466 Y-0.7912 Z0.1400
G01 X34.1127 Y-0.7951 Z0.1400
G01 X34.1120 Y-0.7951 Z0.1400
G01 X33.4780 Y-0.7994 Z0.1400
G01 X33.4772 Y-0.7994 Z0.1400
G01 X32.8463 Y-0.8042 Z0.1400
G01 X32.8458 Y-0.8042 Z0.1400
G01 X32.8425 Y-0.8043 Z0.1400
G01 X32.2096 Y-0.8095 Z0.1400
G01 X32.2077 Y-0.8096 Z0.1400
G01 X31.5758 Y-0.8153 Z0.1400
G01 X31.5731 Y-0.8153 Z0.1400
G01 X30.9403 Y-0.8214 Z0.1400
G01 X30.9383 Y-0.8214 Z0.1400
G01 X30.3052 Y-0.8281 Z0.1400
G01 X30.3037 Y-0.8281 Z0.1400
G01 X29.6704 Y-0.8351 Z0.1400
G01 X29.6689 Y-0.8351 Z0.1400
G01 X29.0355 Y-0.8426 Z0.1400
G01 X29.0342 Y-0.8426 Z0.1400
G01 X28.4007 Y-0.8506 Z0.1400
G01 X28.3996 Y-0.8506 Z0.1400
G01 X27.7683 Y-0.8590 Z0.1400
G01 X27.7675 Y-0.8590 Z0.1400
G01 X27.7648 Y-0.8591 Z0.1400
G01 X27.1323 Y-0.8679 Z0.1400
G01 X27.1300 Y-0.8679 Z0.1400
G01 X26.4970 Y-0.8773 Z0.1400
G01 X26.4955 Y-0.8774 Z0.1400
G01 X25.8624 Y-0.8871 Z0.1400
G01 X25.8608 Y-0.8871 Z0.1400
G01 X25.2275 Y-0.8974 Z0.1400
G01 X25.2261 Y-0.8974 Z0.1400
G01 X24.5945 Y-0.9080 Z0.1400
G01 X24.5936 Y-0.9081 Z0.1400
G01 X24.5914 Y-0.9081 Z0.1400
G01 X23.9587 Y-0.9192 Z0.1400
G01 X23.9569 Y-0.9192 Z0.1400
G01 X23.3238 Y-0.9308 Z0.1400
G01 X23.3215 Y-0.9309 Z0.1400
G01 X23.3201 Y-0.9309 Z0.1400
G01 X22.6908 Y-0.9428 Z0.1400
G01 X22.6875 Y-0.9429 Z0.1400
G01 X22.0543 Y-0.9554 Z0.1400
G01 X22.0519 Y-0.9555 Z0.1400
G01 X22.0509 Y-0.9555 Z0.1400
G01 X21.4225 Y-0.9683 Z0.1400
G01 X21.4200 Y-0.9685 Z0.1400
G01 X21.4165 Y-0.9685 Z0.1400
G01 X20.7855 Y-0.9818 Z0.1400
G01 X20.7837 Y-0.9818 Z0.1400
G01 X20.1506 Y-0.9957 Z0.1400
G01 X20.1479 Y-0.9958 Z0.1400
G01 X20.1473 Y-0.9958 Z0.1400
G01 X19.5163 Y-1.0100 Z0.1400
G01 X19.5145 Y-1.0101 Z0.1400
G01 X18.8838 Y-1.0248 Z0.1400
G01 X18.8813 Y-1.0249 Z0.1400
G01 X18.8786 Y-1.0250 Z0.1400
G01 X18.2469 Y-1.0401 Z0.1400
G01 X18.2453 Y-1.0401 Z0.1400
G01 X17.6124 Y-1.0558 Z0.1400
G01 X17.6108 Y-1.0558 Z0.1400
G01 X16.9788 Y-1.0719 Z0.1400
G01 X16.9755 Y-1.0720 Z0.1400
G01 X16.3433 Y-1.0886 Z0.1400
G01 X16.3417 Y-1.0887 Z0.1400
G01 X15.7088 Y-1.1057 Z0.1400
G01 X15.7072 Y-1.1057 Z0.1400
G01 X15.0760 Y-1.1231 Z0.1400
G01 X15.0735 Y-1.1233 Z0.1400
G01 X15.0722 Y-1.1233 Z0.1400
G01 X14.4394 Y-1.1412 Z0.1400
G01 X14.4383 Y-1.1412 Z0.1400
G01 X13.8054 Y-1.1596 Z0.1400
G01 X13.8046 Y-1.1596 Z0.1400
G01 X13.8037 Y-1.1596 Z0.1400
G01 X13.1723 Y-1.1784 Z0.1400
G01 X13.1699 Y-1.1785 Z0.1400
G01 X13.1689 Y-1.1785 Z0.1400
G01 X12.5364 Y-1.1978 Z0.1400
G01 X12.5355 Y-1.1978 Z0.1400
G01 X12.5338 Y-1.1979 Z0.1400
G01 X11.9029 Y-1.2175 Z0.1400
G01 X11.9020 Y-1.2176 Z0.1400
G01 X11.9003 Y-1.2176 Z0.1400
G01 X11.2702 Y-1.2377 Z0.1400
G01 X11.2662 Y-1.2379 Z0.1400
G01 X11.2639 Y-1.2380 Z0.1400
G01 X10.6332 Y-1.2585 Z0.1400
G01 X10.6319 Y-1.2586 Z0.1400
G01 X10.6307 Y-1.2586 Z0.1400
G01 X9.9993 Y-1.2797 Z0.1400
G01 X9.9972 Y-1.2798 Z0.1400
G01 X9.3668 Y-1.3012 Z0.1400
G01 X9.3629 Y-1.3014 Z0.1400
G01 X9.3610 Y-1.3014 Z0.1400
G01 X8.7299 Y-1.3234 Z0.1400
G01 X8.7287 Y-1.3234 Z0.1400
G01 X8.7277 Y-1.3235 Z0.1400
G01 X8.0962 Y-1.3459 Z0.1400
G01 X8.0934 Y-1.3460 Z0.1400
G01 X7.4612 Y-1.3689 Z0.1400
G01 X7.4598 Y-1.3689 Z0.1400
G01 X6.8290 Y-1.3922 Z0.1400
G01 X6.8251 Y-1.3924 Z0.1400
G01 X6.8240 Y-1.3924 Z0.1400
G01 X6.1918 Y-1.4162 Z0.1400
G01 X6.1911 Y-1.4162 Z0.1400
G01 X5.5585 Y-1.4405 Z0.1400
G01 X5.5568 Y-1.4405 Z0.1400
G01 X4.9247 Y-1.4653 Z0.1400
G01 X4.9219 Y-1.4654 Z0.1400
G01 X1.1890 Y-1.6142 Z0.1400
G01 X1.1890 Y-1.6142 Z0.0000
G01 X1.2304 Y-2.6537 Z0.0000
G01 X4.9639 Y-2.5049 Z0.0000
G01 X5.5974 Y-2.4801 Z0.0000
G01 X6.2308 Y-2.4559 Z0.0000
G01 X6.2323 Y-2.4558 Z0.0000
G01 X6.8626 Y-2.4320 Z0.0000
G01 X6.8645 Y-2.4320 Z0.0000
G01 X7.4981 Y-2.4086 Z0.0000
G01 X8.1317 Y-2.3857 Z0.0000
G01 X8.7653 Y-2.3632 Z0.0000
G01 X9.3970 Y-2.3412 Z0.0000
G01 X9.3987 Y-2.3412 Z0.0000
G01 X9.3993 Y-2.3412 Z0.0000
G01 X10.0318 Y-2.3196 Z0.0000
G01 X10.0337 Y-2.3195 Z0.0000
G01 X10.6662 Y-2.2984 Z0.0000
G01 X11.2977 Y-2.2778 Z0.0000
G01 X11.2994 Y-2.2778 Z0.0000
G01 X11.3005 Y-2.2777 Z0.0000
G01 X11.9319 Y-2.2576 Z0.0000
G01 X11.9348 Y-2.2575 Z0.0000
G01 X12.5673 Y-2.2377 Z0.0000
G01 X13.1986 Y-2.2185 Z0.0000
G01 X13.2002 Y-2.2184 Z0.0000
G01 X13.2020 Y-2.2184 Z0.0000
G01 X13.8347 Y-2.1996 Z0.0000
G01 X14.4677 Y-2.1812 Z0.0000
G01 X14.4695 Y-2.1811 Z0.0000
G01 X15.0996 Y-2.1633 Z0.0000
G01 X15.1011 Y-2.1632 Z0.0000
G01 X15.1035 Y-2.1632 Z0.0000
G01 X15.7359 Y-2.1457 Z0.0000
G01 X16.3697 Y-2.1287 Z0.0000
G01 X17.0035 Y-2.1120 Z0.0000
G01 X17.6373 Y-2.0959 Z0.0000
G01 X18.2711 Y-2.0802 Z0.0000
G01 X18.9021 Y-2.0651 Z0.0000
G01 X18.9033 Y-2.0650 Z0.0000
G01 X18.9060 Y-2.0650 Z0.0000
G01 X19.5380 Y-2.0503 Z0.0000
G01 X19.5398 Y-2.0502 Z0.0000
G01 X20.1726 Y-2.0359 Z0.0000
G01 X20.8064 Y-2.0220 Z0.0000
G01 X21.4371 Y-2.0087 Z0.0000
G01 X21.4381 Y-2.0087 Z0.0000
G01 X21.4412 Y-2.0086 Z0.0000
G01 X22.0742 Y-1.9957 Z0.0000
G01 X22.7070 Y-1.9831 Z0.0000
G01 X22.7091 Y-1.9831 Z0.0000
G01 X23.3420 Y-1.9711 Z0.0000
G01 X23.9758 Y-1.9594 Z0.0000
G01 X24.6060 Y-1.9483 Z0.0000
G01 X24.6068 Y-1.9483 Z0.0000
G01 X24.6097 Y-1.9483 Z0.0000
G01 X25.2436 Y-1.9376 Z0.0000
G01 X25.8775 Y-1.9274 Z0.0000
G01 X26.5113 Y-1.9176 Z0.0000
G01 X26.5124 Y-1.9175 Z0.0000
G01 X27.1455 Y-1.9082 Z0.0000
G01 X27.7751 Y-1.8994 Z0.0000
G01 X27.7794 Y-1.8994 Z0.0000
G01 X28.4133 Y-1.8909 Z0.0000
G01 X29.0473 Y-1.8829 Z0.0000
G01 X29.6812 Y-1.8754 Z0.0000
G01 X30.3152 Y-1.8684 Z0.0000
G01 X30.9492 Y-1.8618 Z0.0000
G01 X31.5831 Y-1.8556 Z0.0000
G01 X32.2162 Y-1.8499 Z0.0000
G01 X32.2181 Y-1.8498 Z0.0000
G01 X32.8463 Y-1.8446 Z0.0000
G01 X32.8511 Y-1.8446 Z0.0000
G01 X33.4851 Y-1.8398 Z0.0000
G01 X34.1191 Y-1.8355 Z0.0000
G01 X34.7531 Y-1.8316 Z0.0000
G01 X35.3870 Y-1.8282 Z0.0000
G01 X36.0211 Y-1.8252 Z0.0000
G01 X36.6551 Y-1.8227 Z0.0000
G01 X37.2891 Y-1.8206 Z0.0000
G01 X37.9231 Y-1.8190 Z0.0000
G01 X38.5570 Y-1.8178 Z0.0000
G01 X39.1911 Y-1.8171 Z0.0000
G01 X39.8250 Y-1.8168 Z0.0000
G01 X40.4590 Y-1.8170 Z0.0000
G01 X41.0930 Y-1.8176 Z0.0000
G01 X41.7270 Y-1.8187 Z0.0000
G01 X42.3610 Y-1.8203 Z0.0000
G01 X42.9950 Y-1.8223 Z0.0000
G01 X43.6290 Y-1.8248 Z0.0000
G01 X44.2630 Y-1.8277 Z0.0000
G01 X44.8970 Y-1.8311 Z0.0000
G01 X45.5309 Y-1.8349 Z0.0000
G01 X46.1650 Y-1.8392 Z0.0000
G01 X46.7990 Y-1.8439 Z0.0000
G01 X46.8038 Y-1.8439 Z0.0000
G01 X47.4321 Y-1.8490 Z0.0000
G01 X47.4339 Y-1.8491 Z0.0000
G01 X48.0670 Y-1.8547 Z0.0000
G01 X48.7009 Y-1.8608 Z0.0000
G01 X49.3348 Y-1.8674 Z0.0000
G01 X49.9688 Y-1.8744 Z0.0000
G01 X50.6028 Y-1.8818 Z0.0000
G01 X51.2368 Y-1.8897 Z0.0000
G01 X51.8708 Y-1.8981 Z0.0000
G01 X51.8750 Y-1.8981 Z0.0000
G01 X52.5046 Y-1.9068 Z0.0000
G01 X53.1378 Y-1.9161 Z0.0000
G01 X53.1393 Y-1.9162 Z0.0000
G01 X53.7725 Y-1.9259 Z0.0000
G01 X54.4064 Y-1.9361 Z0.0000
G01 X55.0403 Y-1.9467 Z0.0000
G01 X55.6744 Y-1.9577 Z0.0000
G01 X55.6770 Y-1.9578 Z0.0000
G01 X55.6778 Y-1.9578 Z0.0000
G01 X56.3081 Y-1.9693 Z0.0000
G01 X56.9411 Y-1.9813 Z0.0000
G01 X56.9444 Y-1.9814 Z0.0000
G01 X57.5759 Y-1.9938 Z0.0000
G01 X58.2089 Y-2.0066 Z0.0000
G01 X58.2120 Y-2.0067 Z0.0000
G01 X58.2131 Y-2.0067 Z0.0000
G01 X58.8437 Y-2.0200 Z0.0000
G01 X59.4775 Y-2.0338 Z0.0000
G01 X60.1105 Y-2.0480 Z0.0000
G01 X60.1120 Y-2.0481 Z0.0000
G01 X60.7441 Y-2.0627 Z0.0000
G01 X60.7469 Y-2.0628 Z0.0000
G01 X60.7481 Y-2.0628 Z0.0000
G01 X61.3790 Y-2.0779 Z0.0000
G01 X62.0128 Y-2.0935 Z0.0000
G01 X62.6465 Y-2.1096 Z0.0000
G01 X63.2804 Y-2.1261 Z0.0000
G01 X63.9141 Y-2.1431 Z0.0000
G01 X64.5479 Y-2.1606 Z0.0000
G01 X65.1814 Y-2.1785 Z0.0000
G01 X65.8154 Y-2.1968 Z0.0000
G01 X66.4483 Y-2.2155 Z0.0000
G01 X66.4500 Y-2.2156 Z0.0000
G01 X66.4516 Y-2.2156 Z0.0000
G01 X67.0829 Y-2.2348 Z0.0000
G01 X70.8223 Y-2.3512 Z0.0000
G01 X70.8547 Y-1.3112 Z0.0000
G01 X67.1164 Y-1.1950 Z0.0000
G01 X67.1146 Y-1.1949 Z0.0000
G01 X67.1136 Y-1.1949 Z0.0000
G01 X66.4812 Y-1.1757 Z0.0000
G01 X66.4801 Y-1.1757 Z0.0000
G01 X66.4778 Y-1.1756 Z0.0000
G01 X65.8463 Y-1.1569 Z0.0000
G01 X65.8453 Y-1.1568 Z0.0000
G01 X65.8448 Y-1.1568 Z0.0000
G01 X65.2125 Y-1.1385 Z0.0000
G01 X65.2099 Y-1.1384 Z0.0000
G01 X64.5783 Y-1.1206 Z0.0000
G01 X64.5759 Y-1.1206 Z0.0000
G01 X63.9429 Y-1.1031 Z0.0000
G01 X63.9416 Y-1.1031 Z0.0000
G01 X63.3084 Y-1.0861 Z0.0000
G01 X63.3073 Y-1.0861 Z0.0000
G01 X63.3064 Y-1.0861 Z0.0000
G01 X62.6742 Y-1.0696 Z0.0000
G01 X62.6722 Y-1.0695 Z0.0000
G01 X62.0393 Y-1.0535 Z0.0000
G01 X62.0379 Y-1.0534 Z0.0000
G01 X61.4062 Y-1.0379 Z0.0000
G01 X61.4033 Y-1.0379 Z0.0000
G01 X60.7715 Y-1.0227 Z0.0000
G01 X60.7687 Y-1.0227 Z0.0000
G01 X60.7661 Y-1.0225 Z0.0000
G01 X60.1355 Y-1.0079 Z0.0000
G01 X60.1340 Y-1.0079 Z0.0000
G01 X59.5011 Y-0.9936 Z0.0000
G01 X59.4994 Y-0.9936 Z0.0000
G01 X58.8681 Y-0.9799 Z0.0000
G01 X58.8673 Y-0.9799 Z0.0000
G01 X58.8647 Y-0.9798 Z0.0000
G01 X58.2336 Y-0.9665 Z0.0000
G01 X58.2300 Y-0.9665 Z0.0000
G01 X58.2276 Y-0.9664 Z0.0000
G01 X57.5991 Y-0.9536 Z0.0000
G01 X57.5981 Y-0.9536 Z0.0000
G01 X57.5957 Y-0.9535 Z0.0000
G01 X56.9625 Y-0.9411 Z0.0000
G01 X56.9604 Y-0.9410 Z0.0000
G01 X56.3300 Y-0.9291 Z0.0000
G01 X56.3283 Y-0.9291 Z0.0000
G01 X56.3261 Y-0.9290 Z0.0000
G01 X55.6954 Y-0.9175 Z0.0000
G01 X55.6946 Y-0.9175 Z0.0000
G01 X55.6911 Y-0.9175 Z0.0000
G01 X55.6902 Y-0.9175 Z0.0000
G01 X55.0585 Y-0.9064 Z0.0000
G01 X55.0573 Y-0.9064 Z0.0000
G01 X54.4239 Y-0.8958 Z0.0000
G01 X54.4226 Y-0.8958 Z0.0000
G01 X53.7894 Y-0.8856 Z0.0000
G01 X53.7875 Y-0.8856 Z0.0000
G01 X53.1546 Y-0.8759 Z0.0000
G01 X53.1533 Y-0.8759 Z0.0000
G01 X52.5200 Y-0.8666 Z0.0000
G01 X52.5178 Y-0.8666 Z0.0000
G01 X51.8852 Y-0.8578 Z0.0000
G01 X51.8825 Y-0.8577 Z0.0000
G01 X51.8818 Y-0.8577 Z0.0000
G01 X51.2505 Y-0.8494 Z0.0000
G01 X51.2494 Y-0.8494 Z0.0000
G01 X50.6159 Y-0.8415 Z0.0000
G01 X50.6144 Y-0.8415 Z0.0000
G01 X49.9811 Y-0.8340 Z0.0000
G01 X49.9797 Y-0.8340 Z0.0000
G01 X49.3464 Y-0.8270 Z0.0000
G01 X49.3447 Y-0.8270 Z0.0000
G01 X48.7118 Y-0.8205 Z0.0000
G01 X48.7097 Y-0.8205 Z0.0000
G01 X48.0770 Y-0.8144 Z0.0000
G01 X48.0740 Y-0.8144 Z0.0000
G01 X47.4423 Y-0.8088 Z0.0000
G01 X47.4409 Y-0.8087 Z0.0000
G01 X46.8075 Y-0.8035 Z0.0000
G01 X46.8042 Y-0.8035 Z0.0000
G01 X46.8037 Y-0.8035 Z0.0000
G01 X46.1728 Y-0.7988 Z0.0000
G01 X46.1721 Y-0.7988 Z0.0000
G01 X45.5381 Y-0.7945 Z0.0000
G01 X45.5373 Y-0.7945 Z0.0000
G01 X44.9033 Y-0.7907 Z0.0000
G01 X44.9025 Y-0.7907 Z0.0000
G01 X44.2685 Y-0.7873 Z0.0000
G01 X44.2679 Y-0.7873 Z0.0000
G01 X43.6339 Y-0.7844 Z0.0000
G01 X43.6331 Y-0.7844 Z0.0000
G01 X42.9991 Y-0.7819 Z0.0000
G01 X42.9984 Y-0.7819 Z0.0000
G01 X42.3644 Y-0.7799 Z0.0000
G01 X42.3637 Y-0.7799 Z0.0000
G01 X41.7297 Y-0.7783 Z0.0000
G01 X41.7289 Y-0.7783 Z0.0000
G01 X41.0949 Y-0.7772 Z0.0000
G01 X41.0941 Y-0.7772 Z0.0000
G01 X40.4601 Y-0.7766 Z0.0000
G01 X40.4594 Y-0.7766 Z0.0000
G01 X39.8254 Y-0.7764 Z0.0000
G01 X39.8246 Y-0.7764 Z0.0000
G01 X39.1906 Y-0.7767 Z0.0000
G01 X39.1900 Y-0.7767 Z0.0000
G01 X38.5559 Y-0.7774 Z0.0000
G01 X38.5551 Y-0.7774 Z0.0000
G01 X37.9211 Y-0.7786 Z0.0000
G01 X37.9204 Y-0.7786 Z0.0000
G01 X37.2864 Y-0.7802 Z0.0000
G01 X37.2856 Y-0.7802 Z0.0000
G01 X36.6516 Y-0.7823 Z0.0000
G01 X36.6509 Y-0.7823 Z0.0000
G01 X36.0169 Y-0.7848 Z0.0000
G01 X36.0162 Y-0.7848 Z0.0000
G01 X35.3822 Y-0.7878 Z0.0000
G01 X35.3814 Y-0.7878 Z0.0000
G01 X34.7475 Y-0.7912 Z0.0000
G01 X34.7466 Y-0.7912 Z0.0000
G01 X34.1127 Y-0.7951 Z0.0000
G01 X34.1120 Y-0.7951 Z0.0000
G01 X33.4780 Y-0.7994 Z0.0000
G01 X33.4772 Y-0.7994 Z0.0000
G01 X32.8463 Y-0.8042 Z0.0000
G01 X32.8458 Y-0.8042 Z0.0000
G01 X32.8425 Y-0.8043 Z0.0000
G01 X32.2096 Y-0.8095 Z0.0000
G01 X32.2077 Y-0.8096 Z0.0000
G01 X31.5758 Y-0.8153 Z0.0000
G01 X31.5731 Y-0.8153 Z0.0000
G01 X30.9403 Y-0.8214 Z0.0000
G01 X30.9383 Y-0.8214 Z0.0000
G01 X30.3052 Y-0.8281 Z0.0000
G01 X30.3037 Y-0.8281 Z0.0000
G01 X29.6704 Y-0.8351 Z0.0000
G01 X29.6689 Y-0.8351 Z0.0000
G01 X29.0355 Y-0.8426 Z0.0000
G01 X29.0342 Y-0.8426 Z0.0000
G01 X28.4007 Y-0.8506 Z0.0000
G01 X28.3996 Y-0.8506 Z0.0000
G01 X27.7683 Y-0.8590 Z0.0000
G01 X27.7675 Y-0.8590 Z0.0000
G01 X27.7648 Y-0.8591 Z0.0000
G01 X27.1323 Y-0.8679 Z0.0000
G01 X27.1300 Y-0.8679 Z0.0000
G01 X26.4970 Y-0.8773 Z0.0000
G01 X26.4955 Y-0.8774 Z0.0000
G01 X25.8624 Y-0.8871 Z0.0000
G01 X25.8608 Y-0.8871 Z0.0000
G01 X25.2275 Y-0.8974 Z0.0000
G01 X25.2261 Y-0.8974 Z0.0000
G01 X24.5945 Y-0.9080 Z0.0000
G01 X24.5936 Y-0.9081 Z0.0000
G01 X24.5914 Y-0.9081 Z0.0000
G01 X23.9587 Y-0.9192 Z0.0000
G01 X23.9569 Y-0.9192 Z0.0000
G01 X23.3238 Y-0.9308 Z0.0000
G01 X23.3215 Y-0.9309 Z0.0000
G01 X23.3201 Y-0.9309 Z0.0000
G01 X22.6908 Y-0.9428 Z0.0000
G01 X22.6875 Y-0.9429 Z0.0000
G01 X22.0543 Y-0.9554 Z0.0000
G01 X22.0519 Y-0.9555 Z0.0000
G01 X22.0509 Y-0.9555 Z0.0000
G01 X21.4225 Y-0.9683 Z0.0000
G01 X21.4200 Y-0.9685 Z0.0000
G01 X21.4165 Y-0.9685 Z0.0000
G01 X20.7855 Y-0.9818 Z0.0000
G01 X20.7837 Y-0.9818 Z0.0000
G01 X20.1506 Y-0.9957 Z0.0000
G01 X20.1479 Y-0.9958 Z0.0000
G01 X20.1473 Y-0.9958 Z0.0000
G01 X19.5163 Y-1.0100 Z0.0000
G01 X19.5145 Y-1.0101 Z0.0000
G01 X18.8838 Y-1.0248 Z0.0000
G01 X18.8813 Y-1.0249 Z0.0000
G01 X18.8786 Y-1.0250 Z0.0000
G01 X18.2469 Y-1.0401 Z0.0000
G01 X18.2453 Y-1.0401 Z0.0000
G01 X17.6124 Y-1.0558 Z0.0000
G01 X17.6108 Y-1.0558 Z0.0000
G01 X16.9788 Y-1.0719 Z0.0000
G01 X16.9755 Y-1.0720 Z0.0000
G01 X16.3433 Y-1.0886 Z0.0000
G01 X16.3417 Y-1.0887 Z0.0000
G01 X15.7088 Y-1.1057 Z0.0000
G01 X15.7072 Y-1.1057 Z0.0000
G01 X15.0760 Y-1.1231 Z0.0000
G01 X15.0735 Y-1.1233 Z0.0000
G01 X15.0722 Y-1.1233 Z0.0000
G01 X14.4394 Y-1.1412 Z0.0000
G01 X14.4383 Y-1.1412 Z0.0000
G01 X13.8054 Y-1.1596 Z0.0000
G01 X13.8046 Y-1.1596 Z0.0000
G01 X13.8037 Y-1.1596 Z0.0000
G01 X13.1723 Y-1.1784 Z0.0000
G01 X13.1699 Y-1.1785 Z0.0000
G01 X13.1689 Y-1.1785 Z0.0000
G01 X12.5364 Y-1.1978 Z0.0000
G01 X12.5355 Y-1.1978 Z0.0000
G01 X12.5338 Y-1.1979 Z0.0000
G01 X11.9029 Y-1.2175 Z0.0000
G01 X11.9020 Y-1.2176 Z0.0000
G01 X11.9003 Y-1.2176 Z0.0000
G01 X11.2702 Y-1.2377 Z0.0000
G01 X11.2662 Y-1.2379 Z0.0000
G01 X11.2639 Y-1.2380 Z0.0000
G01 X10.6332 Y-1.2585 Z0.0000
G01 X10.6319 Y-1.2586 Z0.0000
G01 X10.6307 Y-1.2586 Z0.0000
G01 X9.9993 Y-1.2797 Z0.0000
G01 X9.9972 Y-1.2798 Z0.0000
G01 X9.3668 Y-1.3012 Z0.0000
G01 X9.3629 Y-1.3014 Z0.0000
G01 X9.3610 Y-1.3014 Z0.0000
G01 X8.7299 Y-1.3234 Z0.0000
G01 X8.7287 Y-1.3234 Z0.0000
G01 X8.7277 Y-1.3235 Z0.0000
G01 X8.0962 Y-1.3459 Z0.0000
G01 X8.0934 Y-1.3460 Z0.0000
G01 X7.4612 Y-1.3689 Z0.0000
G01 X7.4598 Y-1.3689 Z0.0000
G01 X6.8290 Y-1.3922 Z0.0000
G01 X6.8251 Y-1.3924 Z0.0000
G01 X6.8240 Y-1.3924 Z0.0000
G01 X6.1918 Y-1.4162 Z0.0000
G01 X6.1911 Y-1.4162 Z0.0000
G01 X5.5585 Y-1.4405 Z0.0000
G01 X5.5568 Y-1.4405 Z0.0000
G01 X4.9247 Y-1.4653 Z0.0000
G01 X4.9219 Y-1.4654 Z0.0000
G01 X1.1890 Y-1.6142 Z0.0000
G00 X1.1890 Y-1.6142 Z0.6000
M05
G00 X0.0000 Y0.0000 Z0.6000
G49
G01 G55 Z0 F20
G00 G55 X0 Y0 Z0
M30
