( Sample-snowboard-edge-trench.nc                                              )
( Generated by MonkeyCAM v4.0.3 at 2014-10-11 23:44:03 PDT                     )
(                                                                              )
( This GCode program is provided on an "AS IS" BASIS WITHOUT WARRANTIES OR     )
( CONDITIONS OF ANY KIND, either express or implied. You should inspect this   )
( program very carefully to confirm you understand its operation. YOU ARE      )
( RESPONSIBLE FOR ENSURING THIS PROGRAM WILL NOT DAMAGE YOUR MACHINE OR        )
( MATERIALS.                                                                   )
(                                                                              )
( See http://www.github.com/mikemag/MonkeyCAM for License and documentation.   )
(                                                                              )
( * Rapid height: 0.6000" [1.5240cm]                                           )
( * Tool: T1, Quarter Inch Upcut Spiral, diameter 0.2469" [0.6273cm]           )
( * Height baseline [Z=0.0] is the top of the table.                           )
( * XY origin is the left side of the table, Y is center of the part.          )
( * Requires G54 to be the part work coordinate offsets [WCO]. [0, 0] is the   )
(   center of the nose, with the board extending to positive X. The cutter may )
(   move to negative values of X.                                              )
( * Requires G55 to be the machine WCO, with Z above the rapid height.         )
( * Units are inches                                                           )
( * Center of the board in G54:                                                )
(     X=33.8582 Y=0.0000 Z=0.0000                                              )
( * Cutter bounding box in G54:                                                )
(     X0.0000 Y-5.8985 Z0.0000 to X63.7788 Y5.8985 Z0.6000                     )

G90 G20 G17 G40 G49
G43 H1 T1
G00 G54 X0 Y0 Z0.6000

G00 X3.9366 Y4.8602 Z0.6000
M03
G04 P5
G01 X3.9366 Y4.8602 Z0.2800 F70
G01 X7.5557 Y4.6327 Z0.2800
G01 X7.5577 Y4.6326 Z0.2800
G01 X7.5584 Y4.6326 Z0.2800
G01 X8.0885 Y4.6000 Z0.2800
G01 X8.0927 Y4.5997 Z0.2800
G01 X8.6278 Y4.5674 Z0.2800
G01 X8.6292 Y4.5673 Z0.2800
G01 X9.1640 Y4.5357 Z0.2800
G01 X9.1652 Y4.5357 Z0.2800
G01 X9.7001 Y4.5047 Z0.2800
G01 X9.7013 Y4.5046 Z0.2800
G01 X10.2364 Y4.4744 Z0.2800
G01 X10.2375 Y4.4743 Z0.2800
G01 X10.7704 Y4.4448 Z0.2800
G01 X10.7715 Y4.4448 Z0.2800
G01 X10.7737 Y4.4446 Z0.2800
G01 X11.3064 Y4.4158 Z0.2800
G01 X11.3071 Y4.4158 Z0.2800
G01 X11.3102 Y4.4157 Z0.2800
G01 X11.8453 Y4.3874 Z0.2800
G01 X11.8458 Y4.3874 Z0.2800
G01 X11.8465 Y4.3873 Z0.2800
G01 X12.3770 Y4.3599 Z0.2800
G01 X12.3778 Y4.3599 Z0.2800
G01 X12.3785 Y4.3598 Z0.2800
G01 X12.3829 Y4.3596 Z0.2800
G01 X12.9127 Y4.3329 Z0.2800
G01 X12.9133 Y4.3329 Z0.2800
G01 X12.9195 Y4.3325 Z0.2800
G01 X13.4544 Y4.3062 Z0.2800
G01 X13.4550 Y4.3062 Z0.2800
G01 X13.4559 Y4.3062 Z0.2800
G01 X13.9887 Y4.2806 Z0.2800
G01 X13.9921 Y4.2805 Z0.2800
G01 X14.5270 Y4.2555 Z0.2800
G01 X14.5287 Y4.2555 Z0.2800
G01 X15.0633 Y4.2312 Z0.2800
G01 X15.0653 Y4.2311 Z0.2800
G01 X15.0658 Y4.2311 Z0.2800
G01 X15.5995 Y4.2075 Z0.2800
G01 X15.6003 Y4.2075 Z0.2800
G01 X15.6026 Y4.2074 Z0.2800
G01 X16.1355 Y4.1845 Z0.2800
G01 X16.1364 Y4.1844 Z0.2800
G01 X16.1383 Y4.1844 Z0.2800
G01 X16.6733 Y4.1620 Z0.2800
G01 X16.6755 Y4.1620 Z0.2800
G01 X17.2068 Y4.1405 Z0.2800
G01 X17.2087 Y4.1404 Z0.2800
G01 X17.2114 Y4.1403 Z0.2800
G01 X17.7468 Y4.1193 Z0.2800
G01 X17.7482 Y4.1192 Z0.2800
G01 X18.2829 Y4.0990 Z0.2800
G01 X18.2851 Y4.0988 Z0.2800
G01 X18.2858 Y4.0988 Z0.2800
G01 X18.8195 Y4.0792 Z0.2800
G01 X18.8214 Y4.0791 Z0.2800
G01 X18.8235 Y4.0790 Z0.2800
G01 X19.3551 Y4.0601 Z0.2800
G01 X19.3572 Y4.0601 Z0.2800
G01 X19.3598 Y4.0600 Z0.2800
G01 X19.8931 Y4.0418 Z0.2800
G01 X19.8957 Y4.0416 Z0.2800
G01 X19.8967 Y4.0416 Z0.2800
G01 X20.4300 Y4.0240 Z0.2800
G01 X20.4314 Y4.0240 Z0.2800
G01 X20.9641 Y4.0070 Z0.2800
G01 X20.9661 Y4.0070 Z0.2800
G01 X20.9687 Y4.0069 Z0.2800
G01 X21.5042 Y3.9905 Z0.2800
G01 X21.5053 Y3.9905 Z0.2800
G01 X22.0403 Y3.9748 Z0.2800
G01 X22.0430 Y3.9747 Z0.2800
G01 X22.5768 Y3.9597 Z0.2800
G01 X22.5789 Y3.9597 Z0.2800
G01 X22.5806 Y3.9596 Z0.2800
G01 X23.1137 Y3.9453 Z0.2800
G01 X23.1161 Y3.9453 Z0.2800
G01 X23.1180 Y3.9452 Z0.2800
G01 X23.6503 Y3.9316 Z0.2800
G01 X23.6530 Y3.9315 Z0.2800
G01 X23.6541 Y3.9315 Z0.2800
G01 X24.1885 Y3.9185 Z0.2800
G01 X24.1901 Y3.9184 Z0.2800
G01 X24.7255 Y3.9061 Z0.2800
G01 X24.7262 Y3.9061 Z0.2800
G01 X24.7276 Y3.9060 Z0.2800
G01 X25.2606 Y3.8943 Z0.2800
G01 X25.2611 Y3.8943 Z0.2800
G01 X25.2646 Y3.8943 Z0.2800
G01 X25.2671 Y3.8942 Z0.2800
G01 X25.7985 Y3.8832 Z0.2800
G01 X25.8013 Y3.8832 Z0.2800
G01 X25.8019 Y3.8831 Z0.2800
G01 X26.3363 Y3.8728 Z0.2800
G01 X26.3375 Y3.8728 Z0.2800
G01 X26.3388 Y3.8727 Z0.2800
G01 X26.8711 Y3.8630 Z0.2800
G01 X26.8725 Y3.8630 Z0.2800
G01 X26.8761 Y3.8630 Z0.2800
G01 X26.8769 Y3.8629 Z0.2800
G01 X27.4103 Y3.8539 Z0.2800
G01 X27.4127 Y3.8539 Z0.2800
G01 X27.9472 Y3.8455 Z0.2800
G01 X27.9487 Y3.8455 Z0.2800
G01 X28.4842 Y3.8377 Z0.2800
G01 X28.4875 Y3.8377 Z0.2800
G01 X28.4883 Y3.8376 Z0.2800
G01 X29.0214 Y3.8306 Z0.2800
G01 X29.0234 Y3.8306 Z0.2800
G01 X29.5583 Y3.8242 Z0.2800
G01 X29.5611 Y3.8242 Z0.2800
G01 X30.0955 Y3.8184 Z0.2800
G01 X30.0990 Y3.8184 Z0.2800
G01 X30.6325 Y3.8133 Z0.2800
G01 X30.6348 Y3.8133 Z0.2800
G01 X30.6353 Y3.8133 Z0.2800
G01 X31.1694 Y3.8088 Z0.2800
G01 X31.1699 Y3.8088 Z0.2800
G01 X31.1735 Y3.8088 Z0.2800
G01 X31.1740 Y3.8088 Z0.2800
G01 X31.7065 Y3.8050 Z0.2800
G01 X31.7078 Y3.8050 Z0.2800
G01 X32.2436 Y3.8019 Z0.2800
G01 X32.2449 Y3.8019 Z0.2800
G01 X32.7807 Y3.7995 Z0.2800
G01 X32.7820 Y3.7995 Z0.2800
G01 X33.3177 Y3.7977 Z0.2800
G01 X33.3190 Y3.7977 Z0.2800
G01 X33.8548 Y3.7966 Z0.2800
G01 X33.8561 Y3.7966 Z0.2800
G01 X34.3918 Y3.7961 Z0.2800
G01 X34.3931 Y3.7961 Z0.2800
G01 X34.9289 Y3.7963 Z0.2800
G01 X34.9302 Y3.7963 Z0.2800
G01 X35.4660 Y3.7972 Z0.2800
G01 X35.4673 Y3.7972 Z0.2800
G01 X36.0031 Y3.7987 Z0.2800
G01 X36.0044 Y3.7987 Z0.2800
G01 X36.5401 Y3.8009 Z0.2800
G01 X36.5415 Y3.8009 Z0.2800
G01 X37.0772 Y3.8038 Z0.2800
G01 X37.0784 Y3.8038 Z0.2800
G01 X37.6142 Y3.8073 Z0.2800
G01 X37.6155 Y3.8073 Z0.2800
G01 X38.1494 Y3.8115 Z0.2800
G01 X38.1512 Y3.8115 Z0.2800
G01 X38.1538 Y3.8116 Z0.2800
G01 X38.6856 Y3.8164 Z0.2800
G01 X38.6896 Y3.8164 Z0.2800
G01 X39.2238 Y3.8219 Z0.2800
G01 X39.2267 Y3.8219 Z0.2800
G01 X39.7614 Y3.8281 Z0.2800
G01 X39.7638 Y3.8281 Z0.2800
G01 X40.2967 Y3.8349 Z0.2800
G01 X40.2975 Y3.8350 Z0.2800
G01 X40.3007 Y3.8350 Z0.2800
G01 X40.8364 Y3.8425 Z0.2800
G01 X40.8377 Y3.8425 Z0.2800
G01 X41.3721 Y3.8506 Z0.2800
G01 X41.3748 Y3.8507 Z0.2800
G01 X41.9081 Y3.8594 Z0.2800
G01 X41.9090 Y3.8595 Z0.2800
G01 X41.9118 Y3.8595 Z0.2800
G01 X42.4457 Y3.8690 Z0.2800
G01 X42.4464 Y3.8690 Z0.2800
G01 X42.4496 Y3.8690 Z0.2800
G01 X42.9835 Y3.8791 Z0.2800
G01 X42.9849 Y3.8792 Z0.2800
G01 X42.9858 Y3.8792 Z0.2800
G01 X43.5179 Y3.8899 Z0.2800
G01 X43.5204 Y3.8900 Z0.2800
G01 X43.5239 Y3.8901 Z0.2800
G01 X43.5246 Y3.8901 Z0.2800
G01 X44.0569 Y3.9014 Z0.2800
G01 X44.0578 Y3.9015 Z0.2800
G01 X44.0607 Y3.9015 Z0.2800
G01 X44.5937 Y3.9136 Z0.2800
G01 X44.5954 Y3.9137 Z0.2800
G01 X44.5978 Y3.9137 Z0.2800
G01 X45.1309 Y3.9265 Z0.2800
G01 X45.1321 Y3.9265 Z0.2800
G01 X45.1349 Y3.9266 Z0.2800
G01 X45.6669 Y3.9400 Z0.2800
G01 X45.6679 Y3.9400 Z0.2800
G01 X45.6712 Y3.9401 Z0.2800
G01 X46.2043 Y3.9541 Z0.2800
G01 X46.2060 Y3.9542 Z0.2800
G01 X46.2083 Y3.9542 Z0.2800
G01 X46.7414 Y3.9689 Z0.2800
G01 X46.7422 Y3.9690 Z0.2800
G01 X46.7450 Y3.9691 Z0.2800
G01 X47.2782 Y3.9844 Z0.2800
G01 X47.2801 Y3.9845 Z0.2800
G01 X47.2818 Y3.9845 Z0.2800
G01 X47.8150 Y4.0006 Z0.2800
G01 X47.8159 Y4.0006 Z0.2800
G01 X47.8187 Y4.0007 Z0.2800
G01 X48.3533 Y4.0174 Z0.2800
G01 X48.3538 Y4.0175 Z0.2800
G01 X48.3553 Y4.0175 Z0.2800
G01 X48.8874 Y4.0348 Z0.2800
G01 X48.8882 Y4.0349 Z0.2800
G01 X48.8917 Y4.0350 Z0.2800
G01 X48.8946 Y4.0351 Z0.2800
G01 X49.4268 Y4.0530 Z0.2800
G01 X49.4290 Y4.0531 Z0.2800
G01 X49.9613 Y4.0718 Z0.2800
G01 X49.9635 Y4.0719 Z0.2800
G01 X49.9657 Y4.0720 Z0.2800
G01 X50.4988 Y4.0913 Z0.2800
G01 X50.5016 Y4.0914 Z0.2800
G01 X50.5032 Y4.0914 Z0.2800
G01 X51.0370 Y4.1114 Z0.2800
G01 X51.0390 Y4.1115 Z0.2800
G01 X51.5735 Y4.1323 Z0.2800
G01 X51.5757 Y4.1324 Z0.2800
G01 X52.1102 Y4.1537 Z0.2800
G01 X52.1120 Y4.1538 Z0.2800
G01 X52.1135 Y4.1538 Z0.2800
G01 X52.6464 Y4.1758 Z0.2800
G01 X52.6490 Y4.1759 Z0.2800
G01 X53.1815 Y4.1986 Z0.2800
G01 X53.1835 Y4.1987 Z0.2800
G01 X53.1854 Y4.1988 Z0.2800
G01 X53.7187 Y4.2220 Z0.2800
G01 X53.7206 Y4.2221 Z0.2800
G01 X53.7225 Y4.2222 Z0.2800
G01 X54.2566 Y4.2462 Z0.2800
G01 X54.2579 Y4.2462 Z0.2800
G01 X54.7927 Y4.2710 Z0.2800
G01 X54.7938 Y4.2710 Z0.2800
G01 X54.7944 Y4.2710 Z0.2800
G01 X55.3284 Y4.2964 Z0.2800
G01 X55.3298 Y4.2964 Z0.2800
G01 X55.3308 Y4.2965 Z0.2800
G01 X55.8656 Y4.3225 Z0.2800
G01 X55.8672 Y4.3226 Z0.2800
G01 X56.4025 Y4.3493 Z0.2800
G01 X56.4051 Y4.3494 Z0.2800
G01 X56.9388 Y4.3767 Z0.2800
G01 X56.9399 Y4.3768 Z0.2800
G01 X57.4751 Y4.4048 Z0.2800
G01 X57.4764 Y4.4049 Z0.2800
G01 X58.0109 Y4.4335 Z0.2800
G01 X58.0117 Y4.4336 Z0.2800
G01 X58.0152 Y4.4338 Z0.2800
G01 X58.5474 Y4.4631 Z0.2800
G01 X58.5488 Y4.4631 Z0.2800
G01 X59.0838 Y4.4931 Z0.2800
G01 X59.0851 Y4.4932 Z0.2800
G01 X59.6189 Y4.5238 Z0.2800
G01 X59.6194 Y4.5238 Z0.2800
G01 X59.6214 Y4.5240 Z0.2800
G01 X60.1563 Y4.5553 Z0.2800
G01 X60.1576 Y4.5554 Z0.2800
G01 X63.7788 Y4.7720 Z0.2800
G01 X63.7167 Y5.8106 Z0.2800
G01 X60.0971 Y5.5941 Z0.2800
G01 X60.0948 Y5.5939 Z0.2800
G01 X59.5625 Y5.5627 Z0.2800
G01 X59.5614 Y5.5626 Z0.2800
G01 X59.5603 Y5.5625 Z0.2800
G01 X59.0256 Y5.5319 Z0.2800
G01 X59.0243 Y5.5318 Z0.2800
G01 X59.0222 Y5.5317 Z0.2800
G01 X58.4907 Y5.5019 Z0.2800
G01 X58.4877 Y5.5017 Z0.2800
G01 X57.9558 Y5.4725 Z0.2800
G01 X57.9523 Y5.4724 Z0.2800
G01 X57.4234 Y5.4440 Z0.2800
G01 X57.4225 Y5.4439 Z0.2800
G01 X57.4195 Y5.4437 Z0.2800
G01 X56.8857 Y5.4158 Z0.2800
G01 X56.8840 Y5.4157 Z0.2800
G01 X56.8829 Y5.4157 Z0.2800
G01 X56.3519 Y5.3885 Z0.2800
G01 X56.3501 Y5.3885 Z0.2800
G01 X55.8163 Y5.3618 Z0.2800
G01 X55.8149 Y5.3617 Z0.2800
G01 X55.8138 Y5.3616 Z0.2800
G01 X55.2809 Y5.3357 Z0.2800
G01 X55.2796 Y5.3357 Z0.2800
G01 X54.7451 Y5.3103 Z0.2800
G01 X54.7444 Y5.3103 Z0.2800
G01 X54.2099 Y5.2855 Z0.2800
G01 X54.2091 Y5.2855 Z0.2800
G01 X53.6746 Y5.2615 Z0.2800
G01 X53.1412 Y5.2382 Z0.2800
G01 X53.1405 Y5.2381 Z0.2800
G01 X53.1385 Y5.2381 Z0.2800
G01 X52.6059 Y5.2154 Z0.2800
G01 X52.6033 Y5.2153 Z0.2800
G01 X52.0703 Y5.1933 Z0.2800
G01 X52.0687 Y5.1933 Z0.2800
G01 X51.5334 Y5.1719 Z0.2800
G01 X51.5327 Y5.1719 Z0.2800
G01 X50.9980 Y5.1511 Z0.2800
G01 X50.9974 Y5.1511 Z0.2800
G01 X50.4625 Y5.1310 Z0.2800
G01 X49.9272 Y5.1116 Z0.2800
G01 X49.9262 Y5.1116 Z0.2800
G01 X49.3937 Y5.0929 Z0.2800
G01 X49.3920 Y5.0929 Z0.2800
G01 X49.3912 Y5.0929 Z0.2800
G01 X48.8579 Y5.0748 Z0.2800
G01 X48.8553 Y5.0747 Z0.2800
G01 X48.8536 Y5.0747 Z0.2800
G01 X48.3230 Y5.0574 Z0.2800
G01 X48.3213 Y5.0574 Z0.2800
G01 X48.3199 Y5.0573 Z0.2800
G01 X47.7852 Y5.0406 Z0.2800
G01 X47.2497 Y5.0244 Z0.2800
G01 X46.7141 Y5.0090 Z0.2800
G01 X46.7136 Y5.0090 Z0.2800
G01 X46.1785 Y4.9942 Z0.2800
G01 X45.6429 Y4.9801 Z0.2800
G01 X45.6423 Y4.9801 Z0.2800
G01 X45.1074 Y4.9666 Z0.2800
G01 X44.5717 Y4.9538 Z0.2800
G01 X44.5707 Y4.9538 Z0.2800
G01 X44.0361 Y4.9416 Z0.2800
G01 X43.5035 Y4.9303 Z0.2800
G01 X43.5025 Y4.9302 Z0.2800
G01 X43.4996 Y4.9302 Z0.2800
G01 X42.9671 Y4.9194 Z0.2800
G01 X42.9651 Y4.9194 Z0.2800
G01 X42.9626 Y4.9193 Z0.2800
G01 X42.4290 Y4.9092 Z0.2800
G01 X41.8970 Y4.8998 Z0.2800
G01 X41.8962 Y4.8998 Z0.2800
G01 X41.8934 Y4.8997 Z0.2800
G01 X41.3577 Y4.8909 Z0.2800
G01 X40.8225 Y4.8827 Z0.2800
G01 X40.8199 Y4.8827 Z0.2800
G01 X40.2904 Y4.8753 Z0.2800
G01 X40.2862 Y4.8753 Z0.2800
G01 X39.7505 Y4.8684 Z0.2800
G01 X39.2147 Y4.8622 Z0.2800
G01 X38.6789 Y4.8567 Z0.2800
G01 X38.1432 Y4.8519 Z0.2800
G01 X37.6074 Y4.8477 Z0.2800
G01 X37.0716 Y4.8442 Z0.2800
G01 X36.5359 Y4.8413 Z0.2800
G01 X36.0001 Y4.8391 Z0.2800
G01 X35.4643 Y4.8376 Z0.2800
G01 X34.9286 Y4.8367 Z0.2800
G01 X34.3928 Y4.8365 Z0.2800
G01 X33.8572 Y4.8370 Z0.2800
G01 X33.3214 Y4.8381 Z0.2800
G01 X32.7855 Y4.8399 Z0.2800
G01 X32.2498 Y4.8423 Z0.2800
G01 X31.7140 Y4.8454 Z0.2800
G01 X31.1781 Y4.8492 Z0.2800
G01 X31.1734 Y4.8492 Z0.2800
G01 X30.6439 Y4.8536 Z0.2800
G01 X30.6416 Y4.8537 Z0.2800
G01 X30.1067 Y4.8587 Z0.2800
G01 X29.5710 Y4.8645 Z0.2800
G01 X29.0352 Y4.8709 Z0.2800
G01 X28.4993 Y4.8780 Z0.2800
G01 X28.4955 Y4.8780 Z0.2800
G01 X27.9656 Y4.8857 Z0.2800
G01 X27.9628 Y4.8857 Z0.2800
G01 X27.4280 Y4.8942 Z0.2800
G01 X26.8922 Y4.9032 Z0.2800
G01 X26.8895 Y4.9033 Z0.2800
G01 X26.8887 Y4.9033 Z0.2800
G01 X26.3585 Y4.9129 Z0.2800
G01 X26.3553 Y4.9130 Z0.2800
G01 X26.3544 Y4.9131 Z0.2800
G01 X25.8210 Y4.9234 Z0.2800
G01 X25.2859 Y4.9345 Z0.2800
G01 X25.2832 Y4.9345 Z0.2800
G01 X25.2822 Y4.9345 Z0.2800
G01 X24.7516 Y4.9461 Z0.2800
G01 X24.7492 Y4.9462 Z0.2800
G01 X24.2148 Y4.9585 Z0.2800
G01 X24.2123 Y4.9586 Z0.2800
G01 X24.2112 Y4.9586 Z0.2800
G01 X23.6784 Y4.9716 Z0.2800
G01 X23.1433 Y4.9853 Z0.2800
G01 X23.1426 Y4.9853 Z0.2800
G01 X22.6072 Y4.9997 Z0.2800
G01 X22.0721 Y5.0147 Z0.2800
G01 X22.0715 Y5.0147 Z0.2800
G01 X21.5359 Y5.0304 Z0.2800
G01 X21.5337 Y5.0305 Z0.2800
G01 X21.0037 Y5.0466 Z0.2800
G01 X21.0014 Y5.0467 Z0.2800
G01 X20.9987 Y5.0468 Z0.2800
G01 X20.4656 Y5.0638 Z0.2800
G01 X20.4644 Y5.0638 Z0.2800
G01 X20.4627 Y5.0639 Z0.2800
G01 X19.9300 Y5.0814 Z0.2800
G01 X19.9293 Y5.0815 Z0.2800
G01 X19.3941 Y5.0998 Z0.2800
G01 X18.8591 Y5.1188 Z0.2800
G01 X18.8585 Y5.1188 Z0.2800
G01 X18.3236 Y5.1385 Z0.2800
G01 X18.3231 Y5.1385 Z0.2800
G01 X17.7877 Y5.1588 Z0.2800
G01 X17.7859 Y5.1589 Z0.2800
G01 X17.2557 Y5.1797 Z0.2800
G01 X17.2545 Y5.1798 Z0.2800
G01 X17.2512 Y5.1800 Z0.2800
G01 X16.7176 Y5.2015 Z0.2800
G01 X16.7165 Y5.2016 Z0.2800
G01 X16.1834 Y5.2238 Z0.2800
G01 X16.1820 Y5.2238 Z0.2800
G01 X16.1800 Y5.2239 Z0.2800
G01 X15.6472 Y5.2468 Z0.2800
G01 X15.6452 Y5.2469 Z0.2800
G01 X15.6445 Y5.2469 Z0.2800
G01 X15.1119 Y5.2705 Z0.2800
G01 X15.1101 Y5.2705 Z0.2800
G01 X14.5772 Y5.2947 Z0.2800
G01 X14.5765 Y5.2948 Z0.2800
G01 X14.5744 Y5.2948 Z0.2800
G01 X14.0422 Y5.3196 Z0.2800
G01 X14.0411 Y5.3197 Z0.2800
G01 X14.0397 Y5.3198 Z0.2800
G01 X13.5069 Y5.3453 Z0.2800
G01 X13.5051 Y5.3454 Z0.2800
G01 X13.5038 Y5.3455 Z0.2800
G01 X12.9735 Y5.3715 Z0.2800
G01 X12.9701 Y5.3717 Z0.2800
G01 X12.4405 Y5.3984 Z0.2800
G01 X12.4398 Y5.3984 Z0.2800
G01 X12.4352 Y5.3987 Z0.2800
G01 X11.9020 Y5.4262 Z0.2800
G01 X11.9009 Y5.4263 Z0.2800
G01 X11.9002 Y5.4263 Z0.2800
G01 X11.3652 Y5.4546 Z0.2800
G01 X11.3638 Y5.4546 Z0.2800
G01 X10.8332 Y5.4833 Z0.2800
G01 X10.8326 Y5.4833 Z0.2800
G01 X10.8319 Y5.4834 Z0.2800
G01 X10.8304 Y5.4835 Z0.2800
G01 X10.2974 Y5.5130 Z0.2800
G01 X10.2958 Y5.5131 Z0.2800
G01 X10.2952 Y5.5131 Z0.2800
G01 X9.7617 Y5.5433 Z0.2800
G01 X9.7607 Y5.5433 Z0.2800
G01 X9.7603 Y5.5434 Z0.2800
G01 X9.2260 Y5.5743 Z0.2800
G01 X9.2253 Y5.5743 Z0.2800
G01 X8.6911 Y5.6059 Z0.2800
G01 X8.6889 Y5.6060 Z0.2800
G01 X8.6880 Y5.6061 Z0.2800
G01 X8.6874 Y5.6061 Z0.2800
G01 X8.1597 Y5.6379 Z0.2800
G01 X8.1589 Y5.6380 Z0.2800
G01 X8.1583 Y5.6380 Z0.2800
G01 X8.1559 Y5.6382 Z0.2800
G01 X7.6211 Y5.6711 Z0.2800
G01 X4.0018 Y5.8985 Z0.2800
G01 X3.9366 Y4.8602 Z0.2800
G01 X3.9366 Y4.8602 Z0.1400
G01 X7.5557 Y4.6327 Z0.1400
G01 X7.5577 Y4.6326 Z0.1400
G01 X7.5584 Y4.6326 Z0.1400
G01 X8.0885 Y4.6000 Z0.1400
G01 X8.0927 Y4.5997 Z0.1400
G01 X8.6278 Y4.5674 Z0.1400
G01 X8.6292 Y4.5673 Z0.1400
G01 X9.1640 Y4.5357 Z0.1400
G01 X9.1652 Y4.5357 Z0.1400
G01 X9.7001 Y4.5047 Z0.1400
G01 X9.7013 Y4.5046 Z0.1400
G01 X10.2364 Y4.4744 Z0.1400
G01 X10.2375 Y4.4743 Z0.1400
G01 X10.7704 Y4.4448 Z0.1400
G01 X10.7715 Y4.4448 Z0.1400
G01 X10.7737 Y4.4446 Z0.1400
G01 X11.3064 Y4.4158 Z0.1400
G01 X11.3071 Y4.4158 Z0.1400
G01 X11.3102 Y4.4157 Z0.1400
G01 X11.8453 Y4.3874 Z0.1400
G01 X11.8458 Y4.3874 Z0.1400
G01 X11.8465 Y4.3873 Z0.1400
G01 X12.3770 Y4.3599 Z0.1400
G01 X12.3778 Y4.3599 Z0.1400
G01 X12.3785 Y4.3598 Z0.1400
G01 X12.3829 Y4.3596 Z0.1400
G01 X12.9127 Y4.3329 Z0.1400
G01 X12.9133 Y4.3329 Z0.1400
G01 X12.9195 Y4.3325 Z0.1400
G01 X13.4544 Y4.3062 Z0.1400
G01 X13.4550 Y4.3062 Z0.1400
G01 X13.4559 Y4.3062 Z0.1400
G01 X13.9887 Y4.2806 Z0.1400
G01 X13.9921 Y4.2805 Z0.1400
G01 X14.5270 Y4.2555 Z0.1400
G01 X14.5287 Y4.2555 Z0.1400
G01 X15.0633 Y4.2312 Z0.1400
G01 X15.0653 Y4.2311 Z0.1400
G01 X15.0658 Y4.2311 Z0.1400
G01 X15.5995 Y4.2075 Z0.1400
G01 X15.6003 Y4.2075 Z0.1400
G01 X15.6026 Y4.2074 Z0.1400
G01 X16.1355 Y4.1845 Z0.1400
G01 X16.1364 Y4.1844 Z0.1400
G01 X16.1383 Y4.1844 Z0.1400
G01 X16.6733 Y4.1620 Z0.1400
G01 X16.6755 Y4.1620 Z0.1400
G01 X17.2068 Y4.1405 Z0.1400
G01 X17.2087 Y4.1404 Z0.1400
G01 X17.2114 Y4.1403 Z0.1400
G01 X17.7468 Y4.1193 Z0.1400
G01 X17.7482 Y4.1192 Z0.1400
G01 X18.2829 Y4.0990 Z0.1400
G01 X18.2851 Y4.0988 Z0.1400
G01 X18.2858 Y4.0988 Z0.1400
G01 X18.8195 Y4.0792 Z0.1400
G01 X18.8214 Y4.0791 Z0.1400
G01 X18.8235 Y4.0790 Z0.1400
G01 X19.3551 Y4.0601 Z0.1400
G01 X19.3572 Y4.0601 Z0.1400
G01 X19.3598 Y4.0600 Z0.1400
G01 X19.8931 Y4.0418 Z0.1400
G01 X19.8957 Y4.0416 Z0.1400
G01 X19.8967 Y4.0416 Z0.1400
G01 X20.4300 Y4.0240 Z0.1400
G01 X20.4314 Y4.0240 Z0.1400
G01 X20.9641 Y4.0070 Z0.1400
G01 X20.9661 Y4.0070 Z0.1400
G01 X20.9687 Y4.0069 Z0.1400
G01 X21.5042 Y3.9905 Z0.1400
G01 X21.5053 Y3.9905 Z0.1400
G01 X22.0403 Y3.9748 Z0.1400
G01 X22.0430 Y3.9747 Z0.1400
G01 X22.5768 Y3.9597 Z0.1400
G01 X22.5789 Y3.9597 Z0.1400
G01 X22.5806 Y3.9596 Z0.1400
G01 X23.1137 Y3.9453 Z0.1400
G01 X23.1161 Y3.9453 Z0.1400
G01 X23.1180 Y3.9452 Z0.1400
G01 X23.6503 Y3.9316 Z0.1400
G01 X23.6530 Y3.9315 Z0.1400
G01 X23.6541 Y3.9315 Z0.1400
G01 X24.1885 Y3.9185 Z0.1400
G01 X24.1901 Y3.9184 Z0.1400
G01 X24.7255 Y3.9061 Z0.1400
G01 X24.7262 Y3.9061 Z0.1400
G01 X24.7276 Y3.9060 Z0.1400
G01 X25.2606 Y3.8943 Z0.1400
G01 X25.2611 Y3.8943 Z0.1400
G01 X25.2646 Y3.8943 Z0.1400
G01 X25.2671 Y3.8942 Z0.1400
G01 X25.7985 Y3.8832 Z0.1400
G01 X25.8013 Y3.8832 Z0.1400
G01 X25.8019 Y3.8831 Z0.1400
G01 X26.3363 Y3.8728 Z0.1400
G01 X26.3375 Y3.8728 Z0.1400
G01 X26.3388 Y3.8727 Z0.1400
G01 X26.8711 Y3.8630 Z0.1400
G01 X26.8725 Y3.8630 Z0.1400
G01 X26.8761 Y3.8630 Z0.1400
G01 X26.8769 Y3.8629 Z0.1400
G01 X27.4103 Y3.8539 Z0.1400
G01 X27.4127 Y3.8539 Z0.1400
G01 X27.9472 Y3.8455 Z0.1400
G01 X27.9487 Y3.8455 Z0.1400
G01 X28.4842 Y3.8377 Z0.1400
G01 X28.4875 Y3.8377 Z0.1400
G01 X28.4883 Y3.8376 Z0.1400
G01 X29.0214 Y3.8306 Z0.1400
G01 X29.0234 Y3.8306 Z0.1400
G01 X29.5583 Y3.8242 Z0.1400
G01 X29.5611 Y3.8242 Z0.1400
G01 X30.0955 Y3.8184 Z0.1400
G01 X30.0990 Y3.8184 Z0.1400
G01 X30.6325 Y3.8133 Z0.1400
G01 X30.6348 Y3.8133 Z0.1400
G01 X30.6353 Y3.8133 Z0.1400
G01 X31.1694 Y3.8088 Z0.1400
G01 X31.1699 Y3.8088 Z0.1400
G01 X31.1735 Y3.8088 Z0.1400
G01 X31.1740 Y3.8088 Z0.1400
G01 X31.7065 Y3.8050 Z0.1400
G01 X31.7078 Y3.8050 Z0.1400
G01 X32.2436 Y3.8019 Z0.1400
G01 X32.2449 Y3.8019 Z0.1400
G01 X32.7807 Y3.7995 Z0.1400
G01 X32.7820 Y3.7995 Z0.1400
G01 X33.3177 Y3.7977 Z0.1400
G01 X33.3190 Y3.7977 Z0.1400
G01 X33.8548 Y3.7966 Z0.1400
G01 X33.8561 Y3.7966 Z0.1400
G01 X34.3918 Y3.7961 Z0.1400
G01 X34.3931 Y3.7961 Z0.1400
G01 X34.9289 Y3.7963 Z0.1400
G01 X34.9302 Y3.7963 Z0.1400
G01 X35.4660 Y3.7972 Z0.1400
G01 X35.4673 Y3.7972 Z0.1400
G01 X36.0031 Y3.7987 Z0.1400
G01 X36.0044 Y3.7987 Z0.1400
G01 X36.5401 Y3.8009 Z0.1400
G01 X36.5415 Y3.8009 Z0.1400
G01 X37.0772 Y3.8038 Z0.1400
G01 X37.0784 Y3.8038 Z0.1400
G01 X37.6142 Y3.8073 Z0.1400
G01 X37.6155 Y3.8073 Z0.1400
G01 X38.1494 Y3.8115 Z0.1400
G01 X38.1512 Y3.8115 Z0.1400
G01 X38.1538 Y3.8116 Z0.1400
G01 X38.6856 Y3.8164 Z0.1400
G01 X38.6896 Y3.8164 Z0.1400
G01 X39.2238 Y3.8219 Z0.1400
G01 X39.2267 Y3.8219 Z0.1400
G01 X39.7614 Y3.8281 Z0.1400
G01 X39.7638 Y3.8281 Z0.1400
G01 X40.2967 Y3.8349 Z0.1400
G01 X40.2975 Y3.8350 Z0.1400
G01 X40.3007 Y3.8350 Z0.1400
G01 X40.8364 Y3.8425 Z0.1400
G01 X40.8377 Y3.8425 Z0.1400
G01 X41.3721 Y3.8506 Z0.1400
G01 X41.3748 Y3.8507 Z0.1400
G01 X41.9081 Y3.8594 Z0.1400
G01 X41.9090 Y3.8595 Z0.1400
G01 X41.9118 Y3.8595 Z0.1400
G01 X42.4457 Y3.8690 Z0.1400
G01 X42.4464 Y3.8690 Z0.1400
G01 X42.4496 Y3.8690 Z0.1400
G01 X42.9835 Y3.8791 Z0.1400
G01 X42.9849 Y3.8792 Z0.1400
G01 X42.9858 Y3.8792 Z0.1400
G01 X43.5179 Y3.8899 Z0.1400
G01 X43.5204 Y3.8900 Z0.1400
G01 X43.5239 Y3.8901 Z0.1400
G01 X43.5246 Y3.8901 Z0.1400
G01 X44.0569 Y3.9014 Z0.1400
G01 X44.0578 Y3.9015 Z0.1400
G01 X44.0607 Y3.9015 Z0.1400
G01 X44.5937 Y3.9136 Z0.1400
G01 X44.5954 Y3.9137 Z0.1400
G01 X44.5978 Y3.9137 Z0.1400
G01 X45.1309 Y3.9265 Z0.1400
G01 X45.1321 Y3.9265 Z0.1400
G01 X45.1349 Y3.9266 Z0.1400
G01 X45.6669 Y3.9400 Z0.1400
G01 X45.6679 Y3.9400 Z0.1400
G01 X45.6712 Y3.9401 Z0.1400
G01 X46.2043 Y3.9541 Z0.1400
G01 X46.2060 Y3.9542 Z0.1400
G01 X46.2083 Y3.9542 Z0.1400
G01 X46.7414 Y3.9689 Z0.1400
G01 X46.7422 Y3.9690 Z0.1400
G01 X46.7450 Y3.9691 Z0.1400
G01 X47.2782 Y3.9844 Z0.1400
G01 X47.2801 Y3.9845 Z0.1400
G01 X47.2818 Y3.9845 Z0.1400
G01 X47.8150 Y4.0006 Z0.1400
G01 X47.8159 Y4.0006 Z0.1400
G01 X47.8187 Y4.0007 Z0.1400
G01 X48.3533 Y4.0174 Z0.1400
G01 X48.3538 Y4.0175 Z0.1400
G01 X48.3553 Y4.0175 Z0.1400
G01 X48.8874 Y4.0348 Z0.1400
G01 X48.8882 Y4.0349 Z0.1400
G01 X48.8917 Y4.0350 Z0.1400
G01 X48.8946 Y4.0351 Z0.1400
G01 X49.4268 Y4.0530 Z0.1400
G01 X49.4290 Y4.0531 Z0.1400
G01 X49.9613 Y4.0718 Z0.1400
G01 X49.9635 Y4.0719 Z0.1400
G01 X49.9657 Y4.0720 Z0.1400
G01 X50.4988 Y4.0913 Z0.1400
G01 X50.5016 Y4.0914 Z0.1400
G01 X50.5032 Y4.0914 Z0.1400
G01 X51.0370 Y4.1114 Z0.1400
G01 X51.0390 Y4.1115 Z0.1400
G01 X51.5735 Y4.1323 Z0.1400
G01 X51.5757 Y4.1324 Z0.1400
G01 X52.1102 Y4.1537 Z0.1400
G01 X52.1120 Y4.1538 Z0.1400
G01 X52.1135 Y4.1538 Z0.1400
G01 X52.6464 Y4.1758 Z0.1400
G01 X52.6490 Y4.1759 Z0.1400
G01 X53.1815 Y4.1986 Z0.1400
G01 X53.1835 Y4.1987 Z0.1400
G01 X53.1854 Y4.1988 Z0.1400
G01 X53.7187 Y4.2220 Z0.1400
G01 X53.7206 Y4.2221 Z0.1400
G01 X53.7225 Y4.2222 Z0.1400
G01 X54.2566 Y4.2462 Z0.1400
G01 X54.2579 Y4.2462 Z0.1400
G01 X54.7927 Y4.2710 Z0.1400
G01 X54.7938 Y4.2710 Z0.1400
G01 X54.7944 Y4.2710 Z0.1400
G01 X55.3284 Y4.2964 Z0.1400
G01 X55.3298 Y4.2964 Z0.1400
G01 X55.3308 Y4.2965 Z0.1400
G01 X55.8656 Y4.3225 Z0.1400
G01 X55.8672 Y4.3226 Z0.1400
G01 X56.4025 Y4.3493 Z0.1400
G01 X56.4051 Y4.3494 Z0.1400
G01 X56.9388 Y4.3767 Z0.1400
G01 X56.9399 Y4.3768 Z0.1400
G01 X57.4751 Y4.4048 Z0.1400
G01 X57.4764 Y4.4049 Z0.1400
G01 X58.0109 Y4.4335 Z0.1400
G01 X58.0117 Y4.4336 Z0.1400
G01 X58.0152 Y4.4338 Z0.1400
G01 X58.5474 Y4.4631 Z0.1400
G01 X58.5488 Y4.4631 Z0.1400
G01 X59.0838 Y4.4931 Z0.1400
G01 X59.0851 Y4.4932 Z0.1400
G01 X59.6189 Y4.5238 Z0.1400
G01 X59.6194 Y4.5238 Z0.1400
G01 X59.6214 Y4.5240 Z0.1400
G01 X60.1563 Y4.5553 Z0.1400
G01 X60.1576 Y4.5554 Z0.1400
G01 X63.7788 Y4.7720 Z0.1400
G01 X63.7167 Y5.8106 Z0.1400
G01 X60.0971 Y5.5941 Z0.1400
G01 X60.0948 Y5.5939 Z0.1400
G01 X59.5625 Y5.5627 Z0.1400
G01 X59.5614 Y5.5626 Z0.1400
G01 X59.5603 Y5.5625 Z0.1400
G01 X59.0256 Y5.5319 Z0.1400
G01 X59.0243 Y5.5318 Z0.1400
G01 X59.0222 Y5.5317 Z0.1400
G01 X58.4907 Y5.5019 Z0.1400
G01 X58.4877 Y5.5017 Z0.1400
G01 X57.9558 Y5.4725 Z0.1400
G01 X57.9523 Y5.4724 Z0.1400
G01 X57.4234 Y5.4440 Z0.1400
G01 X57.4225 Y5.4439 Z0.1400
G01 X57.4195 Y5.4437 Z0.1400
G01 X56.8857 Y5.4158 Z0.1400
G01 X56.8840 Y5.4157 Z0.1400
G01 X56.8829 Y5.4157 Z0.1400
G01 X56.3519 Y5.3885 Z0.1400
G01 X56.3501 Y5.3885 Z0.1400
G01 X55.8163 Y5.3618 Z0.1400
G01 X55.8149 Y5.3617 Z0.1400
G01 X55.8138 Y5.3616 Z0.1400
G01 X55.2809 Y5.3357 Z0.1400
G01 X55.2796 Y5.3357 Z0.1400
G01 X54.7451 Y5.3103 Z0.1400
G01 X54.7444 Y5.3103 Z0.1400
G01 X54.2099 Y5.2855 Z0.1400
G01 X54.2091 Y5.2855 Z0.1400
G01 X53.6746 Y5.2615 Z0.1400
G01 X53.1412 Y5.2382 Z0.1400
G01 X53.1405 Y5.2381 Z0.1400
G01 X53.1385 Y5.2381 Z0.1400
G01 X52.6059 Y5.2154 Z0.1400
G01 X52.6033 Y5.2153 Z0.1400
G01 X52.0703 Y5.1933 Z0.1400
G01 X52.0687 Y5.1933 Z0.1400
G01 X51.5334 Y5.1719 Z0.1400
G01 X51.5327 Y5.1719 Z0.1400
G01 X50.9980 Y5.1511 Z0.1400
G01 X50.9974 Y5.1511 Z0.1400
G01 X50.4625 Y5.1310 Z0.1400
G01 X49.9272 Y5.1116 Z0.1400
G01 X49.9262 Y5.1116 Z0.1400
G01 X49.3937 Y5.0929 Z0.1400
G01 X49.3920 Y5.0929 Z0.1400
G01 X49.3912 Y5.0929 Z0.1400
G01 X48.8579 Y5.0748 Z0.1400
G01 X48.8553 Y5.0747 Z0.1400
G01 X48.8536 Y5.0747 Z0.1400
G01 X48.3230 Y5.0574 Z0.1400
G01 X48.3213 Y5.0574 Z0.1400
G01 X48.3199 Y5.0573 Z0.1400
G01 X47.7852 Y5.0406 Z0.1400
G01 X47.2497 Y5.0244 Z0.1400
G01 X46.7141 Y5.0090 Z0.1400
G01 X46.7136 Y5.0090 Z0.1400
G01 X46.1785 Y4.9942 Z0.1400
G01 X45.6429 Y4.9801 Z0.1400
G01 X45.6423 Y4.9801 Z0.1400
G01 X45.1074 Y4.9666 Z0.1400
G01 X44.5717 Y4.9538 Z0.1400
G01 X44.5707 Y4.9538 Z0.1400
G01 X44.0361 Y4.9416 Z0.1400
G01 X43.5035 Y4.9303 Z0.1400
G01 X43.5025 Y4.9302 Z0.1400
G01 X43.4996 Y4.9302 Z0.1400
G01 X42.9671 Y4.9194 Z0.1400
G01 X42.9651 Y4.9194 Z0.1400
G01 X42.9626 Y4.9193 Z0.1400
G01 X42.4290 Y4.9092 Z0.1400
G01 X41.8970 Y4.8998 Z0.1400
G01 X41.8962 Y4.8998 Z0.1400
G01 X41.8934 Y4.8997 Z0.1400
G01 X41.3577 Y4.8909 Z0.1400
G01 X40.8225 Y4.8827 Z0.1400
G01 X40.8199 Y4.8827 Z0.1400
G01 X40.2904 Y4.8753 Z0.1400
G01 X40.2862 Y4.8753 Z0.1400
G01 X39.7505 Y4.8684 Z0.1400
G01 X39.2147 Y4.8622 Z0.1400
G01 X38.6789 Y4.8567 Z0.1400
G01 X38.1432 Y4.8519 Z0.1400
G01 X37.6074 Y4.8477 Z0.1400
G01 X37.0716 Y4.8442 Z0.1400
G01 X36.5359 Y4.8413 Z0.1400
G01 X36.0001 Y4.8391 Z0.1400
G01 X35.4643 Y4.8376 Z0.1400
G01 X34.9286 Y4.8367 Z0.1400
G01 X34.3928 Y4.8365 Z0.1400
G01 X33.8572 Y4.8370 Z0.1400
G01 X33.3214 Y4.8381 Z0.1400
G01 X32.7855 Y4.8399 Z0.1400
G01 X32.2498 Y4.8423 Z0.1400
G01 X31.7140 Y4.8454 Z0.1400
G01 X31.1781 Y4.8492 Z0.1400
G01 X31.1734 Y4.8492 Z0.1400
G01 X30.6439 Y4.8536 Z0.1400
G01 X30.6416 Y4.8537 Z0.1400
G01 X30.1067 Y4.8587 Z0.1400
G01 X29.5710 Y4.8645 Z0.1400
G01 X29.0352 Y4.8709 Z0.1400
G01 X28.4993 Y4.8780 Z0.1400
G01 X28.4955 Y4.8780 Z0.1400
G01 X27.9656 Y4.8857 Z0.1400
G01 X27.9628 Y4.8857 Z0.1400
G01 X27.4280 Y4.8942 Z0.1400
G01 X26.8922 Y4.9032 Z0.1400
G01 X26.8895 Y4.9033 Z0.1400
G01 X26.8887 Y4.9033 Z0.1400
G01 X26.3585 Y4.9129 Z0.1400
G01 X26.3553 Y4.9130 Z0.1400
G01 X26.3544 Y4.9131 Z0.1400
G01 X25.8210 Y4.9234 Z0.1400
G01 X25.2859 Y4.9345 Z0.1400
G01 X25.2832 Y4.9345 Z0.1400
G01 X25.2822 Y4.9345 Z0.1400
G01 X24.7516 Y4.9461 Z0.1400
G01 X24.7492 Y4.9462 Z0.1400
G01 X24.2148 Y4.9585 Z0.1400
G01 X24.2123 Y4.9586 Z0.1400
G01 X24.2112 Y4.9586 Z0.1400
G01 X23.6784 Y4.9716 Z0.1400
G01 X23.1433 Y4.9853 Z0.1400
G01 X23.1426 Y4.9853 Z0.1400
G01 X22.6072 Y4.9997 Z0.1400
G01 X22.0721 Y5.0147 Z0.1400
G01 X22.0715 Y5.0147 Z0.1400
G01 X21.5359 Y5.0304 Z0.1400
G01 X21.5337 Y5.0305 Z0.1400
G01 X21.0037 Y5.0466 Z0.1400
G01 X21.0014 Y5.0467 Z0.1400
G01 X20.9987 Y5.0468 Z0.1400
G01 X20.4656 Y5.0638 Z0.1400
G01 X20.4644 Y5.0638 Z0.1400
G01 X20.4627 Y5.0639 Z0.1400
G01 X19.9300 Y5.0814 Z0.1400
G01 X19.9293 Y5.0815 Z0.1400
G01 X19.3941 Y5.0998 Z0.1400
G01 X18.8591 Y5.1188 Z0.1400
G01 X18.8585 Y5.1188 Z0.1400
G01 X18.3236 Y5.1385 Z0.1400
G01 X18.3231 Y5.1385 Z0.1400
G01 X17.7877 Y5.1588 Z0.1400
G01 X17.7859 Y5.1589 Z0.1400
G01 X17.2557 Y5.1797 Z0.1400
G01 X17.2545 Y5.1798 Z0.1400
G01 X17.2512 Y5.1800 Z0.1400
G01 X16.7176 Y5.2015 Z0.1400
G01 X16.7165 Y5.2016 Z0.1400
G01 X16.1834 Y5.2238 Z0.1400
G01 X16.1820 Y5.2238 Z0.1400
G01 X16.1800 Y5.2239 Z0.1400
G01 X15.6472 Y5.2468 Z0.1400
G01 X15.6452 Y5.2469 Z0.1400
G01 X15.6445 Y5.2469 Z0.1400
G01 X15.1119 Y5.2705 Z0.1400
G01 X15.1101 Y5.2705 Z0.1400
G01 X14.5772 Y5.2947 Z0.1400
G01 X14.5765 Y5.2948 Z0.1400
G01 X14.5744 Y5.2948 Z0.1400
G01 X14.0422 Y5.3196 Z0.1400
G01 X14.0411 Y5.3197 Z0.1400
G01 X14.0397 Y5.3198 Z0.1400
G01 X13.5069 Y5.3453 Z0.1400
G01 X13.5051 Y5.3454 Z0.1400
G01 X13.5038 Y5.3455 Z0.1400
G01 X12.9735 Y5.3715 Z0.1400
G01 X12.9701 Y5.3717 Z0.1400
G01 X12.4405 Y5.3984 Z0.1400
G01 X12.4398 Y5.3984 Z0.1400
G01 X12.4352 Y5.3987 Z0.1400
G01 X11.9020 Y5.4262 Z0.1400
G01 X11.9009 Y5.4263 Z0.1400
G01 X11.9002 Y5.4263 Z0.1400
G01 X11.3652 Y5.4546 Z0.1400
G01 X11.3638 Y5.4546 Z0.1400
G01 X10.8332 Y5.4833 Z0.1400
G01 X10.8326 Y5.4833 Z0.1400
G01 X10.8319 Y5.4834 Z0.1400
G01 X10.8304 Y5.4835 Z0.1400
G01 X10.2974 Y5.5130 Z0.1400
G01 X10.2958 Y5.5131 Z0.1400
G01 X10.2952 Y5.5131 Z0.1400
G01 X9.7617 Y5.5433 Z0.1400
G01 X9.7607 Y5.5433 Z0.1400
G01 X9.7603 Y5.5434 Z0.1400
G01 X9.2260 Y5.5743 Z0.1400
G01 X9.2253 Y5.5743 Z0.1400
G01 X8.6911 Y5.6059 Z0.1400
G01 X8.6889 Y5.6060 Z0.1400
G01 X8.6880 Y5.6061 Z0.1400
G01 X8.6874 Y5.6061 Z0.1400
G01 X8.1597 Y5.6379 Z0.1400
G01 X8.1589 Y5.6380 Z0.1400
G01 X8.1583 Y5.6380 Z0.1400
G01 X8.1559 Y5.6382 Z0.1400
G01 X7.6211 Y5.6711 Z0.1400
G01 X4.0018 Y5.8985 Z0.1400
G01 X3.9366 Y4.8602 Z0.1400
G01 X3.9366 Y4.8602 Z0.0000
G01 X7.5557 Y4.6327 Z0.0000
G01 X7.5577 Y4.6326 Z0.0000
G01 X7.5584 Y4.6326 Z0.0000
G01 X8.0885 Y4.6000 Z0.0000
G01 X8.0927 Y4.5997 Z0.0000
G01 X8.6278 Y4.5674 Z0.0000
G01 X8.6292 Y4.5673 Z0.0000
G01 X9.1640 Y4.5357 Z0.0000
G01 X9.1652 Y4.5357 Z0.0000
G01 X9.7001 Y4.5047 Z0.0000
G01 X9.7013 Y4.5046 Z0.0000
G01 X10.2364 Y4.4744 Z0.0000
G01 X10.2375 Y4.4743 Z0.0000
G01 X10.7704 Y4.4448 Z0.0000
G01 X10.7715 Y4.4448 Z0.0000
G01 X10.7737 Y4.4446 Z0.0000
G01 X11.3064 Y4.4158 Z0.0000
G01 X11.3071 Y4.4158 Z0.0000
G01 X11.3102 Y4.4157 Z0.0000
G01 X11.8453 Y4.3874 Z0.0000
G01 X11.8458 Y4.3874 Z0.0000
G01 X11.8465 Y4.3873 Z0.0000
G01 X12.3770 Y4.3599 Z0.0000
G01 X12.3778 Y4.3599 Z0.0000
G01 X12.3785 Y4.3598 Z0.0000
G01 X12.3829 Y4.3596 Z0.0000
G01 X12.9127 Y4.3329 Z0.0000
G01 X12.9133 Y4.3329 Z0.0000
G01 X12.9195 Y4.3325 Z0.0000
G01 X13.4544 Y4.3062 Z0.0000
G01 X13.4550 Y4.3062 Z0.0000
G01 X13.4559 Y4.3062 Z0.0000
G01 X13.9887 Y4.2806 Z0.0000
G01 X13.9921 Y4.2805 Z0.0000
G01 X14.5270 Y4.2555 Z0.0000
G01 X14.5287 Y4.2555 Z0.0000
G01 X15.0633 Y4.2312 Z0.0000
G01 X15.0653 Y4.2311 Z0.0000
G01 X15.0658 Y4.2311 Z0.0000
G01 X15.5995 Y4.2075 Z0.0000
G01 X15.6003 Y4.2075 Z0.0000
G01 X15.6026 Y4.2074 Z0.0000
G01 X16.1355 Y4.1845 Z0.0000
G01 X16.1364 Y4.1844 Z0.0000
G01 X16.1383 Y4.1844 Z0.0000
G01 X16.6733 Y4.1620 Z0.0000
G01 X16.6755 Y4.1620 Z0.0000
G01 X17.2068 Y4.1405 Z0.0000
G01 X17.2087 Y4.1404 Z0.0000
G01 X17.2114 Y4.1403 Z0.0000
G01 X17.7468 Y4.1193 Z0.0000
G01 X17.7482 Y4.1192 Z0.0000
G01 X18.2829 Y4.0990 Z0.0000
G01 X18.2851 Y4.0988 Z0.0000
G01 X18.2858 Y4.0988 Z0.0000
G01 X18.8195 Y4.0792 Z0.0000
G01 X18.8214 Y4.0791 Z0.0000
G01 X18.8235 Y4.0790 Z0.0000
G01 X19.3551 Y4.0601 Z0.0000
G01 X19.3572 Y4.0601 Z0.0000
G01 X19.3598 Y4.0600 Z0.0000
G01 X19.8931 Y4.0418 Z0.0000
G01 X19.8957 Y4.0416 Z0.0000
G01 X19.8967 Y4.0416 Z0.0000
G01 X20.4300 Y4.0240 Z0.0000
G01 X20.4314 Y4.0240 Z0.0000
G01 X20.9641 Y4.0070 Z0.0000
G01 X20.9661 Y4.0070 Z0.0000
G01 X20.9687 Y4.0069 Z0.0000
G01 X21.5042 Y3.9905 Z0.0000
G01 X21.5053 Y3.9905 Z0.0000
G01 X22.0403 Y3.9748 Z0.0000
G01 X22.0430 Y3.9747 Z0.0000
G01 X22.5768 Y3.9597 Z0.0000
G01 X22.5789 Y3.9597 Z0.0000
G01 X22.5806 Y3.9596 Z0.0000
G01 X23.1137 Y3.9453 Z0.0000
G01 X23.1161 Y3.9453 Z0.0000
G01 X23.1180 Y3.9452 Z0.0000
G01 X23.6503 Y3.9316 Z0.0000
G01 X23.6530 Y3.9315 Z0.0000
G01 X23.6541 Y3.9315 Z0.0000
G01 X24.1885 Y3.9185 Z0.0000
G01 X24.1901 Y3.9184 Z0.0000
G01 X24.7255 Y3.9061 Z0.0000
G01 X24.7262 Y3.9061 Z0.0000
G01 X24.7276 Y3.9060 Z0.0000
G01 X25.2606 Y3.8943 Z0.0000
G01 X25.2611 Y3.8943 Z0.0000
G01 X25.2646 Y3.8943 Z0.0000
G01 X25.2671 Y3.8942 Z0.0000
G01 X25.7985 Y3.8832 Z0.0000
G01 X25.8013 Y3.8832 Z0.0000
G01 X25.8019 Y3.8831 Z0.0000
G01 X26.3363 Y3.8728 Z0.0000
G01 X26.3375 Y3.8728 Z0.0000
G01 X26.3388 Y3.8727 Z0.0000
G01 X26.8711 Y3.8630 Z0.0000
G01 X26.8725 Y3.8630 Z0.0000
G01 X26.8761 Y3.8630 Z0.0000
G01 X26.8769 Y3.8629 Z0.0000
G01 X27.4103 Y3.8539 Z0.0000
G01 X27.4127 Y3.8539 Z0.0000
G01 X27.9472 Y3.8455 Z0.0000
G01 X27.9487 Y3.8455 Z0.0000
G01 X28.4842 Y3.8377 Z0.0000
G01 X28.4875 Y3.8377 Z0.0000
G01 X28.4883 Y3.8376 Z0.0000
G01 X29.0214 Y3.8306 Z0.0000
G01 X29.0234 Y3.8306 Z0.0000
G01 X29.5583 Y3.8242 Z0.0000
G01 X29.5611 Y3.8242 Z0.0000
G01 X30.0955 Y3.8184 Z0.0000
G01 X30.0990 Y3.8184 Z0.0000
G01 X30.6325 Y3.8133 Z0.0000
G01 X30.6348 Y3.8133 Z0.0000
G01 X30.6353 Y3.8133 Z0.0000
G01 X31.1694 Y3.8088 Z0.0000
G01 X31.1699 Y3.8088 Z0.0000
G01 X31.1735 Y3.8088 Z0.0000
G01 X31.1740 Y3.8088 Z0.0000
G01 X31.7065 Y3.8050 Z0.0000
G01 X31.7078 Y3.8050 Z0.0000
G01 X32.2436 Y3.8019 Z0.0000
G01 X32.2449 Y3.8019 Z0.0000
G01 X32.7807 Y3.7995 Z0.0000
G01 X32.7820 Y3.7995 Z0.0000
G01 X33.3177 Y3.7977 Z0.0000
G01 X33.3190 Y3.7977 Z0.0000
G01 X33.8548 Y3.7966 Z0.0000
G01 X33.8561 Y3.7966 Z0.0000
G01 X34.3918 Y3.7961 Z0.0000
G01 X34.3931 Y3.7961 Z0.0000
G01 X34.9289 Y3.7963 Z0.0000
G01 X34.9302 Y3.7963 Z0.0000
G01 X35.4660 Y3.7972 Z0.0000
G01 X35.4673 Y3.7972 Z0.0000
G01 X36.0031 Y3.7987 Z0.0000
G01 X36.0044 Y3.7987 Z0.0000
G01 X36.5401 Y3.8009 Z0.0000
G01 X36.5415 Y3.8009 Z0.0000
G01 X37.0772 Y3.8038 Z0.0000
G01 X37.0784 Y3.8038 Z0.0000
G01 X37.6142 Y3.8073 Z0.0000
G01 X37.6155 Y3.8073 Z0.0000
G01 X38.1494 Y3.8115 Z0.0000
G01 X38.1512 Y3.8115 Z0.0000
G01 X38.1538 Y3.8116 Z0.0000
G01 X38.6856 Y3.8164 Z0.0000
G01 X38.6896 Y3.8164 Z0.0000
G01 X39.2238 Y3.8219 Z0.0000
G01 X39.2267 Y3.8219 Z0.0000
G01 X39.7614 Y3.8281 Z0.0000
G01 X39.7638 Y3.8281 Z0.0000
G01 X40.2967 Y3.8349 Z0.0000
G01 X40.2975 Y3.8350 Z0.0000
G01 X40.3007 Y3.8350 Z0.0000
G01 X40.8364 Y3.8425 Z0.0000
G01 X40.8377 Y3.8425 Z0.0000
G01 X41.3721 Y3.8506 Z0.0000
G01 X41.3748 Y3.8507 Z0.0000
G01 X41.9081 Y3.8594 Z0.0000
G01 X41.9090 Y3.8595 Z0.0000
G01 X41.9118 Y3.8595 Z0.0000
G01 X42.4457 Y3.8690 Z0.0000
G01 X42.4464 Y3.8690 Z0.0000
G01 X42.4496 Y3.8690 Z0.0000
G01 X42.9835 Y3.8791 Z0.0000
G01 X42.9849 Y3.8792 Z0.0000
G01 X42.9858 Y3.8792 Z0.0000
G01 X43.5179 Y3.8899 Z0.0000
G01 X43.5204 Y3.8900 Z0.0000
G01 X43.5239 Y3.8901 Z0.0000
G01 X43.5246 Y3.8901 Z0.0000
G01 X44.0569 Y3.9014 Z0.0000
G01 X44.0578 Y3.9015 Z0.0000
G01 X44.0607 Y3.9015 Z0.0000
G01 X44.5937 Y3.9136 Z0.0000
G01 X44.5954 Y3.9137 Z0.0000
G01 X44.5978 Y3.9137 Z0.0000
G01 X45.1309 Y3.9265 Z0.0000
G01 X45.1321 Y3.9265 Z0.0000
G01 X45.1349 Y3.9266 Z0.0000
G01 X45.6669 Y3.9400 Z0.0000
G01 X45.6679 Y3.9400 Z0.0000
G01 X45.6712 Y3.9401 Z0.0000
G01 X46.2043 Y3.9541 Z0.0000
G01 X46.2060 Y3.9542 Z0.0000
G01 X46.2083 Y3.9542 Z0.0000
G01 X46.7414 Y3.9689 Z0.0000
G01 X46.7422 Y3.9690 Z0.0000
G01 X46.7450 Y3.9691 Z0.0000
G01 X47.2782 Y3.9844 Z0.0000
G01 X47.2801 Y3.9845 Z0.0000
G01 X47.2818 Y3.9845 Z0.0000
G01 X47.8150 Y4.0006 Z0.0000
G01 X47.8159 Y4.0006 Z0.0000
G01 X47.8187 Y4.0007 Z0.0000
G01 X48.3533 Y4.0174 Z0.0000
G01 X48.3538 Y4.0175 Z0.0000
G01 X48.3553 Y4.0175 Z0.0000
G01 X48.8874 Y4.0348 Z0.0000
G01 X48.8882 Y4.0349 Z0.0000
G01 X48.8917 Y4.0350 Z0.0000
G01 X48.8946 Y4.0351 Z0.0000
G01 X49.4268 Y4.0530 Z0.0000
G01 X49.4290 Y4.0531 Z0.0000
G01 X49.9613 Y4.0718 Z0.0000
G01 X49.9635 Y4.0719 Z0.0000
G01 X49.9657 Y4.0720 Z0.0000
G01 X50.4988 Y4.0913 Z0.0000
G01 X50.5016 Y4.0914 Z0.0000
G01 X50.5032 Y4.0914 Z0.0000
G01 X51.0370 Y4.1114 Z0.0000
G01 X51.0390 Y4.1115 Z0.0000
G01 X51.5735 Y4.1323 Z0.0000
G01 X51.5757 Y4.1324 Z0.0000
G01 X52.1102 Y4.1537 Z0.0000
G01 X52.1120 Y4.1538 Z0.0000
G01 X52.1135 Y4.1538 Z0.0000
G01 X52.6464 Y4.1758 Z0.0000
G01 X52.6490 Y4.1759 Z0.0000
G01 X53.1815 Y4.1986 Z0.0000
G01 X53.1835 Y4.1987 Z0.0000
G01 X53.1854 Y4.1988 Z0.0000
G01 X53.7187 Y4.2220 Z0.0000
G01 X53.7206 Y4.2221 Z0.0000
G01 X53.7225 Y4.2222 Z0.0000
G01 X54.2566 Y4.2462 Z0.0000
G01 X54.2579 Y4.2462 Z0.0000
G01 X54.7927 Y4.2710 Z0.0000
G01 X54.7938 Y4.2710 Z0.0000
G01 X54.7944 Y4.2710 Z0.0000
G01 X55.3284 Y4.2964 Z0.0000
G01 X55.3298 Y4.2964 Z0.0000
G01 X55.3308 Y4.2965 Z0.0000
G01 X55.8656 Y4.3225 Z0.0000
G01 X55.8672 Y4.3226 Z0.0000
G01 X56.4025 Y4.3493 Z0.0000
G01 X56.4051 Y4.3494 Z0.0000
G01 X56.9388 Y4.3767 Z0.0000
G01 X56.9399 Y4.3768 Z0.0000
G01 X57.4751 Y4.4048 Z0.0000
G01 X57.4764 Y4.4049 Z0.0000
G01 X58.0109 Y4.4335 Z0.0000
G01 X58.0117 Y4.4336 Z0.0000
G01 X58.0152 Y4.4338 Z0.0000
G01 X58.5474 Y4.4631 Z0.0000
G01 X58.5488 Y4.4631 Z0.0000
G01 X59.0838 Y4.4931 Z0.0000
G01 X59.0851 Y4.4932 Z0.0000
G01 X59.6189 Y4.5238 Z0.0000
G01 X59.6194 Y4.5238 Z0.0000
G01 X59.6214 Y4.5240 Z0.0000
G01 X60.1563 Y4.5553 Z0.0000
G01 X60.1576 Y4.5554 Z0.0000
G01 X63.7788 Y4.7720 Z0.0000
G01 X63.7167 Y5.8106 Z0.0000
G01 X60.0971 Y5.5941 Z0.0000
G01 X60.0948 Y5.5939 Z0.0000
G01 X59.5625 Y5.5627 Z0.0000
G01 X59.5614 Y5.5626 Z0.0000
G01 X59.5603 Y5.5625 Z0.0000
G01 X59.0256 Y5.5319 Z0.0000
G01 X59.0243 Y5.5318 Z0.0000
G01 X59.0222 Y5.5317 Z0.0000
G01 X58.4907 Y5.5019 Z0.0000
G01 X58.4877 Y5.5017 Z0.0000
G01 X57.9558 Y5.4725 Z0.0000
G01 X57.9523 Y5.4724 Z0.0000
G01 X57.4234 Y5.4440 Z0.0000
G01 X57.4225 Y5.4439 Z0.0000
G01 X57.4195 Y5.4437 Z0.0000
G01 X56.8857 Y5.4158 Z0.0000
G01 X56.8840 Y5.4157 Z0.0000
G01 X56.8829 Y5.4157 Z0.0000
G01 X56.3519 Y5.3885 Z0.0000
G01 X56.3501 Y5.3885 Z0.0000
G01 X55.8163 Y5.3618 Z0.0000
G01 X55.8149 Y5.3617 Z0.0000
G01 X55.8138 Y5.3616 Z0.0000
G01 X55.2809 Y5.3357 Z0.0000
G01 X55.2796 Y5.3357 Z0.0000
G01 X54.7451 Y5.3103 Z0.0000
G01 X54.7444 Y5.3103 Z0.0000
G01 X54.2099 Y5.2855 Z0.0000
G01 X54.2091 Y5.2855 Z0.0000
G01 X53.6746 Y5.2615 Z0.0000
G01 X53.1412 Y5.2382 Z0.0000
G01 X53.1405 Y5.2381 Z0.0000
G01 X53.1385 Y5.2381 Z0.0000
G01 X52.6059 Y5.2154 Z0.0000
G01 X52.6033 Y5.2153 Z0.0000
G01 X52.0703 Y5.1933 Z0.0000
G01 X52.0687 Y5.1933 Z0.0000
G01 X51.5334 Y5.1719 Z0.0000
G01 X51.5327 Y5.1719 Z0.0000
G01 X50.9980 Y5.1511 Z0.0000
G01 X50.9974 Y5.1511 Z0.0000
G01 X50.4625 Y5.1310 Z0.0000
G01 X49.9272 Y5.1116 Z0.0000
G01 X49.9262 Y5.1116 Z0.0000
G01 X49.3937 Y5.0929 Z0.0000
G01 X49.3920 Y5.0929 Z0.0000
G01 X49.3912 Y5.0929 Z0.0000
G01 X48.8579 Y5.0748 Z0.0000
G01 X48.8553 Y5.0747 Z0.0000
G01 X48.8536 Y5.0747 Z0.0000
G01 X48.3230 Y5.0574 Z0.0000
G01 X48.3213 Y5.0574 Z0.0000
G01 X48.3199 Y5.0573 Z0.0000
G01 X47.7852 Y5.0406 Z0.0000
G01 X47.2497 Y5.0244 Z0.0000
G01 X46.7141 Y5.0090 Z0.0000
G01 X46.7136 Y5.0090 Z0.0000
G01 X46.1785 Y4.9942 Z0.0000
G01 X45.6429 Y4.9801 Z0.0000
G01 X45.6423 Y4.9801 Z0.0000
G01 X45.1074 Y4.9666 Z0.0000
G01 X44.5717 Y4.9538 Z0.0000
G01 X44.5707 Y4.9538 Z0.0000
G01 X44.0361 Y4.9416 Z0.0000
G01 X43.5035 Y4.9303 Z0.0000
G01 X43.5025 Y4.9302 Z0.0000
G01 X43.4996 Y4.9302 Z0.0000
G01 X42.9671 Y4.9194 Z0.0000
G01 X42.9651 Y4.9194 Z0.0000
G01 X42.9626 Y4.9193 Z0.0000
G01 X42.4290 Y4.9092 Z0.0000
G01 X41.8970 Y4.8998 Z0.0000
G01 X41.8962 Y4.8998 Z0.0000
G01 X41.8934 Y4.8997 Z0.0000
G01 X41.3577 Y4.8909 Z0.0000
G01 X40.8225 Y4.8827 Z0.0000
G01 X40.8199 Y4.8827 Z0.0000
G01 X40.2904 Y4.8753 Z0.0000
G01 X40.2862 Y4.8753 Z0.0000
G01 X39.7505 Y4.8684 Z0.0000
G01 X39.2147 Y4.8622 Z0.0000
G01 X38.6789 Y4.8567 Z0.0000
G01 X38.1432 Y4.8519 Z0.0000
G01 X37.6074 Y4.8477 Z0.0000
G01 X37.0716 Y4.8442 Z0.0000
G01 X36.5359 Y4.8413 Z0.0000
G01 X36.0001 Y4.8391 Z0.0000
G01 X35.4643 Y4.8376 Z0.0000
G01 X34.9286 Y4.8367 Z0.0000
G01 X34.3928 Y4.8365 Z0.0000
G01 X33.8572 Y4.8370 Z0.0000
G01 X33.3214 Y4.8381 Z0.0000
G01 X32.7855 Y4.8399 Z0.0000
G01 X32.2498 Y4.8423 Z0.0000
G01 X31.7140 Y4.8454 Z0.0000
G01 X31.1781 Y4.8492 Z0.0000
G01 X31.1734 Y4.8492 Z0.0000
G01 X30.6439 Y4.8536 Z0.0000
G01 X30.6416 Y4.8537 Z0.0000
G01 X30.1067 Y4.8587 Z0.0000
G01 X29.5710 Y4.8645 Z0.0000
G01 X29.0352 Y4.8709 Z0.0000
G01 X28.4993 Y4.8780 Z0.0000
G01 X28.4955 Y4.8780 Z0.0000
G01 X27.9656 Y4.8857 Z0.0000
G01 X27.9628 Y4.8857 Z0.0000
G01 X27.4280 Y4.8942 Z0.0000
G01 X26.8922 Y4.9032 Z0.0000
G01 X26.8895 Y4.9033 Z0.0000
G01 X26.8887 Y4.9033 Z0.0000
G01 X26.3585 Y4.9129 Z0.0000
G01 X26.3553 Y4.9130 Z0.0000
G01 X26.3544 Y4.9131 Z0.0000
G01 X25.8210 Y4.9234 Z0.0000
G01 X25.2859 Y4.9345 Z0.0000
G01 X25.2832 Y4.9345 Z0.0000
G01 X25.2822 Y4.9345 Z0.0000
G01 X24.7516 Y4.9461 Z0.0000
G01 X24.7492 Y4.9462 Z0.0000
G01 X24.2148 Y4.9585 Z0.0000
G01 X24.2123 Y4.9586 Z0.0000
G01 X24.2112 Y4.9586 Z0.0000
G01 X23.6784 Y4.9716 Z0.0000
G01 X23.1433 Y4.9853 Z0.0000
G01 X23.1426 Y4.9853 Z0.0000
G01 X22.6072 Y4.9997 Z0.0000
G01 X22.0721 Y5.0147 Z0.0000
G01 X22.0715 Y5.0147 Z0.0000
G01 X21.5359 Y5.0304 Z0.0000
G01 X21.5337 Y5.0305 Z0.0000
G01 X21.0037 Y5.0466 Z0.0000
G01 X21.0014 Y5.0467 Z0.0000
G01 X20.9987 Y5.0468 Z0.0000
G01 X20.4656 Y5.0638 Z0.0000
G01 X20.4644 Y5.0638 Z0.0000
G01 X20.4627 Y5.0639 Z0.0000
G01 X19.9300 Y5.0814 Z0.0000
G01 X19.9293 Y5.0815 Z0.0000
G01 X19.3941 Y5.0998 Z0.0000
G01 X18.8591 Y5.1188 Z0.0000
G01 X18.8585 Y5.1188 Z0.0000
G01 X18.3236 Y5.1385 Z0.0000
G01 X18.3231 Y5.1385 Z0.0000
G01 X17.7877 Y5.1588 Z0.0000
G01 X17.7859 Y5.1589 Z0.0000
G01 X17.2557 Y5.1797 Z0.0000
G01 X17.2545 Y5.1798 Z0.0000
G01 X17.2512 Y5.1800 Z0.0000
G01 X16.7176 Y5.2015 Z0.0000
G01 X16.7165 Y5.2016 Z0.0000
G01 X16.1834 Y5.2238 Z0.0000
G01 X16.1820 Y5.2238 Z0.0000
G01 X16.1800 Y5.2239 Z0.0000
G01 X15.6472 Y5.2468 Z0.0000
G01 X15.6452 Y5.2469 Z0.0000
G01 X15.6445 Y5.2469 Z0.0000
G01 X15.1119 Y5.2705 Z0.0000
G01 X15.1101 Y5.2705 Z0.0000
G01 X14.5772 Y5.2947 Z0.0000
G01 X14.5765 Y5.2948 Z0.0000
G01 X14.5744 Y5.2948 Z0.0000
G01 X14.0422 Y5.3196 Z0.0000
G01 X14.0411 Y5.3197 Z0.0000
G01 X14.0397 Y5.3198 Z0.0000
G01 X13.5069 Y5.3453 Z0.0000
G01 X13.5051 Y5.3454 Z0.0000
G01 X13.5038 Y5.3455 Z0.0000
G01 X12.9735 Y5.3715 Z0.0000
G01 X12.9701 Y5.3717 Z0.0000
G01 X12.4405 Y5.3984 Z0.0000
G01 X12.4398 Y5.3984 Z0.0000
G01 X12.4352 Y5.3987 Z0.0000
G01 X11.9020 Y5.4262 Z0.0000
G01 X11.9009 Y5.4263 Z0.0000
G01 X11.9002 Y5.4263 Z0.0000
G01 X11.3652 Y5.4546 Z0.0000
G01 X11.3638 Y5.4546 Z0.0000
G01 X10.8332 Y5.4833 Z0.0000
G01 X10.8326 Y5.4833 Z0.0000
G01 X10.8319 Y5.4834 Z0.0000
G01 X10.8304 Y5.4835 Z0.0000
G01 X10.2974 Y5.5130 Z0.0000
G01 X10.2958 Y5.5131 Z0.0000
G01 X10.2952 Y5.5131 Z0.0000
G01 X9.7617 Y5.5433 Z0.0000
G01 X9.7607 Y5.5433 Z0.0000
G01 X9.7603 Y5.5434 Z0.0000
G01 X9.2260 Y5.5743 Z0.0000
G01 X9.2253 Y5.5743 Z0.0000
G01 X8.6911 Y5.6059 Z0.0000
G01 X8.6889 Y5.6060 Z0.0000
G01 X8.6880 Y5.6061 Z0.0000
G01 X8.6874 Y5.6061 Z0.0000
G01 X8.1597 Y5.6379 Z0.0000
G01 X8.1589 Y5.6380 Z0.0000
G01 X8.1583 Y5.6380 Z0.0000
G01 X8.1559 Y5.6382 Z0.0000
G01 X7.6211 Y5.6711 Z0.0000
G01 X4.0018 Y5.8985 Z0.0000
G01 X3.9366 Y4.8602 Z0.0000
G00 X3.9366 Y4.8602 Z0.6000
G00 X3.9366 Y-4.8602 Z0.6000
G01 X3.9366 Y-4.8602 Z0.2800
G01 X4.0018 Y-5.8985 Z0.2800
G01 X7.6209 Y-5.6711 Z0.2800
G01 X8.1557 Y-5.6382 Z0.2800
G01 X8.1583 Y-5.6380 Z0.2800
G01 X8.1589 Y-5.6380 Z0.2800
G01 X8.1597 Y-5.6379 Z0.2800
G01 X8.6874 Y-5.6061 Z0.2800
G01 X8.6880 Y-5.6061 Z0.2800
G01 X8.6887 Y-5.6060 Z0.2800
G01 X8.6911 Y-5.6059 Z0.2800
G01 X9.2253 Y-5.5743 Z0.2800
G01 X9.2260 Y-5.5743 Z0.2800
G01 X9.7602 Y-5.5434 Z0.2800
G01 X9.7607 Y-5.5433 Z0.2800
G01 X9.7614 Y-5.5433 Z0.2800
G01 X10.2952 Y-5.5131 Z0.2800
G01 X10.2958 Y-5.5131 Z0.2800
G01 X10.2974 Y-5.5130 Z0.2800
G01 X10.8301 Y-5.4835 Z0.2800
G01 X10.8319 Y-5.4834 Z0.2800
G01 X10.8326 Y-5.4833 Z0.2800
G01 X10.8332 Y-5.4833 Z0.2800
G01 X11.3638 Y-5.4546 Z0.2800
G01 X11.3652 Y-5.4546 Z0.2800
G01 X11.9002 Y-5.4263 Z0.2800
G01 X11.9009 Y-5.4263 Z0.2800
G01 X11.9020 Y-5.4262 Z0.2800
G01 X12.4352 Y-5.3987 Z0.2800
G01 X12.4398 Y-5.3984 Z0.2800
G01 X12.4405 Y-5.3984 Z0.2800
G01 X12.9701 Y-5.3717 Z0.2800
G01 X12.9731 Y-5.3715 Z0.2800
G01 X13.5038 Y-5.3455 Z0.2800
G01 X13.5051 Y-5.3454 Z0.2800
G01 X13.5069 Y-5.3453 Z0.2800
G01 X14.0397 Y-5.3198 Z0.2800
G01 X14.0411 Y-5.3197 Z0.2800
G01 X14.0422 Y-5.3196 Z0.2800
G01 X14.5744 Y-5.2948 Z0.2800
G01 X14.5765 Y-5.2948 Z0.2800
G01 X14.5772 Y-5.2947 Z0.2800
G01 X15.1097 Y-5.2706 Z0.2800
G01 X15.1119 Y-5.2705 Z0.2800
G01 X15.6445 Y-5.2469 Z0.2800
G01 X15.6452 Y-5.2469 Z0.2800
G01 X15.6472 Y-5.2468 Z0.2800
G01 X16.1800 Y-5.2239 Z0.2800
G01 X16.1820 Y-5.2238 Z0.2800
G01 X16.1834 Y-5.2238 Z0.2800
G01 X16.7165 Y-5.2016 Z0.2800
G01 X16.7176 Y-5.2015 Z0.2800
G01 X17.2512 Y-5.1800 Z0.2800
G01 X17.2545 Y-5.1798 Z0.2800
G01 X17.2557 Y-5.1797 Z0.2800
G01 X17.7859 Y-5.1589 Z0.2800
G01 X17.7877 Y-5.1588 Z0.2800
G01 X18.3231 Y-5.1385 Z0.2800
G01 X18.3236 Y-5.1385 Z0.2800
G01 X18.8585 Y-5.1188 Z0.2800
G01 X18.8591 Y-5.1188 Z0.2800
G01 X19.3939 Y-5.0998 Z0.2800
G01 X19.9293 Y-5.0815 Z0.2800
G01 X19.9300 Y-5.0814 Z0.2800
G01 X20.4627 Y-5.0639 Z0.2800
G01 X20.4644 Y-5.0638 Z0.2800
G01 X20.4656 Y-5.0638 Z0.2800
G01 X20.9987 Y-5.0468 Z0.2800
G01 X21.0014 Y-5.0467 Z0.2800
G01 X21.0037 Y-5.0466 Z0.2800
G01 X21.5337 Y-5.0305 Z0.2800
G01 X21.5359 Y-5.0305 Z0.2800
G01 X22.0715 Y-5.0147 Z0.2800
G01 X22.0721 Y-5.0147 Z0.2800
G01 X22.6070 Y-4.9997 Z0.2800
G01 X23.1426 Y-4.9853 Z0.2800
G01 X23.1433 Y-4.9853 Z0.2800
G01 X23.6783 Y-4.9716 Z0.2800
G01 X24.2112 Y-4.9586 Z0.2800
G01 X24.2123 Y-4.9586 Z0.2800
G01 X24.2148 Y-4.9585 Z0.2800
G01 X24.7489 Y-4.9462 Z0.2800
G01 X24.7516 Y-4.9461 Z0.2800
G01 X25.2822 Y-4.9345 Z0.2800
G01 X25.2832 Y-4.9345 Z0.2800
G01 X25.2859 Y-4.9344 Z0.2800
G01 X25.8208 Y-4.9234 Z0.2800
G01 X26.3544 Y-4.9131 Z0.2800
G01 X26.3553 Y-4.9130 Z0.2800
G01 X26.3585 Y-4.9129 Z0.2800
G01 X26.8887 Y-4.9033 Z0.2800
G01 X26.8895 Y-4.9033 Z0.2800
G01 X26.8922 Y-4.9032 Z0.2800
G01 X27.4279 Y-4.8942 Z0.2800
G01 X27.9628 Y-4.8857 Z0.2800
G01 X27.9656 Y-4.8857 Z0.2800
G01 X28.4955 Y-4.8780 Z0.2800
G01 X28.4993 Y-4.8780 Z0.2800
G01 X29.0351 Y-4.8709 Z0.2800
G01 X29.5708 Y-4.8645 Z0.2800
G01 X30.1066 Y-4.8587 Z0.2800
G01 X30.6412 Y-4.8537 Z0.2800
G01 X30.6439 Y-4.8536 Z0.2800
G01 X31.1734 Y-4.8492 Z0.2800
G01 X31.1781 Y-4.8492 Z0.2800
G01 X31.7138 Y-4.8454 Z0.2800
G01 X32.2496 Y-4.8423 Z0.2800
G01 X32.7854 Y-4.8399 Z0.2800
G01 X33.3212 Y-4.8381 Z0.2800
G01 X33.8570 Y-4.8370 Z0.2800
G01 X34.3927 Y-4.8365 Z0.2800
G01 X34.9284 Y-4.8367 Z0.2800
G01 X35.4642 Y-4.8376 Z0.2800
G01 X36.0000 Y-4.8391 Z0.2800
G01 X36.5357 Y-4.8413 Z0.2800
G01 X37.0715 Y-4.8442 Z0.2800
G01 X37.6073 Y-4.8477 Z0.2800
G01 X38.1430 Y-4.8519 Z0.2800
G01 X38.6788 Y-4.8567 Z0.2800
G01 X39.2145 Y-4.8622 Z0.2800
G01 X39.7503 Y-4.8684 Z0.2800
G01 X40.2862 Y-4.8753 Z0.2800
G01 X40.2904 Y-4.8753 Z0.2800
G01 X40.8199 Y-4.8827 Z0.2800
G01 X40.8225 Y-4.8827 Z0.2800
G01 X41.3575 Y-4.8909 Z0.2800
G01 X41.8934 Y-4.8997 Z0.2800
G01 X41.8962 Y-4.8998 Z0.2800
G01 X41.8970 Y-4.8998 Z0.2800
G01 X42.4288 Y-4.9092 Z0.2800
G01 X42.9626 Y-4.9193 Z0.2800
G01 X42.9651 Y-4.9194 Z0.2800
G01 X42.9671 Y-4.9194 Z0.2800
G01 X43.4996 Y-4.9302 Z0.2800
G01 X43.5025 Y-4.9302 Z0.2800
G01 X43.5035 Y-4.9303 Z0.2800
G01 X44.0359 Y-4.9416 Z0.2800
G01 X44.5707 Y-4.9538 Z0.2800
G01 X44.5717 Y-4.9538 Z0.2800
G01 X45.1072 Y-4.9666 Z0.2800
G01 X45.6423 Y-4.9801 Z0.2800
G01 X45.6429 Y-4.9801 Z0.2800
G01 X46.1784 Y-4.9942 Z0.2800
G01 X46.7136 Y-5.0090 Z0.2800
G01 X46.7141 Y-5.0090 Z0.2800
G01 X47.2495 Y-5.0244 Z0.2800
G01 X47.7849 Y-5.0405 Z0.2800
G01 X48.3199 Y-5.0573 Z0.2800
G01 X48.3213 Y-5.0574 Z0.2800
G01 X48.3230 Y-5.0574 Z0.2800
G01 X48.8536 Y-5.0747 Z0.2800
G01 X48.8553 Y-5.0747 Z0.2800
G01 X48.8579 Y-5.0748 Z0.2800
G01 X49.3912 Y-5.0929 Z0.2800
G01 X49.3920 Y-5.0929 Z0.2800
G01 X49.3937 Y-5.0929 Z0.2800
G01 X49.9262 Y-5.1116 Z0.2800
G01 X49.9272 Y-5.1116 Z0.2800
G01 X50.4624 Y-5.1310 Z0.2800
G01 X50.9974 Y-5.1511 Z0.2800
G01 X50.9980 Y-5.1511 Z0.2800
G01 X51.5327 Y-5.1719 Z0.2800
G01 X51.5334 Y-5.1719 Z0.2800
G01 X52.0687 Y-5.1933 Z0.2800
G01 X52.0703 Y-5.1933 Z0.2800
G01 X52.6033 Y-5.2153 Z0.2800
G01 X52.6059 Y-5.2154 Z0.2800
G01 X53.1385 Y-5.2381 Z0.2800
G01 X53.1405 Y-5.2381 Z0.2800
G01 X53.1412 Y-5.2382 Z0.2800
G01 X53.6745 Y-5.2615 Z0.2800
G01 X54.2091 Y-5.2855 Z0.2800
G01 X54.2099 Y-5.2855 Z0.2800
G01 X54.7440 Y-5.3102 Z0.2800
G01 X54.7451 Y-5.3103 Z0.2800
G01 X55.2796 Y-5.3357 Z0.2800
G01 X55.2809 Y-5.3357 Z0.2800
G01 X55.8138 Y-5.3616 Z0.2800
G01 X55.8149 Y-5.3617 Z0.2800
G01 X55.8163 Y-5.3618 Z0.2800
G01 X56.3501 Y-5.3885 Z0.2800
G01 X56.3519 Y-5.3885 Z0.2800
G01 X56.8829 Y-5.4157 Z0.2800
G01 X56.8840 Y-5.4157 Z0.2800
G01 X56.8857 Y-5.4158 Z0.2800
G01 X57.4195 Y-5.4437 Z0.2800
G01 X57.4225 Y-5.4439 Z0.2800
G01 X57.4234 Y-5.4440 Z0.2800
G01 X57.9519 Y-5.4724 Z0.2800
G01 X57.9558 Y-5.4725 Z0.2800
G01 X58.4877 Y-5.5017 Z0.2800
G01 X58.4905 Y-5.5019 Z0.2800
G01 X59.0222 Y-5.5317 Z0.2800
G01 X59.0256 Y-5.5319 Z0.2800
G01 X59.5603 Y-5.5625 Z0.2800
G01 X59.5613 Y-5.5626 Z0.2800
G01 X59.5621 Y-5.5627 Z0.2800
G01 X60.0948 Y-5.5939 Z0.2800
G01 X60.0971 Y-5.5941 Z0.2800
G01 X63.7167 Y-5.8106 Z0.2800
G01 X63.7788 Y-4.7720 Z0.2800
G01 X60.1576 Y-4.5554 Z0.2800
G01 X60.1563 Y-4.5553 Z0.2800
G01 X59.6214 Y-4.5240 Z0.2800
G01 X59.6194 Y-4.5238 Z0.2800
G01 X59.6189 Y-4.5238 Z0.2800
G01 X59.0851 Y-4.4932 Z0.2800
G01 X59.0841 Y-4.4931 Z0.2800
G01 X58.5489 Y-4.4631 Z0.2800
G01 X58.5474 Y-4.4631 Z0.2800
G01 X58.0152 Y-4.4338 Z0.2800
G01 X58.0117 Y-4.4336 Z0.2800
G01 X58.0109 Y-4.4335 Z0.2800
G01 X57.4764 Y-4.4049 Z0.2800
G01 X57.4751 Y-4.4048 Z0.2800
G01 X56.9401 Y-4.3768 Z0.2800
G01 X56.9388 Y-4.3767 Z0.2800
G01 X56.4054 Y-4.3494 Z0.2800
G01 X56.4025 Y-4.3493 Z0.2800
G01 X55.8674 Y-4.3226 Z0.2800
G01 X55.8656 Y-4.3225 Z0.2800
G01 X55.3308 Y-4.2965 Z0.2800
G01 X55.3298 Y-4.2964 Z0.2800
G01 X55.3284 Y-4.2964 Z0.2800
G01 X54.7944 Y-4.2710 Z0.2800
G01 X54.7938 Y-4.2710 Z0.2800
G01 X54.7927 Y-4.2710 Z0.2800
G01 X54.2581 Y-4.2462 Z0.2800
G01 X54.2566 Y-4.2461 Z0.2800
G01 X53.7225 Y-4.2222 Z0.2800
G01 X53.7206 Y-4.2221 Z0.2800
G01 X53.7187 Y-4.2220 Z0.2800
G01 X53.1854 Y-4.1988 Z0.2800
G01 X53.1835 Y-4.1987 Z0.2800
G01 X53.1815 Y-4.1986 Z0.2800
G01 X52.6494 Y-4.1759 Z0.2800
G01 X52.6464 Y-4.1758 Z0.2800
G01 X52.1135 Y-4.1538 Z0.2800
G01 X52.1120 Y-4.1538 Z0.2800
G01 X52.1102 Y-4.1537 Z0.2800
G01 X51.5757 Y-4.1324 Z0.2800
G01 X51.5737 Y-4.1323 Z0.2800
G01 X51.0390 Y-4.1115 Z0.2800
G01 X51.0370 Y-4.1114 Z0.2800
G01 X50.5032 Y-4.0914 Z0.2800
G01 X50.5016 Y-4.0914 Z0.2800
G01 X50.4988 Y-4.0913 Z0.2800
G01 X49.9657 Y-4.0720 Z0.2800
G01 X49.9635 Y-4.0719 Z0.2800
G01 X49.9613 Y-4.0718 Z0.2800
G01 X49.4290 Y-4.0531 Z0.2800
G01 X49.4268 Y-4.0530 Z0.2800
G01 X48.8946 Y-4.0351 Z0.2800
G01 X48.8917 Y-4.0350 Z0.2800
G01 X48.8882 Y-4.0349 Z0.2800
G01 X48.8874 Y-4.0348 Z0.2800
G01 X48.3553 Y-4.0175 Z0.2800
G01 X48.3538 Y-4.0175 Z0.2800
G01 X48.3533 Y-4.0174 Z0.2800
G01 X47.8187 Y-4.0007 Z0.2800
G01 X47.8159 Y-4.0006 Z0.2800
G01 X47.8150 Y-4.0006 Z0.2800
G01 X47.2818 Y-3.9845 Z0.2800
G01 X47.2801 Y-3.9845 Z0.2800
G01 X47.2782 Y-3.9844 Z0.2800
G01 X46.7450 Y-3.9691 Z0.2800
G01 X46.7422 Y-3.9690 Z0.2800
G01 X46.7414 Y-3.9689 Z0.2800
G01 X46.2083 Y-3.9542 Z0.2800
G01 X46.2060 Y-3.9542 Z0.2800
G01 X46.2043 Y-3.9541 Z0.2800
G01 X45.6712 Y-3.9401 Z0.2800
G01 X45.6679 Y-3.9400 Z0.2800
G01 X45.6669 Y-3.9400 Z0.2800
G01 X45.1349 Y-3.9266 Z0.2800
G01 X45.1321 Y-3.9265 Z0.2800
G01 X45.1309 Y-3.9265 Z0.2800
G01 X44.5978 Y-3.9137 Z0.2800
G01 X44.5954 Y-3.9137 Z0.2800
G01 X44.5937 Y-3.9136 Z0.2800
G01 X44.0607 Y-3.9015 Z0.2800
G01 X44.0578 Y-3.9015 Z0.2800
G01 X44.0569 Y-3.9014 Z0.2800
G01 X43.5246 Y-3.8901 Z0.2800
G01 X43.5239 Y-3.8901 Z0.2800
G01 X43.5204 Y-3.8900 Z0.2800
G01 X43.5179 Y-3.8899 Z0.2800
G01 X42.9858 Y-3.8792 Z0.2800
G01 X42.9849 Y-3.8792 Z0.2800
G01 X42.9835 Y-3.8791 Z0.2800
G01 X42.4496 Y-3.8690 Z0.2800
G01 X42.4464 Y-3.8690 Z0.2800
G01 X42.4457 Y-3.8690 Z0.2800
G01 X41.9118 Y-3.8595 Z0.2800
G01 X41.9090 Y-3.8595 Z0.2800
G01 X41.9081 Y-3.8594 Z0.2800
G01 X41.3748 Y-3.8507 Z0.2800
G01 X41.3722 Y-3.8506 Z0.2800
G01 X40.8377 Y-3.8425 Z0.2800
G01 X40.8364 Y-3.8425 Z0.2800
G01 X40.3007 Y-3.8350 Z0.2800
G01 X40.2975 Y-3.8350 Z0.2800
G01 X40.2967 Y-3.8349 Z0.2800
G01 X39.7638 Y-3.8281 Z0.2800
G01 X39.7614 Y-3.8281 Z0.2800
G01 X39.2267 Y-3.8219 Z0.2800
G01 X39.2238 Y-3.8219 Z0.2800
G01 X38.6896 Y-3.8164 Z0.2800
G01 X38.6856 Y-3.8164 Z0.2800
G01 X38.1538 Y-3.8116 Z0.2800
G01 X38.1512 Y-3.8115 Z0.2800
G01 X38.1494 Y-3.8115 Z0.2800
G01 X37.6155 Y-3.8073 Z0.2800
G01 X37.6142 Y-3.8073 Z0.2800
G01 X37.0784 Y-3.8038 Z0.2800
G01 X37.0772 Y-3.8038 Z0.2800
G01 X36.5415 Y-3.8009 Z0.2800
G01 X36.5401 Y-3.8009 Z0.2800
G01 X36.0044 Y-3.7987 Z0.2800
G01 X36.0031 Y-3.7987 Z0.2800
G01 X35.4673 Y-3.7972 Z0.2800
G01 X35.4660 Y-3.7972 Z0.2800
G01 X34.9302 Y-3.7963 Z0.2800
G01 X34.9289 Y-3.7963 Z0.2800
G01 X34.3931 Y-3.7961 Z0.2800
G01 X34.3918 Y-3.7961 Z0.2800
G01 X33.8561 Y-3.7966 Z0.2800
G01 X33.8548 Y-3.7966 Z0.2800
G01 X33.3190 Y-3.7977 Z0.2800
G01 X33.3177 Y-3.7977 Z0.2800
G01 X32.7820 Y-3.7995 Z0.2800
G01 X32.7807 Y-3.7995 Z0.2800
G01 X32.2449 Y-3.8019 Z0.2800
G01 X32.2436 Y-3.8019 Z0.2800
G01 X31.7078 Y-3.8050 Z0.2800
G01 X31.7065 Y-3.8050 Z0.2800
G01 X31.1740 Y-3.8088 Z0.2800
G01 X31.1735 Y-3.8088 Z0.2800
G01 X31.1699 Y-3.8088 Z0.2800
G01 X31.1694 Y-3.8088 Z0.2800
G01 X30.6353 Y-3.8133 Z0.2800
G01 X30.6348 Y-3.8133 Z0.2800
G01 X30.6325 Y-3.8133 Z0.2800
G01 X30.0990 Y-3.8184 Z0.2800
G01 X30.0955 Y-3.8184 Z0.2800
G01 X29.5611 Y-3.8242 Z0.2800
G01 X29.5583 Y-3.8242 Z0.2800
G01 X29.0234 Y-3.8306 Z0.2800
G01 X29.0214 Y-3.8306 Z0.2800
G01 X28.4883 Y-3.8376 Z0.2800
G01 X28.4875 Y-3.8377 Z0.2800
G01 X28.4842 Y-3.8377 Z0.2800
G01 X27.9488 Y-3.8455 Z0.2800
G01 X27.9472 Y-3.8455 Z0.2800
G01 X27.4127 Y-3.8539 Z0.2800
G01 X27.4103 Y-3.8539 Z0.2800
G01 X26.8769 Y-3.8629 Z0.2800
G01 X26.8761 Y-3.8630 Z0.2800
G01 X26.8725 Y-3.8630 Z0.2800
G01 X26.8711 Y-3.8630 Z0.2800
G01 X26.3388 Y-3.8727 Z0.2800
G01 X26.3375 Y-3.8728 Z0.2800
G01 X26.3363 Y-3.8728 Z0.2800
G01 X25.8019 Y-3.8831 Z0.2800
G01 X25.8013 Y-3.8832 Z0.2800
G01 X25.7985 Y-3.8832 Z0.2800
G01 X25.2671 Y-3.8942 Z0.2800
G01 X25.2646 Y-3.8943 Z0.2800
G01 X25.2611 Y-3.8943 Z0.2800
G01 X25.2606 Y-3.8943 Z0.2800
G01 X24.7276 Y-3.9060 Z0.2800
G01 X24.7262 Y-3.9061 Z0.2800
G01 X24.7255 Y-3.9061 Z0.2800
G01 X24.1901 Y-3.9184 Z0.2800
G01 X24.1885 Y-3.9185 Z0.2800
G01 X23.6541 Y-3.9315 Z0.2800
G01 X23.6530 Y-3.9315 Z0.2800
G01 X23.6503 Y-3.9316 Z0.2800
G01 X23.1180 Y-3.9452 Z0.2800
G01 X23.1161 Y-3.9453 Z0.2800
G01 X23.1137 Y-3.9453 Z0.2800
G01 X22.5806 Y-3.9596 Z0.2800
G01 X22.5789 Y-3.9597 Z0.2800
G01 X22.5768 Y-3.9597 Z0.2800
G01 X22.0430 Y-3.9747 Z0.2800
G01 X22.0403 Y-3.9748 Z0.2800
G01 X21.5055 Y-3.9905 Z0.2800
G01 X21.5042 Y-3.9905 Z0.2800
G01 X20.9687 Y-4.0069 Z0.2800
G01 X20.9661 Y-4.0070 Z0.2800
G01 X20.9641 Y-4.0070 Z0.2800
G01 X20.4318 Y-4.0239 Z0.2800
G01 X20.4300 Y-4.0240 Z0.2800
G01 X19.8967 Y-4.0416 Z0.2800
G01 X19.8957 Y-4.0416 Z0.2800
G01 X19.8931 Y-4.0418 Z0.2800
G01 X19.3598 Y-4.0600 Z0.2800
G01 X19.3572 Y-4.0601 Z0.2800
G01 X19.3551 Y-4.0601 Z0.2800
G01 X18.8235 Y-4.0790 Z0.2800
G01 X18.8214 Y-4.0791 Z0.2800
G01 X18.8195 Y-4.0792 Z0.2800
G01 X18.2858 Y-4.0988 Z0.2800
G01 X18.2851 Y-4.0988 Z0.2800
G01 X18.2829 Y-4.0990 Z0.2800
G01 X17.7482 Y-4.1192 Z0.2800
G01 X17.7468 Y-4.1193 Z0.2800
G01 X17.2114 Y-4.1403 Z0.2800
G01 X17.2087 Y-4.1404 Z0.2800
G01 X17.2068 Y-4.1405 Z0.2800
G01 X16.6755 Y-4.1619 Z0.2800
G01 X16.6737 Y-4.1620 Z0.2800
G01 X16.1383 Y-4.1844 Z0.2800
G01 X16.1364 Y-4.1844 Z0.2800
G01 X16.1355 Y-4.1845 Z0.2800
G01 X15.6026 Y-4.2074 Z0.2800
G01 X15.6003 Y-4.2075 Z0.2800
G01 X15.5995 Y-4.2075 Z0.2800
G01 X15.0658 Y-4.2311 Z0.2800
G01 X15.0653 Y-4.2311 Z0.2800
G01 X15.0633 Y-4.2312 Z0.2800
G01 X14.5287 Y-4.2555 Z0.2800
G01 X14.5270 Y-4.2555 Z0.2800
G01 X13.9922 Y-4.2805 Z0.2800
G01 X13.9887 Y-4.2807 Z0.2800
G01 X13.4557 Y-4.3062 Z0.2800
G01 X13.4550 Y-4.3062 Z0.2800
G01 X13.4544 Y-4.3062 Z0.2800
G01 X12.9195 Y-4.3325 Z0.2800
G01 X12.9133 Y-4.3329 Z0.2800
G01 X12.9127 Y-4.3329 Z0.2800
G01 X12.3829 Y-4.3596 Z0.2800
G01 X12.3785 Y-4.3598 Z0.2800
G01 X12.3778 Y-4.3599 Z0.2800
G01 X12.3770 Y-4.3599 Z0.2800
G01 X11.8465 Y-4.3873 Z0.2800
G01 X11.8458 Y-4.3874 Z0.2800
G01 X11.8453 Y-4.3874 Z0.2800
G01 X11.3102 Y-4.4157 Z0.2800
G01 X11.3071 Y-4.4158 Z0.2800
G01 X11.3064 Y-4.4158 Z0.2800
G01 X10.7739 Y-4.4446 Z0.2800
G01 X10.7715 Y-4.4448 Z0.2800
G01 X10.7708 Y-4.4448 Z0.2800
G01 X10.2377 Y-4.4743 Z0.2800
G01 X10.2364 Y-4.4744 Z0.2800
G01 X9.7014 Y-4.5046 Z0.2800
G01 X9.7001 Y-4.5047 Z0.2800
G01 X9.1653 Y-4.5357 Z0.2800
G01 X9.1640 Y-4.5357 Z0.2800
G01 X8.6292 Y-4.5673 Z0.2800
G01 X8.6278 Y-4.5674 Z0.2800
G01 X8.0930 Y-4.5997 Z0.2800
G01 X8.0887 Y-4.6000 Z0.2800
G01 X7.5588 Y-4.6325 Z0.2800
G01 X7.5577 Y-4.6326 Z0.2800
G01 X7.5557 Y-4.6327 Z0.2800
G01 X3.9366 Y-4.8602 Z0.2800
G01 X3.9366 Y-4.8602 Z0.1400
G01 X4.0018 Y-5.8985 Z0.1400
G01 X7.6209 Y-5.6711 Z0.1400
G01 X8.1557 Y-5.6382 Z0.1400
G01 X8.1583 Y-5.6380 Z0.1400
G01 X8.1589 Y-5.6380 Z0.1400
G01 X8.1597 Y-5.6379 Z0.1400
G01 X8.6874 Y-5.6061 Z0.1400
G01 X8.6880 Y-5.6061 Z0.1400
G01 X8.6887 Y-5.6060 Z0.1400
G01 X8.6911 Y-5.6059 Z0.1400
G01 X9.2253 Y-5.5743 Z0.1400
G01 X9.2260 Y-5.5743 Z0.1400
G01 X9.7602 Y-5.5434 Z0.1400
G01 X9.7607 Y-5.5433 Z0.1400
G01 X9.7614 Y-5.5433 Z0.1400
G01 X10.2952 Y-5.5131 Z0.1400
G01 X10.2958 Y-5.5131 Z0.1400
G01 X10.2974 Y-5.5130 Z0.1400
G01 X10.8301 Y-5.4835 Z0.1400
G01 X10.8319 Y-5.4834 Z0.1400
G01 X10.8326 Y-5.4833 Z0.1400
G01 X10.8332 Y-5.4833 Z0.1400
G01 X11.3638 Y-5.4546 Z0.1400
G01 X11.3652 Y-5.4546 Z0.1400
G01 X11.9002 Y-5.4263 Z0.1400
G01 X11.9009 Y-5.4263 Z0.1400
G01 X11.9020 Y-5.4262 Z0.1400
G01 X12.4352 Y-5.3987 Z0.1400
G01 X12.4398 Y-5.3984 Z0.1400
G01 X12.4405 Y-5.3984 Z0.1400
G01 X12.9701 Y-5.3717 Z0.1400
G01 X12.9731 Y-5.3715 Z0.1400
G01 X13.5038 Y-5.3455 Z0.1400
G01 X13.5051 Y-5.3454 Z0.1400
G01 X13.5069 Y-5.3453 Z0.1400
G01 X14.0397 Y-5.3198 Z0.1400
G01 X14.0411 Y-5.3197 Z0.1400
G01 X14.0422 Y-5.3196 Z0.1400
G01 X14.5744 Y-5.2948 Z0.1400
G01 X14.5765 Y-5.2948 Z0.1400
G01 X14.5772 Y-5.2947 Z0.1400
G01 X15.1097 Y-5.2706 Z0.1400
G01 X15.1119 Y-5.2705 Z0.1400
G01 X15.6445 Y-5.2469 Z0.1400
G01 X15.6452 Y-5.2469 Z0.1400
G01 X15.6472 Y-5.2468 Z0.1400
G01 X16.1800 Y-5.2239 Z0.1400
G01 X16.1820 Y-5.2238 Z0.1400
G01 X16.1834 Y-5.2238 Z0.1400
G01 X16.7165 Y-5.2016 Z0.1400
G01 X16.7176 Y-5.2015 Z0.1400
G01 X17.2512 Y-5.1800 Z0.1400
G01 X17.2545 Y-5.1798 Z0.1400
G01 X17.2557 Y-5.1797 Z0.1400
G01 X17.7859 Y-5.1589 Z0.1400
G01 X17.7877 Y-5.1588 Z0.1400
G01 X18.3231 Y-5.1385 Z0.1400
G01 X18.3236 Y-5.1385 Z0.1400
G01 X18.8585 Y-5.1188 Z0.1400
G01 X18.8591 Y-5.1188 Z0.1400
G01 X19.3939 Y-5.0998 Z0.1400
G01 X19.9293 Y-5.0815 Z0.1400
G01 X19.9300 Y-5.0814 Z0.1400
G01 X20.4627 Y-5.0639 Z0.1400
G01 X20.4644 Y-5.0638 Z0.1400
G01 X20.4656 Y-5.0638 Z0.1400
G01 X20.9987 Y-5.0468 Z0.1400
G01 X21.0014 Y-5.0467 Z0.1400
G01 X21.0037 Y-5.0466 Z0.1400
G01 X21.5337 Y-5.0305 Z0.1400
G01 X21.5359 Y-5.0305 Z0.1400
G01 X22.0715 Y-5.0147 Z0.1400
G01 X22.0721 Y-5.0147 Z0.1400
G01 X22.6070 Y-4.9997 Z0.1400
G01 X23.1426 Y-4.9853 Z0.1400
G01 X23.1433 Y-4.9853 Z0.1400
G01 X23.6783 Y-4.9716 Z0.1400
G01 X24.2112 Y-4.9586 Z0.1400
G01 X24.2123 Y-4.9586 Z0.1400
G01 X24.2148 Y-4.9585 Z0.1400
G01 X24.7489 Y-4.9462 Z0.1400
G01 X24.7516 Y-4.9461 Z0.1400
G01 X25.2822 Y-4.9345 Z0.1400
G01 X25.2832 Y-4.9345 Z0.1400
G01 X25.2859 Y-4.9344 Z0.1400
G01 X25.8208 Y-4.9234 Z0.1400
G01 X26.3544 Y-4.9131 Z0.1400
G01 X26.3553 Y-4.9130 Z0.1400
G01 X26.3585 Y-4.9129 Z0.1400
G01 X26.8887 Y-4.9033 Z0.1400
G01 X26.8895 Y-4.9033 Z0.1400
G01 X26.8922 Y-4.9032 Z0.1400
G01 X27.4279 Y-4.8942 Z0.1400
G01 X27.9628 Y-4.8857 Z0.1400
G01 X27.9656 Y-4.8857 Z0.1400
G01 X28.4955 Y-4.8780 Z0.1400
G01 X28.4993 Y-4.8780 Z0.1400
G01 X29.0351 Y-4.8709 Z0.1400
G01 X29.5708 Y-4.8645 Z0.1400
G01 X30.1066 Y-4.8587 Z0.1400
G01 X30.6412 Y-4.8537 Z0.1400
G01 X30.6439 Y-4.8536 Z0.1400
G01 X31.1734 Y-4.8492 Z0.1400
G01 X31.1781 Y-4.8492 Z0.1400
G01 X31.7138 Y-4.8454 Z0.1400
G01 X32.2496 Y-4.8423 Z0.1400
G01 X32.7854 Y-4.8399 Z0.1400
G01 X33.3212 Y-4.8381 Z0.1400
G01 X33.8570 Y-4.8370 Z0.1400
G01 X34.3927 Y-4.8365 Z0.1400
G01 X34.9284 Y-4.8367 Z0.1400
G01 X35.4642 Y-4.8376 Z0.1400
G01 X36.0000 Y-4.8391 Z0.1400
G01 X36.5357 Y-4.8413 Z0.1400
G01 X37.0715 Y-4.8442 Z0.1400
G01 X37.6073 Y-4.8477 Z0.1400
G01 X38.1430 Y-4.8519 Z0.1400
G01 X38.6788 Y-4.8567 Z0.1400
G01 X39.2145 Y-4.8622 Z0.1400
G01 X39.7503 Y-4.8684 Z0.1400
G01 X40.2862 Y-4.8753 Z0.1400
G01 X40.2904 Y-4.8753 Z0.1400
G01 X40.8199 Y-4.8827 Z0.1400
G01 X40.8225 Y-4.8827 Z0.1400
G01 X41.3575 Y-4.8909 Z0.1400
G01 X41.8934 Y-4.8997 Z0.1400
G01 X41.8962 Y-4.8998 Z0.1400
G01 X41.8970 Y-4.8998 Z0.1400
G01 X42.4288 Y-4.9092 Z0.1400
G01 X42.9626 Y-4.9193 Z0.1400
G01 X42.9651 Y-4.9194 Z0.1400
G01 X42.9671 Y-4.9194 Z0.1400
G01 X43.4996 Y-4.9302 Z0.1400
G01 X43.5025 Y-4.9302 Z0.1400
G01 X43.5035 Y-4.9303 Z0.1400
G01 X44.0359 Y-4.9416 Z0.1400
G01 X44.5707 Y-4.9538 Z0.1400
G01 X44.5717 Y-4.9538 Z0.1400
G01 X45.1072 Y-4.9666 Z0.1400
G01 X45.6423 Y-4.9801 Z0.1400
G01 X45.6429 Y-4.9801 Z0.1400
G01 X46.1784 Y-4.9942 Z0.1400
G01 X46.7136 Y-5.0090 Z0.1400
G01 X46.7141 Y-5.0090 Z0.1400
G01 X47.2495 Y-5.0244 Z0.1400
G01 X47.7849 Y-5.0405 Z0.1400
G01 X48.3199 Y-5.0573 Z0.1400
G01 X48.3213 Y-5.0574 Z0.1400
G01 X48.3230 Y-5.0574 Z0.1400
G01 X48.8536 Y-5.0747 Z0.1400
G01 X48.8553 Y-5.0747 Z0.1400
G01 X48.8579 Y-5.0748 Z0.1400
G01 X49.3912 Y-5.0929 Z0.1400
G01 X49.3920 Y-5.0929 Z0.1400
G01 X49.3937 Y-5.0929 Z0.1400
G01 X49.9262 Y-5.1116 Z0.1400
G01 X49.9272 Y-5.1116 Z0.1400
G01 X50.4624 Y-5.1310 Z0.1400
G01 X50.9974 Y-5.1511 Z0.1400
G01 X50.9980 Y-5.1511 Z0.1400
G01 X51.5327 Y-5.1719 Z0.1400
G01 X51.5334 Y-5.1719 Z0.1400
G01 X52.0687 Y-5.1933 Z0.1400
G01 X52.0703 Y-5.1933 Z0.1400
G01 X52.6033 Y-5.2153 Z0.1400
G01 X52.6059 Y-5.2154 Z0.1400
G01 X53.1385 Y-5.2381 Z0.1400
G01 X53.1405 Y-5.2381 Z0.1400
G01 X53.1412 Y-5.2382 Z0.1400
G01 X53.6745 Y-5.2615 Z0.1400
G01 X54.2091 Y-5.2855 Z0.1400
G01 X54.2099 Y-5.2855 Z0.1400
G01 X54.7440 Y-5.3102 Z0.1400
G01 X54.7451 Y-5.3103 Z0.1400
G01 X55.2796 Y-5.3357 Z0.1400
G01 X55.2809 Y-5.3357 Z0.1400
G01 X55.8138 Y-5.3616 Z0.1400
G01 X55.8149 Y-5.3617 Z0.1400
G01 X55.8163 Y-5.3618 Z0.1400
G01 X56.3501 Y-5.3885 Z0.1400
G01 X56.3519 Y-5.3885 Z0.1400
G01 X56.8829 Y-5.4157 Z0.1400
G01 X56.8840 Y-5.4157 Z0.1400
G01 X56.8857 Y-5.4158 Z0.1400
G01 X57.4195 Y-5.4437 Z0.1400
G01 X57.4225 Y-5.4439 Z0.1400
G01 X57.4234 Y-5.4440 Z0.1400
G01 X57.9519 Y-5.4724 Z0.1400
G01 X57.9558 Y-5.4725 Z0.1400
G01 X58.4877 Y-5.5017 Z0.1400
G01 X58.4905 Y-5.5019 Z0.1400
G01 X59.0222 Y-5.5317 Z0.1400
G01 X59.0256 Y-5.5319 Z0.1400
G01 X59.5603 Y-5.5625 Z0.1400
G01 X59.5613 Y-5.5626 Z0.1400
G01 X59.5621 Y-5.5627 Z0.1400
G01 X60.0948 Y-5.5939 Z0.1400
G01 X60.0971 Y-5.5941 Z0.1400
G01 X63.7167 Y-5.8106 Z0.1400
G01 X63.7788 Y-4.7720 Z0.1400
G01 X60.1576 Y-4.5554 Z0.1400
G01 X60.1563 Y-4.5553 Z0.1400
G01 X59.6214 Y-4.5240 Z0.1400
G01 X59.6194 Y-4.5238 Z0.1400
G01 X59.6189 Y-4.5238 Z0.1400
G01 X59.0851 Y-4.4932 Z0.1400
G01 X59.0841 Y-4.4931 Z0.1400
G01 X58.5489 Y-4.4631 Z0.1400
G01 X58.5474 Y-4.4631 Z0.1400
G01 X58.0152 Y-4.4338 Z0.1400
G01 X58.0117 Y-4.4336 Z0.1400
G01 X58.0109 Y-4.4335 Z0.1400
G01 X57.4764 Y-4.4049 Z0.1400
G01 X57.4751 Y-4.4048 Z0.1400
G01 X56.9401 Y-4.3768 Z0.1400
G01 X56.9388 Y-4.3767 Z0.1400
G01 X56.4054 Y-4.3494 Z0.1400
G01 X56.4025 Y-4.3493 Z0.1400
G01 X55.8674 Y-4.3226 Z0.1400
G01 X55.8656 Y-4.3225 Z0.1400
G01 X55.3308 Y-4.2965 Z0.1400
G01 X55.3298 Y-4.2964 Z0.1400
G01 X55.3284 Y-4.2964 Z0.1400
G01 X54.7944 Y-4.2710 Z0.1400
G01 X54.7938 Y-4.2710 Z0.1400
G01 X54.7927 Y-4.2710 Z0.1400
G01 X54.2581 Y-4.2462 Z0.1400
G01 X54.2566 Y-4.2461 Z0.1400
G01 X53.7225 Y-4.2222 Z0.1400
G01 X53.7206 Y-4.2221 Z0.1400
G01 X53.7187 Y-4.2220 Z0.1400
G01 X53.1854 Y-4.1988 Z0.1400
G01 X53.1835 Y-4.1987 Z0.1400
G01 X53.1815 Y-4.1986 Z0.1400
G01 X52.6494 Y-4.1759 Z0.1400
G01 X52.6464 Y-4.1758 Z0.1400
G01 X52.1135 Y-4.1538 Z0.1400
G01 X52.1120 Y-4.1538 Z0.1400
G01 X52.1102 Y-4.1537 Z0.1400
G01 X51.5757 Y-4.1324 Z0.1400
G01 X51.5737 Y-4.1323 Z0.1400
G01 X51.0390 Y-4.1115 Z0.1400
G01 X51.0370 Y-4.1114 Z0.1400
G01 X50.5032 Y-4.0914 Z0.1400
G01 X50.5016 Y-4.0914 Z0.1400
G01 X50.4988 Y-4.0913 Z0.1400
G01 X49.9657 Y-4.0720 Z0.1400
G01 X49.9635 Y-4.0719 Z0.1400
G01 X49.9613 Y-4.0718 Z0.1400
G01 X49.4290 Y-4.0531 Z0.1400
G01 X49.4268 Y-4.0530 Z0.1400
G01 X48.8946 Y-4.0351 Z0.1400
G01 X48.8917 Y-4.0350 Z0.1400
G01 X48.8882 Y-4.0349 Z0.1400
G01 X48.8874 Y-4.0348 Z0.1400
G01 X48.3553 Y-4.0175 Z0.1400
G01 X48.3538 Y-4.0175 Z0.1400
G01 X48.3533 Y-4.0174 Z0.1400
G01 X47.8187 Y-4.0007 Z0.1400
G01 X47.8159 Y-4.0006 Z0.1400
G01 X47.8150 Y-4.0006 Z0.1400
G01 X47.2818 Y-3.9845 Z0.1400
G01 X47.2801 Y-3.9845 Z0.1400
G01 X47.2782 Y-3.9844 Z0.1400
G01 X46.7450 Y-3.9691 Z0.1400
G01 X46.7422 Y-3.9690 Z0.1400
G01 X46.7414 Y-3.9689 Z0.1400
G01 X46.2083 Y-3.9542 Z0.1400
G01 X46.2060 Y-3.9542 Z0.1400
G01 X46.2043 Y-3.9541 Z0.1400
G01 X45.6712 Y-3.9401 Z0.1400
G01 X45.6679 Y-3.9400 Z0.1400
G01 X45.6669 Y-3.9400 Z0.1400
G01 X45.1349 Y-3.9266 Z0.1400
G01 X45.1321 Y-3.9265 Z0.1400
G01 X45.1309 Y-3.9265 Z0.1400
G01 X44.5978 Y-3.9137 Z0.1400
G01 X44.5954 Y-3.9137 Z0.1400
G01 X44.5937 Y-3.9136 Z0.1400
G01 X44.0607 Y-3.9015 Z0.1400
G01 X44.0578 Y-3.9015 Z0.1400
G01 X44.0569 Y-3.9014 Z0.1400
G01 X43.5246 Y-3.8901 Z0.1400
G01 X43.5239 Y-3.8901 Z0.1400
G01 X43.5204 Y-3.8900 Z0.1400
G01 X43.5179 Y-3.8899 Z0.1400
G01 X42.9858 Y-3.8792 Z0.1400
G01 X42.9849 Y-3.8792 Z0.1400
G01 X42.9835 Y-3.8791 Z0.1400
G01 X42.4496 Y-3.8690 Z0.1400
G01 X42.4464 Y-3.8690 Z0.1400
G01 X42.4457 Y-3.8690 Z0.1400
G01 X41.9118 Y-3.8595 Z0.1400
G01 X41.9090 Y-3.8595 Z0.1400
G01 X41.9081 Y-3.8594 Z0.1400
G01 X41.3748 Y-3.8507 Z0.1400
G01 X41.3722 Y-3.8506 Z0.1400
G01 X40.8377 Y-3.8425 Z0.1400
G01 X40.8364 Y-3.8425 Z0.1400
G01 X40.3007 Y-3.8350 Z0.1400
G01 X40.2975 Y-3.8350 Z0.1400
G01 X40.2967 Y-3.8349 Z0.1400
G01 X39.7638 Y-3.8281 Z0.1400
G01 X39.7614 Y-3.8281 Z0.1400
G01 X39.2267 Y-3.8219 Z0.1400
G01 X39.2238 Y-3.8219 Z0.1400
G01 X38.6896 Y-3.8164 Z0.1400
G01 X38.6856 Y-3.8164 Z0.1400
G01 X38.1538 Y-3.8116 Z0.1400
G01 X38.1512 Y-3.8115 Z0.1400
G01 X38.1494 Y-3.8115 Z0.1400
G01 X37.6155 Y-3.8073 Z0.1400
G01 X37.6142 Y-3.8073 Z0.1400
G01 X37.0784 Y-3.8038 Z0.1400
G01 X37.0772 Y-3.8038 Z0.1400
G01 X36.5415 Y-3.8009 Z0.1400
G01 X36.5401 Y-3.8009 Z0.1400
G01 X36.0044 Y-3.7987 Z0.1400
G01 X36.0031 Y-3.7987 Z0.1400
G01 X35.4673 Y-3.7972 Z0.1400
G01 X35.4660 Y-3.7972 Z0.1400
G01 X34.9302 Y-3.7963 Z0.1400
G01 X34.9289 Y-3.7963 Z0.1400
G01 X34.3931 Y-3.7961 Z0.1400
G01 X34.3918 Y-3.7961 Z0.1400
G01 X33.8561 Y-3.7966 Z0.1400
G01 X33.8548 Y-3.7966 Z0.1400
G01 X33.3190 Y-3.7977 Z0.1400
G01 X33.3177 Y-3.7977 Z0.1400
G01 X32.7820 Y-3.7995 Z0.1400
G01 X32.7807 Y-3.7995 Z0.1400
G01 X32.2449 Y-3.8019 Z0.1400
G01 X32.2436 Y-3.8019 Z0.1400
G01 X31.7078 Y-3.8050 Z0.1400
G01 X31.7065 Y-3.8050 Z0.1400
G01 X31.1740 Y-3.8088 Z0.1400
G01 X31.1735 Y-3.8088 Z0.1400
G01 X31.1699 Y-3.8088 Z0.1400
G01 X31.1694 Y-3.8088 Z0.1400
G01 X30.6353 Y-3.8133 Z0.1400
G01 X30.6348 Y-3.8133 Z0.1400
G01 X30.6325 Y-3.8133 Z0.1400
G01 X30.0990 Y-3.8184 Z0.1400
G01 X30.0955 Y-3.8184 Z0.1400
G01 X29.5611 Y-3.8242 Z0.1400
G01 X29.5583 Y-3.8242 Z0.1400
G01 X29.0234 Y-3.8306 Z0.1400
G01 X29.0214 Y-3.8306 Z0.1400
G01 X28.4883 Y-3.8376 Z0.1400
G01 X28.4875 Y-3.8377 Z0.1400
G01 X28.4842 Y-3.8377 Z0.1400
G01 X27.9488 Y-3.8455 Z0.1400
G01 X27.9472 Y-3.8455 Z0.1400
G01 X27.4127 Y-3.8539 Z0.1400
G01 X27.4103 Y-3.8539 Z0.1400
G01 X26.8769 Y-3.8629 Z0.1400
G01 X26.8761 Y-3.8630 Z0.1400
G01 X26.8725 Y-3.8630 Z0.1400
G01 X26.8711 Y-3.8630 Z0.1400
G01 X26.3388 Y-3.8727 Z0.1400
G01 X26.3375 Y-3.8728 Z0.1400
G01 X26.3363 Y-3.8728 Z0.1400
G01 X25.8019 Y-3.8831 Z0.1400
G01 X25.8013 Y-3.8832 Z0.1400
G01 X25.7985 Y-3.8832 Z0.1400
G01 X25.2671 Y-3.8942 Z0.1400
G01 X25.2646 Y-3.8943 Z0.1400
G01 X25.2611 Y-3.8943 Z0.1400
G01 X25.2606 Y-3.8943 Z0.1400
G01 X24.7276 Y-3.9060 Z0.1400
G01 X24.7262 Y-3.9061 Z0.1400
G01 X24.7255 Y-3.9061 Z0.1400
G01 X24.1901 Y-3.9184 Z0.1400
G01 X24.1885 Y-3.9185 Z0.1400
G01 X23.6541 Y-3.9315 Z0.1400
G01 X23.6530 Y-3.9315 Z0.1400
G01 X23.6503 Y-3.9316 Z0.1400
G01 X23.1180 Y-3.9452 Z0.1400
G01 X23.1161 Y-3.9453 Z0.1400
G01 X23.1137 Y-3.9453 Z0.1400
G01 X22.5806 Y-3.9596 Z0.1400
G01 X22.5789 Y-3.9597 Z0.1400
G01 X22.5768 Y-3.9597 Z0.1400
G01 X22.0430 Y-3.9747 Z0.1400
G01 X22.0403 Y-3.9748 Z0.1400
G01 X21.5055 Y-3.9905 Z0.1400
G01 X21.5042 Y-3.9905 Z0.1400
G01 X20.9687 Y-4.0069 Z0.1400
G01 X20.9661 Y-4.0070 Z0.1400
G01 X20.9641 Y-4.0070 Z0.1400
G01 X20.4318 Y-4.0239 Z0.1400
G01 X20.4300 Y-4.0240 Z0.1400
G01 X19.8967 Y-4.0416 Z0.1400
G01 X19.8957 Y-4.0416 Z0.1400
G01 X19.8931 Y-4.0418 Z0.1400
G01 X19.3598 Y-4.0600 Z0.1400
G01 X19.3572 Y-4.0601 Z0.1400
G01 X19.3551 Y-4.0601 Z0.1400
G01 X18.8235 Y-4.0790 Z0.1400
G01 X18.8214 Y-4.0791 Z0.1400
G01 X18.8195 Y-4.0792 Z0.1400
G01 X18.2858 Y-4.0988 Z0.1400
G01 X18.2851 Y-4.0988 Z0.1400
G01 X18.2829 Y-4.0990 Z0.1400
G01 X17.7482 Y-4.1192 Z0.1400
G01 X17.7468 Y-4.1193 Z0.1400
G01 X17.2114 Y-4.1403 Z0.1400
G01 X17.2087 Y-4.1404 Z0.1400
G01 X17.2068 Y-4.1405 Z0.1400
G01 X16.6755 Y-4.1619 Z0.1400
G01 X16.6737 Y-4.1620 Z0.1400
G01 X16.1383 Y-4.1844 Z0.1400
G01 X16.1364 Y-4.1844 Z0.1400
G01 X16.1355 Y-4.1845 Z0.1400
G01 X15.6026 Y-4.2074 Z0.1400
G01 X15.6003 Y-4.2075 Z0.1400
G01 X15.5995 Y-4.2075 Z0.1400
G01 X15.0658 Y-4.2311 Z0.1400
G01 X15.0653 Y-4.2311 Z0.1400
G01 X15.0633 Y-4.2312 Z0.1400
G01 X14.5287 Y-4.2555 Z0.1400
G01 X14.5270 Y-4.2555 Z0.1400
G01 X13.9922 Y-4.2805 Z0.1400
G01 X13.9887 Y-4.2807 Z0.1400
G01 X13.4557 Y-4.3062 Z0.1400
G01 X13.4550 Y-4.3062 Z0.1400
G01 X13.4544 Y-4.3062 Z0.1400
G01 X12.9195 Y-4.3325 Z0.1400
G01 X12.9133 Y-4.3329 Z0.1400
G01 X12.9127 Y-4.3329 Z0.1400
G01 X12.3829 Y-4.3596 Z0.1400
G01 X12.3785 Y-4.3598 Z0.1400
G01 X12.3778 Y-4.3599 Z0.1400
G01 X12.3770 Y-4.3599 Z0.1400
G01 X11.8465 Y-4.3873 Z0.1400
G01 X11.8458 Y-4.3874 Z0.1400
G01 X11.8453 Y-4.3874 Z0.1400
G01 X11.3102 Y-4.4157 Z0.1400
G01 X11.3071 Y-4.4158 Z0.1400
G01 X11.3064 Y-4.4158 Z0.1400
G01 X10.7739 Y-4.4446 Z0.1400
G01 X10.7715 Y-4.4448 Z0.1400
G01 X10.7708 Y-4.4448 Z0.1400
G01 X10.2377 Y-4.4743 Z0.1400
G01 X10.2364 Y-4.4744 Z0.1400
G01 X9.7014 Y-4.5046 Z0.1400
G01 X9.7001 Y-4.5047 Z0.1400
G01 X9.1653 Y-4.5357 Z0.1400
G01 X9.1640 Y-4.5357 Z0.1400
G01 X8.6292 Y-4.5673 Z0.1400
G01 X8.6278 Y-4.5674 Z0.1400
G01 X8.0930 Y-4.5997 Z0.1400
G01 X8.0887 Y-4.6000 Z0.1400
G01 X7.5588 Y-4.6325 Z0.1400
G01 X7.5577 Y-4.6326 Z0.1400
G01 X7.5557 Y-4.6327 Z0.1400
G01 X3.9366 Y-4.8602 Z0.1400
G01 X3.9366 Y-4.8602 Z0.0000
G01 X4.0018 Y-5.8985 Z0.0000
G01 X7.6209 Y-5.6711 Z0.0000
G01 X8.1557 Y-5.6382 Z0.0000
G01 X8.1583 Y-5.6380 Z0.0000
G01 X8.1589 Y-5.6380 Z0.0000
G01 X8.1597 Y-5.6379 Z0.0000
G01 X8.6874 Y-5.6061 Z0.0000
G01 X8.6880 Y-5.6061 Z0.0000
G01 X8.6887 Y-5.6060 Z0.0000
G01 X8.6911 Y-5.6059 Z0.0000
G01 X9.2253 Y-5.5743 Z0.0000
G01 X9.2260 Y-5.5743 Z0.0000
G01 X9.7602 Y-5.5434 Z0.0000
G01 X9.7607 Y-5.5433 Z0.0000
G01 X9.7614 Y-5.5433 Z0.0000
G01 X10.2952 Y-5.5131 Z0.0000
G01 X10.2958 Y-5.5131 Z0.0000
G01 X10.2974 Y-5.5130 Z0.0000
G01 X10.8301 Y-5.4835 Z0.0000
G01 X10.8319 Y-5.4834 Z0.0000
G01 X10.8326 Y-5.4833 Z0.0000
G01 X10.8332 Y-5.4833 Z0.0000
G01 X11.3638 Y-5.4546 Z0.0000
G01 X11.3652 Y-5.4546 Z0.0000
G01 X11.9002 Y-5.4263 Z0.0000
G01 X11.9009 Y-5.4263 Z0.0000
G01 X11.9020 Y-5.4262 Z0.0000
G01 X12.4352 Y-5.3987 Z0.0000
G01 X12.4398 Y-5.3984 Z0.0000
G01 X12.4405 Y-5.3984 Z0.0000
G01 X12.9701 Y-5.3717 Z0.0000
G01 X12.9731 Y-5.3715 Z0.0000
G01 X13.5038 Y-5.3455 Z0.0000
G01 X13.5051 Y-5.3454 Z0.0000
G01 X13.5069 Y-5.3453 Z0.0000
G01 X14.0397 Y-5.3198 Z0.0000
G01 X14.0411 Y-5.3197 Z0.0000
G01 X14.0422 Y-5.3196 Z0.0000
G01 X14.5744 Y-5.2948 Z0.0000
G01 X14.5765 Y-5.2948 Z0.0000
G01 X14.5772 Y-5.2947 Z0.0000
G01 X15.1097 Y-5.2706 Z0.0000
G01 X15.1119 Y-5.2705 Z0.0000
G01 X15.6445 Y-5.2469 Z0.0000
G01 X15.6452 Y-5.2469 Z0.0000
G01 X15.6472 Y-5.2468 Z0.0000
G01 X16.1800 Y-5.2239 Z0.0000
G01 X16.1820 Y-5.2238 Z0.0000
G01 X16.1834 Y-5.2238 Z0.0000
G01 X16.7165 Y-5.2016 Z0.0000
G01 X16.7176 Y-5.2015 Z0.0000
G01 X17.2512 Y-5.1800 Z0.0000
G01 X17.2545 Y-5.1798 Z0.0000
G01 X17.2557 Y-5.1797 Z0.0000
G01 X17.7859 Y-5.1589 Z0.0000
G01 X17.7877 Y-5.1588 Z0.0000
G01 X18.3231 Y-5.1385 Z0.0000
G01 X18.3236 Y-5.1385 Z0.0000
G01 X18.8585 Y-5.1188 Z0.0000
G01 X18.8591 Y-5.1188 Z0.0000
G01 X19.3939 Y-5.0998 Z0.0000
G01 X19.9293 Y-5.0815 Z0.0000
G01 X19.9300 Y-5.0814 Z0.0000
G01 X20.4627 Y-5.0639 Z0.0000
G01 X20.4644 Y-5.0638 Z0.0000
G01 X20.4656 Y-5.0638 Z0.0000
G01 X20.9987 Y-5.0468 Z0.0000
G01 X21.0014 Y-5.0467 Z0.0000
G01 X21.0037 Y-5.0466 Z0.0000
G01 X21.5337 Y-5.0305 Z0.0000
G01 X21.5359 Y-5.0305 Z0.0000
G01 X22.0715 Y-5.0147 Z0.0000
G01 X22.0721 Y-5.0147 Z0.0000
G01 X22.6070 Y-4.9997 Z0.0000
G01 X23.1426 Y-4.9853 Z0.0000
G01 X23.1433 Y-4.9853 Z0.0000
G01 X23.6783 Y-4.9716 Z0.0000
G01 X24.2112 Y-4.9586 Z0.0000
G01 X24.2123 Y-4.9586 Z0.0000
G01 X24.2148 Y-4.9585 Z0.0000
G01 X24.7489 Y-4.9462 Z0.0000
G01 X24.7516 Y-4.9461 Z0.0000
G01 X25.2822 Y-4.9345 Z0.0000
G01 X25.2832 Y-4.9345 Z0.0000
G01 X25.2859 Y-4.9344 Z0.0000
G01 X25.8208 Y-4.9234 Z0.0000
G01 X26.3544 Y-4.9131 Z0.0000
G01 X26.3553 Y-4.9130 Z0.0000
G01 X26.3585 Y-4.9129 Z0.0000
G01 X26.8887 Y-4.9033 Z0.0000
G01 X26.8895 Y-4.9033 Z0.0000
G01 X26.8922 Y-4.9032 Z0.0000
G01 X27.4279 Y-4.8942 Z0.0000
G01 X27.9628 Y-4.8857 Z0.0000
G01 X27.9656 Y-4.8857 Z0.0000
G01 X28.4955 Y-4.8780 Z0.0000
G01 X28.4993 Y-4.8780 Z0.0000
G01 X29.0351 Y-4.8709 Z0.0000
G01 X29.5708 Y-4.8645 Z0.0000
G01 X30.1066 Y-4.8587 Z0.0000
G01 X30.6412 Y-4.8537 Z0.0000
G01 X30.6439 Y-4.8536 Z0.0000
G01 X31.1734 Y-4.8492 Z0.0000
G01 X31.1781 Y-4.8492 Z0.0000
G01 X31.7138 Y-4.8454 Z0.0000
G01 X32.2496 Y-4.8423 Z0.0000
G01 X32.7854 Y-4.8399 Z0.0000
G01 X33.3212 Y-4.8381 Z0.0000
G01 X33.8570 Y-4.8370 Z0.0000
G01 X34.3927 Y-4.8365 Z0.0000
G01 X34.9284 Y-4.8367 Z0.0000
G01 X35.4642 Y-4.8376 Z0.0000
G01 X36.0000 Y-4.8391 Z0.0000
G01 X36.5357 Y-4.8413 Z0.0000
G01 X37.0715 Y-4.8442 Z0.0000
G01 X37.6073 Y-4.8477 Z0.0000
G01 X38.1430 Y-4.8519 Z0.0000
G01 X38.6788 Y-4.8567 Z0.0000
G01 X39.2145 Y-4.8622 Z0.0000
G01 X39.7503 Y-4.8684 Z0.0000
G01 X40.2862 Y-4.8753 Z0.0000
G01 X40.2904 Y-4.8753 Z0.0000
G01 X40.8199 Y-4.8827 Z0.0000
G01 X40.8225 Y-4.8827 Z0.0000
G01 X41.3575 Y-4.8909 Z0.0000
G01 X41.8934 Y-4.8997 Z0.0000
G01 X41.8962 Y-4.8998 Z0.0000
G01 X41.8970 Y-4.8998 Z0.0000
G01 X42.4288 Y-4.9092 Z0.0000
G01 X42.9626 Y-4.9193 Z0.0000
G01 X42.9651 Y-4.9194 Z0.0000
G01 X42.9671 Y-4.9194 Z0.0000
G01 X43.4996 Y-4.9302 Z0.0000
G01 X43.5025 Y-4.9302 Z0.0000
G01 X43.5035 Y-4.9303 Z0.0000
G01 X44.0359 Y-4.9416 Z0.0000
G01 X44.5707 Y-4.9538 Z0.0000
G01 X44.5717 Y-4.9538 Z0.0000
G01 X45.1072 Y-4.9666 Z0.0000
G01 X45.6423 Y-4.9801 Z0.0000
G01 X45.6429 Y-4.9801 Z0.0000
G01 X46.1784 Y-4.9942 Z0.0000
G01 X46.7136 Y-5.0090 Z0.0000
G01 X46.7141 Y-5.0090 Z0.0000
G01 X47.2495 Y-5.0244 Z0.0000
G01 X47.7849 Y-5.0405 Z0.0000
G01 X48.3199 Y-5.0573 Z0.0000
G01 X48.3213 Y-5.0574 Z0.0000
G01 X48.3230 Y-5.0574 Z0.0000
G01 X48.8536 Y-5.0747 Z0.0000
G01 X48.8553 Y-5.0747 Z0.0000
G01 X48.8579 Y-5.0748 Z0.0000
G01 X49.3912 Y-5.0929 Z0.0000
G01 X49.3920 Y-5.0929 Z0.0000
G01 X49.3937 Y-5.0929 Z0.0000
G01 X49.9262 Y-5.1116 Z0.0000
G01 X49.9272 Y-5.1116 Z0.0000
G01 X50.4624 Y-5.1310 Z0.0000
G01 X50.9974 Y-5.1511 Z0.0000
G01 X50.9980 Y-5.1511 Z0.0000
G01 X51.5327 Y-5.1719 Z0.0000
G01 X51.5334 Y-5.1719 Z0.0000
G01 X52.0687 Y-5.1933 Z0.0000
G01 X52.0703 Y-5.1933 Z0.0000
G01 X52.6033 Y-5.2153 Z0.0000
G01 X52.6059 Y-5.2154 Z0.0000
G01 X53.1385 Y-5.2381 Z0.0000
G01 X53.1405 Y-5.2381 Z0.0000
G01 X53.1412 Y-5.2382 Z0.0000
G01 X53.6745 Y-5.2615 Z0.0000
G01 X54.2091 Y-5.2855 Z0.0000
G01 X54.2099 Y-5.2855 Z0.0000
G01 X54.7440 Y-5.3102 Z0.0000
G01 X54.7451 Y-5.3103 Z0.0000
G01 X55.2796 Y-5.3357 Z0.0000
G01 X55.2809 Y-5.3357 Z0.0000
G01 X55.8138 Y-5.3616 Z0.0000
G01 X55.8149 Y-5.3617 Z0.0000
G01 X55.8163 Y-5.3618 Z0.0000
G01 X56.3501 Y-5.3885 Z0.0000
G01 X56.3519 Y-5.3885 Z0.0000
G01 X56.8829 Y-5.4157 Z0.0000
G01 X56.8840 Y-5.4157 Z0.0000
G01 X56.8857 Y-5.4158 Z0.0000
G01 X57.4195 Y-5.4437 Z0.0000
G01 X57.4225 Y-5.4439 Z0.0000
G01 X57.4234 Y-5.4440 Z0.0000
G01 X57.9519 Y-5.4724 Z0.0000
G01 X57.9558 Y-5.4725 Z0.0000
G01 X58.4877 Y-5.5017 Z0.0000
G01 X58.4905 Y-5.5019 Z0.0000
G01 X59.0222 Y-5.5317 Z0.0000
G01 X59.0256 Y-5.5319 Z0.0000
G01 X59.5603 Y-5.5625 Z0.0000
G01 X59.5613 Y-5.5626 Z0.0000
G01 X59.5621 Y-5.5627 Z0.0000
G01 X60.0948 Y-5.5939 Z0.0000
G01 X60.0971 Y-5.5941 Z0.0000
G01 X63.7167 Y-5.8106 Z0.0000
G01 X63.7788 Y-4.7720 Z0.0000
G01 X60.1576 Y-4.5554 Z0.0000
G01 X60.1563 Y-4.5553 Z0.0000
G01 X59.6214 Y-4.5240 Z0.0000
G01 X59.6194 Y-4.5238 Z0.0000
G01 X59.6189 Y-4.5238 Z0.0000
G01 X59.0851 Y-4.4932 Z0.0000
G01 X59.0841 Y-4.4931 Z0.0000
G01 X58.5489 Y-4.4631 Z0.0000
G01 X58.5474 Y-4.4631 Z0.0000
G01 X58.0152 Y-4.4338 Z0.0000
G01 X58.0117 Y-4.4336 Z0.0000
G01 X58.0109 Y-4.4335 Z0.0000
G01 X57.4764 Y-4.4049 Z0.0000
G01 X57.4751 Y-4.4048 Z0.0000
G01 X56.9401 Y-4.3768 Z0.0000
G01 X56.9388 Y-4.3767 Z0.0000
G01 X56.4054 Y-4.3494 Z0.0000
G01 X56.4025 Y-4.3493 Z0.0000
G01 X55.8674 Y-4.3226 Z0.0000
G01 X55.8656 Y-4.3225 Z0.0000
G01 X55.3308 Y-4.2965 Z0.0000
G01 X55.3298 Y-4.2964 Z0.0000
G01 X55.3284 Y-4.2964 Z0.0000
G01 X54.7944 Y-4.2710 Z0.0000
G01 X54.7938 Y-4.2710 Z0.0000
G01 X54.7927 Y-4.2710 Z0.0000
G01 X54.2581 Y-4.2462 Z0.0000
G01 X54.2566 Y-4.2461 Z0.0000
G01 X53.7225 Y-4.2222 Z0.0000
G01 X53.7206 Y-4.2221 Z0.0000
G01 X53.7187 Y-4.2220 Z0.0000
G01 X53.1854 Y-4.1988 Z0.0000
G01 X53.1835 Y-4.1987 Z0.0000
G01 X53.1815 Y-4.1986 Z0.0000
G01 X52.6494 Y-4.1759 Z0.0000
G01 X52.6464 Y-4.1758 Z0.0000
G01 X52.1135 Y-4.1538 Z0.0000
G01 X52.1120 Y-4.1538 Z0.0000
G01 X52.1102 Y-4.1537 Z0.0000
G01 X51.5757 Y-4.1324 Z0.0000
G01 X51.5737 Y-4.1323 Z0.0000
G01 X51.0390 Y-4.1115 Z0.0000
G01 X51.0370 Y-4.1114 Z0.0000
G01 X50.5032 Y-4.0914 Z0.0000
G01 X50.5016 Y-4.0914 Z0.0000
G01 X50.4988 Y-4.0913 Z0.0000
G01 X49.9657 Y-4.0720 Z0.0000
G01 X49.9635 Y-4.0719 Z0.0000
G01 X49.9613 Y-4.0718 Z0.0000
G01 X49.4290 Y-4.0531 Z0.0000
G01 X49.4268 Y-4.0530 Z0.0000
G01 X48.8946 Y-4.0351 Z0.0000
G01 X48.8917 Y-4.0350 Z0.0000
G01 X48.8882 Y-4.0349 Z0.0000
G01 X48.8874 Y-4.0348 Z0.0000
G01 X48.3553 Y-4.0175 Z0.0000
G01 X48.3538 Y-4.0175 Z0.0000
G01 X48.3533 Y-4.0174 Z0.0000
G01 X47.8187 Y-4.0007 Z0.0000
G01 X47.8159 Y-4.0006 Z0.0000
G01 X47.8150 Y-4.0006 Z0.0000
G01 X47.2818 Y-3.9845 Z0.0000
G01 X47.2801 Y-3.9845 Z0.0000
G01 X47.2782 Y-3.9844 Z0.0000
G01 X46.7450 Y-3.9691 Z0.0000
G01 X46.7422 Y-3.9690 Z0.0000
G01 X46.7414 Y-3.9689 Z0.0000
G01 X46.2083 Y-3.9542 Z0.0000
G01 X46.2060 Y-3.9542 Z0.0000
G01 X46.2043 Y-3.9541 Z0.0000
G01 X45.6712 Y-3.9401 Z0.0000
G01 X45.6679 Y-3.9400 Z0.0000
G01 X45.6669 Y-3.9400 Z0.0000
G01 X45.1349 Y-3.9266 Z0.0000
G01 X45.1321 Y-3.9265 Z0.0000
G01 X45.1309 Y-3.9265 Z0.0000
G01 X44.5978 Y-3.9137 Z0.0000
G01 X44.5954 Y-3.9137 Z0.0000
G01 X44.5937 Y-3.9136 Z0.0000
G01 X44.0607 Y-3.9015 Z0.0000
G01 X44.0578 Y-3.9015 Z0.0000
G01 X44.0569 Y-3.9014 Z0.0000
G01 X43.5246 Y-3.8901 Z0.0000
G01 X43.5239 Y-3.8901 Z0.0000
G01 X43.5204 Y-3.8900 Z0.0000
G01 X43.5179 Y-3.8899 Z0.0000
G01 X42.9858 Y-3.8792 Z0.0000
G01 X42.9849 Y-3.8792 Z0.0000
G01 X42.9835 Y-3.8791 Z0.0000
G01 X42.4496 Y-3.8690 Z0.0000
G01 X42.4464 Y-3.8690 Z0.0000
G01 X42.4457 Y-3.8690 Z0.0000
G01 X41.9118 Y-3.8595 Z0.0000
G01 X41.9090 Y-3.8595 Z0.0000
G01 X41.9081 Y-3.8594 Z0.0000
G01 X41.3748 Y-3.8507 Z0.0000
G01 X41.3722 Y-3.8506 Z0.0000
G01 X40.8377 Y-3.8425 Z0.0000
G01 X40.8364 Y-3.8425 Z0.0000
G01 X40.3007 Y-3.8350 Z0.0000
G01 X40.2975 Y-3.8350 Z0.0000
G01 X40.2967 Y-3.8349 Z0.0000
G01 X39.7638 Y-3.8281 Z0.0000
G01 X39.7614 Y-3.8281 Z0.0000
G01 X39.2267 Y-3.8219 Z0.0000
G01 X39.2238 Y-3.8219 Z0.0000
G01 X38.6896 Y-3.8164 Z0.0000
G01 X38.6856 Y-3.8164 Z0.0000
G01 X38.1538 Y-3.8116 Z0.0000
G01 X38.1512 Y-3.8115 Z0.0000
G01 X38.1494 Y-3.8115 Z0.0000
G01 X37.6155 Y-3.8073 Z0.0000
G01 X37.6142 Y-3.8073 Z0.0000
G01 X37.0784 Y-3.8038 Z0.0000
G01 X37.0772 Y-3.8038 Z0.0000
G01 X36.5415 Y-3.8009 Z0.0000
G01 X36.5401 Y-3.8009 Z0.0000
G01 X36.0044 Y-3.7987 Z0.0000
G01 X36.0031 Y-3.7987 Z0.0000
G01 X35.4673 Y-3.7972 Z0.0000
G01 X35.4660 Y-3.7972 Z0.0000
G01 X34.9302 Y-3.7963 Z0.0000
G01 X34.9289 Y-3.7963 Z0.0000
G01 X34.3931 Y-3.7961 Z0.0000
G01 X34.3918 Y-3.7961 Z0.0000
G01 X33.8561 Y-3.7966 Z0.0000
G01 X33.8548 Y-3.7966 Z0.0000
G01 X33.3190 Y-3.7977 Z0.0000
G01 X33.3177 Y-3.7977 Z0.0000
G01 X32.7820 Y-3.7995 Z0.0000
G01 X32.7807 Y-3.7995 Z0.0000
G01 X32.2449 Y-3.8019 Z0.0000
G01 X32.2436 Y-3.8019 Z0.0000
G01 X31.7078 Y-3.8050 Z0.0000
G01 X31.7065 Y-3.8050 Z0.0000
G01 X31.1740 Y-3.8088 Z0.0000
G01 X31.1735 Y-3.8088 Z0.0000
G01 X31.1699 Y-3.8088 Z0.0000
G01 X31.1694 Y-3.8088 Z0.0000
G01 X30.6353 Y-3.8133 Z0.0000
G01 X30.6348 Y-3.8133 Z0.0000
G01 X30.6325 Y-3.8133 Z0.0000
G01 X30.0990 Y-3.8184 Z0.0000
G01 X30.0955 Y-3.8184 Z0.0000
G01 X29.5611 Y-3.8242 Z0.0000
G01 X29.5583 Y-3.8242 Z0.0000
G01 X29.0234 Y-3.8306 Z0.0000
G01 X29.0214 Y-3.8306 Z0.0000
G01 X28.4883 Y-3.8376 Z0.0000
G01 X28.4875 Y-3.8377 Z0.0000
G01 X28.4842 Y-3.8377 Z0.0000
G01 X27.9488 Y-3.8455 Z0.0000
G01 X27.9472 Y-3.8455 Z0.0000
G01 X27.4127 Y-3.8539 Z0.0000
G01 X27.4103 Y-3.8539 Z0.0000
G01 X26.8769 Y-3.8629 Z0.0000
G01 X26.8761 Y-3.8630 Z0.0000
G01 X26.8725 Y-3.8630 Z0.0000
G01 X26.8711 Y-3.8630 Z0.0000
G01 X26.3388 Y-3.8727 Z0.0000
G01 X26.3375 Y-3.8728 Z0.0000
G01 X26.3363 Y-3.8728 Z0.0000
G01 X25.8019 Y-3.8831 Z0.0000
G01 X25.8013 Y-3.8832 Z0.0000
G01 X25.7985 Y-3.8832 Z0.0000
G01 X25.2671 Y-3.8942 Z0.0000
G01 X25.2646 Y-3.8943 Z0.0000
G01 X25.2611 Y-3.8943 Z0.0000
G01 X25.2606 Y-3.8943 Z0.0000
G01 X24.7276 Y-3.9060 Z0.0000
G01 X24.7262 Y-3.9061 Z0.0000
G01 X24.7255 Y-3.9061 Z0.0000
G01 X24.1901 Y-3.9184 Z0.0000
G01 X24.1885 Y-3.9185 Z0.0000
G01 X23.6541 Y-3.9315 Z0.0000
G01 X23.6530 Y-3.9315 Z0.0000
G01 X23.6503 Y-3.9316 Z0.0000
G01 X23.1180 Y-3.9452 Z0.0000
G01 X23.1161 Y-3.9453 Z0.0000
G01 X23.1137 Y-3.9453 Z0.0000
G01 X22.5806 Y-3.9596 Z0.0000
G01 X22.5789 Y-3.9597 Z0.0000
G01 X22.5768 Y-3.9597 Z0.0000
G01 X22.0430 Y-3.9747 Z0.0000
G01 X22.0403 Y-3.9748 Z0.0000
G01 X21.5055 Y-3.9905 Z0.0000
G01 X21.5042 Y-3.9905 Z0.0000
G01 X20.9687 Y-4.0069 Z0.0000
G01 X20.9661 Y-4.0070 Z0.0000
G01 X20.9641 Y-4.0070 Z0.0000
G01 X20.4318 Y-4.0239 Z0.0000
G01 X20.4300 Y-4.0240 Z0.0000
G01 X19.8967 Y-4.0416 Z0.0000
G01 X19.8957 Y-4.0416 Z0.0000
G01 X19.8931 Y-4.0418 Z0.0000
G01 X19.3598 Y-4.0600 Z0.0000
G01 X19.3572 Y-4.0601 Z0.0000
G01 X19.3551 Y-4.0601 Z0.0000
G01 X18.8235 Y-4.0790 Z0.0000
G01 X18.8214 Y-4.0791 Z0.0000
G01 X18.8195 Y-4.0792 Z0.0000
G01 X18.2858 Y-4.0988 Z0.0000
G01 X18.2851 Y-4.0988 Z0.0000
G01 X18.2829 Y-4.0990 Z0.0000
G01 X17.7482 Y-4.1192 Z0.0000
G01 X17.7468 Y-4.1193 Z0.0000
G01 X17.2114 Y-4.1403 Z0.0000
G01 X17.2087 Y-4.1404 Z0.0000
G01 X17.2068 Y-4.1405 Z0.0000
G01 X16.6755 Y-4.1619 Z0.0000
G01 X16.6737 Y-4.1620 Z0.0000
G01 X16.1383 Y-4.1844 Z0.0000
G01 X16.1364 Y-4.1844 Z0.0000
G01 X16.1355 Y-4.1845 Z0.0000
G01 X15.6026 Y-4.2074 Z0.0000
G01 X15.6003 Y-4.2075 Z0.0000
G01 X15.5995 Y-4.2075 Z0.0000
G01 X15.0658 Y-4.2311 Z0.0000
G01 X15.0653 Y-4.2311 Z0.0000
G01 X15.0633 Y-4.2312 Z0.0000
G01 X14.5287 Y-4.2555 Z0.0000
G01 X14.5270 Y-4.2555 Z0.0000
G01 X13.9922 Y-4.2805 Z0.0000
G01 X13.9887 Y-4.2807 Z0.0000
G01 X13.4557 Y-4.3062 Z0.0000
G01 X13.4550 Y-4.3062 Z0.0000
G01 X13.4544 Y-4.3062 Z0.0000
G01 X12.9195 Y-4.3325 Z0.0000
G01 X12.9133 Y-4.3329 Z0.0000
G01 X12.9127 Y-4.3329 Z0.0000
G01 X12.3829 Y-4.3596 Z0.0000
G01 X12.3785 Y-4.3598 Z0.0000
G01 X12.3778 Y-4.3599 Z0.0000
G01 X12.3770 Y-4.3599 Z0.0000
G01 X11.8465 Y-4.3873 Z0.0000
G01 X11.8458 Y-4.3874 Z0.0000
G01 X11.8453 Y-4.3874 Z0.0000
G01 X11.3102 Y-4.4157 Z0.0000
G01 X11.3071 Y-4.4158 Z0.0000
G01 X11.3064 Y-4.4158 Z0.0000
G01 X10.7739 Y-4.4446 Z0.0000
G01 X10.7715 Y-4.4448 Z0.0000
G01 X10.7708 Y-4.4448 Z0.0000
G01 X10.2377 Y-4.4743 Z0.0000
G01 X10.2364 Y-4.4744 Z0.0000
G01 X9.7014 Y-4.5046 Z0.0000
G01 X9.7001 Y-4.5047 Z0.0000
G01 X9.1653 Y-4.5357 Z0.0000
G01 X9.1640 Y-4.5357 Z0.0000
G01 X8.6292 Y-4.5673 Z0.0000
G01 X8.6278 Y-4.5674 Z0.0000
G01 X8.0930 Y-4.5997 Z0.0000
G01 X8.0887 Y-4.6000 Z0.0000
G01 X7.5588 Y-4.6325 Z0.0000
G01 X7.5577 Y-4.6326 Z0.0000
G01 X7.5557 Y-4.6327 Z0.0000
G01 X3.9366 Y-4.8602 Z0.0000
G00 X3.9366 Y-4.8602 Z0.6000
M05
G00 X0.0000 Y0.0000 Z0.6000
G49
G01 G55 Z0 F20
G00 G55 X0 Y0 Z0
M30
