( Sample-snowboard-top-cutout.nc                                               )
( Generated by MonkeyCAM v4.0 at 2013-10-21 22:47:51                           )
(                                                                              )
( This GCode program is provided on an "AS IS" BASIS WITHOUT WARRANTIES OR     )
( CONDITIONS OF ANY KIND, either express or implied. You should inspect this   )
( program very carefully to confirm you understand its operation. YOU ARE      )
( RESPONSIBLE FOR ENSURING THIS PROGRAM WILL NOT DAMAGE YOUR MACHINE OR        )
( MATERIALS.                                                                   )
(                                                                              )
( See http://www.github.com/MonkeyCAM for License and documentation.           )
(                                                                              )
( * Rapid height: 0.6000" [1.5240cm]                                           )
( * Tool: T1, Quarter Inch Upcut Spiral, diameter 0.2469" [0.6273cm]           )
( * Height basline [Z=0.0] is the top of the table.                            )
( * XY origin is the left side of the table, Y is center of the part.          )
( * Requires G54 to be the part work coordinate offsets [WCO]. [0, 0] is the   )
(   center of the nose, with the board extending to positive X. The cutter may )
(   move to negative values of X.                                              )
( * Requires G55 to be the machine WCO, with Z above the rapid height.         )
( * Units are inches                                                           )
( * Cutter bounding box in G54:                                                )
(     X0.0000 Y-5.9123 Z-0.0100 to X65.4777 Y5.9123 Z0.6000                    )

G90 G20 G17 G40 G49
G43 H1 T1
G00 G54 X0 Y0 Z0.6000

G00 X0.6639 Y-0.0015 Z0.6000
M03
G04 P5
G01 X0.6639 Y-0.0015 Z0.2766 F70
G01 X0.6658 Y-0.1520 Z0.2766
G01 X0.6659 Y-0.1551 Z0.2766
G01 X0.6716 Y-0.3080 Z0.2766
G01 X0.6718 Y-0.3112 Z0.2766
G01 X0.6812 Y-0.4593 Z0.2766
G01 X0.6815 Y-0.4626 Z0.2766
G01 X0.6952 Y-0.6137 Z0.2766
G01 X0.6955 Y-0.6170 Z0.2766
G01 X0.7131 Y-0.7662 Z0.2766
G01 X0.7136 Y-0.7696 Z0.2766
G01 X0.7349 Y-0.9160 Z0.2766
G01 X0.7355 Y-0.9194 Z0.2766
G01 X0.7611 Y-1.0659 Z0.2766
G01 X0.7617 Y-1.0695 Z0.2766
G01 X0.7914 Y-1.2143 Z0.2766
G01 X0.7922 Y-1.2178 Z0.2766
G01 X0.8259 Y-1.3610 Z0.2766
G01 X0.8268 Y-1.3646 Z0.2766
G01 X0.8648 Y-1.5061 Z0.2766
G01 X0.8658 Y-1.5097 Z0.2766
G01 X0.9083 Y-1.6507 Z0.2766
G01 X0.9094 Y-1.6544 Z0.2766
G01 X0.9558 Y-1.7925 Z0.2766
G01 X0.9572 Y-1.7962 Z0.2766
G01 X1.0083 Y-1.9335 Z0.2766
G01 X1.0098 Y-1.9372 Z0.2766
G01 X1.0646 Y-2.0709 Z0.2766
G01 X1.0662 Y-2.0748 Z0.2766
G01 X1.1263 Y-2.2084 Z0.2766
G01 X1.1281 Y-2.2122 Z0.2766
G01 X1.1919 Y-2.3418 Z0.2766
G01 X1.1938 Y-2.3456 Z0.2766
G01 X1.2622 Y-2.4734 Z0.2766
G01 X1.2644 Y-2.4772 Z0.2766
G01 X1.3387 Y-2.6048 Z0.2766
G01 X1.3409 Y-2.6086 Z0.2766
G01 X1.4185 Y-2.7316 Z0.2766
G01 X1.4209 Y-2.7353 Z0.2766
G01 X1.5040 Y-2.8572 Z0.2766
G01 X1.5067 Y-2.8609 Z0.2766
G01 X1.5946 Y-2.9803 Z0.2766
G01 X1.5974 Y-2.9838 Z0.2766
G01 X1.6905 Y-3.1009 Z0.2766
G01 X1.6935 Y-3.1045 Z0.2766
G01 X1.7910 Y-3.2182 Z0.2766
G01 X1.7940 Y-3.2216 Z0.2766
G01 X1.8983 Y-3.3344 Z0.2766
G01 X1.9015 Y-3.3377 Z0.2766
G01 X2.0102 Y-3.4468 Z0.2766
G01 X2.0135 Y-3.4500 Z0.2766
G01 X2.1277 Y-3.5563 Z0.2766
G01 X2.1311 Y-3.5593 Z0.2766
G01 X2.2519 Y-3.6638 Z0.2766
G01 X2.2555 Y-3.6668 Z0.2766
G01 X2.3819 Y-3.7681 Z0.2766
G01 X2.3855 Y-3.7709 Z0.2766
G01 X2.5174 Y-3.8688 Z0.2766
G01 X2.5210 Y-3.8714 Z0.2766
G01 X2.6607 Y-3.9674 Z0.2766
G01 X2.6644 Y-3.9699 Z0.2766
G01 X2.8094 Y-4.0620 Z0.2766
G01 X2.8132 Y-4.0643 Z0.2766
G01 X2.9655 Y-4.1536 Z0.2766
G01 X2.9692 Y-4.1557 Z0.2766
G01 X3.1278 Y-4.2414 Z0.2766
G01 X3.1316 Y-4.2434 Z0.2766
G01 X3.2983 Y-4.3261 Z0.2766
G01 X3.3020 Y-4.3279 Z0.2766
G01 X3.4749 Y-4.4066 Z0.2766
G01 X3.4787 Y-4.4082 Z0.2766
G01 X3.6596 Y-4.4833 Z0.2766
G01 X3.6633 Y-4.4848 Z0.2766
G01 X3.8513 Y-4.5558 Z0.2766
G01 X3.8550 Y-4.5571 Z0.2766
G01 X4.0498 Y-4.6237 Z0.2766
G01 X4.0535 Y-4.6249 Z0.2766
G01 X4.2582 Y-4.6879 Z0.2766
G01 X4.2618 Y-4.6889 Z0.2766
G01 X4.4744 Y-4.7474 Z0.2766
G01 X4.4779 Y-4.7483 Z0.2766
G01 X4.6964 Y-4.8014 Z0.2766
G01 X4.6998 Y-4.8022 Z0.2766
G01 X4.9279 Y-4.8509 Z0.2766
G01 X4.9313 Y-4.8516 Z0.2766
G01 X5.1680 Y-4.8953 Z0.2766
G01 X5.1713 Y-4.8958 Z0.2766
G01 X5.4152 Y-4.9341 Z0.2766
G01 X5.4190 Y-4.9346 Z0.2766
G01 X5.5109 Y-4.9461 Z0.2766
G01 X5.5120 Y-4.9462 Z0.2766
G01 X5.6005 Y-4.9565 Z0.2766
G01 X5.6016 Y-4.9566 Z0.2766
G01 X5.6867 Y-4.9657 Z0.2766
G01 X5.6877 Y-4.9659 Z0.2766
G01 X5.7694 Y-4.9739 Z0.2766
G01 X5.7703 Y-4.9740 Z0.2766
G01 X5.8488 Y-4.9811 Z0.2766
G01 X5.8497 Y-4.9812 Z0.2766
G01 X5.9250 Y-4.9875 Z0.2766
G01 X5.9256 Y-4.9876 Z0.2766
G01 X5.9978 Y-4.9933 Z0.2766
G01 X5.9983 Y-4.9933 Z0.2766
G01 X6.0673 Y-4.9985 Z0.2766
G01 X6.0678 Y-4.9985 Z0.2766
G01 X6.1339 Y-5.0032 Z0.2766
G01 X6.1972 Y-5.0076 Z0.2766
G01 X6.2571 Y-5.0118 Z0.2766
G01 X6.3139 Y-5.0159 Z0.2766
G01 X6.3688 Y-5.0201 Z0.2766
G01 X6.4194 Y-5.0244 Z0.2766
G01 X6.4664 Y-5.0289 Z0.2766
G01 X6.5134 Y-5.0340 Z0.2766
G01 X6.5533 Y-5.0392 Z0.2766
G01 X6.5933 Y-5.0452 Z0.2766
G01 X6.6287 Y-5.0516 Z0.2766
G01 X6.6627 Y-5.0589 Z0.2766
G01 X6.6919 Y-5.0664 Z0.2766
G01 X6.7193 Y-5.0749 Z0.2766
G01 X6.7431 Y-5.0838 Z0.2766
G01 X6.7646 Y-5.0933 Z0.2766
G01 X6.7835 Y-5.1034 Z0.2766
G01 X6.8004 Y-5.1142 Z0.2766
G01 X6.8155 Y-5.1258 Z0.2766
G01 X6.8290 Y-5.1381 Z0.2766
G01 X6.8416 Y-5.1519 Z0.2766
G01 X6.8538 Y-5.1676 Z0.2766
G01 X6.8650 Y-5.1850 Z0.2766
G01 X6.8762 Y-5.2060 Z0.2766
G01 X6.8866 Y-5.2290 Z0.2766
G01 X6.8967 Y-5.2559 Z0.2766
G01 X6.9059 Y-5.2856 Z0.2766
G01 X6.9146 Y-5.3192 Z0.2766
G01 X6.9229 Y-5.3583 Z0.2766
G01 X6.9298 Y-5.3979 Z0.2766
G01 X6.9362 Y-5.4429 Z0.2766
G01 X6.9419 Y-5.4929 Z0.2766
G01 X6.9466 Y-5.5448 Z0.2766
G01 X6.9508 Y-5.6028 Z0.2766
G01 X6.9542 Y-5.6636 Z0.2766
G01 X6.9569 Y-5.7285 Z0.2766
G01 X6.9589 Y-5.7926 Z0.2766
G01 X6.9590 Y-5.7962 Z0.2766
G01 X6.9593 Y-5.7997 Z0.2766
G01 X6.9597 Y-5.8033 Z0.2766
G01 X6.9601 Y-5.8068 Z0.2766
G01 X6.9607 Y-5.8103 Z0.2766
G01 X6.9614 Y-5.8138 Z0.2766
G01 X6.9622 Y-5.8173 Z0.2766
G01 X6.9630 Y-5.8207 Z0.2766
G01 X6.9640 Y-5.8242 Z0.2766
G01 X6.9651 Y-5.8275 Z0.2766
G01 X6.9662 Y-5.8309 Z0.2766
G01 X6.9675 Y-5.8342 Z0.2766
G01 X6.9688 Y-5.8375 Z0.2766
G01 X6.9703 Y-5.8408 Z0.2766
G01 X6.9718 Y-5.8440 Z0.2766
G01 X6.9735 Y-5.8472 Z0.2766
G01 X6.9752 Y-5.8503 Z0.2766
G01 X6.9770 Y-5.8533 Z0.2766
G01 X6.9789 Y-5.8563 Z0.2766
G01 X6.9809 Y-5.8593 Z0.2766
G01 X6.9830 Y-5.8622 Z0.2766
G01 X6.9851 Y-5.8650 Z0.2766
G01 X6.9874 Y-5.8678 Z0.2766
G01 X6.9897 Y-5.8705 Z0.2766
G01 X6.9921 Y-5.8731 Z0.2766
G01 X6.9946 Y-5.8757 Z0.2766
G01 X6.9971 Y-5.8782 Z0.2766
G01 X6.9997 Y-5.8806 Z0.2766
G01 X7.0024 Y-5.8829 Z0.2766
G01 X7.0051 Y-5.8852 Z0.2766
G01 X7.0080 Y-5.8874 Z0.2766
G01 X7.0109 Y-5.8895 Z0.2766
G01 X7.0138 Y-5.8915 Z0.2766
G01 X7.0168 Y-5.8934 Z0.2766
G01 X7.0198 Y-5.8953 Z0.2766
G01 X7.0229 Y-5.8970 Z0.2766
G01 X7.0261 Y-5.8987 Z0.2766
G01 X7.0292 Y-5.9003 Z0.2766
G01 X7.0325 Y-5.9018 Z0.2766
G01 X7.0357 Y-5.9031 Z0.2766
G01 X7.0391 Y-5.9044 Z0.2766
G01 X7.0424 Y-5.9056 Z0.2766
G01 X7.0458 Y-5.9067 Z0.2766
G01 X7.0492 Y-5.9077 Z0.2766
G01 X7.0527 Y-5.9087 Z0.2766
G01 X7.0561 Y-5.9094 Z0.2766
G01 X7.0596 Y-5.9101 Z0.2766
G01 X7.0631 Y-5.9107 Z0.2766
G01 X7.0666 Y-5.9112 Z0.2766
G01 X7.0702 Y-5.9116 Z0.2766
G01 X7.0737 Y-5.9120 Z0.2766
G01 X7.0773 Y-5.9121 Z0.2766
G01 X7.0809 Y-5.9122 Z0.2766
G01 X7.0843 Y-5.9123 Z0.2766
G01 X7.0890 Y-5.9122 Z0.2766
G01 X7.0948 Y-5.9121 Z0.2766
G01 X7.0992 Y-5.9119 Z0.2766
G01 X7.6339 Y-5.8783 Z0.2766
G01 X8.1685 Y-5.8454 Z0.2766
G01 X8.6989 Y-5.8133 Z0.2766
G01 X8.7027 Y-5.8132 Z0.2766
G01 X9.2376 Y-5.7816 Z0.2766
G01 X9.7722 Y-5.7507 Z0.2766
G01 X10.3069 Y-5.7204 Z0.2766
G01 X10.8416 Y-5.6908 Z0.2766
G01 X11.3762 Y-5.6618 Z0.2766
G01 X11.9111 Y-5.6336 Z0.2766
G01 X12.4459 Y-5.6060 Z0.2766
G01 X12.9787 Y-5.5791 Z0.2766
G01 X12.9805 Y-5.5790 Z0.2766
G01 X13.5157 Y-5.5527 Z0.2766
G01 X14.0504 Y-5.5271 Z0.2766
G01 X14.5855 Y-5.5022 Z0.2766
G01 X15.1205 Y-5.4779 Z0.2766
G01 X15.6555 Y-5.4542 Z0.2766
G01 X16.1905 Y-5.4312 Z0.2766
G01 X16.7256 Y-5.4089 Z0.2766
G01 X17.2605 Y-5.3873 Z0.2766
G01 X17.7936 Y-5.3664 Z0.2766
G01 X17.7955 Y-5.3663 Z0.2766
G01 X18.3309 Y-5.3460 Z0.2766
G01 X18.5039 Y-5.3396 Z0.2766
G01 X18.8661 Y-5.3263 Z0.2766
G01 X19.2913 Y-5.3112 Z0.2766
G01 X19.4013 Y-5.3073 Z0.2766
G01 X19.9364 Y-5.2890 Z0.2766
G01 X20.0787 Y-5.2842 Z0.2766
G01 X20.4717 Y-5.2713 Z0.2766
G01 X20.8661 Y-5.2587 Z0.2766
G01 X21.0068 Y-5.2542 Z0.2766
G01 X21.5423 Y-5.2379 Z0.2766
G01 X22.0776 Y-5.2222 Z0.2766
G01 X22.6129 Y-5.2072 Z0.2766
G01 X23.1482 Y-5.1928 Z0.2766
G01 X23.6835 Y-5.1791 Z0.2766
G01 X24.2190 Y-5.1661 Z0.2766
G01 X24.7510 Y-5.1538 Z0.2766
G01 X24.7541 Y-5.1537 Z0.2766
G01 X25.2897 Y-5.1420 Z0.2766
G01 X25.8251 Y-5.1309 Z0.2766
G01 X26.3605 Y-5.1205 Z0.2766
G01 X26.8958 Y-5.1108 Z0.2766
G01 X27.4314 Y-5.1018 Z0.2766
G01 X27.9668 Y-5.0933 Z0.2766
G01 X28.5023 Y-5.0856 Z0.2766
G01 X29.0378 Y-5.0785 Z0.2766
G01 X29.5733 Y-5.0721 Z0.2766
G01 X30.1088 Y-5.0663 Z0.2766
G01 X30.6443 Y-5.0612 Z0.2766
G01 X31.1798 Y-5.0568 Z0.2766
G01 X31.7153 Y-5.0530 Z0.2766
G01 X32.2509 Y-5.0499 Z0.2766
G01 X32.7863 Y-5.0475 Z0.2766
G01 X33.3219 Y-5.0457 Z0.2766
G01 X33.8574 Y-5.0446 Z0.2766
G01 X34.3929 Y-5.0441 Z0.2766
G01 X34.9282 Y-5.0443 Z0.2766
G01 X35.4637 Y-5.0452 Z0.2766
G01 X35.9992 Y-5.0467 Z0.2766
G01 X36.5348 Y-5.0489 Z0.2766
G01 X37.0703 Y-5.0518 Z0.2766
G01 X37.6058 Y-5.0553 Z0.2766
G01 X38.1413 Y-5.0595 Z0.2766
G01 X38.6768 Y-5.0643 Z0.2766
G01 X39.2123 Y-5.0698 Z0.2766
G01 X39.7478 Y-5.0760 Z0.2766
G01 X40.2833 Y-5.0829 Z0.2766
G01 X40.8188 Y-5.0903 Z0.2766
G01 X41.3542 Y-5.0985 Z0.2766
G01 X41.8897 Y-5.1073 Z0.2766
G01 X42.4252 Y-5.1168 Z0.2766
G01 X42.9606 Y-5.1269 Z0.2766
G01 X43.4960 Y-5.1377 Z0.2766
G01 X44.0316 Y-5.1492 Z0.2766
G01 X44.0348 Y-5.1492 Z0.2766
G01 X44.5667 Y-5.1613 Z0.2766
G01 X45.1021 Y-5.1741 Z0.2766
G01 X45.2755 Y-5.1785 Z0.2766
G01 X45.6374 Y-5.1876 Z0.2766
G01 X46.0629 Y-5.1988 Z0.2766
G01 X46.1728 Y-5.2017 Z0.2766
G01 X46.7081 Y-5.2165 Z0.2766
G01 X46.8503 Y-5.2206 Z0.2766
G01 X47.2435 Y-5.2319 Z0.2766
G01 X47.6377 Y-5.2438 Z0.2766
G01 X47.7789 Y-5.2481 Z0.2766
G01 X48.3140 Y-5.2648 Z0.2766
G01 X48.8492 Y-5.2822 Z0.2766
G01 X49.3844 Y-5.3003 Z0.2766
G01 X49.9196 Y-5.3191 Z0.2766
G01 X50.4548 Y-5.3385 Z0.2766
G01 X50.9902 Y-5.3586 Z0.2766
G01 X50.9922 Y-5.3586 Z0.2766
G01 X51.5251 Y-5.3793 Z0.2766
G01 X52.0603 Y-5.4007 Z0.2766
G01 X52.5953 Y-5.4227 Z0.2766
G01 X53.1303 Y-5.4455 Z0.2766
G01 X53.6653 Y-5.4689 Z0.2766
G01 X54.2003 Y-5.4929 Z0.2766
G01 X54.7354 Y-5.5177 Z0.2766
G01 X55.2702 Y-5.5430 Z0.2766
G01 X55.8051 Y-5.5690 Z0.2766
G01 X56.3402 Y-5.5958 Z0.2766
G01 X56.3420 Y-5.5959 Z0.2766
G01 X56.8748 Y-5.6231 Z0.2766
G01 X57.4097 Y-5.6511 Z0.2766
G01 X57.9443 Y-5.6798 Z0.2766
G01 X58.4790 Y-5.7092 Z0.2766
G01 X59.0137 Y-5.7392 Z0.2766
G01 X59.5483 Y-5.7698 Z0.2766
G01 X60.0832 Y-5.8012 Z0.2766
G01 X60.0867 Y-5.8014 Z0.2766
G01 X60.6178 Y-5.8331 Z0.2766
G01 X60.6218 Y-5.8333 Z0.2766
G01 X60.6276 Y-5.8335 Z0.2766
G01 X60.6333 Y-5.8335 Z0.2766
G01 X60.6354 Y-5.8335 Z0.2766
G01 X60.6390 Y-5.8333 Z0.2766
G01 X60.6425 Y-5.8331 Z0.2766
G01 X60.6461 Y-5.8328 Z0.2766
G01 X60.6496 Y-5.8324 Z0.2766
G01 X60.6531 Y-5.8318 Z0.2766
G01 X60.6566 Y-5.8312 Z0.2766
G01 X60.6601 Y-5.8305 Z0.2766
G01 X60.6635 Y-5.8297 Z0.2766
G01 X60.6670 Y-5.8287 Z0.2766
G01 X60.6704 Y-5.8277 Z0.2766
G01 X60.6737 Y-5.8266 Z0.2766
G01 X60.6771 Y-5.8253 Z0.2766
G01 X60.6804 Y-5.8240 Z0.2766
G01 X60.6837 Y-5.8226 Z0.2766
G01 X60.6869 Y-5.8211 Z0.2766
G01 X60.6901 Y-5.8195 Z0.2766
G01 X60.6932 Y-5.8178 Z0.2766
G01 X60.6962 Y-5.8161 Z0.2766
G01 X60.6993 Y-5.8142 Z0.2766
G01 X60.7023 Y-5.8122 Z0.2766
G01 X60.7052 Y-5.8102 Z0.2766
G01 X60.7080 Y-5.8081 Z0.2766
G01 X60.7108 Y-5.8059 Z0.2766
G01 X60.7136 Y-5.8036 Z0.2766
G01 X60.7162 Y-5.8012 Z0.2766
G01 X60.7188 Y-5.7988 Z0.2766
G01 X60.7213 Y-5.7963 Z0.2766
G01 X60.7238 Y-5.7937 Z0.2766
G01 X60.7262 Y-5.7911 Z0.2766
G01 X60.7285 Y-5.7884 Z0.2766
G01 X60.7307 Y-5.7856 Z0.2766
G01 X60.7328 Y-5.7827 Z0.2766
G01 X60.7349 Y-5.7798 Z0.2766
G01 X60.7368 Y-5.7769 Z0.2766
G01 X60.7387 Y-5.7738 Z0.2766
G01 X60.7405 Y-5.7708 Z0.2766
G01 X60.7422 Y-5.7677 Z0.2766
G01 X60.7438 Y-5.7645 Z0.2766
G01 X60.7453 Y-5.7612 Z0.2766
G01 X60.7468 Y-5.7580 Z0.2766
G01 X60.7481 Y-5.7547 Z0.2766
G01 X60.7494 Y-5.7514 Z0.2766
G01 X60.7505 Y-5.7480 Z0.2766
G01 X60.7515 Y-5.7446 Z0.2766
G01 X60.7525 Y-5.7412 Z0.2766
G01 X60.7533 Y-5.7377 Z0.2766
G01 X60.7541 Y-5.7342 Z0.2766
G01 X60.7547 Y-5.7307 Z0.2766
G01 X60.7553 Y-5.7272 Z0.2766
G01 X60.7557 Y-5.7237 Z0.2766
G01 X60.7561 Y-5.7202 Z0.2766
G01 X60.7563 Y-5.7166 Z0.2766
G01 X60.7564 Y-5.7131 Z0.2766
G01 X60.7579 Y-5.6519 Z0.2766
G01 X60.7601 Y-5.5878 Z0.2766
G01 X60.7630 Y-5.5267 Z0.2766
G01 X60.7664 Y-5.4705 Z0.2766
G01 X60.7704 Y-5.4197 Z0.2766
G01 X60.7752 Y-5.3720 Z0.2766
G01 X60.7808 Y-5.3277 Z0.2766
G01 X60.7870 Y-5.2880 Z0.2766
G01 X60.7940 Y-5.2522 Z0.2766
G01 X60.8018 Y-5.2192 Z0.2766
G01 X60.8103 Y-5.1897 Z0.2766
G01 X60.8192 Y-5.1646 Z0.2766
G01 X60.8284 Y-5.1428 Z0.2766
G01 X60.8384 Y-5.1233 Z0.2766
G01 X60.8487 Y-5.1066 Z0.2766
G01 X60.8590 Y-5.0925 Z0.2766
G01 X60.8707 Y-5.0792 Z0.2766
G01 X60.8826 Y-5.0680 Z0.2766
G01 X60.8966 Y-5.0569 Z0.2766
G01 X60.9120 Y-5.0466 Z0.2766
G01 X60.9293 Y-5.0368 Z0.2766
G01 X60.9501 Y-5.0270 Z0.2766
G01 X60.9726 Y-5.0179 Z0.2766
G01 X60.9985 Y-5.0090 Z0.2766
G01 X61.0269 Y-5.0007 Z0.2766
G01 X61.0585 Y-4.9926 Z0.2766
G01 X61.0942 Y-4.9847 Z0.2766
G01 X61.1318 Y-4.9772 Z0.2766
G01 X61.1709 Y-4.9702 Z0.2766
G01 X61.2149 Y-4.9631 Z0.2766
G01 X61.2625 Y-4.9557 Z0.2766
G01 X61.3120 Y-4.9485 Z0.2766
G01 X61.3642 Y-4.9410 Z0.2766
G01 X61.4199 Y-4.9331 Z0.2766
G01 X61.4785 Y-4.9248 Z0.2766
G01 X61.5402 Y-4.9158 Z0.2766
G01 X61.5408 Y-4.9157 Z0.2766
G01 X61.6050 Y-4.9060 Z0.2766
G01 X61.6058 Y-4.9059 Z0.2766
G01 X61.6730 Y-4.8953 Z0.2766
G01 X61.6740 Y-4.8952 Z0.2766
G01 X61.7444 Y-4.8836 Z0.2766
G01 X61.7453 Y-4.8834 Z0.2766
G01 X61.8188 Y-4.8707 Z0.2766
G01 X61.8199 Y-4.8705 Z0.2766
G01 X61.8966 Y-4.8565 Z0.2766
G01 X61.8978 Y-4.8562 Z0.2766
G01 X61.9778 Y-4.8408 Z0.2766
G01 X61.9791 Y-4.8405 Z0.2766
G01 X62.0624 Y-4.8235 Z0.2766
G01 X62.0638 Y-4.8232 Z0.2766
G01 X62.1505 Y-4.8045 Z0.2766
G01 X62.1519 Y-4.8042 Z0.2766
G01 X62.2421 Y-4.7837 Z0.2766
G01 X62.2470 Y-4.7824 Z0.2766
G01 X62.4157 Y-4.7368 Z0.2766
G01 X62.4199 Y-4.7356 Z0.2766
G01 X62.5814 Y-4.6857 Z0.2766
G01 X62.5856 Y-4.6843 Z0.2766
G01 X62.7410 Y-4.6301 Z0.2766
G01 X62.7452 Y-4.6286 Z0.2766
G01 X62.8939 Y-4.5707 Z0.2766
G01 X62.8981 Y-4.5689 Z0.2766
G01 X63.0416 Y-4.5067 Z0.2766
G01 X63.0458 Y-4.5048 Z0.2766
G01 X63.1846 Y-4.4383 Z0.2766
G01 X63.1889 Y-4.4362 Z0.2766
G01 X63.3206 Y-4.3668 Z0.2766
G01 X63.3247 Y-4.3645 Z0.2766
G01 X63.4514 Y-4.2914 Z0.2766
G01 X63.4556 Y-4.2890 Z0.2766
G01 X63.5786 Y-4.2115 Z0.2766
G01 X63.5826 Y-4.2089 Z0.2766
G01 X63.6992 Y-4.1290 Z0.2766
G01 X63.7031 Y-4.1262 Z0.2766
G01 X63.8161 Y-4.0422 Z0.2766
G01 X63.8199 Y-4.0393 Z0.2766
G01 X63.9272 Y-3.9528 Z0.2766
G01 X63.9309 Y-3.9498 Z0.2766
G01 X64.0349 Y-3.8591 Z0.2766
G01 X64.0384 Y-3.8559 Z0.2766
G01 X64.1371 Y-3.7629 Z0.2766
G01 X64.1405 Y-3.7596 Z0.2766
G01 X64.2360 Y-3.6625 Z0.2766
G01 X64.2391 Y-3.6592 Z0.2766
G01 X64.3292 Y-3.5605 Z0.2766
G01 X64.3323 Y-3.5570 Z0.2766
G01 X64.4200 Y-3.4535 Z0.2766
G01 X64.4229 Y-3.4500 Z0.2766
G01 X64.5062 Y-3.3438 Z0.2766
G01 X64.5089 Y-3.3403 Z0.2766
G01 X64.5883 Y-3.2315 Z0.2766
G01 X64.5908 Y-3.2279 Z0.2766
G01 X64.6664 Y-3.1161 Z0.2766
G01 X64.6687 Y-3.1125 Z0.2766
G01 X64.7410 Y-2.9974 Z0.2766
G01 X64.7431 Y-2.9938 Z0.2766
G01 X64.8116 Y-2.8762 Z0.2766
G01 X64.8136 Y-2.8725 Z0.2766
G01 X64.8782 Y-2.7524 Z0.2766
G01 X64.8800 Y-2.7489 Z0.2766
G01 X64.9416 Y-2.6251 Z0.2766
G01 X64.9432 Y-2.6216 Z0.2766
G01 X65.0015 Y-2.4945 Z0.2766
G01 X65.0031 Y-2.4911 Z0.2766
G01 X65.0568 Y-2.3639 Z0.2766
G01 X65.0581 Y-2.3605 Z0.2766
G01 X65.1096 Y-2.2278 Z0.2766
G01 X65.1108 Y-2.2245 Z0.2766
G01 X65.1579 Y-2.0918 Z0.2766
G01 X65.1590 Y-2.0885 Z0.2766
G01 X65.2027 Y-1.9535 Z0.2766
G01 X65.2037 Y-1.9503 Z0.2766
G01 X65.2446 Y-1.8110 Z0.2766
G01 X65.2455 Y-1.8079 Z0.2766
G01 X65.2826 Y-1.6679 Z0.2766
G01 X65.2834 Y-1.6648 Z0.2766
G01 X65.3171 Y-1.5229 Z0.2766
G01 X65.3177 Y-1.5199 Z0.2766
G01 X65.3480 Y-1.3763 Z0.2766
G01 X65.3486 Y-1.3735 Z0.2766
G01 X65.3757 Y-1.2281 Z0.2766
G01 X65.3762 Y-1.2252 Z0.2766
G01 X65.4001 Y-1.0768 Z0.2766
G01 X65.4005 Y-1.0740 Z0.2766
G01 X65.4208 Y-0.9275 Z0.2766
G01 X65.4211 Y-0.9247 Z0.2766
G01 X65.4385 Y-0.7734 Z0.2766
G01 X65.4388 Y-0.7707 Z0.2766
G01 X65.4524 Y-0.6241 Z0.2766
G01 X65.4526 Y-0.6215 Z0.2766
G01 X65.4637 Y-0.4666 Z0.2766
G01 X65.4638 Y-0.4640 Z0.2766
G01 X65.4714 Y-0.3118 Z0.2766
G01 X65.4716 Y-0.3093 Z0.2766
G01 X65.4761 Y-0.1570 Z0.2766
G01 X65.4762 Y-0.1546 Z0.2766
G01 X65.4777 Y-0.0012 Z0.2766
G01 X65.4777 Y0.0012 Z0.2766
G01 X65.4762 Y0.1546 Z0.2766
G01 X65.4761 Y0.1570 Z0.2766
G01 X65.4716 Y0.3093 Z0.2766
G01 X65.4714 Y0.3118 Z0.2766
G01 X65.4638 Y0.4640 Z0.2766
G01 X65.4637 Y0.4666 Z0.2766
G01 X65.4527 Y0.6203 Z0.2766
G01 X65.4525 Y0.6230 Z0.2766
G01 X65.4388 Y0.7707 Z0.2766
G01 X65.4385 Y0.7734 Z0.2766
G01 X65.4211 Y0.9247 Z0.2766
G01 X65.4208 Y0.9275 Z0.2766
G01 X65.4005 Y1.0740 Z0.2766
G01 X65.4001 Y1.0768 Z0.2766
G01 X65.3762 Y1.2252 Z0.2766
G01 X65.3757 Y1.2281 Z0.2766
G01 X65.3486 Y1.3735 Z0.2766
G01 X65.3480 Y1.3763 Z0.2766
G01 X65.3177 Y1.5199 Z0.2766
G01 X65.3171 Y1.5229 Z0.2766
G01 X65.2834 Y1.6648 Z0.2766
G01 X65.2826 Y1.6679 Z0.2766
G01 X65.2455 Y1.8079 Z0.2766
G01 X65.2446 Y1.8110 Z0.2766
G01 X65.2037 Y1.9503 Z0.2766
G01 X65.2027 Y1.9535 Z0.2766
G01 X65.1590 Y2.0885 Z0.2766
G01 X65.1579 Y2.0918 Z0.2766
G01 X65.1108 Y2.2245 Z0.2766
G01 X65.1096 Y2.2278 Z0.2766
G01 X65.0581 Y2.3605 Z0.2766
G01 X65.0568 Y2.3639 Z0.2766
G01 X65.0031 Y2.4911 Z0.2766
G01 X65.0015 Y2.4945 Z0.2766
G01 X64.9432 Y2.6216 Z0.2766
G01 X64.9416 Y2.6251 Z0.2766
G01 X64.8800 Y2.7489 Z0.2766
G01 X64.8782 Y2.7524 Z0.2766
G01 X64.8136 Y2.8725 Z0.2766
G01 X64.8116 Y2.8762 Z0.2766
G01 X64.7431 Y2.9938 Z0.2766
G01 X64.7410 Y2.9974 Z0.2766
G01 X64.6687 Y3.1125 Z0.2766
G01 X64.6664 Y3.1161 Z0.2766
G01 X64.5908 Y3.2279 Z0.2766
G01 X64.5883 Y3.2315 Z0.2766
G01 X64.5089 Y3.3403 Z0.2766
G01 X64.5062 Y3.3438 Z0.2766
G01 X64.4229 Y3.4500 Z0.2766
G01 X64.4200 Y3.4535 Z0.2766
G01 X64.3323 Y3.5570 Z0.2766
G01 X64.3292 Y3.5605 Z0.2766
G01 X64.2391 Y3.6592 Z0.2766
G01 X64.2360 Y3.6625 Z0.2766
G01 X64.1405 Y3.7596 Z0.2766
G01 X64.1371 Y3.7629 Z0.2766
G01 X64.0384 Y3.8559 Z0.2766
G01 X64.0349 Y3.8591 Z0.2766
G01 X63.9309 Y3.9498 Z0.2766
G01 X63.9272 Y3.9528 Z0.2766
G01 X63.8199 Y4.0393 Z0.2766
G01 X63.8161 Y4.0422 Z0.2766
G01 X63.7031 Y4.1262 Z0.2766
G01 X63.6992 Y4.1290 Z0.2766
G01 X63.5826 Y4.2089 Z0.2766
G01 X63.5786 Y4.2115 Z0.2766
G01 X63.4556 Y4.2890 Z0.2766
G01 X63.4514 Y4.2914 Z0.2766
G01 X63.3247 Y4.3645 Z0.2766
G01 X63.3206 Y4.3668 Z0.2766
G01 X63.1889 Y4.4362 Z0.2766
G01 X63.1846 Y4.4383 Z0.2766
G01 X63.0458 Y4.5048 Z0.2766
G01 X63.0416 Y4.5067 Z0.2766
G01 X62.8981 Y4.5689 Z0.2766
G01 X62.8939 Y4.5707 Z0.2766
G01 X62.7452 Y4.6286 Z0.2766
G01 X62.7410 Y4.6301 Z0.2766
G01 X62.5856 Y4.6843 Z0.2766
G01 X62.5814 Y4.6857 Z0.2766
G01 X62.4199 Y4.7356 Z0.2766
G01 X62.4157 Y4.7368 Z0.2766
G01 X62.2470 Y4.7824 Z0.2766
G01 X62.2421 Y4.7837 Z0.2766
G01 X62.1519 Y4.8042 Z0.2766
G01 X62.1505 Y4.8045 Z0.2766
G01 X62.0638 Y4.8232 Z0.2766
G01 X62.0624 Y4.8235 Z0.2766
G01 X61.9791 Y4.8405 Z0.2766
G01 X61.9778 Y4.8408 Z0.2766
G01 X61.8978 Y4.8562 Z0.2766
G01 X61.8966 Y4.8565 Z0.2766
G01 X61.8199 Y4.8705 Z0.2766
G01 X61.8188 Y4.8707 Z0.2766
G01 X61.7453 Y4.8834 Z0.2766
G01 X61.7444 Y4.8836 Z0.2766
G01 X61.6740 Y4.8952 Z0.2766
G01 X61.6730 Y4.8953 Z0.2766
G01 X61.6058 Y4.9059 Z0.2766
G01 X61.6050 Y4.9060 Z0.2766
G01 X61.5408 Y4.9157 Z0.2766
G01 X61.5402 Y4.9158 Z0.2766
G01 X61.4788 Y4.9247 Z0.2766
G01 X61.4201 Y4.9331 Z0.2766
G01 X61.3642 Y4.9410 Z0.2766
G01 X61.3120 Y4.9485 Z0.2766
G01 X61.2625 Y4.9557 Z0.2766
G01 X61.2149 Y4.9631 Z0.2766
G01 X61.1709 Y4.9702 Z0.2766
G01 X61.1318 Y4.9772 Z0.2766
G01 X61.0942 Y4.9847 Z0.2766
G01 X61.0585 Y4.9926 Z0.2766
G01 X61.0269 Y5.0007 Z0.2766
G01 X60.9985 Y5.0090 Z0.2766
G01 X60.9726 Y5.0179 Z0.2766
G01 X60.9501 Y5.0270 Z0.2766
G01 X60.9293 Y5.0368 Z0.2766
G01 X60.9120 Y5.0466 Z0.2766
G01 X60.8967 Y5.0568 Z0.2766
G01 X60.8826 Y5.0680 Z0.2766
G01 X60.8707 Y5.0792 Z0.2766
G01 X60.8590 Y5.0925 Z0.2766
G01 X60.8487 Y5.1066 Z0.2766
G01 X60.8384 Y5.1233 Z0.2766
G01 X60.8284 Y5.1428 Z0.2766
G01 X60.8192 Y5.1646 Z0.2766
G01 X60.8105 Y5.1893 Z0.2766
G01 X60.8018 Y5.2192 Z0.2766
G01 X60.7940 Y5.2521 Z0.2766
G01 X60.7871 Y5.2876 Z0.2766
G01 X60.7808 Y5.3277 Z0.2766
G01 X60.7752 Y5.3720 Z0.2766
G01 X60.7704 Y5.4196 Z0.2766
G01 X60.7664 Y5.4702 Z0.2766
G01 X60.7630 Y5.5262 Z0.2766
G01 X60.7601 Y5.5878 Z0.2766
G01 X60.7579 Y5.6519 Z0.2766
G01 X60.7564 Y5.7131 Z0.2766
G01 X60.7563 Y5.7166 Z0.2766
G01 X60.7561 Y5.7202 Z0.2766
G01 X60.7557 Y5.7237 Z0.2766
G01 X60.7553 Y5.7272 Z0.2766
G01 X60.7547 Y5.7307 Z0.2766
G01 X60.7541 Y5.7342 Z0.2766
G01 X60.7533 Y5.7377 Z0.2766
G01 X60.7525 Y5.7412 Z0.2766
G01 X60.7515 Y5.7446 Z0.2766
G01 X60.7505 Y5.7480 Z0.2766
G01 X60.7494 Y5.7514 Z0.2766
G01 X60.7481 Y5.7547 Z0.2766
G01 X60.7468 Y5.7580 Z0.2766
G01 X60.7453 Y5.7612 Z0.2766
G01 X60.7438 Y5.7645 Z0.2766
G01 X60.7422 Y5.7677 Z0.2766
G01 X60.7405 Y5.7708 Z0.2766
G01 X60.7387 Y5.7738 Z0.2766
G01 X60.7368 Y5.7769 Z0.2766
G01 X60.7349 Y5.7798 Z0.2766
G01 X60.7328 Y5.7827 Z0.2766
G01 X60.7307 Y5.7856 Z0.2766
G01 X60.7285 Y5.7884 Z0.2766
G01 X60.7262 Y5.7911 Z0.2766
G01 X60.7238 Y5.7937 Z0.2766
G01 X60.7213 Y5.7963 Z0.2766
G01 X60.7188 Y5.7988 Z0.2766
G01 X60.7162 Y5.8012 Z0.2766
G01 X60.7136 Y5.8036 Z0.2766
G01 X60.7108 Y5.8059 Z0.2766
G01 X60.7080 Y5.8081 Z0.2766
G01 X60.7052 Y5.8102 Z0.2766
G01 X60.7023 Y5.8122 Z0.2766
G01 X60.6993 Y5.8142 Z0.2766
G01 X60.6962 Y5.8161 Z0.2766
G01 X60.6932 Y5.8178 Z0.2766
G01 X60.6901 Y5.8195 Z0.2766
G01 X60.6869 Y5.8211 Z0.2766
G01 X60.6837 Y5.8226 Z0.2766
G01 X60.6804 Y5.8240 Z0.2766
G01 X60.6771 Y5.8253 Z0.2766
G01 X60.6737 Y5.8266 Z0.2766
G01 X60.6704 Y5.8277 Z0.2766
G01 X60.6670 Y5.8287 Z0.2766
G01 X60.6635 Y5.8297 Z0.2766
G01 X60.6601 Y5.8305 Z0.2766
G01 X60.6566 Y5.8312 Z0.2766
G01 X60.6531 Y5.8318 Z0.2766
G01 X60.6496 Y5.8324 Z0.2766
G01 X60.6461 Y5.8328 Z0.2766
G01 X60.6425 Y5.8331 Z0.2766
G01 X60.6390 Y5.8333 Z0.2766
G01 X60.6354 Y5.8335 Z0.2766
G01 X60.6333 Y5.8335 Z0.2766
G01 X60.6276 Y5.8335 Z0.2766
G01 X60.6218 Y5.8333 Z0.2766
G01 X60.6178 Y5.8331 Z0.2766
G01 X60.0871 Y5.8014 Z0.2766
G01 X60.0832 Y5.8012 Z0.2766
G01 X59.5483 Y5.7698 Z0.2766
G01 X59.0137 Y5.7392 Z0.2766
G01 X58.4790 Y5.7092 Z0.2766
G01 X57.9443 Y5.6798 Z0.2766
G01 X57.4097 Y5.6511 Z0.2766
G01 X56.8748 Y5.6231 Z0.2766
G01 X56.3420 Y5.5959 Z0.2766
G01 X56.3402 Y5.5958 Z0.2766
G01 X55.8051 Y5.5690 Z0.2766
G01 X55.2702 Y5.5430 Z0.2766
G01 X54.7354 Y5.5176 Z0.2766
G01 X54.2003 Y5.4929 Z0.2766
G01 X53.6653 Y5.4689 Z0.2766
G01 X53.1303 Y5.4455 Z0.2766
G01 X52.5953 Y5.4227 Z0.2766
G01 X52.0603 Y5.4007 Z0.2766
G01 X51.5251 Y5.3793 Z0.2766
G01 X50.9922 Y5.3586 Z0.2766
G01 X50.9902 Y5.3586 Z0.2766
G01 X50.4548 Y5.3385 Z0.2766
G01 X49.9196 Y5.3191 Z0.2766
G01 X49.3844 Y5.3003 Z0.2766
G01 X48.8492 Y5.2822 Z0.2766
G01 X48.3140 Y5.2648 Z0.2766
G01 X47.7789 Y5.2480 Z0.2766
G01 X47.6377 Y5.2438 Z0.2766
G01 X47.2435 Y5.2319 Z0.2766
G01 X46.8503 Y5.2206 Z0.2766
G01 X46.7081 Y5.2165 Z0.2766
G01 X46.1728 Y5.2017 Z0.2766
G01 X46.0629 Y5.1988 Z0.2766
G01 X45.6374 Y5.1876 Z0.2766
G01 X45.2755 Y5.1785 Z0.2766
G01 X45.1021 Y5.1741 Z0.2766
G01 X44.5667 Y5.1613 Z0.2766
G01 X44.0348 Y5.1492 Z0.2766
G01 X44.0316 Y5.1492 Z0.2766
G01 X43.4960 Y5.1377 Z0.2766
G01 X42.9606 Y5.1269 Z0.2766
G01 X42.4252 Y5.1168 Z0.2766
G01 X41.8897 Y5.1073 Z0.2766
G01 X41.3542 Y5.0985 Z0.2766
G01 X40.8188 Y5.0903 Z0.2766
G01 X40.2833 Y5.0829 Z0.2766
G01 X39.7478 Y5.0760 Z0.2766
G01 X39.2123 Y5.0698 Z0.2766
G01 X38.6768 Y5.0643 Z0.2766
G01 X38.1413 Y5.0595 Z0.2766
G01 X37.6058 Y5.0553 Z0.2766
G01 X37.0703 Y5.0518 Z0.2766
G01 X36.5348 Y5.0489 Z0.2766
G01 X35.9992 Y5.0467 Z0.2766
G01 X35.4637 Y5.0452 Z0.2766
G01 X34.9282 Y5.0443 Z0.2766
G01 X34.3929 Y5.0441 Z0.2766
G01 X33.8574 Y5.0446 Z0.2766
G01 X33.3219 Y5.0457 Z0.2766
G01 X32.7863 Y5.0475 Z0.2766
G01 X32.2509 Y5.0499 Z0.2766
G01 X31.7153 Y5.0530 Z0.2766
G01 X31.1798 Y5.0568 Z0.2766
G01 X30.6443 Y5.0612 Z0.2766
G01 X30.1088 Y5.0663 Z0.2766
G01 X29.5733 Y5.0721 Z0.2766
G01 X29.0378 Y5.0785 Z0.2766
G01 X28.5023 Y5.0856 Z0.2766
G01 X27.9668 Y5.0933 Z0.2766
G01 X27.4314 Y5.1018 Z0.2766
G01 X26.8958 Y5.1108 Z0.2766
G01 X26.3605 Y5.1205 Z0.2766
G01 X25.8251 Y5.1309 Z0.2766
G01 X25.2897 Y5.1420 Z0.2766
G01 X24.7541 Y5.1537 Z0.2766
G01 X24.7510 Y5.1538 Z0.2766
G01 X24.2190 Y5.1661 Z0.2766
G01 X23.6835 Y5.1791 Z0.2766
G01 X23.1482 Y5.1928 Z0.2766
G01 X22.6129 Y5.2072 Z0.2766
G01 X22.0776 Y5.2222 Z0.2766
G01 X21.5423 Y5.2379 Z0.2766
G01 X21.0068 Y5.2543 Z0.2766
G01 X20.8661 Y5.2587 Z0.2766
G01 X20.4717 Y5.2713 Z0.2766
G01 X20.0787 Y5.2842 Z0.2766
G01 X19.9364 Y5.2890 Z0.2766
G01 X19.4013 Y5.3073 Z0.2766
G01 X19.2913 Y5.3112 Z0.2766
G01 X18.8661 Y5.3263 Z0.2766
G01 X18.5039 Y5.3396 Z0.2766
G01 X18.3309 Y5.3460 Z0.2766
G01 X17.7955 Y5.3663 Z0.2766
G01 X17.7936 Y5.3664 Z0.2766
G01 X17.2605 Y5.3873 Z0.2766
G01 X16.7256 Y5.4089 Z0.2766
G01 X16.1905 Y5.4312 Z0.2766
G01 X15.6555 Y5.4542 Z0.2766
G01 X15.1205 Y5.4779 Z0.2766
G01 X14.5855 Y5.5022 Z0.2766
G01 X14.0504 Y5.5272 Z0.2766
G01 X13.5157 Y5.5527 Z0.2766
G01 X12.9805 Y5.5790 Z0.2766
G01 X12.9787 Y5.5791 Z0.2766
G01 X12.4459 Y5.6060 Z0.2766
G01 X11.9111 Y5.6336 Z0.2766
G01 X11.3762 Y5.6619 Z0.2766
G01 X10.8416 Y5.6908 Z0.2766
G01 X10.3069 Y5.7204 Z0.2766
G01 X9.7722 Y5.7507 Z0.2766
G01 X9.2376 Y5.7816 Z0.2766
G01 X8.7027 Y5.8132 Z0.2766
G01 X8.6992 Y5.8133 Z0.2766
G01 X8.1685 Y5.8454 Z0.2766
G01 X7.6339 Y5.8783 Z0.2766
G01 X7.0992 Y5.9119 Z0.2766
G01 X7.0948 Y5.9121 Z0.2766
G01 X7.0890 Y5.9122 Z0.2766
G01 X7.0843 Y5.9123 Z0.2766
G01 X7.0809 Y5.9122 Z0.2766
G01 X7.0773 Y5.9121 Z0.2766
G01 X7.0737 Y5.9120 Z0.2766
G01 X7.0702 Y5.9116 Z0.2766
G01 X7.0666 Y5.9112 Z0.2766
G01 X7.0631 Y5.9107 Z0.2766
G01 X7.0596 Y5.9101 Z0.2766
G01 X7.0561 Y5.9094 Z0.2766
G01 X7.0527 Y5.9087 Z0.2766
G01 X7.0492 Y5.9077 Z0.2766
G01 X7.0458 Y5.9067 Z0.2766
G01 X7.0424 Y5.9056 Z0.2766
G01 X7.0391 Y5.9044 Z0.2766
G01 X7.0357 Y5.9031 Z0.2766
G01 X7.0325 Y5.9018 Z0.2766
G01 X7.0292 Y5.9003 Z0.2766
G01 X7.0261 Y5.8987 Z0.2766
G01 X7.0229 Y5.8970 Z0.2766
G01 X7.0198 Y5.8953 Z0.2766
G01 X7.0168 Y5.8934 Z0.2766
G01 X7.0138 Y5.8915 Z0.2766
G01 X7.0109 Y5.8895 Z0.2766
G01 X7.0080 Y5.8874 Z0.2766
G01 X7.0051 Y5.8852 Z0.2766
G01 X7.0024 Y5.8829 Z0.2766
G01 X6.9997 Y5.8806 Z0.2766
G01 X6.9971 Y5.8782 Z0.2766
G01 X6.9946 Y5.8757 Z0.2766
G01 X6.9921 Y5.8731 Z0.2766
G01 X6.9897 Y5.8705 Z0.2766
G01 X6.9874 Y5.8678 Z0.2766
G01 X6.9851 Y5.8650 Z0.2766
G01 X6.9830 Y5.8622 Z0.2766
G01 X6.9809 Y5.8593 Z0.2766
G01 X6.9789 Y5.8563 Z0.2766
G01 X6.9770 Y5.8533 Z0.2766
G01 X6.9752 Y5.8503 Z0.2766
G01 X6.9735 Y5.8472 Z0.2766
G01 X6.9718 Y5.8440 Z0.2766
G01 X6.9703 Y5.8408 Z0.2766
G01 X6.9688 Y5.8375 Z0.2766
G01 X6.9675 Y5.8342 Z0.2766
G01 X6.9662 Y5.8309 Z0.2766
G01 X6.9651 Y5.8275 Z0.2766
G01 X6.9640 Y5.8242 Z0.2766
G01 X6.9630 Y5.8207 Z0.2766
G01 X6.9622 Y5.8173 Z0.2766
G01 X6.9614 Y5.8138 Z0.2766
G01 X6.9607 Y5.8103 Z0.2766
G01 X6.9601 Y5.8068 Z0.2766
G01 X6.9597 Y5.8033 Z0.2766
G01 X6.9593 Y5.7997 Z0.2766
G01 X6.9590 Y5.7962 Z0.2766
G01 X6.9589 Y5.7926 Z0.2766
G01 X6.9568 Y5.7271 Z0.2766
G01 X6.9541 Y5.6619 Z0.2766
G01 X6.9508 Y5.6028 Z0.2766
G01 X6.9465 Y5.5438 Z0.2766
G01 X6.9420 Y5.4936 Z0.2766
G01 X6.9419 Y5.4928 Z0.2766
G01 X6.9362 Y5.4429 Z0.2766
G01 X6.9298 Y5.3979 Z0.2766
G01 X6.9228 Y5.3578 Z0.2766
G01 X6.9146 Y5.3191 Z0.2766
G01 X6.9059 Y5.2856 Z0.2766
G01 X6.8966 Y5.2558 Z0.2766
G01 X6.8866 Y5.2290 Z0.2766
G01 X6.8762 Y5.2060 Z0.2766
G01 X6.8650 Y5.1850 Z0.2766
G01 X6.8538 Y5.1676 Z0.2766
G01 X6.8416 Y5.1519 Z0.2766
G01 X6.8290 Y5.1381 Z0.2766
G01 X6.8155 Y5.1258 Z0.2766
G01 X6.8004 Y5.1142 Z0.2766
G01 X6.7835 Y5.1034 Z0.2766
G01 X6.7646 Y5.0933 Z0.2766
G01 X6.7431 Y5.0838 Z0.2766
G01 X6.7192 Y5.0749 Z0.2766
G01 X6.6919 Y5.0664 Z0.2766
G01 X6.6627 Y5.0589 Z0.2766
G01 X6.6287 Y5.0516 Z0.2766
G01 X6.5933 Y5.0452 Z0.2766
G01 X6.5533 Y5.0392 Z0.2766
G01 X6.5134 Y5.0340 Z0.2766
G01 X6.4664 Y5.0289 Z0.2766
G01 X6.4194 Y5.0244 Z0.2766
G01 X6.3688 Y5.0201 Z0.2766
G01 X6.3140 Y5.0159 Z0.2766
G01 X6.2571 Y5.0118 Z0.2766
G01 X6.1972 Y5.0076 Z0.2766
G01 X6.1340 Y5.0032 Z0.2766
G01 X6.0678 Y4.9985 Z0.2766
G01 X6.0673 Y4.9985 Z0.2766
G01 X5.9983 Y4.9933 Z0.2766
G01 X5.9978 Y4.9933 Z0.2766
G01 X5.9256 Y4.9876 Z0.2766
G01 X5.9250 Y4.9875 Z0.2766
G01 X5.8497 Y4.9812 Z0.2766
G01 X5.8488 Y4.9811 Z0.2766
G01 X5.7703 Y4.9740 Z0.2766
G01 X5.7694 Y4.9739 Z0.2766
G01 X5.6877 Y4.9659 Z0.2766
G01 X5.6867 Y4.9657 Z0.2766
G01 X5.6016 Y4.9566 Z0.2766
G01 X5.6005 Y4.9565 Z0.2766
G01 X5.5120 Y4.9462 Z0.2766
G01 X5.5109 Y4.9461 Z0.2766
G01 X5.4190 Y4.9346 Z0.2766
G01 X5.4152 Y4.9341 Z0.2766
G01 X5.1713 Y4.8958 Z0.2766
G01 X5.1680 Y4.8953 Z0.2766
G01 X4.9313 Y4.8516 Z0.2766
G01 X4.9279 Y4.8509 Z0.2766
G01 X4.6998 Y4.8022 Z0.2766
G01 X4.6964 Y4.8014 Z0.2766
G01 X4.4779 Y4.7483 Z0.2766
G01 X4.4744 Y4.7474 Z0.2766
G01 X4.2618 Y4.6889 Z0.2766
G01 X4.2582 Y4.6879 Z0.2766
G01 X4.0535 Y4.6249 Z0.2766
G01 X4.0498 Y4.6237 Z0.2766
G01 X3.8550 Y4.5571 Z0.2766
G01 X3.8513 Y4.5558 Z0.2766
G01 X3.6633 Y4.4848 Z0.2766
G01 X3.6596 Y4.4833 Z0.2766
G01 X3.4787 Y4.4082 Z0.2766
G01 X3.4749 Y4.4066 Z0.2766
G01 X3.3020 Y4.3279 Z0.2766
G01 X3.2983 Y4.3261 Z0.2766
G01 X3.1316 Y4.2434 Z0.2766
G01 X3.1278 Y4.2414 Z0.2766
G01 X2.9692 Y4.1557 Z0.2766
G01 X2.9655 Y4.1536 Z0.2766
G01 X2.8132 Y4.0643 Z0.2766
G01 X2.8094 Y4.0620 Z0.2766
G01 X2.6644 Y3.9699 Z0.2766
G01 X2.6607 Y3.9674 Z0.2766
G01 X2.5210 Y3.8714 Z0.2766
G01 X2.5174 Y3.8688 Z0.2766
G01 X2.3855 Y3.7709 Z0.2766
G01 X2.3819 Y3.7681 Z0.2766
G01 X2.2555 Y3.6668 Z0.2766
G01 X2.2519 Y3.6638 Z0.2766
G01 X2.1308 Y3.5591 Z0.2766
G01 X2.1274 Y3.5561 Z0.2766
G01 X2.0135 Y3.4500 Z0.2766
G01 X2.0102 Y3.4468 Z0.2766
G01 X1.9015 Y3.3377 Z0.2766
G01 X1.8983 Y3.3344 Z0.2766
G01 X1.7940 Y3.2216 Z0.2766
G01 X1.7910 Y3.2182 Z0.2766
G01 X1.6935 Y3.1045 Z0.2766
G01 X1.6905 Y3.1009 Z0.2766
G01 X1.5974 Y2.9838 Z0.2766
G01 X1.5946 Y2.9803 Z0.2766
G01 X1.5067 Y2.8609 Z0.2766
G01 X1.5040 Y2.8572 Z0.2766
G01 X1.4209 Y2.7353 Z0.2766
G01 X1.4185 Y2.7316 Z0.2766
G01 X1.3409 Y2.6086 Z0.2766
G01 X1.3387 Y2.6048 Z0.2766
G01 X1.2644 Y2.4772 Z0.2766
G01 X1.2622 Y2.4734 Z0.2766
G01 X1.1938 Y2.3456 Z0.2766
G01 X1.1919 Y2.3418 Z0.2766
G01 X1.1281 Y2.2122 Z0.2766
G01 X1.1263 Y2.2084 Z0.2766
G01 X1.0662 Y2.0748 Z0.2766
G01 X1.0646 Y2.0709 Z0.2766
G01 X1.0098 Y1.9372 Z0.2766
G01 X1.0083 Y1.9335 Z0.2766
G01 X0.9572 Y1.7962 Z0.2766
G01 X0.9558 Y1.7925 Z0.2766
G01 X0.9094 Y1.6544 Z0.2766
G01 X0.9083 Y1.6507 Z0.2766
G01 X0.8658 Y1.5097 Z0.2766
G01 X0.8648 Y1.5061 Z0.2766
G01 X0.8268 Y1.3646 Z0.2766
G01 X0.8259 Y1.3610 Z0.2766
G01 X0.7922 Y1.2178 Z0.2766
G01 X0.7914 Y1.2143 Z0.2766
G01 X0.7617 Y1.0695 Z0.2766
G01 X0.7611 Y1.0659 Z0.2766
G01 X0.7355 Y0.9194 Z0.2766
G01 X0.7349 Y0.9160 Z0.2766
G01 X0.7135 Y0.7690 Z0.2766
G01 X0.7130 Y0.7656 Z0.2766
G01 X0.6955 Y0.6170 Z0.2766
G01 X0.6952 Y0.6137 Z0.2766
G01 X0.6815 Y0.4626 Z0.2766
G01 X0.6812 Y0.4593 Z0.2766
G01 X0.6718 Y0.3112 Z0.2766
G01 X0.6716 Y0.3080 Z0.2766
G01 X0.6659 Y0.1551 Z0.2766
G01 X0.6658 Y0.1520 Z0.2766
G01 X0.6639 Y0.0015 Z0.2766
G01 X0.6639 Y-0.0015 Z0.2766
G01 X0.6639 Y-0.0015 Z0.1333
G01 X0.6658 Y-0.1520 Z0.1333
G01 X0.6659 Y-0.1551 Z0.1333
G01 X0.6716 Y-0.3080 Z0.1333
G01 X0.6718 Y-0.3112 Z0.1333
G01 X0.6812 Y-0.4593 Z0.1333
G01 X0.6815 Y-0.4626 Z0.1333
G01 X0.6952 Y-0.6137 Z0.1333
G01 X0.6955 Y-0.6170 Z0.1333
G01 X0.7131 Y-0.7662 Z0.1333
G01 X0.7136 Y-0.7696 Z0.1333
G01 X0.7349 Y-0.9160 Z0.1333
G01 X0.7355 Y-0.9194 Z0.1333
G01 X0.7611 Y-1.0659 Z0.1333
G01 X0.7617 Y-1.0695 Z0.1333
G01 X0.7914 Y-1.2143 Z0.1333
G01 X0.7922 Y-1.2178 Z0.1333
G01 X0.8259 Y-1.3610 Z0.1333
G01 X0.8268 Y-1.3646 Z0.1333
G01 X0.8648 Y-1.5061 Z0.1333
G01 X0.8658 Y-1.5097 Z0.1333
G01 X0.9083 Y-1.6507 Z0.1333
G01 X0.9094 Y-1.6544 Z0.1333
G01 X0.9558 Y-1.7925 Z0.1333
G01 X0.9572 Y-1.7962 Z0.1333
G01 X1.0083 Y-1.9335 Z0.1333
G01 X1.0098 Y-1.9372 Z0.1333
G01 X1.0646 Y-2.0709 Z0.1333
G01 X1.0662 Y-2.0748 Z0.1333
G01 X1.1263 Y-2.2084 Z0.1333
G01 X1.1281 Y-2.2122 Z0.1333
G01 X1.1919 Y-2.3418 Z0.1333
G01 X1.1938 Y-2.3456 Z0.1333
G01 X1.2622 Y-2.4734 Z0.1333
G01 X1.2644 Y-2.4772 Z0.1333
G01 X1.3387 Y-2.6048 Z0.1333
G01 X1.3409 Y-2.6086 Z0.1333
G01 X1.4185 Y-2.7316 Z0.1333
G01 X1.4209 Y-2.7353 Z0.1333
G01 X1.5040 Y-2.8572 Z0.1333
G01 X1.5067 Y-2.8609 Z0.1333
G01 X1.5946 Y-2.9803 Z0.1333
G01 X1.5974 Y-2.9838 Z0.1333
G01 X1.6905 Y-3.1009 Z0.1333
G01 X1.6935 Y-3.1045 Z0.1333
G01 X1.7910 Y-3.2182 Z0.1333
G01 X1.7940 Y-3.2216 Z0.1333
G01 X1.8983 Y-3.3344 Z0.1333
G01 X1.9015 Y-3.3377 Z0.1333
G01 X2.0102 Y-3.4468 Z0.1333
G01 X2.0135 Y-3.4500 Z0.1333
G01 X2.1277 Y-3.5563 Z0.1333
G01 X2.1311 Y-3.5593 Z0.1333
G01 X2.2519 Y-3.6638 Z0.1333
G01 X2.2555 Y-3.6668 Z0.1333
G01 X2.3819 Y-3.7681 Z0.1333
G01 X2.3855 Y-3.7709 Z0.1333
G01 X2.5174 Y-3.8688 Z0.1333
G01 X2.5210 Y-3.8714 Z0.1333
G01 X2.6607 Y-3.9674 Z0.1333
G01 X2.6644 Y-3.9699 Z0.1333
G01 X2.8094 Y-4.0620 Z0.1333
G01 X2.8132 Y-4.0643 Z0.1333
G01 X2.9655 Y-4.1536 Z0.1333
G01 X2.9692 Y-4.1557 Z0.1333
G01 X3.1278 Y-4.2414 Z0.1333
G01 X3.1316 Y-4.2434 Z0.1333
G01 X3.2983 Y-4.3261 Z0.1333
G01 X3.3020 Y-4.3279 Z0.1333
G01 X3.4749 Y-4.4066 Z0.1333
G01 X3.4787 Y-4.4082 Z0.1333
G01 X3.6596 Y-4.4833 Z0.1333
G01 X3.6633 Y-4.4848 Z0.1333
G01 X3.8513 Y-4.5558 Z0.1333
G01 X3.8550 Y-4.5571 Z0.1333
G01 X4.0498 Y-4.6237 Z0.1333
G01 X4.0535 Y-4.6249 Z0.1333
G01 X4.2582 Y-4.6879 Z0.1333
G01 X4.2618 Y-4.6889 Z0.1333
G01 X4.4744 Y-4.7474 Z0.1333
G01 X4.4779 Y-4.7483 Z0.1333
G01 X4.6964 Y-4.8014 Z0.1333
G01 X4.6998 Y-4.8022 Z0.1333
G01 X4.9279 Y-4.8509 Z0.1333
G01 X4.9313 Y-4.8516 Z0.1333
G01 X5.1680 Y-4.8953 Z0.1333
G01 X5.1713 Y-4.8958 Z0.1333
G01 X5.4152 Y-4.9341 Z0.1333
G01 X5.4190 Y-4.9346 Z0.1333
G01 X5.5109 Y-4.9461 Z0.1333
G01 X5.5120 Y-4.9462 Z0.1333
G01 X5.6005 Y-4.9565 Z0.1333
G01 X5.6016 Y-4.9566 Z0.1333
G01 X5.6867 Y-4.9657 Z0.1333
G01 X5.6877 Y-4.9659 Z0.1333
G01 X5.7694 Y-4.9739 Z0.1333
G01 X5.7703 Y-4.9740 Z0.1333
G01 X5.8488 Y-4.9811 Z0.1333
G01 X5.8497 Y-4.9812 Z0.1333
G01 X5.9250 Y-4.9875 Z0.1333
G01 X5.9256 Y-4.9876 Z0.1333
G01 X5.9978 Y-4.9933 Z0.1333
G01 X5.9983 Y-4.9933 Z0.1333
G01 X6.0673 Y-4.9985 Z0.1333
G01 X6.0678 Y-4.9985 Z0.1333
G01 X6.1339 Y-5.0032 Z0.1333
G01 X6.1972 Y-5.0076 Z0.1333
G01 X6.2571 Y-5.0118 Z0.1333
G01 X6.3139 Y-5.0159 Z0.1333
G01 X6.3688 Y-5.0201 Z0.1333
G01 X6.4194 Y-5.0244 Z0.1333
G01 X6.4664 Y-5.0289 Z0.1333
G01 X6.5134 Y-5.0340 Z0.1333
G01 X6.5533 Y-5.0392 Z0.1333
G01 X6.5933 Y-5.0452 Z0.1333
G01 X6.6287 Y-5.0516 Z0.1333
G01 X6.6627 Y-5.0589 Z0.1333
G01 X6.6919 Y-5.0664 Z0.1333
G01 X6.7193 Y-5.0749 Z0.1333
G01 X6.7431 Y-5.0838 Z0.1333
G01 X6.7646 Y-5.0933 Z0.1333
G01 X6.7835 Y-5.1034 Z0.1333
G01 X6.8004 Y-5.1142 Z0.1333
G01 X6.8155 Y-5.1258 Z0.1333
G01 X6.8290 Y-5.1381 Z0.1333
G01 X6.8416 Y-5.1519 Z0.1333
G01 X6.8538 Y-5.1676 Z0.1333
G01 X6.8650 Y-5.1850 Z0.1333
G01 X6.8762 Y-5.2060 Z0.1333
G01 X6.8866 Y-5.2290 Z0.1333
G01 X6.8967 Y-5.2559 Z0.1333
G01 X6.9059 Y-5.2856 Z0.1333
G01 X6.9146 Y-5.3192 Z0.1333
G01 X6.9229 Y-5.3583 Z0.1333
G01 X6.9298 Y-5.3979 Z0.1333
G01 X6.9362 Y-5.4429 Z0.1333
G01 X6.9419 Y-5.4929 Z0.1333
G01 X6.9466 Y-5.5448 Z0.1333
G01 X6.9508 Y-5.6028 Z0.1333
G01 X6.9542 Y-5.6636 Z0.1333
G01 X6.9569 Y-5.7285 Z0.1333
G01 X6.9589 Y-5.7926 Z0.1333
G01 X6.9590 Y-5.7962 Z0.1333
G01 X6.9593 Y-5.7997 Z0.1333
G01 X6.9597 Y-5.8033 Z0.1333
G01 X6.9601 Y-5.8068 Z0.1333
G01 X6.9607 Y-5.8103 Z0.1333
G01 X6.9614 Y-5.8138 Z0.1333
G01 X6.9622 Y-5.8173 Z0.1333
G01 X6.9630 Y-5.8207 Z0.1333
G01 X6.9640 Y-5.8242 Z0.1333
G01 X6.9651 Y-5.8275 Z0.1333
G01 X6.9662 Y-5.8309 Z0.1333
G01 X6.9675 Y-5.8342 Z0.1333
G01 X6.9688 Y-5.8375 Z0.1333
G01 X6.9703 Y-5.8408 Z0.1333
G01 X6.9718 Y-5.8440 Z0.1333
G01 X6.9735 Y-5.8472 Z0.1333
G01 X6.9752 Y-5.8503 Z0.1333
G01 X6.9770 Y-5.8533 Z0.1333
G01 X6.9789 Y-5.8563 Z0.1333
G01 X6.9809 Y-5.8593 Z0.1333
G01 X6.9830 Y-5.8622 Z0.1333
G01 X6.9851 Y-5.8650 Z0.1333
G01 X6.9874 Y-5.8678 Z0.1333
G01 X6.9897 Y-5.8705 Z0.1333
G01 X6.9921 Y-5.8731 Z0.1333
G01 X6.9946 Y-5.8757 Z0.1333
G01 X6.9971 Y-5.8782 Z0.1333
G01 X6.9997 Y-5.8806 Z0.1333
G01 X7.0024 Y-5.8829 Z0.1333
G01 X7.0051 Y-5.8852 Z0.1333
G01 X7.0080 Y-5.8874 Z0.1333
G01 X7.0109 Y-5.8895 Z0.1333
G01 X7.0138 Y-5.8915 Z0.1333
G01 X7.0168 Y-5.8934 Z0.1333
G01 X7.0198 Y-5.8953 Z0.1333
G01 X7.0229 Y-5.8970 Z0.1333
G01 X7.0261 Y-5.8987 Z0.1333
G01 X7.0292 Y-5.9003 Z0.1333
G01 X7.0325 Y-5.9018 Z0.1333
G01 X7.0357 Y-5.9031 Z0.1333
G01 X7.0391 Y-5.9044 Z0.1333
G01 X7.0424 Y-5.9056 Z0.1333
G01 X7.0458 Y-5.9067 Z0.1333
G01 X7.0492 Y-5.9077 Z0.1333
G01 X7.0527 Y-5.9087 Z0.1333
G01 X7.0561 Y-5.9094 Z0.1333
G01 X7.0596 Y-5.9101 Z0.1333
G01 X7.0631 Y-5.9107 Z0.1333
G01 X7.0666 Y-5.9112 Z0.1333
G01 X7.0702 Y-5.9116 Z0.1333
G01 X7.0737 Y-5.9120 Z0.1333
G01 X7.0773 Y-5.9121 Z0.1333
G01 X7.0809 Y-5.9122 Z0.1333
G01 X7.0843 Y-5.9123 Z0.1333
G01 X7.0890 Y-5.9122 Z0.1333
G01 X7.0948 Y-5.9121 Z0.1333
G01 X7.0992 Y-5.9119 Z0.1333
G01 X7.6339 Y-5.8783 Z0.1333
G01 X8.1685 Y-5.8454 Z0.1333
G01 X8.6989 Y-5.8133 Z0.1333
G01 X8.7027 Y-5.8132 Z0.1333
G01 X9.2376 Y-5.7816 Z0.1333
G01 X9.7722 Y-5.7507 Z0.1333
G01 X10.3069 Y-5.7204 Z0.1333
G01 X10.8416 Y-5.6908 Z0.1333
G01 X11.3762 Y-5.6618 Z0.1333
G01 X11.9111 Y-5.6336 Z0.1333
G01 X12.4459 Y-5.6060 Z0.1333
G01 X12.9787 Y-5.5791 Z0.1333
G01 X12.9805 Y-5.5790 Z0.1333
G01 X13.5157 Y-5.5527 Z0.1333
G01 X14.0504 Y-5.5271 Z0.1333
G01 X14.5855 Y-5.5022 Z0.1333
G01 X15.1205 Y-5.4779 Z0.1333
G01 X15.6555 Y-5.4542 Z0.1333
G01 X16.1905 Y-5.4312 Z0.1333
G01 X16.7256 Y-5.4089 Z0.1333
G01 X17.2605 Y-5.3873 Z0.1333
G01 X17.7936 Y-5.3664 Z0.1333
G01 X17.7955 Y-5.3663 Z0.1333
G01 X18.3309 Y-5.3460 Z0.1333
G01 X18.5039 Y-5.3396 Z0.1333
G01 X18.8661 Y-5.3263 Z0.1333
G01 X19.2913 Y-5.3112 Z0.1333
G01 X19.4013 Y-5.3073 Z0.1333
G01 X19.9364 Y-5.2890 Z0.1333
G01 X20.0787 Y-5.2842 Z0.1333
G01 X20.4717 Y-5.2713 Z0.1333
G01 X20.8661 Y-5.2587 Z0.1333
G01 X21.0068 Y-5.2542 Z0.1333
G01 X21.5423 Y-5.2379 Z0.1333
G01 X22.0776 Y-5.2222 Z0.1333
G01 X22.6129 Y-5.2072 Z0.1333
G01 X23.1482 Y-5.1928 Z0.1333
G01 X23.6835 Y-5.1791 Z0.1333
G01 X24.2190 Y-5.1661 Z0.1333
G01 X24.7510 Y-5.1538 Z0.1333
G01 X24.7541 Y-5.1537 Z0.1333
G01 X25.2897 Y-5.1420 Z0.1333
G01 X25.8251 Y-5.1309 Z0.1333
G01 X26.3605 Y-5.1205 Z0.1333
G01 X26.8958 Y-5.1108 Z0.1333
G01 X27.4314 Y-5.1018 Z0.1333
G01 X27.9668 Y-5.0933 Z0.1333
G01 X28.5023 Y-5.0856 Z0.1333
G01 X29.0378 Y-5.0785 Z0.1333
G01 X29.5733 Y-5.0721 Z0.1333
G01 X30.1088 Y-5.0663 Z0.1333
G01 X30.6443 Y-5.0612 Z0.1333
G01 X31.1798 Y-5.0568 Z0.1333
G01 X31.7153 Y-5.0530 Z0.1333
G01 X32.2509 Y-5.0499 Z0.1333
G01 X32.7863 Y-5.0475 Z0.1333
G01 X33.3219 Y-5.0457 Z0.1333
G01 X33.8574 Y-5.0446 Z0.1333
G01 X34.3929 Y-5.0441 Z0.1333
G01 X34.9282 Y-5.0443 Z0.1333
G01 X35.4637 Y-5.0452 Z0.1333
G01 X35.9992 Y-5.0467 Z0.1333
G01 X36.5348 Y-5.0489 Z0.1333
G01 X37.0703 Y-5.0518 Z0.1333
G01 X37.6058 Y-5.0553 Z0.1333
G01 X38.1413 Y-5.0595 Z0.1333
G01 X38.6768 Y-5.0643 Z0.1333
G01 X39.2123 Y-5.0698 Z0.1333
G01 X39.7478 Y-5.0760 Z0.1333
G01 X40.2833 Y-5.0829 Z0.1333
G01 X40.8188 Y-5.0903 Z0.1333
G01 X41.3542 Y-5.0985 Z0.1333
G01 X41.8897 Y-5.1073 Z0.1333
G01 X42.4252 Y-5.1168 Z0.1333
G01 X42.9606 Y-5.1269 Z0.1333
G01 X43.4960 Y-5.1377 Z0.1333
G01 X44.0316 Y-5.1492 Z0.1333
G01 X44.0348 Y-5.1492 Z0.1333
G01 X44.5667 Y-5.1613 Z0.1333
G01 X45.1021 Y-5.1741 Z0.1333
G01 X45.2755 Y-5.1785 Z0.1333
G01 X45.6374 Y-5.1876 Z0.1333
G01 X46.0629 Y-5.1988 Z0.1333
G01 X46.1728 Y-5.2017 Z0.1333
G01 X46.7081 Y-5.2165 Z0.1333
G01 X46.8503 Y-5.2206 Z0.1333
G01 X47.2435 Y-5.2319 Z0.1333
G01 X47.6377 Y-5.2438 Z0.1333
G01 X47.7789 Y-5.2481 Z0.1333
G01 X48.3140 Y-5.2648 Z0.1333
G01 X48.8492 Y-5.2822 Z0.1333
G01 X49.3844 Y-5.3003 Z0.1333
G01 X49.9196 Y-5.3191 Z0.1333
G01 X50.4548 Y-5.3385 Z0.1333
G01 X50.9902 Y-5.3586 Z0.1333
G01 X50.9922 Y-5.3586 Z0.1333
G01 X51.5251 Y-5.3793 Z0.1333
G01 X52.0603 Y-5.4007 Z0.1333
G01 X52.5953 Y-5.4227 Z0.1333
G01 X53.1303 Y-5.4455 Z0.1333
G01 X53.6653 Y-5.4689 Z0.1333
G01 X54.2003 Y-5.4929 Z0.1333
G01 X54.7354 Y-5.5177 Z0.1333
G01 X55.2702 Y-5.5430 Z0.1333
G01 X55.8051 Y-5.5690 Z0.1333
G01 X56.3402 Y-5.5958 Z0.1333
G01 X56.3420 Y-5.5959 Z0.1333
G01 X56.8748 Y-5.6231 Z0.1333
G01 X57.4097 Y-5.6511 Z0.1333
G01 X57.9443 Y-5.6798 Z0.1333
G01 X58.4790 Y-5.7092 Z0.1333
G01 X59.0137 Y-5.7392 Z0.1333
G01 X59.5483 Y-5.7698 Z0.1333
G01 X60.0832 Y-5.8012 Z0.1333
G01 X60.0867 Y-5.8014 Z0.1333
G01 X60.6178 Y-5.8331 Z0.1333
G01 X60.6218 Y-5.8333 Z0.1333
G01 X60.6276 Y-5.8335 Z0.1333
G01 X60.6333 Y-5.8335 Z0.1333
G01 X60.6354 Y-5.8335 Z0.1333
G01 X60.6390 Y-5.8333 Z0.1333
G01 X60.6425 Y-5.8331 Z0.1333
G01 X60.6461 Y-5.8328 Z0.1333
G01 X60.6496 Y-5.8324 Z0.1333
G01 X60.6531 Y-5.8318 Z0.1333
G01 X60.6566 Y-5.8312 Z0.1333
G01 X60.6601 Y-5.8305 Z0.1333
G01 X60.6635 Y-5.8297 Z0.1333
G01 X60.6670 Y-5.8287 Z0.1333
G01 X60.6704 Y-5.8277 Z0.1333
G01 X60.6737 Y-5.8266 Z0.1333
G01 X60.6771 Y-5.8253 Z0.1333
G01 X60.6804 Y-5.8240 Z0.1333
G01 X60.6837 Y-5.8226 Z0.1333
G01 X60.6869 Y-5.8211 Z0.1333
G01 X60.6901 Y-5.8195 Z0.1333
G01 X60.6932 Y-5.8178 Z0.1333
G01 X60.6962 Y-5.8161 Z0.1333
G01 X60.6993 Y-5.8142 Z0.1333
G01 X60.7023 Y-5.8122 Z0.1333
G01 X60.7052 Y-5.8102 Z0.1333
G01 X60.7080 Y-5.8081 Z0.1333
G01 X60.7108 Y-5.8059 Z0.1333
G01 X60.7136 Y-5.8036 Z0.1333
G01 X60.7162 Y-5.8012 Z0.1333
G01 X60.7188 Y-5.7988 Z0.1333
G01 X60.7213 Y-5.7963 Z0.1333
G01 X60.7238 Y-5.7937 Z0.1333
G01 X60.7262 Y-5.7911 Z0.1333
G01 X60.7285 Y-5.7884 Z0.1333
G01 X60.7307 Y-5.7856 Z0.1333
G01 X60.7328 Y-5.7827 Z0.1333
G01 X60.7349 Y-5.7798 Z0.1333
G01 X60.7368 Y-5.7769 Z0.1333
G01 X60.7387 Y-5.7738 Z0.1333
G01 X60.7405 Y-5.7708 Z0.1333
G01 X60.7422 Y-5.7677 Z0.1333
G01 X60.7438 Y-5.7645 Z0.1333
G01 X60.7453 Y-5.7612 Z0.1333
G01 X60.7468 Y-5.7580 Z0.1333
G01 X60.7481 Y-5.7547 Z0.1333
G01 X60.7494 Y-5.7514 Z0.1333
G01 X60.7505 Y-5.7480 Z0.1333
G01 X60.7515 Y-5.7446 Z0.1333
G01 X60.7525 Y-5.7412 Z0.1333
G01 X60.7533 Y-5.7377 Z0.1333
G01 X60.7541 Y-5.7342 Z0.1333
G01 X60.7547 Y-5.7307 Z0.1333
G01 X60.7553 Y-5.7272 Z0.1333
G01 X60.7557 Y-5.7237 Z0.1333
G01 X60.7561 Y-5.7202 Z0.1333
G01 X60.7563 Y-5.7166 Z0.1333
G01 X60.7564 Y-5.7131 Z0.1333
G01 X60.7579 Y-5.6519 Z0.1333
G01 X60.7601 Y-5.5878 Z0.1333
G01 X60.7630 Y-5.5267 Z0.1333
G01 X60.7664 Y-5.4705 Z0.1333
G01 X60.7704 Y-5.4197 Z0.1333
G01 X60.7752 Y-5.3720 Z0.1333
G01 X60.7808 Y-5.3277 Z0.1333
G01 X60.7870 Y-5.2880 Z0.1333
G01 X60.7940 Y-5.2522 Z0.1333
G01 X60.8018 Y-5.2192 Z0.1333
G01 X60.8103 Y-5.1897 Z0.1333
G01 X60.8192 Y-5.1646 Z0.1333
G01 X60.8284 Y-5.1428 Z0.1333
G01 X60.8384 Y-5.1233 Z0.1333
G01 X60.8487 Y-5.1066 Z0.1333
G01 X60.8590 Y-5.0925 Z0.1333
G01 X60.8707 Y-5.0792 Z0.1333
G01 X60.8826 Y-5.0680 Z0.1333
G01 X60.8966 Y-5.0569 Z0.1333
G01 X60.9120 Y-5.0466 Z0.1333
G01 X60.9293 Y-5.0368 Z0.1333
G01 X60.9501 Y-5.0270 Z0.1333
G01 X60.9726 Y-5.0179 Z0.1333
G01 X60.9985 Y-5.0090 Z0.1333
G01 X61.0269 Y-5.0007 Z0.1333
G01 X61.0585 Y-4.9926 Z0.1333
G01 X61.0942 Y-4.9847 Z0.1333
G01 X61.1318 Y-4.9772 Z0.1333
G01 X61.1709 Y-4.9702 Z0.1333
G01 X61.2149 Y-4.9631 Z0.1333
G01 X61.2625 Y-4.9557 Z0.1333
G01 X61.3120 Y-4.9485 Z0.1333
G01 X61.3642 Y-4.9410 Z0.1333
G01 X61.4199 Y-4.9331 Z0.1333
G01 X61.4785 Y-4.9248 Z0.1333
G01 X61.5402 Y-4.9158 Z0.1333
G01 X61.5408 Y-4.9157 Z0.1333
G01 X61.6050 Y-4.9060 Z0.1333
G01 X61.6058 Y-4.9059 Z0.1333
G01 X61.6730 Y-4.8953 Z0.1333
G01 X61.6740 Y-4.8952 Z0.1333
G01 X61.7444 Y-4.8836 Z0.1333
G01 X61.7453 Y-4.8834 Z0.1333
G01 X61.8188 Y-4.8707 Z0.1333
G01 X61.8199 Y-4.8705 Z0.1333
G01 X61.8966 Y-4.8565 Z0.1333
G01 X61.8978 Y-4.8562 Z0.1333
G01 X61.9778 Y-4.8408 Z0.1333
G01 X61.9791 Y-4.8405 Z0.1333
G01 X62.0624 Y-4.8235 Z0.1333
G01 X62.0638 Y-4.8232 Z0.1333
G01 X62.1505 Y-4.8045 Z0.1333
G01 X62.1519 Y-4.8042 Z0.1333
G01 X62.2421 Y-4.7837 Z0.1333
G01 X62.2470 Y-4.7824 Z0.1333
G01 X62.4157 Y-4.7368 Z0.1333
G01 X62.4199 Y-4.7356 Z0.1333
G01 X62.5814 Y-4.6857 Z0.1333
G01 X62.5856 Y-4.6843 Z0.1333
G01 X62.7410 Y-4.6301 Z0.1333
G01 X62.7452 Y-4.6286 Z0.1333
G01 X62.8939 Y-4.5707 Z0.1333
G01 X62.8981 Y-4.5689 Z0.1333
G01 X63.0416 Y-4.5067 Z0.1333
G01 X63.0458 Y-4.5048 Z0.1333
G01 X63.1846 Y-4.4383 Z0.1333
G01 X63.1889 Y-4.4362 Z0.1333
G01 X63.3206 Y-4.3668 Z0.1333
G01 X63.3247 Y-4.3645 Z0.1333
G01 X63.4514 Y-4.2914 Z0.1333
G01 X63.4556 Y-4.2890 Z0.1333
G01 X63.5786 Y-4.2115 Z0.1333
G01 X63.5826 Y-4.2089 Z0.1333
G01 X63.6992 Y-4.1290 Z0.1333
G01 X63.7031 Y-4.1262 Z0.1333
G01 X63.8161 Y-4.0422 Z0.1333
G01 X63.8199 Y-4.0393 Z0.1333
G01 X63.9272 Y-3.9528 Z0.1333
G01 X63.9309 Y-3.9498 Z0.1333
G01 X64.0349 Y-3.8591 Z0.1333
G01 X64.0384 Y-3.8559 Z0.1333
G01 X64.1371 Y-3.7629 Z0.1333
G01 X64.1405 Y-3.7596 Z0.1333
G01 X64.2360 Y-3.6625 Z0.1333
G01 X64.2391 Y-3.6592 Z0.1333
G01 X64.3292 Y-3.5605 Z0.1333
G01 X64.3323 Y-3.5570 Z0.1333
G01 X64.4200 Y-3.4535 Z0.1333
G01 X64.4229 Y-3.4500 Z0.1333
G01 X64.5062 Y-3.3438 Z0.1333
G01 X64.5089 Y-3.3403 Z0.1333
G01 X64.5883 Y-3.2315 Z0.1333
G01 X64.5908 Y-3.2279 Z0.1333
G01 X64.6664 Y-3.1161 Z0.1333
G01 X64.6687 Y-3.1125 Z0.1333
G01 X64.7410 Y-2.9974 Z0.1333
G01 X64.7431 Y-2.9938 Z0.1333
G01 X64.8116 Y-2.8762 Z0.1333
G01 X64.8136 Y-2.8725 Z0.1333
G01 X64.8782 Y-2.7524 Z0.1333
G01 X64.8800 Y-2.7489 Z0.1333
G01 X64.9416 Y-2.6251 Z0.1333
G01 X64.9432 Y-2.6216 Z0.1333
G01 X65.0015 Y-2.4945 Z0.1333
G01 X65.0031 Y-2.4911 Z0.1333
G01 X65.0568 Y-2.3639 Z0.1333
G01 X65.0581 Y-2.3605 Z0.1333
G01 X65.1096 Y-2.2278 Z0.1333
G01 X65.1108 Y-2.2245 Z0.1333
G01 X65.1579 Y-2.0918 Z0.1333
G01 X65.1590 Y-2.0885 Z0.1333
G01 X65.2027 Y-1.9535 Z0.1333
G01 X65.2037 Y-1.9503 Z0.1333
G01 X65.2446 Y-1.8110 Z0.1333
G01 X65.2455 Y-1.8079 Z0.1333
G01 X65.2826 Y-1.6679 Z0.1333
G01 X65.2834 Y-1.6648 Z0.1333
G01 X65.3171 Y-1.5229 Z0.1333
G01 X65.3177 Y-1.5199 Z0.1333
G01 X65.3480 Y-1.3763 Z0.1333
G01 X65.3486 Y-1.3735 Z0.1333
G01 X65.3757 Y-1.2281 Z0.1333
G01 X65.3762 Y-1.2252 Z0.1333
G01 X65.4001 Y-1.0768 Z0.1333
G01 X65.4005 Y-1.0740 Z0.1333
G01 X65.4208 Y-0.9275 Z0.1333
G01 X65.4211 Y-0.9247 Z0.1333
G01 X65.4385 Y-0.7734 Z0.1333
G01 X65.4388 Y-0.7707 Z0.1333
G01 X65.4524 Y-0.6241 Z0.1333
G01 X65.4526 Y-0.6215 Z0.1333
G01 X65.4637 Y-0.4666 Z0.1333
G01 X65.4638 Y-0.4640 Z0.1333
G01 X65.4714 Y-0.3118 Z0.1333
G01 X65.4716 Y-0.3093 Z0.1333
G01 X65.4761 Y-0.1570 Z0.1333
G01 X65.4762 Y-0.1546 Z0.1333
G01 X65.4777 Y-0.0012 Z0.1333
G01 X65.4777 Y0.0012 Z0.1333
G01 X65.4762 Y0.1546 Z0.1333
G01 X65.4761 Y0.1570 Z0.1333
G01 X65.4716 Y0.3093 Z0.1333
G01 X65.4714 Y0.3118 Z0.1333
G01 X65.4638 Y0.4640 Z0.1333
G01 X65.4637 Y0.4666 Z0.1333
G01 X65.4527 Y0.6203 Z0.1333
G01 X65.4525 Y0.6230 Z0.1333
G01 X65.4388 Y0.7707 Z0.1333
G01 X65.4385 Y0.7734 Z0.1333
G01 X65.4211 Y0.9247 Z0.1333
G01 X65.4208 Y0.9275 Z0.1333
G01 X65.4005 Y1.0740 Z0.1333
G01 X65.4001 Y1.0768 Z0.1333
G01 X65.3762 Y1.2252 Z0.1333
G01 X65.3757 Y1.2281 Z0.1333
G01 X65.3486 Y1.3735 Z0.1333
G01 X65.3480 Y1.3763 Z0.1333
G01 X65.3177 Y1.5199 Z0.1333
G01 X65.3171 Y1.5229 Z0.1333
G01 X65.2834 Y1.6648 Z0.1333
G01 X65.2826 Y1.6679 Z0.1333
G01 X65.2455 Y1.8079 Z0.1333
G01 X65.2446 Y1.8110 Z0.1333
G01 X65.2037 Y1.9503 Z0.1333
G01 X65.2027 Y1.9535 Z0.1333
G01 X65.1590 Y2.0885 Z0.1333
G01 X65.1579 Y2.0918 Z0.1333
G01 X65.1108 Y2.2245 Z0.1333
G01 X65.1096 Y2.2278 Z0.1333
G01 X65.0581 Y2.3605 Z0.1333
G01 X65.0568 Y2.3639 Z0.1333
G01 X65.0031 Y2.4911 Z0.1333
G01 X65.0015 Y2.4945 Z0.1333
G01 X64.9432 Y2.6216 Z0.1333
G01 X64.9416 Y2.6251 Z0.1333
G01 X64.8800 Y2.7489 Z0.1333
G01 X64.8782 Y2.7524 Z0.1333
G01 X64.8136 Y2.8725 Z0.1333
G01 X64.8116 Y2.8762 Z0.1333
G01 X64.7431 Y2.9938 Z0.1333
G01 X64.7410 Y2.9974 Z0.1333
G01 X64.6687 Y3.1125 Z0.1333
G01 X64.6664 Y3.1161 Z0.1333
G01 X64.5908 Y3.2279 Z0.1333
G01 X64.5883 Y3.2315 Z0.1333
G01 X64.5089 Y3.3403 Z0.1333
G01 X64.5062 Y3.3438 Z0.1333
G01 X64.4229 Y3.4500 Z0.1333
G01 X64.4200 Y3.4535 Z0.1333
G01 X64.3323 Y3.5570 Z0.1333
G01 X64.3292 Y3.5605 Z0.1333
G01 X64.2391 Y3.6592 Z0.1333
G01 X64.2360 Y3.6625 Z0.1333
G01 X64.1405 Y3.7596 Z0.1333
G01 X64.1371 Y3.7629 Z0.1333
G01 X64.0384 Y3.8559 Z0.1333
G01 X64.0349 Y3.8591 Z0.1333
G01 X63.9309 Y3.9498 Z0.1333
G01 X63.9272 Y3.9528 Z0.1333
G01 X63.8199 Y4.0393 Z0.1333
G01 X63.8161 Y4.0422 Z0.1333
G01 X63.7031 Y4.1262 Z0.1333
G01 X63.6992 Y4.1290 Z0.1333
G01 X63.5826 Y4.2089 Z0.1333
G01 X63.5786 Y4.2115 Z0.1333
G01 X63.4556 Y4.2890 Z0.1333
G01 X63.4514 Y4.2914 Z0.1333
G01 X63.3247 Y4.3645 Z0.1333
G01 X63.3206 Y4.3668 Z0.1333
G01 X63.1889 Y4.4362 Z0.1333
G01 X63.1846 Y4.4383 Z0.1333
G01 X63.0458 Y4.5048 Z0.1333
G01 X63.0416 Y4.5067 Z0.1333
G01 X62.8981 Y4.5689 Z0.1333
G01 X62.8939 Y4.5707 Z0.1333
G01 X62.7452 Y4.6286 Z0.1333
G01 X62.7410 Y4.6301 Z0.1333
G01 X62.5856 Y4.6843 Z0.1333
G01 X62.5814 Y4.6857 Z0.1333
G01 X62.4199 Y4.7356 Z0.1333
G01 X62.4157 Y4.7368 Z0.1333
G01 X62.2470 Y4.7824 Z0.1333
G01 X62.2421 Y4.7837 Z0.1333
G01 X62.1519 Y4.8042 Z0.1333
G01 X62.1505 Y4.8045 Z0.1333
G01 X62.0638 Y4.8232 Z0.1333
G01 X62.0624 Y4.8235 Z0.1333
G01 X61.9791 Y4.8405 Z0.1333
G01 X61.9778 Y4.8408 Z0.1333
G01 X61.8978 Y4.8562 Z0.1333
G01 X61.8966 Y4.8565 Z0.1333
G01 X61.8199 Y4.8705 Z0.1333
G01 X61.8188 Y4.8707 Z0.1333
G01 X61.7453 Y4.8834 Z0.1333
G01 X61.7444 Y4.8836 Z0.1333
G01 X61.6740 Y4.8952 Z0.1333
G01 X61.6730 Y4.8953 Z0.1333
G01 X61.6058 Y4.9059 Z0.1333
G01 X61.6050 Y4.9060 Z0.1333
G01 X61.5408 Y4.9157 Z0.1333
G01 X61.5402 Y4.9158 Z0.1333
G01 X61.4788 Y4.9247 Z0.1333
G01 X61.4201 Y4.9331 Z0.1333
G01 X61.3642 Y4.9410 Z0.1333
G01 X61.3120 Y4.9485 Z0.1333
G01 X61.2625 Y4.9557 Z0.1333
G01 X61.2149 Y4.9631 Z0.1333
G01 X61.1709 Y4.9702 Z0.1333
G01 X61.1318 Y4.9772 Z0.1333
G01 X61.0942 Y4.9847 Z0.1333
G01 X61.0585 Y4.9926 Z0.1333
G01 X61.0269 Y5.0007 Z0.1333
G01 X60.9985 Y5.0090 Z0.1333
G01 X60.9726 Y5.0179 Z0.1333
G01 X60.9501 Y5.0270 Z0.1333
G01 X60.9293 Y5.0368 Z0.1333
G01 X60.9120 Y5.0466 Z0.1333
G01 X60.8967 Y5.0568 Z0.1333
G01 X60.8826 Y5.0680 Z0.1333
G01 X60.8707 Y5.0792 Z0.1333
G01 X60.8590 Y5.0925 Z0.1333
G01 X60.8487 Y5.1066 Z0.1333
G01 X60.8384 Y5.1233 Z0.1333
G01 X60.8284 Y5.1428 Z0.1333
G01 X60.8192 Y5.1646 Z0.1333
G01 X60.8105 Y5.1893 Z0.1333
G01 X60.8018 Y5.2192 Z0.1333
G01 X60.7940 Y5.2521 Z0.1333
G01 X60.7871 Y5.2876 Z0.1333
G01 X60.7808 Y5.3277 Z0.1333
G01 X60.7752 Y5.3720 Z0.1333
G01 X60.7704 Y5.4196 Z0.1333
G01 X60.7664 Y5.4702 Z0.1333
G01 X60.7630 Y5.5262 Z0.1333
G01 X60.7601 Y5.5878 Z0.1333
G01 X60.7579 Y5.6519 Z0.1333
G01 X60.7564 Y5.7131 Z0.1333
G01 X60.7563 Y5.7166 Z0.1333
G01 X60.7561 Y5.7202 Z0.1333
G01 X60.7557 Y5.7237 Z0.1333
G01 X60.7553 Y5.7272 Z0.1333
G01 X60.7547 Y5.7307 Z0.1333
G01 X60.7541 Y5.7342 Z0.1333
G01 X60.7533 Y5.7377 Z0.1333
G01 X60.7525 Y5.7412 Z0.1333
G01 X60.7515 Y5.7446 Z0.1333
G01 X60.7505 Y5.7480 Z0.1333
G01 X60.7494 Y5.7514 Z0.1333
G01 X60.7481 Y5.7547 Z0.1333
G01 X60.7468 Y5.7580 Z0.1333
G01 X60.7453 Y5.7612 Z0.1333
G01 X60.7438 Y5.7645 Z0.1333
G01 X60.7422 Y5.7677 Z0.1333
G01 X60.7405 Y5.7708 Z0.1333
G01 X60.7387 Y5.7738 Z0.1333
G01 X60.7368 Y5.7769 Z0.1333
G01 X60.7349 Y5.7798 Z0.1333
G01 X60.7328 Y5.7827 Z0.1333
G01 X60.7307 Y5.7856 Z0.1333
G01 X60.7285 Y5.7884 Z0.1333
G01 X60.7262 Y5.7911 Z0.1333
G01 X60.7238 Y5.7937 Z0.1333
G01 X60.7213 Y5.7963 Z0.1333
G01 X60.7188 Y5.7988 Z0.1333
G01 X60.7162 Y5.8012 Z0.1333
G01 X60.7136 Y5.8036 Z0.1333
G01 X60.7108 Y5.8059 Z0.1333
G01 X60.7080 Y5.8081 Z0.1333
G01 X60.7052 Y5.8102 Z0.1333
G01 X60.7023 Y5.8122 Z0.1333
G01 X60.6993 Y5.8142 Z0.1333
G01 X60.6962 Y5.8161 Z0.1333
G01 X60.6932 Y5.8178 Z0.1333
G01 X60.6901 Y5.8195 Z0.1333
G01 X60.6869 Y5.8211 Z0.1333
G01 X60.6837 Y5.8226 Z0.1333
G01 X60.6804 Y5.8240 Z0.1333
G01 X60.6771 Y5.8253 Z0.1333
G01 X60.6737 Y5.8266 Z0.1333
G01 X60.6704 Y5.8277 Z0.1333
G01 X60.6670 Y5.8287 Z0.1333
G01 X60.6635 Y5.8297 Z0.1333
G01 X60.6601 Y5.8305 Z0.1333
G01 X60.6566 Y5.8312 Z0.1333
G01 X60.6531 Y5.8318 Z0.1333
G01 X60.6496 Y5.8324 Z0.1333
G01 X60.6461 Y5.8328 Z0.1333
G01 X60.6425 Y5.8331 Z0.1333
G01 X60.6390 Y5.8333 Z0.1333
G01 X60.6354 Y5.8335 Z0.1333
G01 X60.6333 Y5.8335 Z0.1333
G01 X60.6276 Y5.8335 Z0.1333
G01 X60.6218 Y5.8333 Z0.1333
G01 X60.6178 Y5.8331 Z0.1333
G01 X60.0871 Y5.8014 Z0.1333
G01 X60.0832 Y5.8012 Z0.1333
G01 X59.5483 Y5.7698 Z0.1333
G01 X59.0137 Y5.7392 Z0.1333
G01 X58.4790 Y5.7092 Z0.1333
G01 X57.9443 Y5.6798 Z0.1333
G01 X57.4097 Y5.6511 Z0.1333
G01 X56.8748 Y5.6231 Z0.1333
G01 X56.3420 Y5.5959 Z0.1333
G01 X56.3402 Y5.5958 Z0.1333
G01 X55.8051 Y5.5690 Z0.1333
G01 X55.2702 Y5.5430 Z0.1333
G01 X54.7354 Y5.5176 Z0.1333
G01 X54.2003 Y5.4929 Z0.1333
G01 X53.6653 Y5.4689 Z0.1333
G01 X53.1303 Y5.4455 Z0.1333
G01 X52.5953 Y5.4227 Z0.1333
G01 X52.0603 Y5.4007 Z0.1333
G01 X51.5251 Y5.3793 Z0.1333
G01 X50.9922 Y5.3586 Z0.1333
G01 X50.9902 Y5.3586 Z0.1333
G01 X50.4548 Y5.3385 Z0.1333
G01 X49.9196 Y5.3191 Z0.1333
G01 X49.3844 Y5.3003 Z0.1333
G01 X48.8492 Y5.2822 Z0.1333
G01 X48.3140 Y5.2648 Z0.1333
G01 X47.7789 Y5.2480 Z0.1333
G01 X47.6377 Y5.2438 Z0.1333
G01 X47.2435 Y5.2319 Z0.1333
G01 X46.8503 Y5.2206 Z0.1333
G01 X46.7081 Y5.2165 Z0.1333
G01 X46.1728 Y5.2017 Z0.1333
G01 X46.0629 Y5.1988 Z0.1333
G01 X45.6374 Y5.1876 Z0.1333
G01 X45.2755 Y5.1785 Z0.1333
G01 X45.1021 Y5.1741 Z0.1333
G01 X44.5667 Y5.1613 Z0.1333
G01 X44.0348 Y5.1492 Z0.1333
G01 X44.0316 Y5.1492 Z0.1333
G01 X43.4960 Y5.1377 Z0.1333
G01 X42.9606 Y5.1269 Z0.1333
G01 X42.4252 Y5.1168 Z0.1333
G01 X41.8897 Y5.1073 Z0.1333
G01 X41.3542 Y5.0985 Z0.1333
G01 X40.8188 Y5.0903 Z0.1333
G01 X40.2833 Y5.0829 Z0.1333
G01 X39.7478 Y5.0760 Z0.1333
G01 X39.2123 Y5.0698 Z0.1333
G01 X38.6768 Y5.0643 Z0.1333
G01 X38.1413 Y5.0595 Z0.1333
G01 X37.6058 Y5.0553 Z0.1333
G01 X37.0703 Y5.0518 Z0.1333
G01 X36.5348 Y5.0489 Z0.1333
G01 X35.9992 Y5.0467 Z0.1333
G01 X35.4637 Y5.0452 Z0.1333
G01 X34.9282 Y5.0443 Z0.1333
G01 X34.3929 Y5.0441 Z0.1333
G01 X33.8574 Y5.0446 Z0.1333
G01 X33.3219 Y5.0457 Z0.1333
G01 X32.7863 Y5.0475 Z0.1333
G01 X32.2509 Y5.0499 Z0.1333
G01 X31.7153 Y5.0530 Z0.1333
G01 X31.1798 Y5.0568 Z0.1333
G01 X30.6443 Y5.0612 Z0.1333
G01 X30.1088 Y5.0663 Z0.1333
G01 X29.5733 Y5.0721 Z0.1333
G01 X29.0378 Y5.0785 Z0.1333
G01 X28.5023 Y5.0856 Z0.1333
G01 X27.9668 Y5.0933 Z0.1333
G01 X27.4314 Y5.1018 Z0.1333
G01 X26.8958 Y5.1108 Z0.1333
G01 X26.3605 Y5.1205 Z0.1333
G01 X25.8251 Y5.1309 Z0.1333
G01 X25.2897 Y5.1420 Z0.1333
G01 X24.7541 Y5.1537 Z0.1333
G01 X24.7510 Y5.1538 Z0.1333
G01 X24.2190 Y5.1661 Z0.1333
G01 X23.6835 Y5.1791 Z0.1333
G01 X23.1482 Y5.1928 Z0.1333
G01 X22.6129 Y5.2072 Z0.1333
G01 X22.0776 Y5.2222 Z0.1333
G01 X21.5423 Y5.2379 Z0.1333
G01 X21.0068 Y5.2543 Z0.1333
G01 X20.8661 Y5.2587 Z0.1333
G01 X20.4717 Y5.2713 Z0.1333
G01 X20.0787 Y5.2842 Z0.1333
G01 X19.9364 Y5.2890 Z0.1333
G01 X19.4013 Y5.3073 Z0.1333
G01 X19.2913 Y5.3112 Z0.1333
G01 X18.8661 Y5.3263 Z0.1333
G01 X18.5039 Y5.3396 Z0.1333
G01 X18.3309 Y5.3460 Z0.1333
G01 X17.7955 Y5.3663 Z0.1333
G01 X17.7936 Y5.3664 Z0.1333
G01 X17.2605 Y5.3873 Z0.1333
G01 X16.7256 Y5.4089 Z0.1333
G01 X16.1905 Y5.4312 Z0.1333
G01 X15.6555 Y5.4542 Z0.1333
G01 X15.1205 Y5.4779 Z0.1333
G01 X14.5855 Y5.5022 Z0.1333
G01 X14.0504 Y5.5272 Z0.1333
G01 X13.5157 Y5.5527 Z0.1333
G01 X12.9805 Y5.5790 Z0.1333
G01 X12.9787 Y5.5791 Z0.1333
G01 X12.4459 Y5.6060 Z0.1333
G01 X11.9111 Y5.6336 Z0.1333
G01 X11.3762 Y5.6619 Z0.1333
G01 X10.8416 Y5.6908 Z0.1333
G01 X10.3069 Y5.7204 Z0.1333
G01 X9.7722 Y5.7507 Z0.1333
G01 X9.2376 Y5.7816 Z0.1333
G01 X8.7027 Y5.8132 Z0.1333
G01 X8.6992 Y5.8133 Z0.1333
G01 X8.1685 Y5.8454 Z0.1333
G01 X7.6339 Y5.8783 Z0.1333
G01 X7.0992 Y5.9119 Z0.1333
G01 X7.0948 Y5.9121 Z0.1333
G01 X7.0890 Y5.9122 Z0.1333
G01 X7.0843 Y5.9123 Z0.1333
G01 X7.0809 Y5.9122 Z0.1333
G01 X7.0773 Y5.9121 Z0.1333
G01 X7.0737 Y5.9120 Z0.1333
G01 X7.0702 Y5.9116 Z0.1333
G01 X7.0666 Y5.9112 Z0.1333
G01 X7.0631 Y5.9107 Z0.1333
G01 X7.0596 Y5.9101 Z0.1333
G01 X7.0561 Y5.9094 Z0.1333
G01 X7.0527 Y5.9087 Z0.1333
G01 X7.0492 Y5.9077 Z0.1333
G01 X7.0458 Y5.9067 Z0.1333
G01 X7.0424 Y5.9056 Z0.1333
G01 X7.0391 Y5.9044 Z0.1333
G01 X7.0357 Y5.9031 Z0.1333
G01 X7.0325 Y5.9018 Z0.1333
G01 X7.0292 Y5.9003 Z0.1333
G01 X7.0261 Y5.8987 Z0.1333
G01 X7.0229 Y5.8970 Z0.1333
G01 X7.0198 Y5.8953 Z0.1333
G01 X7.0168 Y5.8934 Z0.1333
G01 X7.0138 Y5.8915 Z0.1333
G01 X7.0109 Y5.8895 Z0.1333
G01 X7.0080 Y5.8874 Z0.1333
G01 X7.0051 Y5.8852 Z0.1333
G01 X7.0024 Y5.8829 Z0.1333
G01 X6.9997 Y5.8806 Z0.1333
G01 X6.9971 Y5.8782 Z0.1333
G01 X6.9946 Y5.8757 Z0.1333
G01 X6.9921 Y5.8731 Z0.1333
G01 X6.9897 Y5.8705 Z0.1333
G01 X6.9874 Y5.8678 Z0.1333
G01 X6.9851 Y5.8650 Z0.1333
G01 X6.9830 Y5.8622 Z0.1333
G01 X6.9809 Y5.8593 Z0.1333
G01 X6.9789 Y5.8563 Z0.1333
G01 X6.9770 Y5.8533 Z0.1333
G01 X6.9752 Y5.8503 Z0.1333
G01 X6.9735 Y5.8472 Z0.1333
G01 X6.9718 Y5.8440 Z0.1333
G01 X6.9703 Y5.8408 Z0.1333
G01 X6.9688 Y5.8375 Z0.1333
G01 X6.9675 Y5.8342 Z0.1333
G01 X6.9662 Y5.8309 Z0.1333
G01 X6.9651 Y5.8275 Z0.1333
G01 X6.9640 Y5.8242 Z0.1333
G01 X6.9630 Y5.8207 Z0.1333
G01 X6.9622 Y5.8173 Z0.1333
G01 X6.9614 Y5.8138 Z0.1333
G01 X6.9607 Y5.8103 Z0.1333
G01 X6.9601 Y5.8068 Z0.1333
G01 X6.9597 Y5.8033 Z0.1333
G01 X6.9593 Y5.7997 Z0.1333
G01 X6.9590 Y5.7962 Z0.1333
G01 X6.9589 Y5.7926 Z0.1333
G01 X6.9568 Y5.7271 Z0.1333
G01 X6.9541 Y5.6619 Z0.1333
G01 X6.9508 Y5.6028 Z0.1333
G01 X6.9465 Y5.5438 Z0.1333
G01 X6.9420 Y5.4936 Z0.1333
G01 X6.9419 Y5.4928 Z0.1333
G01 X6.9362 Y5.4429 Z0.1333
G01 X6.9298 Y5.3979 Z0.1333
G01 X6.9228 Y5.3578 Z0.1333
G01 X6.9146 Y5.3191 Z0.1333
G01 X6.9059 Y5.2856 Z0.1333
G01 X6.8966 Y5.2558 Z0.1333
G01 X6.8866 Y5.2290 Z0.1333
G01 X6.8762 Y5.2060 Z0.1333
G01 X6.8650 Y5.1850 Z0.1333
G01 X6.8538 Y5.1676 Z0.1333
G01 X6.8416 Y5.1519 Z0.1333
G01 X6.8290 Y5.1381 Z0.1333
G01 X6.8155 Y5.1258 Z0.1333
G01 X6.8004 Y5.1142 Z0.1333
G01 X6.7835 Y5.1034 Z0.1333
G01 X6.7646 Y5.0933 Z0.1333
G01 X6.7431 Y5.0838 Z0.1333
G01 X6.7192 Y5.0749 Z0.1333
G01 X6.6919 Y5.0664 Z0.1333
G01 X6.6627 Y5.0589 Z0.1333
G01 X6.6287 Y5.0516 Z0.1333
G01 X6.5933 Y5.0452 Z0.1333
G01 X6.5533 Y5.0392 Z0.1333
G01 X6.5134 Y5.0340 Z0.1333
G01 X6.4664 Y5.0289 Z0.1333
G01 X6.4194 Y5.0244 Z0.1333
G01 X6.3688 Y5.0201 Z0.1333
G01 X6.3140 Y5.0159 Z0.1333
G01 X6.2571 Y5.0118 Z0.1333
G01 X6.1972 Y5.0076 Z0.1333
G01 X6.1340 Y5.0032 Z0.1333
G01 X6.0678 Y4.9985 Z0.1333
G01 X6.0673 Y4.9985 Z0.1333
G01 X5.9983 Y4.9933 Z0.1333
G01 X5.9978 Y4.9933 Z0.1333
G01 X5.9256 Y4.9876 Z0.1333
G01 X5.9250 Y4.9875 Z0.1333
G01 X5.8497 Y4.9812 Z0.1333
G01 X5.8488 Y4.9811 Z0.1333
G01 X5.7703 Y4.9740 Z0.1333
G01 X5.7694 Y4.9739 Z0.1333
G01 X5.6877 Y4.9659 Z0.1333
G01 X5.6867 Y4.9657 Z0.1333
G01 X5.6016 Y4.9566 Z0.1333
G01 X5.6005 Y4.9565 Z0.1333
G01 X5.5120 Y4.9462 Z0.1333
G01 X5.5109 Y4.9461 Z0.1333
G01 X5.4190 Y4.9346 Z0.1333
G01 X5.4152 Y4.9341 Z0.1333
G01 X5.1713 Y4.8958 Z0.1333
G01 X5.1680 Y4.8953 Z0.1333
G01 X4.9313 Y4.8516 Z0.1333
G01 X4.9279 Y4.8509 Z0.1333
G01 X4.6998 Y4.8022 Z0.1333
G01 X4.6964 Y4.8014 Z0.1333
G01 X4.4779 Y4.7483 Z0.1333
G01 X4.4744 Y4.7474 Z0.1333
G01 X4.2618 Y4.6889 Z0.1333
G01 X4.2582 Y4.6879 Z0.1333
G01 X4.0535 Y4.6249 Z0.1333
G01 X4.0498 Y4.6237 Z0.1333
G01 X3.8550 Y4.5571 Z0.1333
G01 X3.8513 Y4.5558 Z0.1333
G01 X3.6633 Y4.4848 Z0.1333
G01 X3.6596 Y4.4833 Z0.1333
G01 X3.4787 Y4.4082 Z0.1333
G01 X3.4749 Y4.4066 Z0.1333
G01 X3.3020 Y4.3279 Z0.1333
G01 X3.2983 Y4.3261 Z0.1333
G01 X3.1316 Y4.2434 Z0.1333
G01 X3.1278 Y4.2414 Z0.1333
G01 X2.9692 Y4.1557 Z0.1333
G01 X2.9655 Y4.1536 Z0.1333
G01 X2.8132 Y4.0643 Z0.1333
G01 X2.8094 Y4.0620 Z0.1333
G01 X2.6644 Y3.9699 Z0.1333
G01 X2.6607 Y3.9674 Z0.1333
G01 X2.5210 Y3.8714 Z0.1333
G01 X2.5174 Y3.8688 Z0.1333
G01 X2.3855 Y3.7709 Z0.1333
G01 X2.3819 Y3.7681 Z0.1333
G01 X2.2555 Y3.6668 Z0.1333
G01 X2.2519 Y3.6638 Z0.1333
G01 X2.1308 Y3.5591 Z0.1333
G01 X2.1274 Y3.5561 Z0.1333
G01 X2.0135 Y3.4500 Z0.1333
G01 X2.0102 Y3.4468 Z0.1333
G01 X1.9015 Y3.3377 Z0.1333
G01 X1.8983 Y3.3344 Z0.1333
G01 X1.7940 Y3.2216 Z0.1333
G01 X1.7910 Y3.2182 Z0.1333
G01 X1.6935 Y3.1045 Z0.1333
G01 X1.6905 Y3.1009 Z0.1333
G01 X1.5974 Y2.9838 Z0.1333
G01 X1.5946 Y2.9803 Z0.1333
G01 X1.5067 Y2.8609 Z0.1333
G01 X1.5040 Y2.8572 Z0.1333
G01 X1.4209 Y2.7353 Z0.1333
G01 X1.4185 Y2.7316 Z0.1333
G01 X1.3409 Y2.6086 Z0.1333
G01 X1.3387 Y2.6048 Z0.1333
G01 X1.2644 Y2.4772 Z0.1333
G01 X1.2622 Y2.4734 Z0.1333
G01 X1.1938 Y2.3456 Z0.1333
G01 X1.1919 Y2.3418 Z0.1333
G01 X1.1281 Y2.2122 Z0.1333
G01 X1.1263 Y2.2084 Z0.1333
G01 X1.0662 Y2.0748 Z0.1333
G01 X1.0646 Y2.0709 Z0.1333
G01 X1.0098 Y1.9372 Z0.1333
G01 X1.0083 Y1.9335 Z0.1333
G01 X0.9572 Y1.7962 Z0.1333
G01 X0.9558 Y1.7925 Z0.1333
G01 X0.9094 Y1.6544 Z0.1333
G01 X0.9083 Y1.6507 Z0.1333
G01 X0.8658 Y1.5097 Z0.1333
G01 X0.8648 Y1.5061 Z0.1333
G01 X0.8268 Y1.3646 Z0.1333
G01 X0.8259 Y1.3610 Z0.1333
G01 X0.7922 Y1.2178 Z0.1333
G01 X0.7914 Y1.2143 Z0.1333
G01 X0.7617 Y1.0695 Z0.1333
G01 X0.7611 Y1.0659 Z0.1333
G01 X0.7355 Y0.9194 Z0.1333
G01 X0.7349 Y0.9160 Z0.1333
G01 X0.7135 Y0.7690 Z0.1333
G01 X0.7130 Y0.7656 Z0.1333
G01 X0.6955 Y0.6170 Z0.1333
G01 X0.6952 Y0.6137 Z0.1333
G01 X0.6815 Y0.4626 Z0.1333
G01 X0.6812 Y0.4593 Z0.1333
G01 X0.6718 Y0.3112 Z0.1333
G01 X0.6716 Y0.3080 Z0.1333
G01 X0.6659 Y0.1551 Z0.1333
G01 X0.6658 Y0.1520 Z0.1333
G01 X0.6639 Y0.0015 Z0.1333
G01 X0.6639 Y-0.0015 Z0.1333
G01 X0.6639 Y-0.0015 Z-0.0100
G01 X0.6658 Y-0.1520 Z-0.0100
G01 X0.6659 Y-0.1551 Z-0.0100
G01 X0.6716 Y-0.3080 Z-0.0100
G01 X0.6718 Y-0.3112 Z-0.0100
G01 X0.6812 Y-0.4593 Z-0.0100
G01 X0.6815 Y-0.4626 Z-0.0100
G01 X0.6952 Y-0.6137 Z-0.0100
G01 X0.6955 Y-0.6170 Z-0.0100
G01 X0.7131 Y-0.7662 Z-0.0100
G01 X0.7136 Y-0.7696 Z-0.0100
G01 X0.7349 Y-0.9160 Z-0.0100
G01 X0.7355 Y-0.9194 Z-0.0100
G01 X0.7611 Y-1.0659 Z-0.0100
G01 X0.7617 Y-1.0695 Z-0.0100
G01 X0.7914 Y-1.2143 Z-0.0100
G01 X0.7922 Y-1.2178 Z-0.0100
G01 X0.8259 Y-1.3610 Z-0.0100
G01 X0.8268 Y-1.3646 Z-0.0100
G01 X0.8648 Y-1.5061 Z-0.0100
G01 X0.8658 Y-1.5097 Z-0.0100
G01 X0.9083 Y-1.6507 Z-0.0100
G01 X0.9094 Y-1.6544 Z-0.0100
G01 X0.9558 Y-1.7925 Z-0.0100
G01 X0.9572 Y-1.7962 Z-0.0100
G01 X1.0083 Y-1.9335 Z-0.0100
G01 X1.0098 Y-1.9372 Z-0.0100
G01 X1.0646 Y-2.0709 Z-0.0100
G01 X1.0662 Y-2.0748 Z-0.0100
G01 X1.1263 Y-2.2084 Z-0.0100
G01 X1.1281 Y-2.2122 Z-0.0100
G01 X1.1919 Y-2.3418 Z-0.0100
G01 X1.1938 Y-2.3456 Z-0.0100
G01 X1.2622 Y-2.4734 Z-0.0100
G01 X1.2644 Y-2.4772 Z-0.0100
G01 X1.3387 Y-2.6048 Z-0.0100
G01 X1.3409 Y-2.6086 Z-0.0100
G01 X1.4185 Y-2.7316 Z-0.0100
G01 X1.4209 Y-2.7353 Z-0.0100
G01 X1.5040 Y-2.8572 Z-0.0100
G01 X1.5067 Y-2.8609 Z-0.0100
G01 X1.5946 Y-2.9803 Z-0.0100
G01 X1.5974 Y-2.9838 Z-0.0100
G01 X1.6905 Y-3.1009 Z-0.0100
G01 X1.6935 Y-3.1045 Z-0.0100
G01 X1.7910 Y-3.2182 Z-0.0100
G01 X1.7940 Y-3.2216 Z-0.0100
G01 X1.8983 Y-3.3344 Z-0.0100
G01 X1.9015 Y-3.3377 Z-0.0100
G01 X2.0102 Y-3.4468 Z-0.0100
G01 X2.0135 Y-3.4500 Z-0.0100
G01 X2.1277 Y-3.5563 Z-0.0100
G01 X2.1311 Y-3.5593 Z-0.0100
G01 X2.2519 Y-3.6638 Z-0.0100
G01 X2.2555 Y-3.6668 Z-0.0100
G01 X2.3819 Y-3.7681 Z-0.0100
G01 X2.3855 Y-3.7709 Z-0.0100
G01 X2.5174 Y-3.8688 Z-0.0100
G01 X2.5210 Y-3.8714 Z-0.0100
G01 X2.6607 Y-3.9674 Z-0.0100
G01 X2.6644 Y-3.9699 Z-0.0100
G01 X2.8094 Y-4.0620 Z-0.0100
G01 X2.8132 Y-4.0643 Z-0.0100
G01 X2.9655 Y-4.1536 Z-0.0100
G01 X2.9692 Y-4.1557 Z-0.0100
G01 X3.1278 Y-4.2414 Z-0.0100
G01 X3.1316 Y-4.2434 Z-0.0100
G01 X3.2983 Y-4.3261 Z-0.0100
G01 X3.3020 Y-4.3279 Z-0.0100
G01 X3.4749 Y-4.4066 Z-0.0100
G01 X3.4787 Y-4.4082 Z-0.0100
G01 X3.6596 Y-4.4833 Z-0.0100
G01 X3.6633 Y-4.4848 Z-0.0100
G01 X3.8513 Y-4.5558 Z-0.0100
G01 X3.8550 Y-4.5571 Z-0.0100
G01 X4.0498 Y-4.6237 Z-0.0100
G01 X4.0535 Y-4.6249 Z-0.0100
G01 X4.2582 Y-4.6879 Z-0.0100
G01 X4.2618 Y-4.6889 Z-0.0100
G01 X4.4744 Y-4.7474 Z-0.0100
G01 X4.4779 Y-4.7483 Z-0.0100
G01 X4.6964 Y-4.8014 Z-0.0100
G01 X4.6998 Y-4.8022 Z-0.0100
G01 X4.9279 Y-4.8509 Z-0.0100
G01 X4.9313 Y-4.8516 Z-0.0100
G01 X5.1680 Y-4.8953 Z-0.0100
G01 X5.1713 Y-4.8958 Z-0.0100
G01 X5.4152 Y-4.9341 Z-0.0100
G01 X5.4190 Y-4.9346 Z-0.0100
G01 X5.5109 Y-4.9461 Z-0.0100
G01 X5.5120 Y-4.9462 Z-0.0100
G01 X5.6005 Y-4.9565 Z-0.0100
G01 X5.6016 Y-4.9566 Z-0.0100
G01 X5.6867 Y-4.9657 Z-0.0100
G01 X5.6877 Y-4.9659 Z-0.0100
G01 X5.7694 Y-4.9739 Z-0.0100
G01 X5.7703 Y-4.9740 Z-0.0100
G01 X5.8488 Y-4.9811 Z-0.0100
G01 X5.8497 Y-4.9812 Z-0.0100
G01 X5.9250 Y-4.9875 Z-0.0100
G01 X5.9256 Y-4.9876 Z-0.0100
G01 X5.9978 Y-4.9933 Z-0.0100
G01 X5.9983 Y-4.9933 Z-0.0100
G01 X6.0673 Y-4.9985 Z-0.0100
G01 X6.0678 Y-4.9985 Z-0.0100
G01 X6.1339 Y-5.0032 Z-0.0100
G01 X6.1972 Y-5.0076 Z-0.0100
G01 X6.2571 Y-5.0118 Z-0.0100
G01 X6.3139 Y-5.0159 Z-0.0100
G01 X6.3688 Y-5.0201 Z-0.0100
G01 X6.4194 Y-5.0244 Z-0.0100
G01 X6.4664 Y-5.0289 Z-0.0100
G01 X6.5134 Y-5.0340 Z-0.0100
G01 X6.5533 Y-5.0392 Z-0.0100
G01 X6.5933 Y-5.0452 Z-0.0100
G01 X6.6287 Y-5.0516 Z-0.0100
G01 X6.6627 Y-5.0589 Z-0.0100
G01 X6.6919 Y-5.0664 Z-0.0100
G01 X6.7193 Y-5.0749 Z-0.0100
G01 X6.7431 Y-5.0838 Z-0.0100
G01 X6.7646 Y-5.0933 Z-0.0100
G01 X6.7835 Y-5.1034 Z-0.0100
G01 X6.8004 Y-5.1142 Z-0.0100
G01 X6.8155 Y-5.1258 Z-0.0100
G01 X6.8290 Y-5.1381 Z-0.0100
G01 X6.8416 Y-5.1519 Z-0.0100
G01 X6.8538 Y-5.1676 Z-0.0100
G01 X6.8650 Y-5.1850 Z-0.0100
G01 X6.8762 Y-5.2060 Z-0.0100
G01 X6.8866 Y-5.2290 Z-0.0100
G01 X6.8967 Y-5.2559 Z-0.0100
G01 X6.9059 Y-5.2856 Z-0.0100
G01 X6.9146 Y-5.3192 Z-0.0100
G01 X6.9229 Y-5.3583 Z-0.0100
G01 X6.9298 Y-5.3979 Z-0.0100
G01 X6.9362 Y-5.4429 Z-0.0100
G01 X6.9419 Y-5.4929 Z-0.0100
G01 X6.9466 Y-5.5448 Z-0.0100
G01 X6.9508 Y-5.6028 Z-0.0100
G01 X6.9542 Y-5.6636 Z-0.0100
G01 X6.9569 Y-5.7285 Z-0.0100
G01 X6.9589 Y-5.7926 Z-0.0100
G01 X6.9590 Y-5.7962 Z-0.0100
G01 X6.9593 Y-5.7997 Z-0.0100
G01 X6.9597 Y-5.8033 Z-0.0100
G01 X6.9601 Y-5.8068 Z-0.0100
G01 X6.9607 Y-5.8103 Z-0.0100
G01 X6.9614 Y-5.8138 Z-0.0100
G01 X6.9622 Y-5.8173 Z-0.0100
G01 X6.9630 Y-5.8207 Z-0.0100
G01 X6.9640 Y-5.8242 Z-0.0100
G01 X6.9651 Y-5.8275 Z-0.0100
G01 X6.9662 Y-5.8309 Z-0.0100
G01 X6.9675 Y-5.8342 Z-0.0100
G01 X6.9688 Y-5.8375 Z-0.0100
G01 X6.9703 Y-5.8408 Z-0.0100
G01 X6.9718 Y-5.8440 Z-0.0100
G01 X6.9735 Y-5.8472 Z-0.0100
G01 X6.9752 Y-5.8503 Z-0.0100
G01 X6.9770 Y-5.8533 Z-0.0100
G01 X6.9789 Y-5.8563 Z-0.0100
G01 X6.9809 Y-5.8593 Z-0.0100
G01 X6.9830 Y-5.8622 Z-0.0100
G01 X6.9851 Y-5.8650 Z-0.0100
G01 X6.9874 Y-5.8678 Z-0.0100
G01 X6.9897 Y-5.8705 Z-0.0100
G01 X6.9921 Y-5.8731 Z-0.0100
G01 X6.9946 Y-5.8757 Z-0.0100
G01 X6.9971 Y-5.8782 Z-0.0100
G01 X6.9997 Y-5.8806 Z-0.0100
G01 X7.0024 Y-5.8829 Z-0.0100
G01 X7.0051 Y-5.8852 Z-0.0100
G01 X7.0080 Y-5.8874 Z-0.0100
G01 X7.0109 Y-5.8895 Z-0.0100
G01 X7.0138 Y-5.8915 Z-0.0100
G01 X7.0168 Y-5.8934 Z-0.0100
G01 X7.0198 Y-5.8953 Z-0.0100
G01 X7.0229 Y-5.8970 Z-0.0100
G01 X7.0261 Y-5.8987 Z-0.0100
G01 X7.0292 Y-5.9003 Z-0.0100
G01 X7.0325 Y-5.9018 Z-0.0100
G01 X7.0357 Y-5.9031 Z-0.0100
G01 X7.0391 Y-5.9044 Z-0.0100
G01 X7.0424 Y-5.9056 Z-0.0100
G01 X7.0458 Y-5.9067 Z-0.0100
G01 X7.0492 Y-5.9077 Z-0.0100
G01 X7.0527 Y-5.9087 Z-0.0100
G01 X7.0561 Y-5.9094 Z-0.0100
G01 X7.0596 Y-5.9101 Z-0.0100
G01 X7.0631 Y-5.9107 Z-0.0100
G01 X7.0666 Y-5.9112 Z-0.0100
G01 X7.0702 Y-5.9116 Z-0.0100
G01 X7.0737 Y-5.9120 Z-0.0100
G01 X7.0773 Y-5.9121 Z-0.0100
G01 X7.0809 Y-5.9122 Z-0.0100
G01 X7.0843 Y-5.9123 Z-0.0100
G01 X7.0890 Y-5.9122 Z-0.0100
G01 X7.0948 Y-5.9121 Z-0.0100
G01 X7.0992 Y-5.9119 Z-0.0100
G01 X7.6339 Y-5.8783 Z-0.0100
G01 X8.1685 Y-5.8454 Z-0.0100
G01 X8.6989 Y-5.8133 Z-0.0100
G01 X8.7027 Y-5.8132 Z-0.0100
G01 X9.2376 Y-5.7816 Z-0.0100
G01 X9.7722 Y-5.7507 Z-0.0100
G01 X10.3069 Y-5.7204 Z-0.0100
G01 X10.8416 Y-5.6908 Z-0.0100
G01 X11.3762 Y-5.6618 Z-0.0100
G01 X11.9111 Y-5.6336 Z-0.0100
G01 X12.4459 Y-5.6060 Z-0.0100
G01 X12.9787 Y-5.5791 Z-0.0100
G01 X12.9805 Y-5.5790 Z-0.0100
G01 X13.5157 Y-5.5527 Z-0.0100
G01 X14.0504 Y-5.5271 Z-0.0100
G01 X14.5855 Y-5.5022 Z-0.0100
G01 X15.1205 Y-5.4779 Z-0.0100
G01 X15.6555 Y-5.4542 Z-0.0100
G01 X16.1905 Y-5.4312 Z-0.0100
G01 X16.7256 Y-5.4089 Z-0.0100
G01 X17.2605 Y-5.3873 Z-0.0100
G01 X17.7936 Y-5.3664 Z-0.0100
G01 X17.7955 Y-5.3663 Z-0.0100
G01 X18.3309 Y-5.3460 Z-0.0100
G01 X18.5039 Y-5.3396 Z-0.0100
G01 X18.8661 Y-5.3263 Z0.0313
G01 X19.2913 Y-5.3112 Z0.0800
G01 X19.4013 Y-5.3073 Z0.0800
G01 X19.9364 Y-5.2890 Z0.0800
G01 X20.0787 Y-5.2842 Z0.0799
G01 X20.4717 Y-5.2713 Z0.0350
G01 X20.8661 Y-5.2587 Z-0.0100
G01 X21.0068 Y-5.2542 Z-0.0100
G01 X21.5423 Y-5.2379 Z-0.0100
G01 X22.0776 Y-5.2222 Z-0.0100
G01 X22.6129 Y-5.2072 Z-0.0100
G01 X23.1482 Y-5.1928 Z-0.0100
G01 X23.6835 Y-5.1791 Z-0.0100
G01 X24.2190 Y-5.1661 Z-0.0100
G01 X24.7510 Y-5.1538 Z-0.0100
G01 X24.7541 Y-5.1537 Z-0.0100
G01 X25.2897 Y-5.1420 Z-0.0100
G01 X25.8251 Y-5.1309 Z-0.0100
G01 X26.3605 Y-5.1205 Z-0.0100
G01 X26.8958 Y-5.1108 Z-0.0100
G01 X27.4314 Y-5.1018 Z-0.0100
G01 X27.9668 Y-5.0933 Z-0.0100
G01 X28.5023 Y-5.0856 Z-0.0100
G01 X29.0378 Y-5.0785 Z-0.0100
G01 X29.5733 Y-5.0721 Z-0.0100
G01 X30.1088 Y-5.0663 Z-0.0100
G01 X30.6443 Y-5.0612 Z-0.0100
G01 X31.1798 Y-5.0568 Z-0.0100
G01 X31.7153 Y-5.0530 Z-0.0100
G01 X32.2509 Y-5.0499 Z-0.0100
G01 X32.7863 Y-5.0475 Z-0.0100
G01 X33.3219 Y-5.0457 Z-0.0100
G01 X33.8574 Y-5.0446 Z-0.0100
G01 X34.3929 Y-5.0441 Z-0.0100
G01 X34.9282 Y-5.0443 Z-0.0100
G01 X35.4637 Y-5.0452 Z-0.0100
G01 X35.9992 Y-5.0467 Z-0.0100
G01 X36.5348 Y-5.0489 Z-0.0100
G01 X37.0703 Y-5.0518 Z-0.0100
G01 X37.6058 Y-5.0553 Z-0.0100
G01 X38.1413 Y-5.0595 Z-0.0100
G01 X38.6768 Y-5.0643 Z-0.0100
G01 X39.2123 Y-5.0698 Z-0.0100
G01 X39.7478 Y-5.0760 Z-0.0100
G01 X40.2833 Y-5.0829 Z-0.0100
G01 X40.8188 Y-5.0903 Z-0.0100
G01 X41.3542 Y-5.0985 Z-0.0100
G01 X41.8897 Y-5.1073 Z-0.0100
G01 X42.4252 Y-5.1168 Z-0.0100
G01 X42.9606 Y-5.1269 Z-0.0100
G01 X43.4960 Y-5.1377 Z-0.0100
G01 X44.0316 Y-5.1492 Z-0.0100
G01 X44.0348 Y-5.1492 Z-0.0100
G01 X44.5667 Y-5.1613 Z-0.0100
G01 X45.1021 Y-5.1741 Z-0.0100
G01 X45.2755 Y-5.1785 Z-0.0099
G01 X45.6374 Y-5.1876 Z0.0313
G01 X46.0629 Y-5.1988 Z0.0800
G01 X46.1728 Y-5.2017 Z0.0800
G01 X46.7081 Y-5.2165 Z0.0800
G01 X46.8503 Y-5.2206 Z0.0800
G01 X47.2435 Y-5.2319 Z0.0350
G01 X47.6377 Y-5.2438 Z-0.0100
G01 X47.7789 Y-5.2481 Z-0.0100
G01 X48.3140 Y-5.2648 Z-0.0100
G01 X48.8492 Y-5.2822 Z-0.0100
G01 X49.3844 Y-5.3003 Z-0.0100
G01 X49.9196 Y-5.3191 Z-0.0100
G01 X50.4548 Y-5.3385 Z-0.0100
G01 X50.9902 Y-5.3586 Z-0.0100
G01 X50.9922 Y-5.3586 Z-0.0100
G01 X51.5251 Y-5.3793 Z-0.0100
G01 X52.0603 Y-5.4007 Z-0.0100
G01 X52.5953 Y-5.4227 Z-0.0100
G01 X53.1303 Y-5.4455 Z-0.0100
G01 X53.6653 Y-5.4689 Z-0.0100
G01 X54.2003 Y-5.4929 Z-0.0100
G01 X54.7354 Y-5.5177 Z-0.0100
G01 X55.2702 Y-5.5430 Z-0.0100
G01 X55.8051 Y-5.5690 Z-0.0100
G01 X56.3402 Y-5.5958 Z-0.0100
G01 X56.3420 Y-5.5959 Z-0.0100
G01 X56.8748 Y-5.6231 Z-0.0100
G01 X57.4097 Y-5.6511 Z-0.0100
G01 X57.9443 Y-5.6798 Z-0.0100
G01 X58.4790 Y-5.7092 Z-0.0100
G01 X59.0137 Y-5.7392 Z-0.0100
G01 X59.5483 Y-5.7698 Z-0.0100
G01 X60.0832 Y-5.8012 Z-0.0100
G01 X60.0867 Y-5.8014 Z-0.0100
G01 X60.6178 Y-5.8331 Z-0.0100
G01 X60.6218 Y-5.8333 Z-0.0100
G01 X60.6276 Y-5.8335 Z-0.0100
G01 X60.6333 Y-5.8335 Z-0.0100
G01 X60.6354 Y-5.8335 Z-0.0100
G01 X60.6390 Y-5.8333 Z-0.0100
G01 X60.6425 Y-5.8331 Z-0.0100
G01 X60.6461 Y-5.8328 Z-0.0100
G01 X60.6496 Y-5.8324 Z-0.0100
G01 X60.6531 Y-5.8318 Z-0.0100
G01 X60.6566 Y-5.8312 Z-0.0100
G01 X60.6601 Y-5.8305 Z-0.0100
G01 X60.6635 Y-5.8297 Z-0.0100
G01 X60.6670 Y-5.8287 Z-0.0100
G01 X60.6704 Y-5.8277 Z-0.0100
G01 X60.6737 Y-5.8266 Z-0.0100
G01 X60.6771 Y-5.8253 Z-0.0100
G01 X60.6804 Y-5.8240 Z-0.0100
G01 X60.6837 Y-5.8226 Z-0.0100
G01 X60.6869 Y-5.8211 Z-0.0100
G01 X60.6901 Y-5.8195 Z-0.0100
G01 X60.6932 Y-5.8178 Z-0.0100
G01 X60.6962 Y-5.8161 Z-0.0100
G01 X60.6993 Y-5.8142 Z-0.0100
G01 X60.7023 Y-5.8122 Z-0.0100
G01 X60.7052 Y-5.8102 Z-0.0100
G01 X60.7080 Y-5.8081 Z-0.0100
G01 X60.7108 Y-5.8059 Z-0.0100
G01 X60.7136 Y-5.8036 Z-0.0100
G01 X60.7162 Y-5.8012 Z-0.0100
G01 X60.7188 Y-5.7988 Z-0.0100
G01 X60.7213 Y-5.7963 Z-0.0100
G01 X60.7238 Y-5.7937 Z-0.0100
G01 X60.7262 Y-5.7911 Z-0.0100
G01 X60.7285 Y-5.7884 Z-0.0100
G01 X60.7307 Y-5.7856 Z-0.0100
G01 X60.7328 Y-5.7827 Z-0.0100
G01 X60.7349 Y-5.7798 Z-0.0100
G01 X60.7368 Y-5.7769 Z-0.0100
G01 X60.7387 Y-5.7738 Z-0.0100
G01 X60.7405 Y-5.7708 Z-0.0100
G01 X60.7422 Y-5.7677 Z-0.0100
G01 X60.7438 Y-5.7645 Z-0.0100
G01 X60.7453 Y-5.7612 Z-0.0100
G01 X60.7468 Y-5.7580 Z-0.0100
G01 X60.7481 Y-5.7547 Z-0.0100
G01 X60.7494 Y-5.7514 Z-0.0100
G01 X60.7505 Y-5.7480 Z-0.0100
G01 X60.7515 Y-5.7446 Z-0.0100
G01 X60.7525 Y-5.7412 Z-0.0100
G01 X60.7533 Y-5.7377 Z-0.0100
G01 X60.7541 Y-5.7342 Z-0.0100
G01 X60.7547 Y-5.7307 Z-0.0100
G01 X60.7553 Y-5.7272 Z-0.0100
G01 X60.7557 Y-5.7237 Z-0.0100
G01 X60.7561 Y-5.7202 Z-0.0100
G01 X60.7563 Y-5.7166 Z-0.0100
G01 X60.7564 Y-5.7131 Z-0.0100
G01 X60.7579 Y-5.6519 Z-0.0100
G01 X60.7601 Y-5.5878 Z-0.0100
G01 X60.7630 Y-5.5267 Z-0.0100
G01 X60.7664 Y-5.4705 Z-0.0100
G01 X60.7704 Y-5.4197 Z-0.0100
G01 X60.7752 Y-5.3720 Z-0.0100
G01 X60.7808 Y-5.3277 Z-0.0100
G01 X60.7870 Y-5.2880 Z-0.0100
G01 X60.7940 Y-5.2522 Z-0.0100
G01 X60.8018 Y-5.2192 Z-0.0100
G01 X60.8103 Y-5.1897 Z-0.0100
G01 X60.8192 Y-5.1646 Z-0.0100
G01 X60.8284 Y-5.1428 Z-0.0100
G01 X60.8384 Y-5.1233 Z-0.0100
G01 X60.8487 Y-5.1066 Z-0.0100
G01 X60.8590 Y-5.0925 Z-0.0100
G01 X60.8707 Y-5.0792 Z-0.0100
G01 X60.8826 Y-5.0680 Z-0.0100
G01 X60.8966 Y-5.0569 Z-0.0100
G01 X60.9120 Y-5.0466 Z-0.0100
G01 X60.9293 Y-5.0368 Z-0.0100
G01 X60.9501 Y-5.0270 Z-0.0100
G01 X60.9726 Y-5.0179 Z-0.0100
G01 X60.9985 Y-5.0090 Z-0.0100
G01 X61.0269 Y-5.0007 Z-0.0100
G01 X61.0585 Y-4.9926 Z-0.0100
G01 X61.0942 Y-4.9847 Z-0.0100
G01 X61.1318 Y-4.9772 Z-0.0100
G01 X61.1709 Y-4.9702 Z-0.0100
G01 X61.2149 Y-4.9631 Z-0.0100
G01 X61.2625 Y-4.9557 Z-0.0100
G01 X61.3120 Y-4.9485 Z-0.0100
G01 X61.3642 Y-4.9410 Z-0.0100
G01 X61.4199 Y-4.9331 Z-0.0100
G01 X61.4785 Y-4.9248 Z-0.0100
G01 X61.5402 Y-4.9158 Z-0.0100
G01 X61.5408 Y-4.9157 Z-0.0100
G01 X61.6050 Y-4.9060 Z-0.0100
G01 X61.6058 Y-4.9059 Z-0.0100
G01 X61.6730 Y-4.8953 Z-0.0100
G01 X61.6740 Y-4.8952 Z-0.0100
G01 X61.7444 Y-4.8836 Z-0.0100
G01 X61.7453 Y-4.8834 Z-0.0100
G01 X61.8188 Y-4.8707 Z-0.0100
G01 X61.8199 Y-4.8705 Z-0.0100
G01 X61.8966 Y-4.8565 Z-0.0100
G01 X61.8978 Y-4.8562 Z-0.0100
G01 X61.9778 Y-4.8408 Z-0.0100
G01 X61.9791 Y-4.8405 Z-0.0100
G01 X62.0624 Y-4.8235 Z-0.0100
G01 X62.0638 Y-4.8232 Z-0.0100
G01 X62.1505 Y-4.8045 Z-0.0100
G01 X62.1519 Y-4.8042 Z-0.0100
G01 X62.2421 Y-4.7837 Z-0.0100
G01 X62.2470 Y-4.7824 Z-0.0100
G01 X62.4157 Y-4.7368 Z-0.0100
G01 X62.4199 Y-4.7356 Z-0.0100
G01 X62.5814 Y-4.6857 Z-0.0100
G01 X62.5856 Y-4.6843 Z-0.0100
G01 X62.7410 Y-4.6301 Z-0.0100
G01 X62.7452 Y-4.6286 Z-0.0100
G01 X62.8939 Y-4.5707 Z-0.0100
G01 X62.8981 Y-4.5689 Z-0.0100
G01 X63.0416 Y-4.5067 Z-0.0100
G01 X63.0458 Y-4.5048 Z-0.0100
G01 X63.1846 Y-4.4383 Z-0.0100
G01 X63.1889 Y-4.4362 Z-0.0100
G01 X63.3206 Y-4.3668 Z-0.0100
G01 X63.3247 Y-4.3645 Z-0.0100
G01 X63.4514 Y-4.2914 Z-0.0100
G01 X63.4556 Y-4.2890 Z-0.0100
G01 X63.5786 Y-4.2115 Z-0.0100
G01 X63.5826 Y-4.2089 Z-0.0100
G01 X63.6992 Y-4.1290 Z-0.0100
G01 X63.7031 Y-4.1262 Z-0.0100
G01 X63.8161 Y-4.0422 Z-0.0100
G01 X63.8199 Y-4.0393 Z-0.0100
G01 X63.9272 Y-3.9528 Z-0.0100
G01 X63.9309 Y-3.9498 Z-0.0100
G01 X64.0349 Y-3.8591 Z-0.0100
G01 X64.0384 Y-3.8559 Z-0.0100
G01 X64.1371 Y-3.7629 Z-0.0100
G01 X64.1405 Y-3.7596 Z-0.0100
G01 X64.2360 Y-3.6625 Z-0.0100
G01 X64.2391 Y-3.6592 Z-0.0100
G01 X64.3292 Y-3.5605 Z-0.0100
G01 X64.3323 Y-3.5570 Z-0.0100
G01 X64.4200 Y-3.4535 Z-0.0100
G01 X64.4229 Y-3.4500 Z-0.0100
G01 X64.5062 Y-3.3438 Z-0.0100
G01 X64.5089 Y-3.3403 Z-0.0100
G01 X64.5883 Y-3.2315 Z-0.0100
G01 X64.5908 Y-3.2279 Z-0.0100
G01 X64.6664 Y-3.1161 Z-0.0100
G01 X64.6687 Y-3.1125 Z-0.0100
G01 X64.7410 Y-2.9974 Z-0.0100
G01 X64.7431 Y-2.9938 Z-0.0100
G01 X64.8116 Y-2.8762 Z-0.0100
G01 X64.8136 Y-2.8725 Z-0.0100
G01 X64.8782 Y-2.7524 Z-0.0100
G01 X64.8800 Y-2.7489 Z-0.0100
G01 X64.9416 Y-2.6251 Z-0.0100
G01 X64.9432 Y-2.6216 Z-0.0100
G01 X65.0015 Y-2.4945 Z-0.0100
G01 X65.0031 Y-2.4911 Z-0.0100
G01 X65.0568 Y-2.3639 Z-0.0100
G01 X65.0581 Y-2.3605 Z-0.0100
G01 X65.1096 Y-2.2278 Z-0.0100
G01 X65.1108 Y-2.2245 Z-0.0100
G01 X65.1579 Y-2.0918 Z-0.0100
G01 X65.1590 Y-2.0885 Z-0.0100
G01 X65.2027 Y-1.9535 Z-0.0100
G01 X65.2037 Y-1.9503 Z-0.0100
G01 X65.2446 Y-1.8110 Z-0.0100
G01 X65.2455 Y-1.8079 Z-0.0100
G01 X65.2826 Y-1.6679 Z-0.0100
G01 X65.2834 Y-1.6648 Z-0.0100
G01 X65.3171 Y-1.5229 Z-0.0100
G01 X65.3177 Y-1.5199 Z-0.0100
G01 X65.3480 Y-1.3763 Z-0.0100
G01 X65.3486 Y-1.3735 Z-0.0100
G01 X65.3757 Y-1.2281 Z-0.0100
G01 X65.3762 Y-1.2252 Z-0.0100
G01 X65.4001 Y-1.0768 Z-0.0100
G01 X65.4005 Y-1.0740 Z-0.0100
G01 X65.4208 Y-0.9275 Z-0.0100
G01 X65.4211 Y-0.9247 Z-0.0100
G01 X65.4385 Y-0.7734 Z-0.0100
G01 X65.4388 Y-0.7707 Z-0.0100
G01 X65.4524 Y-0.6241 Z-0.0100
G01 X65.4526 Y-0.6215 Z-0.0100
G01 X65.4637 Y-0.4666 Z-0.0100
G01 X65.4638 Y-0.4640 Z-0.0100
G01 X65.4714 Y-0.3118 Z-0.0100
G01 X65.4716 Y-0.3093 Z-0.0100
G01 X65.4761 Y-0.1570 Z-0.0100
G01 X65.4762 Y-0.1546 Z-0.0100
G01 X65.4777 Y-0.0012 Z-0.0100
G01 X65.4777 Y0.0012 Z-0.0100
G01 X65.4762 Y0.1546 Z-0.0100
G01 X65.4761 Y0.1570 Z-0.0100
G01 X65.4716 Y0.3093 Z-0.0100
G01 X65.4714 Y0.3118 Z-0.0100
G01 X65.4638 Y0.4640 Z-0.0100
G01 X65.4637 Y0.4666 Z-0.0100
G01 X65.4527 Y0.6203 Z-0.0100
G01 X65.4525 Y0.6230 Z-0.0100
G01 X65.4388 Y0.7707 Z-0.0100
G01 X65.4385 Y0.7734 Z-0.0100
G01 X65.4211 Y0.9247 Z-0.0100
G01 X65.4208 Y0.9275 Z-0.0100
G01 X65.4005 Y1.0740 Z-0.0100
G01 X65.4001 Y1.0768 Z-0.0100
G01 X65.3762 Y1.2252 Z-0.0100
G01 X65.3757 Y1.2281 Z-0.0100
G01 X65.3486 Y1.3735 Z-0.0100
G01 X65.3480 Y1.3763 Z-0.0100
G01 X65.3177 Y1.5199 Z-0.0100
G01 X65.3171 Y1.5229 Z-0.0100
G01 X65.2834 Y1.6648 Z-0.0100
G01 X65.2826 Y1.6679 Z-0.0100
G01 X65.2455 Y1.8079 Z-0.0100
G01 X65.2446 Y1.8110 Z-0.0100
G01 X65.2037 Y1.9503 Z-0.0100
G01 X65.2027 Y1.9535 Z-0.0100
G01 X65.1590 Y2.0885 Z-0.0100
G01 X65.1579 Y2.0918 Z-0.0100
G01 X65.1108 Y2.2245 Z-0.0100
G01 X65.1096 Y2.2278 Z-0.0100
G01 X65.0581 Y2.3605 Z-0.0100
G01 X65.0568 Y2.3639 Z-0.0100
G01 X65.0031 Y2.4911 Z-0.0100
G01 X65.0015 Y2.4945 Z-0.0100
G01 X64.9432 Y2.6216 Z-0.0100
G01 X64.9416 Y2.6251 Z-0.0100
G01 X64.8800 Y2.7489 Z-0.0100
G01 X64.8782 Y2.7524 Z-0.0100
G01 X64.8136 Y2.8725 Z-0.0100
G01 X64.8116 Y2.8762 Z-0.0100
G01 X64.7431 Y2.9938 Z-0.0100
G01 X64.7410 Y2.9974 Z-0.0100
G01 X64.6687 Y3.1125 Z-0.0100
G01 X64.6664 Y3.1161 Z-0.0100
G01 X64.5908 Y3.2279 Z-0.0100
G01 X64.5883 Y3.2315 Z-0.0100
G01 X64.5089 Y3.3403 Z-0.0100
G01 X64.5062 Y3.3438 Z-0.0100
G01 X64.4229 Y3.4500 Z-0.0100
G01 X64.4200 Y3.4535 Z-0.0100
G01 X64.3323 Y3.5570 Z-0.0100
G01 X64.3292 Y3.5605 Z-0.0100
G01 X64.2391 Y3.6592 Z-0.0100
G01 X64.2360 Y3.6625 Z-0.0100
G01 X64.1405 Y3.7596 Z-0.0100
G01 X64.1371 Y3.7629 Z-0.0100
G01 X64.0384 Y3.8559 Z-0.0100
G01 X64.0349 Y3.8591 Z-0.0100
G01 X63.9309 Y3.9498 Z-0.0100
G01 X63.9272 Y3.9528 Z-0.0100
G01 X63.8199 Y4.0393 Z-0.0100
G01 X63.8161 Y4.0422 Z-0.0100
G01 X63.7031 Y4.1262 Z-0.0100
G01 X63.6992 Y4.1290 Z-0.0100
G01 X63.5826 Y4.2089 Z-0.0100
G01 X63.5786 Y4.2115 Z-0.0100
G01 X63.4556 Y4.2890 Z-0.0100
G01 X63.4514 Y4.2914 Z-0.0100
G01 X63.3247 Y4.3645 Z-0.0100
G01 X63.3206 Y4.3668 Z-0.0100
G01 X63.1889 Y4.4362 Z-0.0100
G01 X63.1846 Y4.4383 Z-0.0100
G01 X63.0458 Y4.5048 Z-0.0100
G01 X63.0416 Y4.5067 Z-0.0100
G01 X62.8981 Y4.5689 Z-0.0100
G01 X62.8939 Y4.5707 Z-0.0100
G01 X62.7452 Y4.6286 Z-0.0100
G01 X62.7410 Y4.6301 Z-0.0100
G01 X62.5856 Y4.6843 Z-0.0100
G01 X62.5814 Y4.6857 Z-0.0100
G01 X62.4199 Y4.7356 Z-0.0100
G01 X62.4157 Y4.7368 Z-0.0100
G01 X62.2470 Y4.7824 Z-0.0100
G01 X62.2421 Y4.7837 Z-0.0100
G01 X62.1519 Y4.8042 Z-0.0100
G01 X62.1505 Y4.8045 Z-0.0100
G01 X62.0638 Y4.8232 Z-0.0100
G01 X62.0624 Y4.8235 Z-0.0100
G01 X61.9791 Y4.8405 Z-0.0100
G01 X61.9778 Y4.8408 Z-0.0100
G01 X61.8978 Y4.8562 Z-0.0100
G01 X61.8966 Y4.8565 Z-0.0100
G01 X61.8199 Y4.8705 Z-0.0100
G01 X61.8188 Y4.8707 Z-0.0100
G01 X61.7453 Y4.8834 Z-0.0100
G01 X61.7444 Y4.8836 Z-0.0100
G01 X61.6740 Y4.8952 Z-0.0100
G01 X61.6730 Y4.8953 Z-0.0100
G01 X61.6058 Y4.9059 Z-0.0100
G01 X61.6050 Y4.9060 Z-0.0100
G01 X61.5408 Y4.9157 Z-0.0100
G01 X61.5402 Y4.9158 Z-0.0100
G01 X61.4788 Y4.9247 Z-0.0100
G01 X61.4201 Y4.9331 Z-0.0100
G01 X61.3642 Y4.9410 Z-0.0100
G01 X61.3120 Y4.9485 Z-0.0100
G01 X61.2625 Y4.9557 Z-0.0100
G01 X61.2149 Y4.9631 Z-0.0100
G01 X61.1709 Y4.9702 Z-0.0100
G01 X61.1318 Y4.9772 Z-0.0100
G01 X61.0942 Y4.9847 Z-0.0100
G01 X61.0585 Y4.9926 Z-0.0100
G01 X61.0269 Y5.0007 Z-0.0100
G01 X60.9985 Y5.0090 Z-0.0100
G01 X60.9726 Y5.0179 Z-0.0100
G01 X60.9501 Y5.0270 Z-0.0100
G01 X60.9293 Y5.0368 Z-0.0100
G01 X60.9120 Y5.0466 Z-0.0100
G01 X60.8967 Y5.0568 Z-0.0100
G01 X60.8826 Y5.0680 Z-0.0100
G01 X60.8707 Y5.0792 Z-0.0100
G01 X60.8590 Y5.0925 Z-0.0100
G01 X60.8487 Y5.1066 Z-0.0100
G01 X60.8384 Y5.1233 Z-0.0100
G01 X60.8284 Y5.1428 Z-0.0100
G01 X60.8192 Y5.1646 Z-0.0100
G01 X60.8105 Y5.1893 Z-0.0100
G01 X60.8018 Y5.2192 Z-0.0100
G01 X60.7940 Y5.2521 Z-0.0100
G01 X60.7871 Y5.2876 Z-0.0100
G01 X60.7808 Y5.3277 Z-0.0100
G01 X60.7752 Y5.3720 Z-0.0100
G01 X60.7704 Y5.4196 Z-0.0100
G01 X60.7664 Y5.4702 Z-0.0100
G01 X60.7630 Y5.5262 Z-0.0100
G01 X60.7601 Y5.5878 Z-0.0100
G01 X60.7579 Y5.6519 Z-0.0100
G01 X60.7564 Y5.7131 Z-0.0100
G01 X60.7563 Y5.7166 Z-0.0100
G01 X60.7561 Y5.7202 Z-0.0100
G01 X60.7557 Y5.7237 Z-0.0100
G01 X60.7553 Y5.7272 Z-0.0100
G01 X60.7547 Y5.7307 Z-0.0100
G01 X60.7541 Y5.7342 Z-0.0100
G01 X60.7533 Y5.7377 Z-0.0100
G01 X60.7525 Y5.7412 Z-0.0100
G01 X60.7515 Y5.7446 Z-0.0100
G01 X60.7505 Y5.7480 Z-0.0100
G01 X60.7494 Y5.7514 Z-0.0100
G01 X60.7481 Y5.7547 Z-0.0100
G01 X60.7468 Y5.7580 Z-0.0100
G01 X60.7453 Y5.7612 Z-0.0100
G01 X60.7438 Y5.7645 Z-0.0100
G01 X60.7422 Y5.7677 Z-0.0100
G01 X60.7405 Y5.7708 Z-0.0100
G01 X60.7387 Y5.7738 Z-0.0100
G01 X60.7368 Y5.7769 Z-0.0100
G01 X60.7349 Y5.7798 Z-0.0100
G01 X60.7328 Y5.7827 Z-0.0100
G01 X60.7307 Y5.7856 Z-0.0100
G01 X60.7285 Y5.7884 Z-0.0100
G01 X60.7262 Y5.7911 Z-0.0100
G01 X60.7238 Y5.7937 Z-0.0100
G01 X60.7213 Y5.7963 Z-0.0100
G01 X60.7188 Y5.7988 Z-0.0100
G01 X60.7162 Y5.8012 Z-0.0100
G01 X60.7136 Y5.8036 Z-0.0100
G01 X60.7108 Y5.8059 Z-0.0100
G01 X60.7080 Y5.8081 Z-0.0100
G01 X60.7052 Y5.8102 Z-0.0100
G01 X60.7023 Y5.8122 Z-0.0100
G01 X60.6993 Y5.8142 Z-0.0100
G01 X60.6962 Y5.8161 Z-0.0100
G01 X60.6932 Y5.8178 Z-0.0100
G01 X60.6901 Y5.8195 Z-0.0100
G01 X60.6869 Y5.8211 Z-0.0100
G01 X60.6837 Y5.8226 Z-0.0100
G01 X60.6804 Y5.8240 Z-0.0100
G01 X60.6771 Y5.8253 Z-0.0100
G01 X60.6737 Y5.8266 Z-0.0100
G01 X60.6704 Y5.8277 Z-0.0100
G01 X60.6670 Y5.8287 Z-0.0100
G01 X60.6635 Y5.8297 Z-0.0100
G01 X60.6601 Y5.8305 Z-0.0100
G01 X60.6566 Y5.8312 Z-0.0100
G01 X60.6531 Y5.8318 Z-0.0100
G01 X60.6496 Y5.8324 Z-0.0100
G01 X60.6461 Y5.8328 Z-0.0100
G01 X60.6425 Y5.8331 Z-0.0100
G01 X60.6390 Y5.8333 Z-0.0100
G01 X60.6354 Y5.8335 Z-0.0100
G01 X60.6333 Y5.8335 Z-0.0100
G01 X60.6276 Y5.8335 Z-0.0100
G01 X60.6218 Y5.8333 Z-0.0100
G01 X60.6178 Y5.8331 Z-0.0100
G01 X60.0871 Y5.8014 Z-0.0100
G01 X60.0832 Y5.8012 Z-0.0100
G01 X59.5483 Y5.7698 Z-0.0100
G01 X59.0137 Y5.7392 Z-0.0100
G01 X58.4790 Y5.7092 Z-0.0100
G01 X57.9443 Y5.6798 Z-0.0100
G01 X57.4097 Y5.6511 Z-0.0100
G01 X56.8748 Y5.6231 Z-0.0100
G01 X56.3420 Y5.5959 Z-0.0100
G01 X56.3402 Y5.5958 Z-0.0100
G01 X55.8051 Y5.5690 Z-0.0100
G01 X55.2702 Y5.5430 Z-0.0100
G01 X54.7354 Y5.5176 Z-0.0100
G01 X54.2003 Y5.4929 Z-0.0100
G01 X53.6653 Y5.4689 Z-0.0100
G01 X53.1303 Y5.4455 Z-0.0100
G01 X52.5953 Y5.4227 Z-0.0100
G01 X52.0603 Y5.4007 Z-0.0100
G01 X51.5251 Y5.3793 Z-0.0100
G01 X50.9922 Y5.3586 Z-0.0100
G01 X50.9902 Y5.3586 Z-0.0100
G01 X50.4548 Y5.3385 Z-0.0100
G01 X49.9196 Y5.3191 Z-0.0100
G01 X49.3844 Y5.3003 Z-0.0100
G01 X48.8492 Y5.2822 Z-0.0100
G01 X48.3140 Y5.2648 Z-0.0100
G01 X47.7789 Y5.2480 Z-0.0100
G01 X47.6377 Y5.2438 Z-0.0100
G01 X47.2435 Y5.2319 Z0.0350
G01 X46.8503 Y5.2206 Z0.0800
G01 X46.7081 Y5.2165 Z0.0800
G01 X46.1728 Y5.2017 Z0.0800
G01 X46.0629 Y5.1988 Z0.0800
G01 X45.6374 Y5.1876 Z0.0313
G01 X45.2755 Y5.1785 Z-0.0099
G01 X45.1021 Y5.1741 Z-0.0100
G01 X44.5667 Y5.1613 Z-0.0100
G01 X44.0348 Y5.1492 Z-0.0100
G01 X44.0316 Y5.1492 Z-0.0100
G01 X43.4960 Y5.1377 Z-0.0100
G01 X42.9606 Y5.1269 Z-0.0100
G01 X42.4252 Y5.1168 Z-0.0100
G01 X41.8897 Y5.1073 Z-0.0100
G01 X41.3542 Y5.0985 Z-0.0100
G01 X40.8188 Y5.0903 Z-0.0100
G01 X40.2833 Y5.0829 Z-0.0100
G01 X39.7478 Y5.0760 Z-0.0100
G01 X39.2123 Y5.0698 Z-0.0100
G01 X38.6768 Y5.0643 Z-0.0100
G01 X38.1413 Y5.0595 Z-0.0100
G01 X37.6058 Y5.0553 Z-0.0100
G01 X37.0703 Y5.0518 Z-0.0100
G01 X36.5348 Y5.0489 Z-0.0100
G01 X35.9992 Y5.0467 Z-0.0100
G01 X35.4637 Y5.0452 Z-0.0100
G01 X34.9282 Y5.0443 Z-0.0100
G01 X34.3929 Y5.0441 Z-0.0100
G01 X33.8574 Y5.0446 Z-0.0100
G01 X33.3219 Y5.0457 Z-0.0100
G01 X32.7863 Y5.0475 Z-0.0100
G01 X32.2509 Y5.0499 Z-0.0100
G01 X31.7153 Y5.0530 Z-0.0100
G01 X31.1798 Y5.0568 Z-0.0100
G01 X30.6443 Y5.0612 Z-0.0100
G01 X30.1088 Y5.0663 Z-0.0100
G01 X29.5733 Y5.0721 Z-0.0100
G01 X29.0378 Y5.0785 Z-0.0100
G01 X28.5023 Y5.0856 Z-0.0100
G01 X27.9668 Y5.0933 Z-0.0100
G01 X27.4314 Y5.1018 Z-0.0100
G01 X26.8958 Y5.1108 Z-0.0100
G01 X26.3605 Y5.1205 Z-0.0100
G01 X25.8251 Y5.1309 Z-0.0100
G01 X25.2897 Y5.1420 Z-0.0100
G01 X24.7541 Y5.1537 Z-0.0100
G01 X24.7510 Y5.1538 Z-0.0100
G01 X24.2190 Y5.1661 Z-0.0100
G01 X23.6835 Y5.1791 Z-0.0100
G01 X23.1482 Y5.1928 Z-0.0100
G01 X22.6129 Y5.2072 Z-0.0100
G01 X22.0776 Y5.2222 Z-0.0100
G01 X21.5423 Y5.2379 Z-0.0100
G01 X21.0068 Y5.2543 Z-0.0100
G01 X20.8661 Y5.2587 Z-0.0100
G01 X20.4717 Y5.2713 Z0.0350
G01 X20.0787 Y5.2842 Z0.0799
G01 X19.9364 Y5.2890 Z0.0800
G01 X19.4013 Y5.3073 Z0.0800
G01 X19.2913 Y5.3112 Z0.0800
G01 X18.8661 Y5.3263 Z0.0313
G01 X18.5039 Y5.3396 Z-0.0100
G01 X18.3309 Y5.3460 Z-0.0100
G01 X17.7955 Y5.3663 Z-0.0100
G01 X17.7936 Y5.3664 Z-0.0100
G01 X17.2605 Y5.3873 Z-0.0100
G01 X16.7256 Y5.4089 Z-0.0100
G01 X16.1905 Y5.4312 Z-0.0100
G01 X15.6555 Y5.4542 Z-0.0100
G01 X15.1205 Y5.4779 Z-0.0100
G01 X14.5855 Y5.5022 Z-0.0100
G01 X14.0504 Y5.5272 Z-0.0100
G01 X13.5157 Y5.5527 Z-0.0100
G01 X12.9805 Y5.5790 Z-0.0100
G01 X12.9787 Y5.5791 Z-0.0100
G01 X12.4459 Y5.6060 Z-0.0100
G01 X11.9111 Y5.6336 Z-0.0100
G01 X11.3762 Y5.6619 Z-0.0100
G01 X10.8416 Y5.6908 Z-0.0100
G01 X10.3069 Y5.7204 Z-0.0100
G01 X9.7722 Y5.7507 Z-0.0100
G01 X9.2376 Y5.7816 Z-0.0100
G01 X8.7027 Y5.8132 Z-0.0100
G01 X8.6992 Y5.8133 Z-0.0100
G01 X8.1685 Y5.8454 Z-0.0100
G01 X7.6339 Y5.8783 Z-0.0100
G01 X7.0992 Y5.9119 Z-0.0100
G01 X7.0948 Y5.9121 Z-0.0100
G01 X7.0890 Y5.9122 Z-0.0100
G01 X7.0843 Y5.9123 Z-0.0100
G01 X7.0809 Y5.9122 Z-0.0100
G01 X7.0773 Y5.9121 Z-0.0100
G01 X7.0737 Y5.9120 Z-0.0100
G01 X7.0702 Y5.9116 Z-0.0100
G01 X7.0666 Y5.9112 Z-0.0100
G01 X7.0631 Y5.9107 Z-0.0100
G01 X7.0596 Y5.9101 Z-0.0100
G01 X7.0561 Y5.9094 Z-0.0100
G01 X7.0527 Y5.9087 Z-0.0100
G01 X7.0492 Y5.9077 Z-0.0100
G01 X7.0458 Y5.9067 Z-0.0100
G01 X7.0424 Y5.9056 Z-0.0100
G01 X7.0391 Y5.9044 Z-0.0100
G01 X7.0357 Y5.9031 Z-0.0100
G01 X7.0325 Y5.9018 Z-0.0100
G01 X7.0292 Y5.9003 Z-0.0100
G01 X7.0261 Y5.8987 Z-0.0100
G01 X7.0229 Y5.8970 Z-0.0100
G01 X7.0198 Y5.8953 Z-0.0100
G01 X7.0168 Y5.8934 Z-0.0100
G01 X7.0138 Y5.8915 Z-0.0100
G01 X7.0109 Y5.8895 Z-0.0100
G01 X7.0080 Y5.8874 Z-0.0100
G01 X7.0051 Y5.8852 Z-0.0100
G01 X7.0024 Y5.8829 Z-0.0100
G01 X6.9997 Y5.8806 Z-0.0100
G01 X6.9971 Y5.8782 Z-0.0100
G01 X6.9946 Y5.8757 Z-0.0100
G01 X6.9921 Y5.8731 Z-0.0100
G01 X6.9897 Y5.8705 Z-0.0100
G01 X6.9874 Y5.8678 Z-0.0100
G01 X6.9851 Y5.8650 Z-0.0100
G01 X6.9830 Y5.8622 Z-0.0100
G01 X6.9809 Y5.8593 Z-0.0100
G01 X6.9789 Y5.8563 Z-0.0100
G01 X6.9770 Y5.8533 Z-0.0100
G01 X6.9752 Y5.8503 Z-0.0100
G01 X6.9735 Y5.8472 Z-0.0100
G01 X6.9718 Y5.8440 Z-0.0100
G01 X6.9703 Y5.8408 Z-0.0100
G01 X6.9688 Y5.8375 Z-0.0100
G01 X6.9675 Y5.8342 Z-0.0100
G01 X6.9662 Y5.8309 Z-0.0100
G01 X6.9651 Y5.8275 Z-0.0100
G01 X6.9640 Y5.8242 Z-0.0100
G01 X6.9630 Y5.8207 Z-0.0100
G01 X6.9622 Y5.8173 Z-0.0100
G01 X6.9614 Y5.8138 Z-0.0100
G01 X6.9607 Y5.8103 Z-0.0100
G01 X6.9601 Y5.8068 Z-0.0100
G01 X6.9597 Y5.8033 Z-0.0100
G01 X6.9593 Y5.7997 Z-0.0100
G01 X6.9590 Y5.7962 Z-0.0100
G01 X6.9589 Y5.7926 Z-0.0100
G01 X6.9568 Y5.7271 Z-0.0100
G01 X6.9541 Y5.6619 Z-0.0100
G01 X6.9508 Y5.6028 Z-0.0100
G01 X6.9465 Y5.5438 Z-0.0100
G01 X6.9420 Y5.4936 Z-0.0100
G01 X6.9419 Y5.4928 Z-0.0100
G01 X6.9362 Y5.4429 Z-0.0100
G01 X6.9298 Y5.3979 Z-0.0100
G01 X6.9228 Y5.3578 Z-0.0100
G01 X6.9146 Y5.3191 Z-0.0100
G01 X6.9059 Y5.2856 Z-0.0100
G01 X6.8966 Y5.2558 Z-0.0100
G01 X6.8866 Y5.2290 Z-0.0100
G01 X6.8762 Y5.2060 Z-0.0100
G01 X6.8650 Y5.1850 Z-0.0100
G01 X6.8538 Y5.1676 Z-0.0100
G01 X6.8416 Y5.1519 Z-0.0100
G01 X6.8290 Y5.1381 Z-0.0100
G01 X6.8155 Y5.1258 Z-0.0100
G01 X6.8004 Y5.1142 Z-0.0100
G01 X6.7835 Y5.1034 Z-0.0100
G01 X6.7646 Y5.0933 Z-0.0100
G01 X6.7431 Y5.0838 Z-0.0100
G01 X6.7192 Y5.0749 Z-0.0100
G01 X6.6919 Y5.0664 Z-0.0100
G01 X6.6627 Y5.0589 Z-0.0100
G01 X6.6287 Y5.0516 Z-0.0100
G01 X6.5933 Y5.0452 Z-0.0100
G01 X6.5533 Y5.0392 Z-0.0100
G01 X6.5134 Y5.0340 Z-0.0100
G01 X6.4664 Y5.0289 Z-0.0100
G01 X6.4194 Y5.0244 Z-0.0100
G01 X6.3688 Y5.0201 Z-0.0100
G01 X6.3140 Y5.0159 Z-0.0100
G01 X6.2571 Y5.0118 Z-0.0100
G01 X6.1972 Y5.0076 Z-0.0100
G01 X6.1340 Y5.0032 Z-0.0100
G01 X6.0678 Y4.9985 Z-0.0100
G01 X6.0673 Y4.9985 Z-0.0100
G01 X5.9983 Y4.9933 Z-0.0100
G01 X5.9978 Y4.9933 Z-0.0100
G01 X5.9256 Y4.9876 Z-0.0100
G01 X5.9250 Y4.9875 Z-0.0100
G01 X5.8497 Y4.9812 Z-0.0100
G01 X5.8488 Y4.9811 Z-0.0100
G01 X5.7703 Y4.9740 Z-0.0100
G01 X5.7694 Y4.9739 Z-0.0100
G01 X5.6877 Y4.9659 Z-0.0100
G01 X5.6867 Y4.9657 Z-0.0100
G01 X5.6016 Y4.9566 Z-0.0100
G01 X5.6005 Y4.9565 Z-0.0100
G01 X5.5120 Y4.9462 Z-0.0100
G01 X5.5109 Y4.9461 Z-0.0100
G01 X5.4190 Y4.9346 Z-0.0100
G01 X5.4152 Y4.9341 Z-0.0100
G01 X5.1713 Y4.8958 Z-0.0100
G01 X5.1680 Y4.8953 Z-0.0100
G01 X4.9313 Y4.8516 Z-0.0100
G01 X4.9279 Y4.8509 Z-0.0100
G01 X4.6998 Y4.8022 Z-0.0100
G01 X4.6964 Y4.8014 Z-0.0100
G01 X4.4779 Y4.7483 Z-0.0100
G01 X4.4744 Y4.7474 Z-0.0100
G01 X4.2618 Y4.6889 Z-0.0100
G01 X4.2582 Y4.6879 Z-0.0100
G01 X4.0535 Y4.6249 Z-0.0100
G01 X4.0498 Y4.6237 Z-0.0100
G01 X3.8550 Y4.5571 Z-0.0100
G01 X3.8513 Y4.5558 Z-0.0100
G01 X3.6633 Y4.4848 Z-0.0100
G01 X3.6596 Y4.4833 Z-0.0100
G01 X3.4787 Y4.4082 Z-0.0100
G01 X3.4749 Y4.4066 Z-0.0100
G01 X3.3020 Y4.3279 Z-0.0100
G01 X3.2983 Y4.3261 Z-0.0100
G01 X3.1316 Y4.2434 Z-0.0100
G01 X3.1278 Y4.2414 Z-0.0100
G01 X2.9692 Y4.1557 Z-0.0100
G01 X2.9655 Y4.1536 Z-0.0100
G01 X2.8132 Y4.0643 Z-0.0100
G01 X2.8094 Y4.0620 Z-0.0100
G01 X2.6644 Y3.9699 Z-0.0100
G01 X2.6607 Y3.9674 Z-0.0100
G01 X2.5210 Y3.8714 Z-0.0100
G01 X2.5174 Y3.8688 Z-0.0100
G01 X2.3855 Y3.7709 Z-0.0100
G01 X2.3819 Y3.7681 Z-0.0100
G01 X2.2555 Y3.6668 Z-0.0100
G01 X2.2519 Y3.6638 Z-0.0100
G01 X2.1308 Y3.5591 Z-0.0100
G01 X2.1274 Y3.5561 Z-0.0100
G01 X2.0135 Y3.4500 Z-0.0100
G01 X2.0102 Y3.4468 Z-0.0100
G01 X1.9015 Y3.3377 Z-0.0100
G01 X1.8983 Y3.3344 Z-0.0100
G01 X1.7940 Y3.2216 Z-0.0100
G01 X1.7910 Y3.2182 Z-0.0100
G01 X1.6935 Y3.1045 Z-0.0100
G01 X1.6905 Y3.1009 Z-0.0100
G01 X1.5974 Y2.9838 Z-0.0100
G01 X1.5946 Y2.9803 Z-0.0100
G01 X1.5067 Y2.8609 Z-0.0100
G01 X1.5040 Y2.8572 Z-0.0100
G01 X1.4209 Y2.7353 Z-0.0100
G01 X1.4185 Y2.7316 Z-0.0100
G01 X1.3409 Y2.6086 Z-0.0100
G01 X1.3387 Y2.6048 Z-0.0100
G01 X1.2644 Y2.4772 Z-0.0100
G01 X1.2622 Y2.4734 Z-0.0100
G01 X1.1938 Y2.3456 Z-0.0100
G01 X1.1919 Y2.3418 Z-0.0100
G01 X1.1281 Y2.2122 Z-0.0100
G01 X1.1263 Y2.2084 Z-0.0100
G01 X1.0662 Y2.0748 Z-0.0100
G01 X1.0646 Y2.0709 Z-0.0100
G01 X1.0098 Y1.9372 Z-0.0100
G01 X1.0083 Y1.9335 Z-0.0100
G01 X0.9572 Y1.7962 Z-0.0100
G01 X0.9558 Y1.7925 Z-0.0100
G01 X0.9094 Y1.6544 Z-0.0100
G01 X0.9083 Y1.6507 Z-0.0100
G01 X0.8658 Y1.5097 Z-0.0100
G01 X0.8648 Y1.5061 Z-0.0100
G01 X0.8268 Y1.3646 Z-0.0100
G01 X0.8259 Y1.3610 Z-0.0100
G01 X0.7922 Y1.2178 Z-0.0100
G01 X0.7914 Y1.2143 Z-0.0100
G01 X0.7617 Y1.0695 Z-0.0100
G01 X0.7611 Y1.0659 Z-0.0100
G01 X0.7355 Y0.9194 Z-0.0100
G01 X0.7349 Y0.9160 Z-0.0100
G01 X0.7135 Y0.7690 Z-0.0100
G01 X0.7130 Y0.7656 Z-0.0100
G01 X0.6955 Y0.6170 Z-0.0100
G01 X0.6952 Y0.6137 Z-0.0100
G01 X0.6815 Y0.4626 Z-0.0100
G01 X0.6812 Y0.4593 Z-0.0100
G01 X0.6718 Y0.3112 Z-0.0100
G01 X0.6716 Y0.3080 Z-0.0100
G01 X0.6659 Y0.1551 Z-0.0100
G01 X0.6658 Y0.1520 Z-0.0100
G01 X0.6639 Y0.0015 Z-0.0100
G01 X0.6639 Y-0.0015 Z-0.0100
G00 X0.6639 Y-0.0015 Z0.6000
M05
G00 X0.0000 Y0.0000 Z0.6000
G49
G01 G55 Z0 F20
G00 G55 X0 Y0 Z0
M30
