( Sample-snowboard-top-profile.nc                                              )
( Generated by MonkeyCAM v4.0 at 2013-11-16 21:43:23                           )
(                                                                              )
( This GCode program is provided on an "AS IS" BASIS WITHOUT WARRANTIES OR     )
( CONDITIONS OF ANY KIND, either express or implied. You should inspect this   )
( program very carefully to confirm you understand its operation. YOU ARE      )
( RESPONSIBLE FOR ENSURING THIS PROGRAM WILL NOT DAMAGE YOUR MACHINE OR        )
( MATERIALS.                                                                   )
(                                                                              )
( See http://www.github.com/MonkeyCAM for License and documentation.           )
(                                                                              )
( * Rapid height: 0.6000" [1.5240cm]                                           )
( * Tool: T1, 1.5 Inch Straight, diameter 1.4959" [3.7998cm]                   )
( * Height basline [Z=0.0] is the top of the table.                            )
( * XY origin is the left side of the table, Y is center of the part.          )
( * Requires G54 to be the part work coordinate offsets [WCO]. [0, 0] is the   )
(   center of the nose, with the board extending to positive X. The cutter may )
(   move to negative values of X.                                              )
( * Requires G55 to be the machine WCO, with Z above the rapid height.         )
( * Units are inches                                                           )
( * Cutter bounding box in G54:                                                )
(     X0.0000 Y-5.2090 Z0.0787 to X65.6407 Y5.2090 Z0.6000                     )

G90 G20 G17 G40 G49
G43 H1 T1
G00 G54 X0 Y0 Z0.6000

M03
G04 P5
G00 X8.7304 Y-0.6114 Z0.6000
G01 X8.7304 Y-0.6114 Z0.6000 F50
G01 X8.4483 Y-0.6280 Z0.5631
G01 X8.3968 Y-0.6311 Z0.5564
G01 X8.3902 Y-0.6315 Z0.5555
G01 X8.1620 Y-0.6452 Z0.5257
G01 X7.8712 Y-0.6628 Z0.4877
G01 X7.8554 Y-0.6638 Z0.4857
G01 X7.8489 Y-0.6641 Z0.4848
G01 X7.5756 Y-0.6809 Z0.4492
G01 X7.3147 Y-0.6970 Z0.4151
G01 X7.3085 Y-0.6974 Z0.4143
G01 X7.2749 Y-0.6995 Z0.4099
G01 X6.9687 Y-0.7187 Z0.3699
G01 X6.9573 Y-0.7195 Z0.3684
G01 X6.8807 Y-0.7187 Z0.3585
G01 X6.6899 Y-0.7124 Z0.3336
G01 X6.6566 Y-0.7105 Z0.3292
G01 X6.5048 Y-0.7020 Z0.3094
G01 X6.3386 Y-0.6887 Z0.2877
G01 X6.3370 Y-0.6886 Z0.2875
G01 X6.1767 Y-0.6718 Z0.2664
G01 X6.0337 Y-0.6532 Z0.2477
G01 X5.8971 Y-0.6317 Z0.2296
G01 X5.7737 Y-0.6090 Z0.2133
G01 X5.6618 Y-0.5851 Z0.1984
G01 X5.5589 Y-0.5600 Z0.1846
G01 X5.4689 Y-0.5353 Z0.1724
G01 X5.3879 Y-0.5104 Z0.1614
G01 X5.3177 Y-0.4864 Z0.1517
G01 X5.2557 Y-0.4630 Z0.1431
G01 X5.2016 Y-0.4405 Z0.1355
G01 X5.1568 Y-0.4201 Z0.1290
G01 X5.1205 Y-0.4021 Z0.1237
G01 X5.0894 Y-0.3853 Z0.1192
G01 X5.0661 Y-0.3716 Z0.1156
G01 X5.0481 Y-0.3602 Z0.1128
G01 X5.0356 Y-0.3516 Z0.1109
G01 X5.0340 Y-0.3505 Z0.1106
G01 X5.0300 Y-0.3384 Z0.1090
G01 X5.0260 Y-0.3252 Z0.1072
G01 X5.0211 Y-0.3071 Z0.1047
G01 X5.0162 Y-0.2866 Z0.1020
G01 X5.0111 Y-0.2612 Z0.0986
G01 X5.0058 Y-0.2312 Z0.0946
G01 X5.0017 Y-0.2033 Z0.0909
G01 X4.9975 Y-0.1677 Z0.0863
G01 X4.9941 Y-0.1296 Z0.0813
G01 X4.9914 Y-0.0876 Z0.0787
G01 X4.9899 Y-0.0482 Z0.0787
G01 X4.9893 Y0.0000 Z0.0787
G01 X4.9893 Y0.0000 Z0.0787 F20
G01 X4.9893 Y0.0000 Z0.0787 F50
G01 X4.9899 Y0.0472 Z0.0787
G01 X4.9914 Y0.0874 Z0.0787
G01 X4.9940 Y0.1289 Z0.0787
G01 X4.9975 Y0.1675 Z0.0787
G01 X5.0017 Y0.2033 Z0.0787
G01 X5.0058 Y0.2312 Z0.0787
G01 X5.0111 Y0.2612 Z0.0787
G01 X5.0162 Y0.2862 Z0.0787
G01 X5.0208 Y0.3061 Z0.0787
G01 X5.0260 Y0.3252 Z0.0787
G01 X5.0300 Y0.3384 Z0.0787
G01 X5.0340 Y0.3505 Z0.0787
G01 X5.0352 Y0.3513 Z0.0787
G01 X5.0481 Y0.3602 Z0.0787
G01 X5.0661 Y0.3716 Z0.0787
G01 X5.0894 Y0.3853 Z0.0787
G01 X5.1205 Y0.4021 Z0.0787
G01 X5.1568 Y0.4201 Z0.0787
G01 X5.2014 Y0.4404 Z0.0787
G01 X5.2557 Y0.4630 Z0.0787
G01 X5.3177 Y0.4864 Z0.0787
G01 X5.3879 Y0.5104 Z0.0787
G01 X5.4689 Y0.5353 Z0.0787
G01 X5.5589 Y0.5600 Z0.0787
G01 X5.6618 Y0.5851 Z0.0787
G01 X5.7737 Y0.6090 Z0.0787
G01 X5.8971 Y0.6317 Z0.0787
G01 X6.0337 Y0.6532 Z0.0787
G01 X6.1767 Y0.6718 Z0.0787
G01 X6.3370 Y0.6886 Z0.0787
G01 X6.3386 Y0.6887 Z0.0787
G01 X6.5048 Y0.7020 Z0.0788
G01 X6.6566 Y0.7105 Z0.0789
G01 X6.6899 Y0.7124 Z0.0790
G01 X6.8807 Y0.7187 Z0.0795
G01 X6.9573 Y0.7195 Z0.0797
G01 X6.9687 Y0.7187 Z0.0797
G01 X7.2749 Y0.6995 Z0.0811
G01 X7.3085 Y0.6974 Z0.0813
G01 X7.3147 Y0.6970 Z0.0813
G01 X7.5756 Y0.6809 Z0.0829
G01 X7.8489 Y0.6641 Z0.0850
G01 X7.8554 Y0.6638 Z0.0850
G01 X7.8712 Y0.6628 Z0.0852
G01 X8.1620 Y0.6452 Z0.0879
G01 X8.3902 Y0.6315 Z0.0904
G01 X8.3968 Y0.6311 Z0.0905
G01 X8.4483 Y0.6280 Z0.0910
G01 X8.7304 Y0.6113 Z0.0946
G01 X8.9310 Y0.5995 Z0.0974
G01 X8.9375 Y0.5992 Z0.0975
G01 X9.0087 Y0.5950 Z0.0985
G01 X9.2835 Y0.5791 Z0.1028
G01 X9.4724 Y0.5682 Z0.1061
G01 X9.4787 Y0.5679 Z0.1061
G01 X9.5550 Y0.5635 Z0.1075
G01 X9.8236 Y0.5483 Z0.1124
G01 X10.0133 Y0.5376 Z0.1161
G01 X10.0198 Y0.5372 Z0.1162
G01 X10.0896 Y0.5333 Z0.1176
G01 X10.3535 Y0.5187 Z0.1231
G01 X10.5541 Y0.5076 Z0.1275
G01 X10.5610 Y0.5074 Z0.1276
G01 X10.6153 Y0.5043 Z0.1288
G01 X10.8756 Y0.4902 Z0.1348
G01 X11.0960 Y0.4783 Z0.1400
G01 X11.1022 Y0.4780 Z0.1402
G01 X11.1346 Y0.4763 Z0.1410
G01 X11.3926 Y0.4626 Z0.1473
G01 X11.6367 Y0.4498 Z0.1535
G01 X11.6431 Y0.4495 Z0.1536
G01 X11.6500 Y0.4490 Z0.1538
G01 X11.9071 Y0.4358 Z0.1604
G01 X12.1641 Y0.4225 Z0.1672
G01 X12.1781 Y0.4218 Z0.1675
G01 X12.1846 Y0.4215 Z0.1677
G01 X12.4215 Y0.4095 Z0.1740
G01 X12.6795 Y0.3965 Z0.1809
G01 X12.7194 Y0.3945 Z0.1820
G01 X12.7257 Y0.3942 Z0.1821
G01 X12.9385 Y0.3837 Z0.1879
G01 X13.1988 Y0.3709 Z0.1948
G01 X13.2602 Y0.3679 Z0.1964
G01 X13.2671 Y0.3677 Z0.1966
G01 X13.4607 Y0.3583 Z0.2017
G01 X13.7245 Y0.3457 Z0.2087
G01 X13.8022 Y0.3420 Z0.2107
G01 X13.8085 Y0.3417 Z0.2109
G01 X13.9905 Y0.3332 Z0.2156
G01 X14.2592 Y0.3206 Z0.2224
G01 X14.3431 Y0.3167 Z0.2245
G01 X14.3499 Y0.3165 Z0.2247
G01 X14.5307 Y0.3082 Z0.2292
G01 X14.8054 Y0.2957 Z0.2358
G01 X14.8851 Y0.2922 Z0.2377
G01 X14.8911 Y0.2919 Z0.2378
G01 X15.0837 Y0.2833 Z0.2423
G01 X15.3658 Y0.2709 Z0.2487
G01 X15.4261 Y0.2682 Z0.2500
G01 X15.4325 Y0.2679 Z0.2501
G01 X15.6521 Y0.2585 Z0.2548
G01 X15.9429 Y0.2460 Z0.2607
G01 X15.9672 Y0.2450 Z0.2612
G01 X15.9740 Y0.2448 Z0.2614
G01 X16.2385 Y0.2336 Z0.2665
G01 X16.5093 Y0.2224 Z0.2714
G01 X16.5157 Y0.2221 Z0.2716
G01 X16.5392 Y0.2211 Z0.2720
G01 X16.8455 Y0.2087 Z0.2772
G01 X17.0508 Y0.2005 Z0.2805
G01 X17.0569 Y0.2002 Z0.2805
G01 X17.1575 Y0.1962 Z0.2821
G01 X17.4756 Y0.1837 Z0.2868
G01 X17.5920 Y0.1792 Z0.2883
G01 X17.5988 Y0.1789 Z0.2884
G01 X17.8001 Y0.1712 Z0.2911
G01 X18.1314 Y0.1587 Z0.2950
G01 X18.1335 Y0.1586 Z0.2950
G01 X18.1400 Y0.1585 Z0.2951
G01 X18.4697 Y0.1463 Z0.2985
G01 X18.6754 Y0.1387 Z0.3004
G01 X18.6818 Y0.1385 Z0.3005
G01 X18.8154 Y0.1337 Z0.3017
G01 X19.1689 Y0.1212 Z0.3044
G01 X19.2170 Y0.1195 Z0.3047
G01 X19.2234 Y0.1192 Z0.3048
G01 X19.5303 Y0.1087 Z0.3067
G01 X19.7582 Y0.1009 Z0.3078
G01 X19.7650 Y0.1008 Z0.3079
G01 X19.9001 Y0.0962 Z0.3085
G01 X20.2787 Y0.0837 Z0.3098
G01 X20.3005 Y0.0830 Z0.3099
G01 X20.3065 Y0.0828 Z0.3099
G01 X20.6662 Y0.0714 Z0.3107
G01 X20.8417 Y0.0658 Z0.3108
G01 X20.8487 Y0.0656 Z0.3108
G01 X21.0630 Y0.0590 Z0.3110
G01 X21.3838 Y0.0492 Z0.3110
G01 X21.3899 Y0.0490 Z0.3110
G01 X21.9249 Y0.0333 Z0.3110
G01 X21.9316 Y0.0332 Z0.3110
G01 X22.4672 Y0.0181 Z0.3110
G01 X22.4736 Y0.0180 Z0.3110
G01 X23.0089 Y0.0036 Z0.3110
G01 X23.0154 Y0.0035 Z0.3110
G01 X23.1523 Y0.0000 Z0.3110
G01 X23.0154 Y-0.0035 Z0.3110
G01 X23.0089 Y-0.0036 Z0.3110
G01 X22.4736 Y-0.0180 Z0.3110
G01 X22.4672 Y-0.0181 Z0.3110
G01 X21.9316 Y-0.0332 Z0.3110
G01 X21.9249 Y-0.0333 Z0.3110
G01 X21.3899 Y-0.0490 Z0.3110
G01 X21.3838 Y-0.0492 Z0.3110
G01 X21.0630 Y-0.0590 Z0.3110
G01 X20.8487 Y-0.0656 Z0.3108
G01 X20.8417 Y-0.0658 Z0.3108
G01 X20.6662 Y-0.0714 Z0.3107
G01 X20.3065 Y-0.0828 Z0.3099
G01 X20.3005 Y-0.0830 Z0.3099
G01 X20.2787 Y-0.0837 Z0.3098
G01 X19.9001 Y-0.0962 Z0.3085
G01 X19.7650 Y-0.1007 Z0.3079
G01 X19.7582 Y-0.1009 Z0.3078
G01 X19.5303 Y-0.1087 Z0.3067
G01 X19.2234 Y-0.1192 Z0.3048
G01 X19.2170 Y-0.1195 Z0.3047
G01 X19.1689 Y-0.1212 Z0.3044
G01 X18.8154 Y-0.1337 Z0.3017
G01 X18.6818 Y-0.1385 Z0.3005
G01 X18.6754 Y-0.1387 Z0.3004
G01 X18.4697 Y-0.1463 Z0.2985
G01 X18.1400 Y-0.1584 Z0.2951
G01 X18.1335 Y-0.1586 Z0.2950
G01 X18.1314 Y-0.1587 Z0.2950
G01 X17.8001 Y-0.1712 Z0.2911
G01 X17.5988 Y-0.1789 Z0.2884
G01 X17.5920 Y-0.1792 Z0.2883
G01 X17.4756 Y-0.1838 Z0.2868
G01 X17.1575 Y-0.1962 Z0.2821
G01 X17.0569 Y-0.2002 Z0.2805
G01 X17.0508 Y-0.2005 Z0.2805
G01 X16.8455 Y-0.2088 Z0.2772
G01 X16.5392 Y-0.2211 Z0.2720
G01 X16.5157 Y-0.2221 Z0.2716
G01 X16.5093 Y-0.2224 Z0.2714
G01 X16.2385 Y-0.2336 Z0.2665
G01 X15.9740 Y-0.2447 Z0.2614
G01 X15.9672 Y-0.2450 Z0.2612
G01 X15.9429 Y-0.2460 Z0.2607
G01 X15.6521 Y-0.2585 Z0.2548
G01 X15.4325 Y-0.2679 Z0.2501
G01 X15.4261 Y-0.2682 Z0.2500
G01 X15.3658 Y-0.2709 Z0.2487
G01 X15.0837 Y-0.2833 Z0.2423
G01 X14.8911 Y-0.2919 Z0.2378
G01 X14.8851 Y-0.2922 Z0.2377
G01 X14.8054 Y-0.2957 Z0.2358
G01 X14.5307 Y-0.3082 Z0.2292
G01 X14.3499 Y-0.3164 Z0.2247
G01 X14.3431 Y-0.3167 Z0.2245
G01 X14.2592 Y-0.3206 Z0.2224
G01 X13.9905 Y-0.3331 Z0.2156
G01 X13.8085 Y-0.3417 Z0.2109
G01 X13.8022 Y-0.3420 Z0.2107
G01 X13.7245 Y-0.3457 Z0.2087
G01 X13.4607 Y-0.3583 Z0.2017
G01 X13.2671 Y-0.3676 Z0.1966
G01 X13.2602 Y-0.3679 Z0.1964
G01 X13.1988 Y-0.3709 Z0.1948
G01 X12.9385 Y-0.3837 Z0.1879
G01 X12.7257 Y-0.3942 Z0.1821
G01 X12.7194 Y-0.3945 Z0.1820
G01 X12.6795 Y-0.3965 Z0.1809
G01 X12.4215 Y-0.4095 Z0.1740
G01 X12.1846 Y-0.4215 Z0.1677
G01 X12.1781 Y-0.4218 Z0.1675
G01 X12.1641 Y-0.4225 Z0.1672
G01 X11.9071 Y-0.4358 Z0.1604
G01 X11.6500 Y-0.4490 Z0.1538
G01 X11.6431 Y-0.4494 Z0.1536
G01 X11.6367 Y-0.4498 Z0.1535
G01 X11.3926 Y-0.4626 Z0.1473
G01 X11.1346 Y-0.4763 Z0.1410
G01 X11.1022 Y-0.4780 Z0.1402
G01 X11.0960 Y-0.4783 Z0.1400
G01 X10.8756 Y-0.4902 Z0.1348
G01 X10.6153 Y-0.5043 Z0.1288
G01 X10.5610 Y-0.5073 Z0.1276
G01 X10.5541 Y-0.5076 Z0.1275
G01 X10.3535 Y-0.5187 Z0.1231
G01 X10.0896 Y-0.5333 Z0.1176
G01 X10.0198 Y-0.5372 Z0.1162
G01 X10.0133 Y-0.5376 Z0.1161
G01 X9.8236 Y-0.5483 Z0.1124
G01 X9.5550 Y-0.5635 Z0.1075
G01 X9.4787 Y-0.5679 Z0.1061
G01 X9.4724 Y-0.5682 Z0.1061
G01 X9.2835 Y-0.5791 Z0.1028
G01 X9.0087 Y-0.5950 Z0.0985
G01 X8.9375 Y-0.5992 Z0.0975
G01 X8.9310 Y-0.5995 Z0.0974
G01 X8.7304 Y-0.6114 Z0.0946
G01 X8.4483 Y-0.6280 Z0.0910
G01 X8.3968 Y-0.6311 Z0.0905
G01 X8.3902 Y-0.6315 Z0.0904
G01 X8.1620 Y-0.6452 Z0.0879
G01 X7.8712 Y-0.6628 Z0.0852
G01 X7.8554 Y-0.6638 Z0.0850
G01 X7.8489 Y-0.6641 Z0.0850
G01 X7.5756 Y-0.6809 Z0.0829
G01 X7.3147 Y-0.6970 Z0.0813
G01 X7.3085 Y-0.6974 Z0.0813
G01 X7.2749 Y-0.6995 Z0.0811
G01 X6.9687 Y-0.7187 Z0.0797
G01 X6.9573 Y-0.7195 Z0.0797
G01 X6.8807 Y-0.7187 Z0.0795
G01 X6.6899 Y-0.7124 Z0.0790
G01 X6.6566 Y-0.7105 Z0.0789
G01 X6.5048 Y-0.7020 Z0.0788
G01 X6.3386 Y-0.6887 Z0.0787
G01 X6.3370 Y-0.6886 Z0.0787
G01 X6.1767 Y-0.6718 Z0.0787
G01 X6.0337 Y-0.6532 Z0.0787
G01 X5.8971 Y-0.6317 Z0.0787
G01 X5.7737 Y-0.6090 Z0.0787
G01 X5.6618 Y-0.5851 Z0.0787
G01 X5.5589 Y-0.5600 Z0.0787
G01 X5.4689 Y-0.5353 Z0.0787
G01 X5.3879 Y-0.5104 Z0.0787
G01 X5.3177 Y-0.4864 Z0.0787
G01 X5.2557 Y-0.4630 Z0.0787
G01 X5.2016 Y-0.4405 Z0.0787
G01 X5.1568 Y-0.4201 Z0.0787
G01 X5.1205 Y-0.4021 Z0.0787
G01 X5.0894 Y-0.3853 Z0.0787
G01 X5.0661 Y-0.3716 Z0.0787
G01 X5.0481 Y-0.3602 Z0.0787
G01 X5.0356 Y-0.3516 Z0.0787
G01 X5.0340 Y-0.3505 Z0.0787
G01 X5.0300 Y-0.3384 Z0.0787
G01 X5.0260 Y-0.3252 Z0.0787
G01 X5.0211 Y-0.3071 Z0.0787
G01 X5.0162 Y-0.2866 Z0.0787
G01 X5.0111 Y-0.2612 Z0.0787
G01 X5.0058 Y-0.2312 Z0.0787
G01 X5.0017 Y-0.2033 Z0.0787
G01 X4.9975 Y-0.1677 Z0.0787
G01 X4.9941 Y-0.1296 Z0.0787
G01 X4.9914 Y-0.0876 Z0.0787
G01 X4.9899 Y-0.0482 Z0.0787
G01 X4.9893 Y0.0000 Z0.0787
G00 X4.9893 Y0.0000 Z0.6000
G00 X49.9163 Y-0.1246 Z0.6000
G01 X49.9163 Y-0.1246 Z0.6000
G01 X49.5850 Y-0.1130 Z0.5760
G01 X49.5665 Y-0.1124 Z0.5746
G01 X49.5597 Y-0.1122 Z0.5742
G01 X49.2467 Y-0.1016 Z0.5515
G01 X49.0248 Y-0.0941 Z0.5355
G01 X49.0185 Y-0.0940 Z0.5350
G01 X48.9010 Y-0.0900 Z0.5265
G01 X48.5475 Y-0.0785 Z0.5010
G01 X48.4830 Y-0.0764 Z0.4963
G01 X48.4766 Y-0.0762 Z0.4959
G01 X48.1861 Y-0.0671 Z0.4748
G01 X47.9414 Y-0.0595 Z0.4572
G01 X47.9352 Y-0.0593 Z0.4567
G01 X47.8162 Y-0.0557 Z0.4481
G01 X47.4377 Y-0.0442 Z0.4208
G01 X47.3999 Y-0.0431 Z0.4180
G01 X47.3931 Y-0.0429 Z0.4175
G01 X47.0502 Y-0.0330 Z0.3927
G01 X46.8581 Y-0.0275 Z0.3789
G01 X46.8518 Y-0.0274 Z0.3784
G01 X46.6535 Y-0.0219 Z0.3641
G01 X46.3162 Y-0.0126 Z0.3397
G01 X46.3094 Y-0.0124 Z0.3392
G01 X45.8369 Y0.0000 Z0.3110
G01 X45.8369 Y0.0000 Z0.3110 F20
G01 X45.8369 Y0.0000 Z0.3110 F50
G01 X46.3094 Y0.0124 Z0.3110
G01 X46.3162 Y0.0126 Z0.3110
G01 X46.6535 Y0.0219 Z0.3110
G01 X46.8518 Y0.0274 Z0.3108
G01 X46.8581 Y0.0275 Z0.3108
G01 X47.0502 Y0.0330 Z0.3107
G01 X47.3931 Y0.0429 Z0.3100
G01 X47.3999 Y0.0431 Z0.3100
G01 X47.4377 Y0.0442 Z0.3098
G01 X47.8162 Y0.0557 Z0.3085
G01 X47.9352 Y0.0593 Z0.3079
G01 X47.9414 Y0.0595 Z0.3079
G01 X48.1861 Y0.0671 Z0.3067
G01 X48.4766 Y0.0762 Z0.3049
G01 X48.4830 Y0.0764 Z0.3048
G01 X48.5475 Y0.0785 Z0.3044
G01 X48.9010 Y0.0900 Z0.3017
G01 X49.0185 Y0.0939 Z0.3006
G01 X49.0248 Y0.0941 Z0.3006
G01 X49.2467 Y0.1016 Z0.2985
G01 X49.5597 Y0.1122 Z0.2953
G01 X49.5665 Y0.1124 Z0.2952
G01 X49.5850 Y0.1130 Z0.2950
G01 X49.9163 Y0.1246 Z0.2911
G01 X50.1016 Y0.1312 Z0.2886
G01 X50.1078 Y0.1314 Z0.2885
G01 X50.2409 Y0.1362 Z0.2868
G01 X50.5589 Y0.1477 Z0.2821
G01 X50.6429 Y0.1508 Z0.2808
G01 X50.6494 Y0.1510 Z0.2807
G01 X50.8709 Y0.1593 Z0.2772
G01 X51.1772 Y0.1708 Z0.2720
G01 X51.1848 Y0.1711 Z0.2718
G01 X51.1919 Y0.1713 Z0.2717
G01 X51.4779 Y0.1824 Z0.2665
G01 X51.7267 Y0.1921 Z0.2617
G01 X51.7324 Y0.1924 Z0.2616
G01 X51.7735 Y0.1940 Z0.2608
G01 X52.0643 Y0.2056 Z0.2548
G01 X52.2674 Y0.2137 Z0.2504
G01 X52.2741 Y0.2140 Z0.2503
G01 X52.3506 Y0.2172 Z0.2487
G01 X52.6327 Y0.2288 Z0.2423
G01 X52.8095 Y0.2361 Z0.2382
G01 X52.8163 Y0.2363 Z0.2380
G01 X52.9110 Y0.2403 Z0.2358
G01 X53.1857 Y0.2520 Z0.2292
G01 X53.3510 Y0.2591 Z0.2251
G01 X53.3570 Y0.2594 Z0.2249
G01 X53.4572 Y0.2637 Z0.2224
G01 X53.7259 Y0.2755 Z0.2156
G01 X53.8920 Y0.2827 Z0.2113
G01 X53.8984 Y0.2830 Z0.2111
G01 X53.9919 Y0.2872 Z0.2087
G01 X54.2557 Y0.2990 Z0.2017
G01 X54.4336 Y0.3071 Z0.1970
G01 X54.4404 Y0.3074 Z0.1968
G01 X54.5176 Y0.3109 Z0.1948
G01 X54.7779 Y0.3229 Z0.1879
G01 X54.9750 Y0.3321 Z0.1825
G01 X54.9814 Y0.3324 Z0.1824
G01 X55.0369 Y0.3350 Z0.1809
G01 X55.2949 Y0.3472 Z0.1740
G01 X55.5163 Y0.3578 Z0.1681
G01 X55.5223 Y0.3581 Z0.1680
G01 X55.5523 Y0.3595 Z0.1672
G01 X55.8094 Y0.3720 Z0.1604
G01 X56.0575 Y0.3841 Z0.1540
G01 X56.0647 Y0.3844 Z0.1538
G01 X56.0664 Y0.3845 Z0.1538
G01 X56.3238 Y0.3974 Z0.1473
G01 X56.5818 Y0.4102 Z0.1410
G01 X56.5992 Y0.4111 Z0.1405
G01 X56.6051 Y0.4114 Z0.1404
G01 X56.8408 Y0.4235 Z0.1348
G01 X57.1011 Y0.4368 Z0.1288
G01 X57.1401 Y0.4388 Z0.1280
G01 X57.1470 Y0.4391 Z0.1278
G01 X57.3629 Y0.4504 Z0.1231
G01 X57.6268 Y0.4643 Z0.1176
G01 X57.6814 Y0.4672 Z0.1165
G01 X57.6878 Y0.4675 Z0.1164
G01 X57.8928 Y0.4785 Z0.1124
G01 X58.1614 Y0.4929 Z0.1075
G01 X58.2225 Y0.4962 Z0.1064
G01 X58.2289 Y0.4965 Z0.1063
G01 X58.4330 Y0.5077 Z0.1028
G01 X58.7077 Y0.5228 Z0.0985
G01 X58.7638 Y0.5259 Z0.0977
G01 X58.7703 Y0.5262 Z0.0976
G01 X58.9860 Y0.5383 Z0.0946
G01 X59.2681 Y0.5541 Z0.0911
G01 X59.3046 Y0.5562 Z0.0906
G01 X59.3109 Y0.5566 Z0.0906
G01 X59.5544 Y0.5705 Z0.0879
G01 X59.8452 Y0.5872 Z0.0852
G01 X59.8458 Y0.5872 Z0.0851
G01 X59.8531 Y0.5876 Z0.0851
G01 X60.1408 Y0.6045 Z0.0829
G01 X60.3873 Y0.6190 Z0.0814
G01 X60.3931 Y0.6194 Z0.0814
G01 X60.4415 Y0.6222 Z0.0811
G01 X60.7420 Y0.6402 Z0.0798
G01 X60.7477 Y0.6400 Z0.0798
G01 X60.8307 Y0.6365 Z0.0795
G01 X60.9167 Y0.6304 Z0.0793
G01 X60.9887 Y0.6231 Z0.0791
G01 X61.0543 Y0.6144 Z0.0789
G01 X61.0598 Y0.6135 Z0.0789
G01 X61.0888 Y0.6087 Z0.0789
G01 X61.0971 Y0.5739 Z0.0789
G01 X61.1056 Y0.5337 Z0.0789
G01 X61.1146 Y0.4852 Z0.0788
G01 X61.1224 Y0.4374 Z0.0788
G01 X61.1302 Y0.3803 Z0.0788
G01 X61.1364 Y0.3265 Z0.0788
G01 X61.1420 Y0.2665 Z0.0788
G01 X61.1463 Y0.2050 Z0.0788
G01 X61.1498 Y0.1366 Z0.0788
G01 X61.1518 Y0.0656 Z0.0788
G01 X61.1525 Y0.0000 Z0.0788
G01 X61.1518 Y-0.0677 Z0.0788
G01 X61.1497 Y-0.1379 Z0.0788
G01 X61.1463 Y-0.2050 Z0.0788
G01 X61.1420 Y-0.2666 Z0.0788
G01 X61.1364 Y-0.3268 Z0.0788
G01 X61.1300 Y-0.3817 Z0.0788
G01 X61.1224 Y-0.4374 Z0.0788
G01 X61.1145 Y-0.4857 Z0.0788
G01 X61.1056 Y-0.5337 Z0.0789
G01 X61.0968 Y-0.5755 Z0.0789
G01 X61.0888 Y-0.6087 Z0.0789
G01 X61.0598 Y-0.6135 Z0.0789
G01 X61.0543 Y-0.6144 Z0.0789
G01 X60.9887 Y-0.6231 Z0.0791
G01 X60.9167 Y-0.6304 Z0.0793
G01 X60.8307 Y-0.6365 Z0.0795
G01 X60.7477 Y-0.6400 Z0.0798
G01 X60.7420 Y-0.6402 Z0.0798
G01 X60.4415 Y-0.6222 Z0.0811
G01 X60.3931 Y-0.6194 Z0.0814
G01 X60.3873 Y-0.6190 Z0.0814
G01 X60.1408 Y-0.6045 Z0.0829
G01 X59.8531 Y-0.5876 Z0.0851
G01 X59.8458 Y-0.5873 Z0.0851
G01 X59.8452 Y-0.5872 Z0.0852
G01 X59.5544 Y-0.5705 Z0.0879
G01 X59.3109 Y-0.5566 Z0.0906
G01 X59.3046 Y-0.5562 Z0.0906
G01 X59.2681 Y-0.5541 Z0.0911
G01 X58.9860 Y-0.5383 Z0.0946
G01 X58.7703 Y-0.5262 Z0.0976
G01 X58.7638 Y-0.5259 Z0.0977
G01 X58.7077 Y-0.5228 Z0.0985
G01 X58.4330 Y-0.5077 Z0.1028
G01 X58.2289 Y-0.4965 Z0.1063
G01 X58.2225 Y-0.4962 Z0.1064
G01 X58.1614 Y-0.4929 Z0.1075
G01 X57.8928 Y-0.4785 Z0.1124
G01 X57.6878 Y-0.4675 Z0.1164
G01 X57.6814 Y-0.4672 Z0.1165
G01 X57.6268 Y-0.4643 Z0.1176
G01 X57.3629 Y-0.4504 Z0.1231
G01 X57.1470 Y-0.4391 Z0.1278
G01 X57.1401 Y-0.4388 Z0.1280
G01 X57.1011 Y-0.4368 Z0.1288
G01 X56.8408 Y-0.4235 Z0.1348
G01 X56.6051 Y-0.4114 Z0.1404
G01 X56.5992 Y-0.4111 Z0.1405
G01 X56.5818 Y-0.4102 Z0.1410
G01 X56.3238 Y-0.3973 Z0.1473
G01 X56.0664 Y-0.3845 Z0.1538
G01 X56.0647 Y-0.3844 Z0.1538
G01 X56.0575 Y-0.3841 Z0.1540
G01 X55.8094 Y-0.3720 Z0.1604
G01 X55.5523 Y-0.3595 Z0.1672
G01 X55.5223 Y-0.3581 Z0.1680
G01 X55.5163 Y-0.3578 Z0.1681
G01 X55.2949 Y-0.3473 Z0.1740
G01 X55.0369 Y-0.3350 Z0.1809
G01 X54.9814 Y-0.3324 Z0.1824
G01 X54.9750 Y-0.3321 Z0.1825
G01 X54.7779 Y-0.3229 Z0.1879
G01 X54.5176 Y-0.3109 Z0.1948
G01 X54.4404 Y-0.3074 Z0.1968
G01 X54.4336 Y-0.3071 Z0.1970
G01 X54.2557 Y-0.2990 Z0.2017
G01 X53.9919 Y-0.2872 Z0.2087
G01 X53.8984 Y-0.2830 Z0.2111
G01 X53.8920 Y-0.2827 Z0.2113
G01 X53.7259 Y-0.2755 Z0.2156
G01 X53.4572 Y-0.2637 Z0.2224
G01 X53.3570 Y-0.2594 Z0.2249
G01 X53.3510 Y-0.2591 Z0.2251
G01 X53.1857 Y-0.2520 Z0.2292
G01 X52.9110 Y-0.2403 Z0.2358
G01 X52.8163 Y-0.2363 Z0.2380
G01 X52.8095 Y-0.2361 Z0.2382
G01 X52.6327 Y-0.2288 Z0.2423
G01 X52.3506 Y-0.2171 Z0.2487
G01 X52.2741 Y-0.2140 Z0.2503
G01 X52.2674 Y-0.2137 Z0.2504
G01 X52.0643 Y-0.2056 Z0.2548
G01 X51.7735 Y-0.1940 Z0.2608
G01 X51.7324 Y-0.1924 Z0.2616
G01 X51.7267 Y-0.1921 Z0.2617
G01 X51.4779 Y-0.1824 Z0.2665
G01 X51.1919 Y-0.1713 Z0.2717
G01 X51.1848 Y-0.1712 Z0.2718
G01 X51.1772 Y-0.1708 Z0.2720
G01 X50.8709 Y-0.1593 Z0.2772
G01 X50.6494 Y-0.1510 Z0.2807
G01 X50.6429 Y-0.1508 Z0.2808
G01 X50.5589 Y-0.1477 Z0.2821
G01 X50.2409 Y-0.1362 Z0.2868
G01 X50.1078 Y-0.1314 Z0.2885
G01 X50.1016 Y-0.1312 Z0.2886
G01 X49.9163 Y-0.1246 Z0.2911
G01 X49.5850 Y-0.1130 Z0.2950
G01 X49.5665 Y-0.1124 Z0.2952
G01 X49.5597 Y-0.1122 Z0.2953
G01 X49.2467 Y-0.1016 Z0.2985
G01 X49.0248 Y-0.0941 Z0.3006
G01 X49.0185 Y-0.0940 Z0.3006
G01 X48.9010 Y-0.0900 Z0.3017
G01 X48.5475 Y-0.0785 Z0.3044
G01 X48.4830 Y-0.0764 Z0.3048
G01 X48.4766 Y-0.0762 Z0.3049
G01 X48.1861 Y-0.0671 Z0.3067
G01 X47.9414 Y-0.0595 Z0.3079
G01 X47.9352 Y-0.0593 Z0.3079
G01 X47.8162 Y-0.0557 Z0.3085
G01 X47.4377 Y-0.0442 Z0.3098
G01 X47.3999 Y-0.0431 Z0.3100
G01 X47.3931 Y-0.0429 Z0.3100
G01 X47.0502 Y-0.0330 Z0.3107
G01 X46.8581 Y-0.0275 Z0.3108
G01 X46.8518 Y-0.0274 Z0.3108
G01 X46.6535 Y-0.0219 Z0.3110
G01 X46.3162 Y-0.0126 Z0.3110
G01 X46.3094 Y-0.0124 Z0.3110
G01 X45.8369 Y0.0000 Z0.3110
G00 X45.8369 Y0.0000 Z0.6000
G00 X7.5756 Y-1.4303 Z0.6000
G01 X7.5756 Y-1.4303 Z0.6000
G01 X7.3607 Y-1.4436 Z0.5719
G01 X7.3554 Y-1.4439 Z0.5712
G01 X7.2749 Y-1.4490 Z0.5607
G01 X6.9763 Y-1.4677 Z0.5217
G01 X6.9687 Y-1.4676 Z0.5207
G01 X6.8657 Y-1.4665 Z0.5073
G01 X6.6566 Y-1.4596 Z0.4800
G01 X6.6542 Y-1.4596 Z0.4797
G01 X6.4564 Y-1.4485 Z0.4539
G01 X6.3386 Y-1.4390 Z0.4385
G01 X6.2668 Y-1.4333 Z0.4291
G01 X6.0902 Y-1.4148 Z0.4059
G01 X5.9276 Y-1.3937 Z0.3846
G01 X5.7702 Y-1.3690 Z0.3638
G01 X5.6287 Y-1.3429 Z0.3451
G01 X5.4947 Y-1.3142 Z0.3272
G01 X5.3719 Y-1.2844 Z0.3107
G01 X5.2594 Y-1.2535 Z0.2955
G01 X5.1572 Y-1.2220 Z0.2816
G01 X5.0643 Y-1.1903 Z0.2688
G01 X4.9803 Y-1.1585 Z0.2571
G01 X4.9031 Y-1.1265 Z0.2462
G01 X4.8354 Y-1.0957 Z0.2365
G01 X4.7761 Y-1.0662 Z0.2279
G01 X4.7226 Y-1.0374 Z0.2200
G01 X4.6762 Y-1.0101 Z0.2129
G01 X4.6355 Y-0.9843 Z0.2067
G01 X4.5992 Y-0.9593 Z0.2009
G01 X4.5690 Y-0.9369 Z0.1961
G01 X4.5426 Y-0.9157 Z0.1916
G01 X4.5194 Y-0.8956 Z0.1876
G01 X4.4977 Y-0.8754 Z0.1838
G01 X4.4811 Y-0.8588 Z0.1807
G01 X4.4653 Y-0.8416 Z0.1777
G01 X4.4487 Y-0.8224 Z0.1744
G01 X4.4372 Y-0.8080 Z0.1720
G01 X4.4234 Y-0.7892 Z0.1689
G01 X4.4111 Y-0.7712 Z0.1661
G01 X4.3994 Y-0.7526 Z0.1632
G01 X4.3874 Y-0.7321 Z0.1601
G01 X4.3754 Y-0.7096 Z0.1568
G01 X4.3638 Y-0.6861 Z0.1534
G01 X4.3520 Y-0.6597 Z0.1496
G01 X4.3411 Y-0.6332 Z0.1459
G01 X4.3292 Y-0.6012 Z0.1414
G01 X4.3174 Y-0.5661 Z0.1366
G01 X4.3062 Y-0.5290 Z0.1315
G01 X4.2956 Y-0.4896 Z0.1262
G01 X4.2855 Y-0.4468 Z0.1205
G01 X4.2759 Y-0.4000 Z0.1142
G01 X4.2675 Y-0.3516 Z0.1079
G01 X4.2599 Y-0.2996 Z0.1010
G01 X4.2536 Y-0.2463 Z0.0940
G01 X4.2483 Y-0.1879 Z0.0864
G01 X4.2444 Y-0.1257 Z0.0787
G01 X4.2420 Y-0.0644 Z0.0787
G01 X4.2412 Y0.0000 Z0.0787
G01 X4.2412 Y0.0000 Z0.0787 F20
G01 X4.2412 Y0.0000 Z0.0787 F50
G01 X4.2420 Y0.0644 Z0.0787
G01 X4.2444 Y0.1257 Z0.0787
G01 X4.2483 Y0.1869 Z0.0787
G01 X4.2536 Y0.2463 Z0.0787
G01 X4.2599 Y0.2996 Z0.0787
G01 X4.2675 Y0.3516 Z0.0787
G01 X4.2759 Y0.4000 Z0.0787
G01 X4.2855 Y0.4468 Z0.0787
G01 X4.2956 Y0.4896 Z0.0787
G01 X4.3061 Y0.5287 Z0.0787
G01 X4.3174 Y0.5661 Z0.0787
G01 X4.3290 Y0.6007 Z0.0787
G01 X4.3410 Y0.6331 Z0.0787
G01 X4.3517 Y0.6592 Z0.0787
G01 X4.3638 Y0.6859 Z0.0787
G01 X4.3754 Y0.7096 Z0.0787
G01 X4.3870 Y0.7313 Z0.0787
G01 X4.3994 Y0.7526 Z0.0787
G01 X4.4111 Y0.7712 Z0.0787
G01 X4.4234 Y0.7892 Z0.0787
G01 X4.4370 Y0.8077 Z0.0787
G01 X4.4484 Y0.8220 Z0.0787
G01 X4.4651 Y0.8415 Z0.0787
G01 X4.4811 Y0.8588 Z0.0787
G01 X4.4977 Y0.8754 Z0.0787
G01 X4.5194 Y0.8956 Z0.0787
G01 X4.5426 Y0.9157 Z0.0787
G01 X4.5690 Y0.9369 Z0.0787
G01 X4.5992 Y0.9593 Z0.0787
G01 X4.6355 Y0.9843 Z0.0787
G01 X4.6762 Y1.0101 Z0.0787
G01 X4.7226 Y1.0374 Z0.0787
G01 X4.7761 Y1.0662 Z0.0787
G01 X4.8354 Y1.0957 Z0.0787
G01 X4.9031 Y1.1265 Z0.0787
G01 X4.9803 Y1.1585 Z0.0787
G01 X5.0643 Y1.1903 Z0.0787
G01 X5.1572 Y1.2220 Z0.0787
G01 X5.2594 Y1.2535 Z0.0787
G01 X5.3718 Y1.2843 Z0.0787
G01 X5.4947 Y1.3142 Z0.0787
G01 X5.6287 Y1.3429 Z0.0787
G01 X5.7702 Y1.3690 Z0.0787
G01 X5.9276 Y1.3937 Z0.0787
G01 X6.0900 Y1.4148 Z0.0787
G01 X6.2668 Y1.4333 Z0.0787
G01 X6.3386 Y1.4390 Z0.0787
G01 X6.4564 Y1.4485 Z0.0788
G01 X6.6542 Y1.4596 Z0.0789
G01 X6.6566 Y1.4596 Z0.0789
G01 X6.8657 Y1.4665 Z0.0795
G01 X6.9687 Y1.4676 Z0.0797
G01 X6.9763 Y1.4677 Z0.0798
G01 X7.2749 Y1.4490 Z0.0811
G01 X7.3554 Y1.4439 Z0.0816
G01 X7.3607 Y1.4436 Z0.0816
G01 X7.5756 Y1.4303 Z0.0829
G01 X7.8712 Y1.4121 Z0.0852
G01 X7.8949 Y1.4107 Z0.0854
G01 X7.9005 Y1.4104 Z0.0854
G01 X8.1620 Y1.3946 Z0.0879
G01 X8.4353 Y1.3781 Z0.0909
G01 X8.4409 Y1.3778 Z0.0909
G01 X8.4483 Y1.3773 Z0.0910
G01 X8.7304 Y1.3606 Z0.0946
G01 X8.9751 Y1.3462 Z0.0980
G01 X8.9807 Y1.3460 Z0.0981
G01 X9.0087 Y1.3442 Z0.0985
G01 X9.2835 Y1.3283 Z0.1028
G01 X9.5156 Y1.3150 Z0.1068
G01 X9.5211 Y1.3146 Z0.1069
G01 X9.5550 Y1.3127 Z0.1075
G01 X9.8236 Y1.2975 Z0.1124
G01 X10.0557 Y1.2844 Z0.1170
G01 X10.0611 Y1.2841 Z0.1170
G01 X10.0896 Y1.2825 Z0.1176
G01 X10.3535 Y1.2679 Z0.1231
G01 X10.5955 Y1.2545 Z0.1284
G01 X10.6014 Y1.2542 Z0.1285
G01 X10.6153 Y1.2534 Z0.1288
G01 X10.8756 Y1.2393 Z0.1348
G01 X11.1346 Y1.2253 Z0.1410
G01 X11.1364 Y1.2252 Z0.1410
G01 X11.1417 Y1.2250 Z0.1411
G01 X11.3926 Y1.2116 Z0.1473
G01 X11.6500 Y1.1981 Z0.1538
G01 X11.6762 Y1.1967 Z0.1545
G01 X11.6817 Y1.1965 Z0.1546
G01 X11.9071 Y1.1848 Z0.1604
G01 X12.1641 Y1.1715 Z0.1672
G01 X12.2167 Y1.1688 Z0.1686
G01 X12.2222 Y1.1685 Z0.1687
G01 X12.4215 Y1.1585 Z0.1740
G01 X12.6795 Y1.1455 Z0.1809
G01 X12.7570 Y1.1416 Z0.1829
G01 X12.7625 Y1.1413 Z0.1831
G01 X12.9385 Y1.1326 Z0.1879
G01 X13.1988 Y1.1198 Z0.1948
G01 X13.2970 Y1.1150 Z0.1974
G01 X13.3029 Y1.1148 Z0.1975
G01 X13.4607 Y1.1072 Z0.2017
G01 X13.7245 Y1.0946 Z0.2087
G01 X13.8380 Y1.0891 Z0.2116
G01 X13.8434 Y1.0888 Z0.2118
G01 X13.9905 Y1.0820 Z0.2156
G01 X14.2592 Y1.0694 Z0.2224
G01 X14.3779 Y1.0639 Z0.2254
G01 X14.3838 Y1.0637 Z0.2255
G01 X14.5307 Y1.0570 Z0.2292
G01 X14.8054 Y1.0445 Z0.2358
G01 X14.9190 Y1.0394 Z0.2385
G01 X14.9242 Y1.0391 Z0.2386
G01 X15.0837 Y1.0320 Z0.2423
G01 X15.3658 Y1.0196 Z0.2487
G01 X15.4592 Y1.0155 Z0.2507
G01 X15.4646 Y1.0152 Z0.2508
G01 X15.6521 Y1.0072 Z0.2548
G01 X15.9429 Y0.9946 Z0.2607
G01 X15.9993 Y0.9922 Z0.2618
G01 X16.0051 Y0.9921 Z0.2620
G01 X16.2385 Y0.9823 Z0.2665
G01 X16.5392 Y0.9698 Z0.2720
G01 X16.5405 Y0.9697 Z0.2720
G01 X16.5460 Y0.9695 Z0.2721
G01 X16.8455 Y0.9574 Z0.2772
G01 X17.0811 Y0.9478 Z0.2809
G01 X17.0863 Y0.9476 Z0.2810
G01 X17.1575 Y0.9448 Z0.2821
G01 X17.4756 Y0.9323 Z0.2868
G01 X17.6213 Y0.9266 Z0.2887
G01 X17.6272 Y0.9264 Z0.2888
G01 X17.8001 Y0.9198 Z0.2911
G01 X18.1314 Y0.9072 Z0.2950
G01 X18.1620 Y0.9061 Z0.2953
G01 X18.1674 Y0.9059 Z0.2954
G01 X18.4697 Y0.8948 Z0.2985
G01 X18.7029 Y0.8862 Z0.3007
G01 X18.7084 Y0.8860 Z0.3007
G01 X18.8154 Y0.8822 Z0.3017
G01 X19.1689 Y0.8696 Z0.3044
G01 X19.2435 Y0.8670 Z0.3049
G01 X19.2490 Y0.8668 Z0.3049
G01 X19.5303 Y0.8571 Z0.3067
G01 X19.7838 Y0.8485 Z0.3079
G01 X19.7896 Y0.8483 Z0.3080
G01 X19.9001 Y0.8446 Z0.3085
G01 X20.2787 Y0.8321 Z0.3098
G01 X20.3251 Y0.8306 Z0.3100
G01 X20.3303 Y0.8305 Z0.3100
G01 X20.6662 Y0.8198 Z0.3107
G01 X20.8655 Y0.8134 Z0.3108
G01 X20.8715 Y0.8132 Z0.3108
G01 X21.0630 Y0.8074 Z0.3110
G01 X21.4067 Y0.7969 Z0.3110
G01 X21.4119 Y0.7967 Z0.3110
G01 X21.9468 Y0.7810 Z0.3110
G01 X21.9526 Y0.7809 Z0.3110
G01 X22.4881 Y0.7659 Z0.3110
G01 X22.4937 Y0.7657 Z0.3110
G01 X23.0290 Y0.7513 Z0.3110
G01 X23.0346 Y0.7512 Z0.3110
G01 X23.5698 Y0.7375 Z0.3110
G01 X23.5751 Y0.7374 Z0.3110
G01 X24.1105 Y0.7243 Z0.3110
G01 X24.1164 Y0.7241 Z0.3110
G01 X24.6517 Y0.7118 Z0.3110
G01 X24.6570 Y0.7116 Z0.3110
G01 X25.1920 Y0.6999 Z0.3110
G01 X25.1977 Y0.6999 Z0.3110
G01 X25.7334 Y0.6888 Z0.3110
G01 X25.7389 Y0.6887 Z0.3110
G01 X26.2743 Y0.6783 Z0.3110
G01 X26.2796 Y0.6782 Z0.3110
G01 X26.8149 Y0.6684 Z0.3110
G01 X26.8209 Y0.6683 Z0.3110
G01 X27.3562 Y0.6592 Z0.3110
G01 X27.3615 Y0.6592 Z0.3110
G01 X27.8970 Y0.6507 Z0.3110
G01 X27.9026 Y0.6507 Z0.3110
G01 X28.4380 Y0.6429 Z0.3110
G01 X28.4439 Y0.6428 Z0.3110
G01 X28.9790 Y0.6358 Z0.3110
G01 X28.9840 Y0.6358 Z0.3110
G01 X29.5198 Y0.6293 Z0.3110
G01 X29.5257 Y0.6292 Z0.3110
G01 X30.0611 Y0.6235 Z0.3110
G01 X30.0667 Y0.6234 Z0.3110
G01 X30.6022 Y0.6183 Z0.3110
G01 X30.6074 Y0.6183 Z0.3110
G01 X31.1429 Y0.6138 Z0.3110
G01 X31.1485 Y0.6138 Z0.3110
G01 X31.6839 Y0.6100 Z0.3110
G01 X31.6896 Y0.6100 Z0.3110
G01 X32.2250 Y0.6069 Z0.3110
G01 X32.2306 Y0.6068 Z0.3110
G01 X32.7661 Y0.6044 Z0.3110
G01 X32.7717 Y0.6044 Z0.3110
G01 X33.3072 Y0.6026 Z0.3110
G01 X33.3128 Y0.6026 Z0.3110
G01 X33.8483 Y0.6015 Z0.3110
G01 X33.8535 Y0.6015 Z0.3110
G01 X34.3889 Y0.6010 Z0.3110
G01 X34.3946 Y0.6010 Z0.3110
G01 X34.9298 Y0.6012 Z0.3110
G01 X34.9354 Y0.6012 Z0.3110
G01 X35.4709 Y0.6021 Z0.3110
G01 X35.4765 Y0.6021 Z0.3110
G01 X36.0119 Y0.6036 Z0.3110
G01 X36.0175 Y0.6037 Z0.3110
G01 X36.5530 Y0.6059 Z0.3110
G01 X36.5586 Y0.6059 Z0.3110
G01 X37.0941 Y0.6088 Z0.3110
G01 X37.0994 Y0.6088 Z0.3110
G01 X37.6348 Y0.6123 Z0.3110
G01 X37.6404 Y0.6123 Z0.3110
G01 X38.1759 Y0.6165 Z0.3110
G01 X38.1815 Y0.6166 Z0.3110
G01 X38.7169 Y0.6214 Z0.3110
G01 X38.7225 Y0.6214 Z0.3110
G01 X39.2580 Y0.6270 Z0.3110
G01 X39.2636 Y0.6270 Z0.3110
G01 X39.7993 Y0.6332 Z0.3110
G01 X39.8050 Y0.6332 Z0.3110
G01 X40.3401 Y0.6401 Z0.3110
G01 X40.3453 Y0.6401 Z0.3110
G01 X40.8808 Y0.6476 Z0.3110
G01 X40.8864 Y0.6477 Z0.3110
G01 X41.4218 Y0.6559 Z0.3110
G01 X41.4274 Y0.6559 Z0.3110
G01 X41.9628 Y0.6648 Z0.3110
G01 X41.9684 Y0.6649 Z0.3110
G01 X42.5038 Y0.6744 Z0.3110
G01 X42.5094 Y0.6745 Z0.3110
G01 X43.0448 Y0.6846 Z0.3110
G01 X43.0504 Y0.6847 Z0.3110
G01 X43.5858 Y0.6955 Z0.3110
G01 X43.5910 Y0.6957 Z0.3110
G01 X44.1266 Y0.7071 Z0.3110
G01 X44.1324 Y0.7072 Z0.3110
G01 X44.6674 Y0.7193 Z0.3110
G01 X44.6732 Y0.7195 Z0.3110
G01 X45.2085 Y0.7323 Z0.3110
G01 X45.2138 Y0.7324 Z0.3110
G01 X45.7491 Y0.7459 Z0.3110
G01 X45.7544 Y0.7460 Z0.3110
G01 X46.2897 Y0.7601 Z0.3110
G01 X46.2955 Y0.7603 Z0.3110
G01 X46.6535 Y0.7702 Z0.3110
G01 X46.8311 Y0.7751 Z0.3108
G01 X46.8366 Y0.7752 Z0.3108
G01 X47.0502 Y0.7813 Z0.3107
G01 X47.3715 Y0.7906 Z0.3100
G01 X47.3774 Y0.7908 Z0.3100
G01 X47.4377 Y0.7926 Z0.3098
G01 X47.8162 Y0.8040 Z0.3085
G01 X47.9126 Y0.8070 Z0.3081
G01 X47.9179 Y0.8071 Z0.3080
G01 X48.1861 Y0.8155 Z0.3067
G01 X48.4531 Y0.8239 Z0.3050
G01 X48.4587 Y0.8240 Z0.3050
G01 X48.5475 Y0.8269 Z0.3044
G01 X48.9010 Y0.8384 Z0.3017
G01 X48.9941 Y0.8415 Z0.3009
G01 X48.9996 Y0.8416 Z0.3008
G01 X49.2467 Y0.8500 Z0.2985
G01 X49.5344 Y0.8597 Z0.2955
G01 X49.5403 Y0.8599 Z0.2955
G01 X49.5850 Y0.8614 Z0.2950
G01 X49.9163 Y0.8731 Z0.2911
G01 X50.0754 Y0.8787 Z0.2890
G01 X50.0807 Y0.8789 Z0.2889
G01 X50.2409 Y0.8847 Z0.2868
G01 X50.5589 Y0.8962 Z0.2821
G01 X50.6158 Y0.8983 Z0.2812
G01 X50.6213 Y0.8985 Z0.2811
G01 X50.8709 Y0.9078 Z0.2772
G01 X51.1567 Y0.9186 Z0.2723
G01 X51.1629 Y0.9188 Z0.2722
G01 X51.1772 Y0.9193 Z0.2720
G01 X51.4779 Y0.9310 Z0.2665
G01 X51.6977 Y0.9396 Z0.2622
G01 X51.7025 Y0.9398 Z0.2622
G01 X51.7735 Y0.9426 Z0.2608
G01 X52.0643 Y0.9542 Z0.2548
G01 X52.2375 Y0.9611 Z0.2511
G01 X52.2433 Y0.9614 Z0.2509
G01 X52.3506 Y0.9658 Z0.2487
G01 X52.6327 Y0.9774 Z0.2423
G01 X52.7787 Y0.9835 Z0.2389
G01 X52.7845 Y0.9837 Z0.2388
G01 X52.9110 Y0.9890 Z0.2358
G01 X53.1857 Y1.0007 Z0.2292
G01 X53.3192 Y1.0064 Z0.2259
G01 X53.3243 Y1.0066 Z0.2257
G01 X53.4572 Y1.0124 Z0.2224
G01 X53.7259 Y1.0242 Z0.2156
G01 X53.8593 Y1.0300 Z0.2122
G01 X53.8648 Y1.0303 Z0.2120
G01 X53.9919 Y1.0360 Z0.2087
G01 X54.2557 Y1.0478 Z0.2017
G01 X54.4000 Y1.0543 Z0.1979
G01 X54.4059 Y1.0546 Z0.1978
G01 X54.5176 Y1.0597 Z0.1948
G01 X54.7779 Y1.0717 Z0.1879
G01 X54.9405 Y1.0793 Z0.1835
G01 X54.9460 Y1.0795 Z0.1833
G01 X55.0369 Y1.0838 Z0.1809
G01 X55.2949 Y1.0961 Z0.1740
G01 X55.4808 Y1.1049 Z0.1691
G01 X55.4860 Y1.1052 Z0.1689
G01 X55.5523 Y1.1084 Z0.1672
G01 X55.8094 Y1.1209 Z0.1604
G01 X56.0211 Y1.1312 Z0.1550
G01 X56.0273 Y1.1314 Z0.1548
G01 X56.0664 Y1.1334 Z0.1538
G01 X56.3238 Y1.1462 Z0.1473
G01 X56.5618 Y1.1582 Z0.1414
G01 X56.5669 Y1.1585 Z0.1413
G01 X56.5818 Y1.1592 Z0.1410
G01 X56.8408 Y1.1724 Z0.1348
G01 X57.1011 Y1.1857 Z0.1288
G01 X57.1020 Y1.1858 Z0.1288
G01 X57.1078 Y1.1861 Z0.1287
G01 X57.3629 Y1.1994 Z0.1231
G01 X57.6268 Y1.2133 Z0.1176
G01 X57.6422 Y1.2141 Z0.1173
G01 X57.6477 Y1.2144 Z0.1172
G01 X57.8928 Y1.2275 Z0.1124
G01 X58.1614 Y1.2420 Z0.1075
G01 X58.1824 Y1.2431 Z0.1071
G01 X58.1879 Y1.2434 Z0.1070
G01 X58.4330 Y1.2568 Z0.1028
G01 X58.7077 Y1.2719 Z0.0985
G01 X58.7228 Y1.2727 Z0.0983
G01 X58.7284 Y1.2730 Z0.0982
G01 X58.9860 Y1.2875 Z0.0946
G01 X59.2627 Y1.3030 Z0.0911
G01 X59.2680 Y1.3033 Z0.0911
G01 X59.5544 Y1.3197 Z0.0879
G01 X59.8029 Y1.3340 Z0.0856
G01 X59.8092 Y1.3343 Z0.0855
G01 X59.8452 Y1.3364 Z0.0852
G01 X60.1408 Y1.3538 Z0.0829
G01 X60.3434 Y1.3657 Z0.0817
G01 X60.3484 Y1.3660 Z0.0816
G01 X60.4415 Y1.3716 Z0.0811
G01 X60.7268 Y1.3887 Z0.0798
G01 X60.7477 Y1.3883 Z0.0798
G01 X60.7584 Y1.3882 Z0.0797
G01 X60.8717 Y1.3835 Z0.0794
G01 X60.9811 Y1.3757 Z0.0791
G01 X61.0598 Y1.3677 Z0.0789
G01 X61.0759 Y1.3661 Z0.0789
G01 X61.1655 Y1.3542 Z0.0788
G01 X61.2412 Y1.3417 Z0.0788
G01 X61.3116 Y1.3277 Z0.0787
G01 X61.3701 Y1.3140 Z0.0787
G01 X61.3779 Y1.3119 Z0.0787
G01 X61.4226 Y1.2998 Z0.0787
G01 X61.4678 Y1.2859 Z0.0787
G01 X61.5028 Y1.2737 Z0.0787
G01 X61.5347 Y1.2612 Z0.0787
G01 X61.5605 Y1.2501 Z0.0787
G01 X61.5792 Y1.2411 Z0.0787
G01 X61.5955 Y1.2325 Z0.0787
G01 X61.6074 Y1.2257 Z0.0787
G01 X61.6153 Y1.2207 Z0.0787
G01 X61.6218 Y1.2162 Z0.0787
G01 X61.6285 Y1.2113 Z0.0787
G01 X61.6318 Y1.2086 Z0.0787
G01 X61.6340 Y1.2067 Z0.0787
G01 X61.6362 Y1.2046 Z0.0787
G01 X61.6405 Y1.2002 Z0.0787
G01 X61.6453 Y1.1949 Z0.0787
G01 X61.6496 Y1.1898 Z0.0787
G01 X61.6545 Y1.1836 Z0.0787
G01 X61.6625 Y1.1726 Z0.0787
G01 X61.6703 Y1.1611 Z0.0787
G01 X61.6795 Y1.1464 Z0.0787
G01 X61.6903 Y1.1277 Z0.0787
G01 X61.7021 Y1.1059 Z0.0787
G01 X61.7152 Y1.0795 Z0.0787
G01 X61.7278 Y1.0521 Z0.0787
G01 X61.7419 Y1.0187 Z0.0787
G01 X61.7559 Y0.9826 Z0.0787
G01 X61.7707 Y0.9409 Z0.0787
G01 X61.7849 Y0.8969 Z0.0787
G01 X61.8001 Y0.8452 Z0.0787
G01 X61.8134 Y0.7950 Z0.0787
G01 X61.8271 Y0.7374 Z0.0787
G01 X61.8392 Y0.6798 Z0.0787
G01 X61.8515 Y0.6138 Z0.0787
G01 X61.8623 Y0.5470 Z0.0787
G01 X61.8721 Y0.4760 Z0.0787
G01 X61.8805 Y0.4031 Z0.0787
G01 X61.8875 Y0.3273 Z0.0787
G01 X61.8931 Y0.2480 Z0.0787
G01 X61.8971 Y0.1686 Z0.0787
G01 X61.8997 Y0.0832 Z0.0787
G01 X61.9005 Y0.0000 Z0.0787
G01 X61.8997 Y-0.0832 Z0.0787
G01 X61.8971 Y-0.1698 Z0.0787
G01 X61.8931 Y-0.2485 Z0.0787
G01 X61.8874 Y-0.3288 Z0.0787
G01 X61.8805 Y-0.4033 Z0.0787
G01 X61.8721 Y-0.4760 Z0.0787
G01 X61.8623 Y-0.5470 Z0.0787
G01 X61.8514 Y-0.6142 Z0.0787
G01 X61.8392 Y-0.6798 Z0.0787
G01 X61.8271 Y-0.7375 Z0.0787
G01 X61.8133 Y-0.7953 Z0.0787
G01 X61.7999 Y-0.8459 Z0.0787
G01 X61.7849 Y-0.8969 Z0.0787
G01 X61.7707 Y-0.9409 Z0.0787
G01 X61.7556 Y-0.9835 Z0.0787
G01 X61.7418 Y-1.0191 Z0.0787
G01 X61.7278 Y-1.0521 Z0.0787
G01 X61.7149 Y-1.0803 Z0.0787
G01 X61.7021 Y-1.1059 Z0.0787
G01 X61.6903 Y-1.1277 Z0.0787
G01 X61.6795 Y-1.1464 Z0.0787
G01 X61.6703 Y-1.1611 Z0.0787
G01 X61.6625 Y-1.1726 Z0.0787
G01 X61.6544 Y-1.1837 Z0.0787
G01 X61.6495 Y-1.1900 Z0.0787
G01 X61.6450 Y-1.1953 Z0.0787
G01 X61.6405 Y-1.2002 Z0.0787
G01 X61.6361 Y-1.2047 Z0.0787
G01 X61.6340 Y-1.2067 Z0.0787
G01 X61.6315 Y-1.2088 Z0.0787
G01 X61.6283 Y-1.2114 Z0.0787
G01 X61.6218 Y-1.2162 Z0.0787
G01 X61.6153 Y-1.2207 Z0.0787
G01 X61.6074 Y-1.2257 Z0.0787
G01 X61.5955 Y-1.2325 Z0.0787
G01 X61.5792 Y-1.2411 Z0.0787
G01 X61.5605 Y-1.2501 Z0.0787
G01 X61.5347 Y-1.2612 Z0.0787
G01 X61.5028 Y-1.2737 Z0.0787
G01 X61.4678 Y-1.2859 Z0.0787
G01 X61.4226 Y-1.2998 Z0.0787
G01 X61.3779 Y-1.3119 Z0.0787
G01 X61.3701 Y-1.3140 Z0.0787
G01 X61.3116 Y-1.3277 Z0.0787
G01 X61.2412 Y-1.3417 Z0.0788
G01 X61.1655 Y-1.3542 Z0.0788
G01 X61.0759 Y-1.3661 Z0.0789
G01 X61.0598 Y-1.3677 Z0.0789
G01 X60.9811 Y-1.3757 Z0.0791
G01 X60.8717 Y-1.3835 Z0.0794
G01 X60.7584 Y-1.3882 Z0.0797
G01 X60.7477 Y-1.3883 Z0.0798
G01 X60.7268 Y-1.3887 Z0.0798
G01 X60.4415 Y-1.3716 Z0.0811
G01 X60.3484 Y-1.3660 Z0.0816
G01 X60.3434 Y-1.3657 Z0.0817
G01 X60.1408 Y-1.3538 Z0.0829
G01 X59.8452 Y-1.3364 Z0.0852
G01 X59.8092 Y-1.3343 Z0.0855
G01 X59.8029 Y-1.3340 Z0.0856
G01 X59.5544 Y-1.3197 Z0.0879
G01 X59.2681 Y-1.3033 Z0.0911
G01 X59.2627 Y-1.3030 Z0.0911
G01 X58.9860 Y-1.2875 Z0.0946
G01 X58.7284 Y-1.2730 Z0.0982
G01 X58.7228 Y-1.2728 Z0.0983
G01 X58.7077 Y-1.2719 Z0.0985
G01 X58.4330 Y-1.2568 Z0.1028
G01 X58.1879 Y-1.2434 Z0.1070
G01 X58.1824 Y-1.2431 Z0.1071
G01 X58.1614 Y-1.2420 Z0.1075
G01 X57.8928 Y-1.2275 Z0.1124
G01 X57.6477 Y-1.2144 Z0.1172
G01 X57.6422 Y-1.2141 Z0.1173
G01 X57.6268 Y-1.2133 Z0.1176
G01 X57.3629 Y-1.1994 Z0.1231
G01 X57.1078 Y-1.1861 Z0.1287
G01 X57.1020 Y-1.1858 Z0.1288
G01 X57.1011 Y-1.1857 Z0.1288
G01 X56.8408 Y-1.1724 Z0.1348
G01 X56.5818 Y-1.1592 Z0.1410
G01 X56.5669 Y-1.1585 Z0.1413
G01 X56.5618 Y-1.1582 Z0.1414
G01 X56.3238 Y-1.1462 Z0.1473
G01 X56.0664 Y-1.1334 Z0.1538
G01 X56.0273 Y-1.1314 Z0.1548
G01 X56.0211 Y-1.1312 Z0.1550
G01 X55.8094 Y-1.1209 Z0.1604
G01 X55.5523 Y-1.1084 Z0.1672
G01 X55.4860 Y-1.1052 Z0.1689
G01 X55.4808 Y-1.1049 Z0.1691
G01 X55.2949 Y-1.0961 Z0.1740
G01 X55.0369 Y-1.0838 Z0.1809
G01 X54.9460 Y-1.0795 Z0.1833
G01 X54.9405 Y-1.0793 Z0.1835
G01 X54.7779 Y-1.0717 Z0.1879
G01 X54.5176 Y-1.0597 Z0.1948
G01 X54.4059 Y-1.0546 Z0.1978
G01 X54.4000 Y-1.0544 Z0.1979
G01 X54.2557 Y-1.0478 Z0.2017
G01 X53.9919 Y-1.0360 Z0.2087
G01 X53.8648 Y-1.0303 Z0.2120
G01 X53.8593 Y-1.0300 Z0.2122
G01 X53.7259 Y-1.0242 Z0.2156
G01 X53.4572 Y-1.0124 Z0.2224
G01 X53.3243 Y-1.0066 Z0.2257
G01 X53.3192 Y-1.0064 Z0.2259
G01 X53.1857 Y-1.0007 Z0.2292
G01 X52.9110 Y-0.9890 Z0.2358
G01 X52.7845 Y-0.9837 Z0.2388
G01 X52.7787 Y-0.9835 Z0.2389
G01 X52.6327 Y-0.9774 Z0.2423
G01 X52.3506 Y-0.9658 Z0.2487
G01 X52.2433 Y-0.9614 Z0.2509
G01 X52.2375 Y-0.9611 Z0.2511
G01 X52.0643 Y-0.9542 Z0.2548
G01 X51.7735 Y-0.9425 Z0.2608
G01 X51.7025 Y-0.9398 Z0.2622
G01 X51.6977 Y-0.9396 Z0.2622
G01 X51.4779 Y-0.9310 Z0.2665
G01 X51.1772 Y-0.9193 Z0.2720
G01 X51.1629 Y-0.9188 Z0.2722
G01 X51.1567 Y-0.9186 Z0.2723
G01 X50.8709 Y-0.9078 Z0.2772
G01 X50.6213 Y-0.8985 Z0.2811
G01 X50.6158 Y-0.8983 Z0.2812
G01 X50.5589 Y-0.8962 Z0.2821
G01 X50.2409 Y-0.8847 Z0.2868
G01 X50.0807 Y-0.8789 Z0.2889
G01 X50.0754 Y-0.8787 Z0.2890
G01 X49.9163 Y-0.8731 Z0.2911
G01 X49.5850 Y-0.8614 Z0.2950
G01 X49.5403 Y-0.8599 Z0.2955
G01 X49.5344 Y-0.8597 Z0.2955
G01 X49.2467 Y-0.8500 Z0.2985
G01 X48.9996 Y-0.8416 Z0.3008
G01 X48.9941 Y-0.8415 Z0.3009
G01 X48.9010 Y-0.8384 Z0.3017
G01 X48.5475 Y-0.8269 Z0.3044
G01 X48.4587 Y-0.8240 Z0.3050
G01 X48.4531 Y-0.8239 Z0.3050
G01 X48.1861 Y-0.8155 Z0.3067
G01 X47.9179 Y-0.8071 Z0.3080
G01 X47.9126 Y-0.8070 Z0.3081
G01 X47.8162 Y-0.8040 Z0.3085
G01 X47.4377 Y-0.7926 Z0.3098
G01 X47.3774 Y-0.7908 Z0.3100
G01 X47.3715 Y-0.7906 Z0.3100
G01 X47.0502 Y-0.7813 Z0.3107
G01 X46.8366 Y-0.7752 Z0.3108
G01 X46.8311 Y-0.7751 Z0.3108
G01 X46.6535 Y-0.7702 Z0.3110
G01 X46.2955 Y-0.7603 Z0.3110
G01 X46.2897 Y-0.7601 Z0.3110
G01 X45.7544 Y-0.7460 Z0.3110
G01 X45.7491 Y-0.7459 Z0.3110
G01 X45.2138 Y-0.7324 Z0.3110
G01 X45.2085 Y-0.7323 Z0.3110
G01 X44.6732 Y-0.7195 Z0.3110
G01 X44.6674 Y-0.7193 Z0.3110
G01 X44.1324 Y-0.7072 Z0.3110
G01 X44.1266 Y-0.7072 Z0.3110
G01 X43.5910 Y-0.6957 Z0.3110
G01 X43.5858 Y-0.6955 Z0.3110
G01 X43.0504 Y-0.6847 Z0.3110
G01 X43.0448 Y-0.6846 Z0.3110
G01 X42.5094 Y-0.6745 Z0.3110
G01 X42.5038 Y-0.6744 Z0.3110
G01 X41.9684 Y-0.6649 Z0.3110
G01 X41.9628 Y-0.6648 Z0.3110
G01 X41.4274 Y-0.6559 Z0.3110
G01 X41.4218 Y-0.6559 Z0.3110
G01 X40.8864 Y-0.6477 Z0.3110
G01 X40.8808 Y-0.6476 Z0.3110
G01 X40.3453 Y-0.6401 Z0.3110
G01 X40.3401 Y-0.6401 Z0.3110
G01 X39.8050 Y-0.6332 Z0.3110
G01 X39.7993 Y-0.6332 Z0.3110
G01 X39.2636 Y-0.6270 Z0.3110
G01 X39.2580 Y-0.6270 Z0.3110
G01 X38.7225 Y-0.6214 Z0.3110
G01 X38.7169 Y-0.6214 Z0.3110
G01 X38.1815 Y-0.6166 Z0.3110
G01 X38.1759 Y-0.6165 Z0.3110
G01 X37.6404 Y-0.6123 Z0.3110
G01 X37.6348 Y-0.6123 Z0.3110
G01 X37.0994 Y-0.6088 Z0.3110
G01 X37.0941 Y-0.6088 Z0.3110
G01 X36.5586 Y-0.6059 Z0.3110
G01 X36.5530 Y-0.6059 Z0.3110
G01 X36.0175 Y-0.6037 Z0.3110
G01 X36.0119 Y-0.6036 Z0.3110
G01 X35.4765 Y-0.6021 Z0.3110
G01 X35.4709 Y-0.6021 Z0.3110
G01 X34.9354 Y-0.6012 Z0.3110
G01 X34.9298 Y-0.6012 Z0.3110
G01 X34.3946 Y-0.6010 Z0.3110
G01 X34.3889 Y-0.6010 Z0.3110
G01 X33.8535 Y-0.6015 Z0.3110
G01 X33.8483 Y-0.6015 Z0.3110
G01 X33.3128 Y-0.6026 Z0.3110
G01 X33.3072 Y-0.6026 Z0.3110
G01 X32.7717 Y-0.6044 Z0.3110
G01 X32.7661 Y-0.6044 Z0.3110
G01 X32.2306 Y-0.6068 Z0.3110
G01 X32.2250 Y-0.6069 Z0.3110
G01 X31.6896 Y-0.6100 Z0.3110
G01 X31.6839 Y-0.6100 Z0.3110
G01 X31.1485 Y-0.6138 Z0.3110
G01 X31.1429 Y-0.6138 Z0.3110
G01 X30.6074 Y-0.6183 Z0.3110
G01 X30.6022 Y-0.6183 Z0.3110
G01 X30.0667 Y-0.6234 Z0.3110
G01 X30.0611 Y-0.6235 Z0.3110
G01 X29.5257 Y-0.6292 Z0.3110
G01 X29.5198 Y-0.6293 Z0.3110
G01 X28.9840 Y-0.6357 Z0.3110
G01 X28.9790 Y-0.6358 Z0.3110
G01 X28.4439 Y-0.6428 Z0.3110
G01 X28.4380 Y-0.6429 Z0.3110
G01 X27.9026 Y-0.6507 Z0.3110
G01 X27.8970 Y-0.6507 Z0.3110
G01 X27.3615 Y-0.6592 Z0.3110
G01 X27.3562 Y-0.6592 Z0.3110
G01 X26.8209 Y-0.6683 Z0.3110
G01 X26.8149 Y-0.6684 Z0.3110
G01 X26.2796 Y-0.6782 Z0.3110
G01 X26.2743 Y-0.6783 Z0.3110
G01 X25.7389 Y-0.6887 Z0.3110
G01 X25.7334 Y-0.6888 Z0.3110
G01 X25.1977 Y-0.6998 Z0.3110
G01 X25.1920 Y-0.6999 Z0.3110
G01 X24.6570 Y-0.7116 Z0.3110
G01 X24.6517 Y-0.7118 Z0.3110
G01 X24.1164 Y-0.7241 Z0.3110
G01 X24.1105 Y-0.7243 Z0.3110
G01 X23.5751 Y-0.7374 Z0.3110
G01 X23.5698 Y-0.7375 Z0.3110
G01 X23.0346 Y-0.7512 Z0.3110
G01 X23.0290 Y-0.7513 Z0.3110
G01 X22.4937 Y-0.7657 Z0.3110
G01 X22.4881 Y-0.7659 Z0.3110
G01 X21.9526 Y-0.7809 Z0.3110
G01 X21.9468 Y-0.7810 Z0.3110
G01 X21.4119 Y-0.7967 Z0.3110
G01 X21.4067 Y-0.7969 Z0.3110
G01 X21.0630 Y-0.8074 Z0.3110
G01 X20.8715 Y-0.8132 Z0.3108
G01 X20.8655 Y-0.8134 Z0.3108
G01 X20.6662 Y-0.8198 Z0.3107
G01 X20.3303 Y-0.8305 Z0.3100
G01 X20.3251 Y-0.8306 Z0.3100
G01 X20.2787 Y-0.8321 Z0.3098
G01 X19.9001 Y-0.8446 Z0.3085
G01 X19.7896 Y-0.8483 Z0.3080
G01 X19.7838 Y-0.8485 Z0.3079
G01 X19.5303 Y-0.8571 Z0.3067
G01 X19.2490 Y-0.8668 Z0.3049
G01 X19.2435 Y-0.8670 Z0.3049
G01 X19.1689 Y-0.8696 Z0.3044
G01 X18.8154 Y-0.8822 Z0.3017
G01 X18.7084 Y-0.8860 Z0.3007
G01 X18.7029 Y-0.8862 Z0.3007
G01 X18.4697 Y-0.8948 Z0.2985
G01 X18.1674 Y-0.9059 Z0.2954
G01 X18.1620 Y-0.9061 Z0.2953
G01 X18.1314 Y-0.9072 Z0.2950
G01 X17.8001 Y-0.9198 Z0.2911
G01 X17.6272 Y-0.9264 Z0.2888
G01 X17.6213 Y-0.9266 Z0.2887
G01 X17.4756 Y-0.9323 Z0.2868
G01 X17.1575 Y-0.9448 Z0.2821
G01 X17.0863 Y-0.9476 Z0.2810
G01 X17.0811 Y-0.9478 Z0.2809
G01 X16.8455 Y-0.9574 Z0.2772
G01 X16.5460 Y-0.9695 Z0.2721
G01 X16.5405 Y-0.9697 Z0.2720
G01 X16.5392 Y-0.9698 Z0.2720
G01 X16.2385 Y-0.9823 Z0.2665
G01 X16.0051 Y-0.9920 Z0.2620
G01 X15.9993 Y-0.9922 Z0.2618
G01 X15.9429 Y-0.9946 Z0.2607
G01 X15.6521 Y-1.0072 Z0.2548
G01 X15.4646 Y-1.0152 Z0.2508
G01 X15.4592 Y-1.0155 Z0.2507
G01 X15.3658 Y-1.0196 Z0.2487
G01 X15.0837 Y-1.0320 Z0.2423
G01 X14.9242 Y-1.0391 Z0.2386
G01 X14.9190 Y-1.0394 Z0.2385
G01 X14.8054 Y-1.0445 Z0.2358
G01 X14.5307 Y-1.0570 Z0.2292
G01 X14.3838 Y-1.0637 Z0.2255
G01 X14.3779 Y-1.0639 Z0.2254
G01 X14.2592 Y-1.0694 Z0.2224
G01 X13.9905 Y-1.0820 Z0.2156
G01 X13.8434 Y-1.0888 Z0.2118
G01 X13.8380 Y-1.0891 Z0.2116
G01 X13.7245 Y-1.0946 Z0.2087
G01 X13.4607 Y-1.1072 Z0.2017
G01 X13.3029 Y-1.1148 Z0.1975
G01 X13.2970 Y-1.1150 Z0.1974
G01 X13.1988 Y-1.1198 Z0.1948
G01 X12.9385 Y-1.1326 Z0.1879
G01 X12.7625 Y-1.1413 Z0.1831
G01 X12.7570 Y-1.1416 Z0.1829
G01 X12.6795 Y-1.1455 Z0.1809
G01 X12.4215 Y-1.1585 Z0.1740
G01 X12.2222 Y-1.1685 Z0.1687
G01 X12.2167 Y-1.1688 Z0.1686
G01 X12.1641 Y-1.1715 Z0.1672
G01 X11.9071 Y-1.1848 Z0.1604
G01 X11.6817 Y-1.1964 Z0.1546
G01 X11.6762 Y-1.1967 Z0.1545
G01 X11.6500 Y-1.1981 Z0.1538
G01 X11.3926 Y-1.2116 Z0.1473
G01 X11.1417 Y-1.2250 Z0.1411
G01 X11.1364 Y-1.2252 Z0.1410
G01 X11.1346 Y-1.2253 Z0.1410
G01 X10.8756 Y-1.2393 Z0.1348
G01 X10.6153 Y-1.2534 Z0.1288
G01 X10.6014 Y-1.2542 Z0.1285
G01 X10.5955 Y-1.2545 Z0.1284
G01 X10.3535 Y-1.2679 Z0.1231
G01 X10.0896 Y-1.2825 Z0.1176
G01 X10.0611 Y-1.2841 Z0.1170
G01 X10.0557 Y-1.2844 Z0.1170
G01 X9.8236 Y-1.2975 Z0.1124
G01 X9.5550 Y-1.3127 Z0.1075
G01 X9.5211 Y-1.3146 Z0.1069
G01 X9.5156 Y-1.3150 Z0.1068
G01 X9.2835 Y-1.3284 Z0.1028
G01 X9.0087 Y-1.3442 Z0.0985
G01 X8.9807 Y-1.3459 Z0.0981
G01 X8.9751 Y-1.3462 Z0.0980
G01 X8.7304 Y-1.3607 Z0.0946
G01 X8.4483 Y-1.3773 Z0.0910
G01 X8.4409 Y-1.3778 Z0.0909
G01 X8.4353 Y-1.3781 Z0.0909
G01 X8.1620 Y-1.3946 Z0.0879
G01 X7.9005 Y-1.4104 Z0.0854
G01 X7.8949 Y-1.4107 Z0.0854
G01 X7.8712 Y-1.4121 Z0.0852
G01 X7.5756 Y-1.4303 Z0.0829
G01 X7.3607 Y-1.4436 Z0.0816
G01 X7.3554 Y-1.4439 Z0.0816
G01 X7.2749 Y-1.4490 Z0.0811
G01 X6.9763 Y-1.4677 Z0.0798
G01 X6.9687 Y-1.4676 Z0.0797
G01 X6.8657 Y-1.4665 Z0.0795
G01 X6.6566 Y-1.4596 Z0.0789
G01 X6.6542 Y-1.4596 Z0.0789
G01 X6.4564 Y-1.4485 Z0.0788
G01 X6.3386 Y-1.4390 Z0.0787
G01 X6.2668 Y-1.4333 Z0.0787
G01 X6.0902 Y-1.4148 Z0.0787
G01 X5.9276 Y-1.3937 Z0.0787
G01 X5.7702 Y-1.3690 Z0.0787
G01 X5.6287 Y-1.3429 Z0.0787
G01 X5.4947 Y-1.3142 Z0.0787
G01 X5.3719 Y-1.2844 Z0.0787
G01 X5.2594 Y-1.2535 Z0.0787
G01 X5.1572 Y-1.2220 Z0.0787
G01 X5.0643 Y-1.1903 Z0.0787
G01 X4.9803 Y-1.1585 Z0.0787
G01 X4.9031 Y-1.1265 Z0.0787
G01 X4.8354 Y-1.0957 Z0.0787
G01 X4.7761 Y-1.0662 Z0.0787
G01 X4.7226 Y-1.0374 Z0.0787
G01 X4.6762 Y-1.0101 Z0.0787
G01 X4.6355 Y-0.9843 Z0.0787
G01 X4.5992 Y-0.9593 Z0.0787
G01 X4.5690 Y-0.9369 Z0.0787
G01 X4.5426 Y-0.9157 Z0.0787
G01 X4.5194 Y-0.8956 Z0.0787
G01 X4.4977 Y-0.8754 Z0.0787
G01 X4.4811 Y-0.8588 Z0.0787
G01 X4.4653 Y-0.8416 Z0.0787
G01 X4.4487 Y-0.8224 Z0.0787
G01 X4.4372 Y-0.8080 Z0.0787
G01 X4.4234 Y-0.7892 Z0.0787
G01 X4.4111 Y-0.7712 Z0.0787
G01 X4.3994 Y-0.7526 Z0.0787
G01 X4.3874 Y-0.7321 Z0.0787
G01 X4.3754 Y-0.7096 Z0.0787
G01 X4.3638 Y-0.6861 Z0.0787
G01 X4.3520 Y-0.6597 Z0.0787
G01 X4.3411 Y-0.6332 Z0.0787
G01 X4.3292 Y-0.6012 Z0.0787
G01 X4.3174 Y-0.5661 Z0.0787
G01 X4.3062 Y-0.5290 Z0.0787
G01 X4.2956 Y-0.4896 Z0.0787
G01 X4.2855 Y-0.4468 Z0.0787
G01 X4.2759 Y-0.4000 Z0.0787
G01 X4.2675 Y-0.3516 Z0.0787
G01 X4.2599 Y-0.2996 Z0.0787
G01 X4.2536 Y-0.2463 Z0.0787
G01 X4.2483 Y-0.1879 Z0.0787
G01 X4.2444 Y-0.1257 Z0.0787
G01 X4.2420 Y-0.0644 Z0.0787
G01 X4.2412 Y0.0000 Z0.0787
G01 X3.4932 Y0.0000 Z0.0787 F20
G01 X3.4932 Y0.0000 Z0.0787 F50
G01 X3.4942 Y0.0848 Z0.0787
G01 X3.4972 Y0.1636 Z0.0787
G01 X3.5023 Y0.2435 Z0.0787
G01 X3.5094 Y0.3221 Z0.0787
G01 X3.5185 Y0.3990 Z0.0787
G01 X3.5287 Y0.4694 Z0.0787
G01 X3.5411 Y0.5398 Z0.0787
G01 X3.5548 Y0.6070 Z0.0787
G01 X3.5701 Y0.6720 Z0.0787
G01 X3.5866 Y0.7337 Z0.0787
G01 X3.6046 Y0.7931 Z0.0787
G01 X3.6240 Y0.8509 Z0.0787
G01 X3.6442 Y0.9053 Z0.0787
G01 X3.6648 Y0.9553 Z0.0787
G01 X3.6864 Y1.0035 Z0.0787
G01 X3.7103 Y1.0520 Z0.0787
G01 X3.7343 Y1.0968 Z0.0787
G01 X3.7591 Y1.1395 Z0.0787
G01 X3.7860 Y1.1821 Z0.0787
G01 X3.8131 Y1.2218 Z0.0787
G01 X3.8429 Y1.2624 Z0.0787
G01 X3.8720 Y1.2990 Z0.0787
G01 X3.9059 Y1.3385 Z0.0787
G01 X3.9416 Y1.3770 Z0.0787
G01 X3.9772 Y1.4127 Z0.0787
G01 X4.0196 Y1.4524 Z0.0787
G01 X4.0645 Y1.4911 Z0.0787
G01 X4.1116 Y1.5288 Z0.0787
G01 X4.1651 Y1.5686 Z0.0787
G01 X4.2225 Y1.6081 Z0.0787
G01 X4.2858 Y1.6483 Z0.0787
G01 X4.3559 Y1.6894 Z0.0787
G01 X4.4323 Y1.7307 Z0.0787
G01 X4.5141 Y1.7712 Z0.0787
G01 X4.6053 Y1.8127 Z0.0787
G01 X4.7043 Y1.8539 Z0.0787
G01 X4.8109 Y1.8941 Z0.0787
G01 X4.9257 Y1.9334 Z0.0787
G01 X5.0505 Y1.9718 Z0.0787
G01 X5.1851 Y2.0087 Z0.0787
G01 X5.3290 Y2.0437 Z0.0787
G01 X5.4810 Y2.0762 Z0.0787
G01 X5.6459 Y2.1066 Z0.0787
G01 X5.8202 Y2.1340 Z0.0787
G01 X6.0032 Y2.1578 Z0.0787
G01 X6.1985 Y2.1783 Z0.0787
G01 X6.3386 Y2.1894 Z0.0787
G01 X6.4046 Y2.1947 Z0.0787
G01 X6.6220 Y2.2069 Z0.0789
G01 X6.6566 Y2.2080 Z0.0789
G01 X6.8488 Y2.2144 Z0.0794
G01 X6.9687 Y2.2157 Z0.0797
G01 X6.9958 Y2.2160 Z0.0799
G01 X7.2749 Y2.1985 Z0.0811
G01 X7.4023 Y2.1905 Z0.0818
G01 X7.4067 Y2.1902 Z0.0819
G01 X7.5756 Y2.1798 Z0.0829
G01 X7.8712 Y2.1615 Z0.0852
G01 X7.9409 Y2.1573 Z0.0858
G01 X7.9455 Y2.1570 Z0.0859
G01 X8.1620 Y2.1440 Z0.0879
G01 X8.4483 Y2.1267 Z0.0910
G01 X8.4803 Y2.1248 Z0.0914
G01 X8.4850 Y2.1244 Z0.0915
G01 X8.7304 Y2.1099 Z0.0946
G01 X9.0087 Y2.0935 Z0.0985
G01 X9.0192 Y2.0929 Z0.0987
G01 X9.0247 Y2.0926 Z0.0988
G01 X9.2835 Y2.0776 Z0.1028
G01 X9.5550 Y2.0619 Z0.1075
G01 X9.5588 Y2.0617 Z0.1075
G01 X9.5633 Y2.0614 Z0.1076
G01 X9.8236 Y2.0467 Z0.1124
G01 X10.0896 Y2.0316 Z0.1176
G01 X10.0979 Y2.0312 Z0.1178
G01 X10.1025 Y2.0309 Z0.1179
G01 X10.3535 Y2.0170 Z0.1231
G01 X10.6153 Y2.0025 Z0.1288
G01 X10.6369 Y2.0013 Z0.1293
G01 X10.6420 Y2.0011 Z0.1294
G01 X10.8756 Y1.9884 Z0.1348
G01 X11.1346 Y1.9744 Z0.1410
G01 X11.1768 Y1.9722 Z0.1420
G01 X11.1812 Y1.9719 Z0.1421
G01 X11.3926 Y1.9607 Z0.1473
G01 X11.6500 Y1.9471 Z0.1538
G01 X11.7157 Y1.9437 Z0.1555
G01 X11.7203 Y1.9435 Z0.1556
G01 X11.9071 Y1.9337 Z0.1604
G01 X12.1641 Y1.9205 Z0.1672
G01 X12.2553 Y1.9158 Z0.1696
G01 X12.2599 Y1.9156 Z0.1697
G01 X12.4215 Y1.9074 Z0.1740
G01 X12.6795 Y1.8944 Z0.1809
G01 X12.7947 Y1.8886 Z0.1840
G01 X12.7992 Y1.8884 Z0.1841
G01 X12.9385 Y1.8815 Z0.1879
G01 X13.1988 Y1.8687 Z0.1948
G01 X13.3337 Y1.8621 Z0.1984
G01 X13.3387 Y1.8619 Z0.1985
G01 X13.4607 Y1.8560 Z0.2017
G01 X13.7245 Y1.8434 Z0.2087
G01 X13.8738 Y1.8362 Z0.2126
G01 X13.8783 Y1.8360 Z0.2127
G01 X13.9905 Y1.8307 Z0.2156
G01 X14.2592 Y1.8182 Z0.2224
G01 X14.4128 Y1.8111 Z0.2262
G01 X14.4177 Y1.8109 Z0.2264
G01 X14.5307 Y1.8057 Z0.2292
G01 X14.8054 Y1.7933 Z0.2358
G01 X14.9529 Y1.7866 Z0.2392
G01 X14.9572 Y1.7864 Z0.2394
G01 X15.0837 Y1.7808 Z0.2423
G01 X15.3658 Y1.7683 Z0.2487
G01 X15.4922 Y1.7627 Z0.2514
G01 X15.4968 Y1.7625 Z0.2514
G01 X15.6521 Y1.7559 Z0.2548
G01 X15.9429 Y1.7433 Z0.2607
G01 X16.0314 Y1.7396 Z0.2625
G01 X16.0363 Y1.7394 Z0.2626
G01 X16.2385 Y1.7309 Z0.2665
G01 X16.5392 Y1.7184 Z0.2720
G01 X16.5716 Y1.7170 Z0.2725
G01 X16.5762 Y1.7169 Z0.2726
G01 X16.8455 Y1.7060 Z0.2772
G01 X17.1113 Y1.6952 Z0.2814
G01 X17.1157 Y1.6950 Z0.2815
G01 X17.1575 Y1.6934 Z0.2821
G01 X17.4756 Y1.6809 Z0.2868
G01 X17.6507 Y1.6740 Z0.2891
G01 X17.6556 Y1.6738 Z0.2892
G01 X17.8001 Y1.6683 Z0.2911
G01 X18.1314 Y1.6557 Z0.2950
G01 X18.1903 Y1.6535 Z0.2956
G01 X18.1949 Y1.6534 Z0.2957
G01 X18.4697 Y1.6433 Z0.2985
G01 X18.7303 Y1.6337 Z0.3009
G01 X18.7350 Y1.6335 Z0.3010
G01 X18.8154 Y1.6307 Z0.3017
G01 X19.1689 Y1.6181 Z0.3044
G01 X19.2701 Y1.6145 Z0.3051
G01 X19.2747 Y1.6144 Z0.3051
G01 X19.5303 Y1.6056 Z0.3067
G01 X19.8095 Y1.5960 Z0.3081
G01 X19.8143 Y1.5959 Z0.3081
G01 X19.9001 Y1.5931 Z0.3085
G01 X20.2787 Y1.5805 Z0.3098
G01 X20.3498 Y1.5782 Z0.3100
G01 X20.3542 Y1.5781 Z0.3100
G01 X20.6662 Y1.5681 Z0.3107
G01 X20.8894 Y1.5610 Z0.3108
G01 X20.8943 Y1.5609 Z0.3109
G01 X21.0630 Y1.5557 Z0.3110
G01 X21.4295 Y1.5445 Z0.3110
G01 X21.4338 Y1.5444 Z0.3110
G01 X21.9688 Y1.5287 Z0.3110
G01 X21.9736 Y1.5286 Z0.3110
G01 X22.5091 Y1.5135 Z0.3110
G01 X22.5138 Y1.5134 Z0.3110
G01 X23.0490 Y1.4990 Z0.3110
G01 X23.0537 Y1.4989 Z0.3110
G01 X23.5890 Y1.4852 Z0.3110
G01 X23.5934 Y1.4851 Z0.3110
G01 X24.1287 Y1.4720 Z0.3110
G01 X24.1337 Y1.4719 Z0.3110
G01 X24.6690 Y1.4596 Z0.3110
G01 X24.6733 Y1.4595 Z0.3110
G01 X25.2084 Y1.4477 Z0.3110
G01 X25.2132 Y1.4477 Z0.3110
G01 X25.7488 Y1.4366 Z0.3110
G01 X25.7535 Y1.4365 Z0.3110
G01 X26.2888 Y1.4261 Z0.3110
G01 X26.2932 Y1.4261 Z0.3110
G01 X26.8286 Y1.4163 Z0.3110
G01 X26.8335 Y1.4162 Z0.3110
G01 X27.3689 Y1.4072 Z0.3110
G01 X27.3733 Y1.4071 Z0.3110
G01 X27.9087 Y1.3987 Z0.3110
G01 X27.9134 Y1.3986 Z0.3110
G01 X28.4488 Y1.3908 Z0.3110
G01 X28.4537 Y1.3907 Z0.3110
G01 X28.9889 Y1.3837 Z0.3110
G01 X28.9931 Y1.3837 Z0.3110
G01 X29.5288 Y1.3772 Z0.3110
G01 X29.5337 Y1.3772 Z0.3110
G01 X30.0691 Y1.3714 Z0.3110
G01 X30.0738 Y1.3714 Z0.3110
G01 X30.6092 Y1.3663 Z0.3110
G01 X30.6137 Y1.3662 Z0.3110
G01 X31.1491 Y1.3618 Z0.3110
G01 X31.1538 Y1.3618 Z0.3110
G01 X31.6892 Y1.3580 Z0.3110
G01 X31.6939 Y1.3580 Z0.3110
G01 X32.2294 Y1.3549 Z0.3110
G01 X32.2340 Y1.3548 Z0.3110
G01 X32.7695 Y1.3524 Z0.3110
G01 X32.7742 Y1.3524 Z0.3110
G01 X33.3097 Y1.3506 Z0.3110
G01 X33.3143 Y1.3506 Z0.3110
G01 X33.8498 Y1.3495 Z0.3110
G01 X33.8542 Y1.3495 Z0.3110
G01 X34.3896 Y1.3490 Z0.3110
G01 X34.3943 Y1.3490 Z0.3110
G01 X34.9295 Y1.3492 Z0.3110
G01 X34.9342 Y1.3492 Z0.3110
G01 X35.4697 Y1.3501 Z0.3110
G01 X35.4743 Y1.3501 Z0.3110
G01 X36.0098 Y1.3516 Z0.3110
G01 X36.0144 Y1.3516 Z0.3110
G01 X36.5499 Y1.3538 Z0.3110
G01 X36.5546 Y1.3538 Z0.3110
G01 X37.0901 Y1.3567 Z0.3110
G01 X37.0945 Y1.3568 Z0.3110
G01 X37.6300 Y1.3603 Z0.3110
G01 X37.6346 Y1.3603 Z0.3110
G01 X38.1700 Y1.3645 Z0.3110
G01 X38.1747 Y1.3645 Z0.3110
G01 X38.7101 Y1.3694 Z0.3110
G01 X38.7148 Y1.3694 Z0.3110
G01 X39.2503 Y1.3749 Z0.3110
G01 X39.2550 Y1.3750 Z0.3110
G01 X39.7907 Y1.3811 Z0.3110
G01 X39.7954 Y1.3812 Z0.3110
G01 X40.3305 Y1.3880 Z0.3110
G01 X40.3349 Y1.3881 Z0.3110
G01 X40.8703 Y1.3955 Z0.3110
G01 X40.8750 Y1.3956 Z0.3110
G01 X41.4104 Y1.4038 Z0.3110
G01 X41.4151 Y1.4038 Z0.3110
G01 X41.9505 Y1.4127 Z0.3110
G01 X41.9551 Y1.4127 Z0.3110
G01 X42.4905 Y1.4222 Z0.3110
G01 X42.4952 Y1.4223 Z0.3110
G01 X43.0306 Y1.4325 Z0.3110
G01 X43.0353 Y1.4325 Z0.3110
G01 X43.5707 Y1.4434 Z0.3110
G01 X43.5750 Y1.4435 Z0.3110
G01 X44.1106 Y1.4550 Z0.3110
G01 X44.1154 Y1.4550 Z0.3110
G01 X44.6504 Y1.4671 Z0.3110
G01 X44.6553 Y1.4672 Z0.3110
G01 X45.1906 Y1.4801 Z0.3110
G01 X45.1950 Y1.4802 Z0.3110
G01 X45.7303 Y1.4937 Z0.3110
G01 X45.7347 Y1.4938 Z0.3110
G01 X46.2700 Y1.5079 Z0.3110
G01 X46.2749 Y1.5080 Z0.3110
G01 X46.6535 Y1.5184 Z0.3110
G01 X46.8105 Y1.5228 Z0.3109
G01 X46.8150 Y1.5229 Z0.3109
G01 X47.0502 Y1.5297 Z0.3107
G01 X47.3500 Y1.5383 Z0.3100
G01 X47.3548 Y1.5385 Z0.3100
G01 X47.4377 Y1.5409 Z0.3098
G01 X47.8162 Y1.5524 Z0.3085
G01 X47.8901 Y1.5546 Z0.3081
G01 X47.8945 Y1.5548 Z0.3081
G01 X48.1861 Y1.5639 Z0.3067
G01 X48.4297 Y1.5715 Z0.3051
G01 X48.4343 Y1.5716 Z0.3051
G01 X48.5475 Y1.5753 Z0.3044
G01 X48.9010 Y1.5868 Z0.3017
G01 X48.9698 Y1.5891 Z0.3011
G01 X48.9743 Y1.5892 Z0.3011
G01 X49.2467 Y1.5984 Z0.2985
G01 X49.5092 Y1.6073 Z0.2958
G01 X49.5140 Y1.6074 Z0.2957
G01 X49.5850 Y1.6099 Z0.2950
G01 X49.9163 Y1.6215 Z0.2911
G01 X50.0492 Y1.6262 Z0.2893
G01 X50.0536 Y1.6264 Z0.2892
G01 X50.2409 Y1.6331 Z0.2868
G01 X50.5589 Y1.6447 Z0.2821
G01 X50.5887 Y1.6458 Z0.2817
G01 X50.5933 Y1.6460 Z0.2816
G01 X50.8709 Y1.6564 Z0.2772
G01 X51.1287 Y1.6661 Z0.2728
G01 X51.1338 Y1.6662 Z0.2727
G01 X51.1772 Y1.6679 Z0.2720
G01 X51.4779 Y1.6796 Z0.2665
G01 X51.6686 Y1.6870 Z0.2628
G01 X51.6727 Y1.6872 Z0.2627
G01 X51.7735 Y1.6912 Z0.2608
G01 X52.0643 Y1.7028 Z0.2548
G01 X52.2076 Y1.7085 Z0.2517
G01 X52.2125 Y1.7087 Z0.2516
G01 X52.3506 Y1.7144 Z0.2487
G01 X52.6327 Y1.7261 Z0.2423
G01 X52.7478 Y1.7308 Z0.2396
G01 X52.7527 Y1.7310 Z0.2395
G01 X52.9110 Y1.7377 Z0.2358
G01 X53.1857 Y1.7494 Z0.2292
G01 X53.2874 Y1.7537 Z0.2266
G01 X53.2917 Y1.7539 Z0.2265
G01 X53.4572 Y1.7611 Z0.2224
G01 X53.7259 Y1.7729 Z0.2156
G01 X53.8266 Y1.7773 Z0.2130
G01 X53.8312 Y1.7775 Z0.2129
G01 X53.9919 Y1.7847 Z0.2087
G01 X54.2557 Y1.7966 Z0.2017
G01 X54.3664 Y1.8016 Z0.1988
G01 X54.3713 Y1.8017 Z0.1987
G01 X54.5176 Y1.8085 Z0.1948
G01 X54.7779 Y1.8205 Z0.1879
G01 X54.9059 Y1.8264 Z0.1844
G01 X54.9105 Y1.8267 Z0.1843
G01 X55.0369 Y1.8327 Z0.1809
G01 X55.2949 Y1.8449 Z0.1740
G01 X55.4453 Y1.8521 Z0.1700
G01 X55.4496 Y1.8523 Z0.1699
G01 X55.5523 Y1.8572 Z0.1672
G01 X55.8094 Y1.8698 Z0.1604
G01 X55.9848 Y1.8783 Z0.1559
G01 X55.9900 Y1.8785 Z0.1557
G01 X56.0664 Y1.8824 Z0.1538
G01 X56.3238 Y1.8952 Z0.1473
G01 X56.5245 Y1.9053 Z0.1424
G01 X56.5287 Y1.9055 Z0.1423
G01 X56.5818 Y1.9082 Z0.1410
G01 X56.8408 Y1.9214 Z0.1348
G01 X57.0637 Y1.9328 Z0.1297
G01 X57.0687 Y1.9330 Z0.1296
G01 X57.1011 Y1.9347 Z0.1288
G01 X57.3629 Y1.9484 Z0.1231
G01 X57.6031 Y1.9611 Z0.1181
G01 X57.6076 Y1.9613 Z0.1180
G01 X57.6268 Y1.9624 Z0.1176
G01 X57.8928 Y1.9766 Z0.1124
G01 X58.1423 Y1.9900 Z0.1078
G01 X58.1469 Y1.9903 Z0.1077
G01 X58.1614 Y1.9911 Z0.1075
G01 X58.4330 Y2.0059 Z0.1028
G01 X58.6818 Y2.0196 Z0.0989
G01 X58.6864 Y2.0198 Z0.0988
G01 X58.7077 Y2.0210 Z0.0985
G01 X58.9860 Y2.0366 Z0.0946
G01 X59.2208 Y2.0498 Z0.0916
G01 X59.2252 Y2.0501 Z0.0916
G01 X59.2681 Y2.0525 Z0.0911
G01 X59.5544 Y2.0690 Z0.0879
G01 X59.7601 Y2.0808 Z0.0860
G01 X59.7653 Y2.0810 Z0.0859
G01 X59.8452 Y2.0857 Z0.0852
G01 X60.1408 Y2.1031 Z0.0829
G01 X60.2996 Y2.1124 Z0.0819
G01 X60.3037 Y2.1127 Z0.0819
G01 X60.4415 Y2.1209 Z0.0811
G01 X60.7096 Y2.1370 Z0.0799
G01 X60.7477 Y2.1364 Z0.0798
G01 X60.7788 Y2.1360 Z0.0796
G01 X60.9154 Y2.1303 Z0.0793
G01 X61.0441 Y2.1211 Z0.0790
G01 X61.0598 Y2.1195 Z0.0789
G01 X61.1631 Y2.1091 Z0.0788
G01 X61.2756 Y2.0942 Z0.0787
G01 X61.3752 Y2.0777 Z0.0787
G01 X61.3779 Y2.0772 Z0.0787
G01 X61.4693 Y2.0590 Z0.0787
G01 X61.5546 Y2.0390 Z0.0787
G01 X61.6309 Y2.0184 Z0.0787
G01 X61.6999 Y1.9971 Z0.0787
G01 X61.7629 Y1.9751 Z0.0787
G01 X61.8194 Y1.9531 Z0.0787
G01 X61.8708 Y1.9308 Z0.0787
G01 X61.9149 Y1.9097 Z0.0787
G01 X61.9562 Y1.8879 Z0.0787
G01 X61.9934 Y1.8665 Z0.0787
G01 X62.0259 Y1.8461 Z0.0787
G01 X62.0581 Y1.8239 Z0.0787
G01 X62.0850 Y1.8040 Z0.0787
G01 X62.1127 Y1.7816 Z0.0787
G01 X62.1363 Y1.7611 Z0.0787
G01 X62.1602 Y1.7385 Z0.0787
G01 X62.1830 Y1.7154 Z0.0787
G01 X62.2068 Y1.6893 Z0.0787
G01 X62.2287 Y1.6635 Z0.0787
G01 X62.2517 Y1.6341 Z0.0787
G01 X62.2743 Y1.6032 Z0.0787
G01 X62.2971 Y1.5694 Z0.0787
G01 X62.3200 Y1.5330 Z0.0787
G01 X62.3433 Y1.4928 Z0.0787
G01 X62.3668 Y1.4491 Z0.0787
G01 X62.3896 Y1.4034 Z0.0787
G01 X62.4125 Y1.3535 Z0.0787
G01 X62.4357 Y1.2984 Z0.0787
G01 X62.4568 Y1.2441 Z0.0787
G01 X62.4792 Y1.1809 Z0.0787
G01 X62.4996 Y1.1178 Z0.0787
G01 X62.5205 Y1.0466 Z0.0787
G01 X62.5390 Y0.9771 Z0.0787
G01 X62.5568 Y0.9022 Z0.0787
G01 X62.5733 Y0.8241 Z0.0787
G01 X62.5883 Y0.7432 Z0.0787
G01 X62.6023 Y0.6566 Z0.0787
G01 X62.6141 Y0.5710 Z0.0787
G01 X62.6244 Y0.4812 Z0.0787
G01 X62.6331 Y0.3880 Z0.0787
G01 X62.6398 Y0.2939 Z0.0787
G01 X62.6446 Y0.1983 Z0.0787
G01 X62.6475 Y0.0971 Z0.0787
G01 X62.6485 Y0.0000 Z0.0787
G01 X62.6475 Y-0.0971 Z0.0787
G01 X62.6445 Y-0.1994 Z0.0787
G01 X62.6398 Y-0.2939 Z0.0787
G01 X62.6331 Y-0.3880 Z0.0787
G01 X62.6244 Y-0.4812 Z0.0787
G01 X62.6141 Y-0.5710 Z0.0787
G01 X62.6023 Y-0.6566 Z0.0787
G01 X62.5883 Y-0.7432 Z0.0787
G01 X62.5733 Y-0.8241 Z0.0787
G01 X62.5567 Y-0.9023 Z0.0787
G01 X62.5390 Y-0.9771 Z0.0787
G01 X62.5205 Y-1.0466 Z0.0787
G01 X62.4996 Y-1.1178 Z0.0787
G01 X62.4792 Y-1.1809 Z0.0787
G01 X62.4568 Y-1.2441 Z0.0787
G01 X62.4357 Y-1.2984 Z0.0787
G01 X62.4123 Y-1.3539 Z0.0787
G01 X62.3894 Y-1.4038 Z0.0787
G01 X62.3666 Y-1.4496 Z0.0787
G01 X62.3433 Y-1.4928 Z0.0787
G01 X62.3197 Y-1.5334 Z0.0787
G01 X62.2969 Y-1.5698 Z0.0787
G01 X62.2743 Y-1.6032 Z0.0787
G01 X62.2517 Y-1.6341 Z0.0787
G01 X62.2287 Y-1.6635 Z0.0787
G01 X62.2068 Y-1.6893 Z0.0787
G01 X62.1830 Y-1.7154 Z0.0787
G01 X62.1602 Y-1.7386 Z0.0787
G01 X62.1363 Y-1.7611 Z0.0787
G01 X62.1127 Y-1.7816 Z0.0787
G01 X62.0850 Y-1.8040 Z0.0787
G01 X62.0577 Y-1.8242 Z0.0787
G01 X62.0259 Y-1.8461 Z0.0787
G01 X61.9934 Y-1.8665 Z0.0787
G01 X61.9562 Y-1.8879 Z0.0787
G01 X61.9149 Y-1.9097 Z0.0787
G01 X61.8708 Y-1.9308 Z0.0787
G01 X61.8194 Y-1.9531 Z0.0787
G01 X61.7629 Y-1.9751 Z0.0787
G01 X61.6999 Y-1.9971 Z0.0787
G01 X61.6307 Y-2.0185 Z0.0787
G01 X61.5546 Y-2.0390 Z0.0787
G01 X61.4693 Y-2.0590 Z0.0787
G01 X61.3779 Y-2.0772 Z0.0787
G01 X61.3752 Y-2.0777 Z0.0787
G01 X61.2756 Y-2.0942 Z0.0787
G01 X61.1631 Y-2.1091 Z0.0788
G01 X61.0598 Y-2.1195 Z0.0789
G01 X61.0441 Y-2.1211 Z0.0790
G01 X60.9154 Y-2.1303 Z0.0793
G01 X60.7788 Y-2.1360 Z0.0796
G01 X60.7477 Y-2.1364 Z0.0798
G01 X60.7096 Y-2.1370 Z0.0799
G01 X60.4415 Y-2.1209 Z0.0811
G01 X60.3037 Y-2.1127 Z0.0819
G01 X60.2996 Y-2.1124 Z0.0819
G01 X60.1408 Y-2.1031 Z0.0829
G01 X59.8452 Y-2.0857 Z0.0852
G01 X59.7653 Y-2.0810 Z0.0859
G01 X59.7601 Y-2.0808 Z0.0860
G01 X59.5544 Y-2.0690 Z0.0879
G01 X59.2681 Y-2.0525 Z0.0911
G01 X59.2252 Y-2.0501 Z0.0916
G01 X59.2208 Y-2.0498 Z0.0916
G01 X58.9860 Y-2.0366 Z0.0946
G01 X58.7077 Y-2.0210 Z0.0985
G01 X58.6864 Y-2.0198 Z0.0988
G01 X58.6818 Y-2.0196 Z0.0989
G01 X58.4330 Y-2.0059 Z0.1028
G01 X58.1614 Y-1.9911 Z0.1075
G01 X58.1469 Y-1.9903 Z0.1077
G01 X58.1423 Y-1.9900 Z0.1078
G01 X57.8928 Y-1.9766 Z0.1124
G01 X57.6268 Y-1.9624 Z0.1176
G01 X57.6076 Y-1.9613 Z0.1180
G01 X57.6031 Y-1.9611 Z0.1181
G01 X57.3629 Y-1.9485 Z0.1231
G01 X57.1011 Y-1.9347 Z0.1288
G01 X57.0687 Y-1.9330 Z0.1296
G01 X57.0637 Y-1.9328 Z0.1297
G01 X56.8408 Y-1.9214 Z0.1348
G01 X56.5818 Y-1.9081 Z0.1410
G01 X56.5287 Y-1.9055 Z0.1423
G01 X56.5245 Y-1.9053 Z0.1424
G01 X56.3238 Y-1.8952 Z0.1473
G01 X56.0664 Y-1.8824 Z0.1538
G01 X55.9900 Y-1.8785 Z0.1557
G01 X55.9848 Y-1.8783 Z0.1559
G01 X55.8094 Y-1.8698 Z0.1604
G01 X55.5523 Y-1.8572 Z0.1672
G01 X55.4496 Y-1.8523 Z0.1699
G01 X55.4453 Y-1.8521 Z0.1700
G01 X55.2949 Y-1.8449 Z0.1740
G01 X55.0369 Y-1.8327 Z0.1809
G01 X54.9105 Y-1.8267 Z0.1843
G01 X54.9059 Y-1.8264 Z0.1844
G01 X54.7779 Y-1.8205 Z0.1879
G01 X54.5176 Y-1.8085 Z0.1948
G01 X54.3713 Y-1.8017 Z0.1987
G01 X54.3664 Y-1.8016 Z0.1988
G01 X54.2557 Y-1.7966 Z0.2017
G01 X53.9919 Y-1.7847 Z0.2087
G01 X53.8312 Y-1.7775 Z0.2129
G01 X53.8266 Y-1.7773 Z0.2130
G01 X53.7259 Y-1.7729 Z0.2156
G01 X53.4572 Y-1.7611 Z0.2224
G01 X53.2917 Y-1.7539 Z0.2265
G01 X53.2874 Y-1.7537 Z0.2266
G01 X53.1857 Y-1.7494 Z0.2292
G01 X52.9110 Y-1.7377 Z0.2358
G01 X52.7527 Y-1.7310 Z0.2395
G01 X52.7478 Y-1.7309 Z0.2396
G01 X52.6327 Y-1.7261 Z0.2423
G01 X52.3506 Y-1.7144 Z0.2487
G01 X52.2125 Y-1.7087 Z0.2516
G01 X52.2076 Y-1.7085 Z0.2517
G01 X52.0643 Y-1.7028 Z0.2548
G01 X51.7735 Y-1.6912 Z0.2608
G01 X51.6727 Y-1.6872 Z0.2627
G01 X51.6686 Y-1.6870 Z0.2628
G01 X51.4779 Y-1.6796 Z0.2665
G01 X51.1772 Y-1.6679 Z0.2720
G01 X51.1338 Y-1.6662 Z0.2727
G01 X51.1287 Y-1.6661 Z0.2728
G01 X50.8709 Y-1.6564 Z0.2772
G01 X50.5933 Y-1.6460 Z0.2816
G01 X50.5887 Y-1.6458 Z0.2817
G01 X50.5589 Y-1.6447 Z0.2821
G01 X50.2409 Y-1.6331 Z0.2868
G01 X50.0536 Y-1.6264 Z0.2892
G01 X50.0492 Y-1.6262 Z0.2893
G01 X49.9163 Y-1.6215 Z0.2911
G01 X49.5850 Y-1.6099 Z0.2950
G01 X49.5140 Y-1.6074 Z0.2957
G01 X49.5092 Y-1.6073 Z0.2958
G01 X49.2467 Y-1.5984 Z0.2985
G01 X48.9743 Y-1.5892 Z0.3011
G01 X48.9698 Y-1.5891 Z0.3011
G01 X48.9010 Y-1.5868 Z0.3017
G01 X48.5475 Y-1.5753 Z0.3044
G01 X48.4343 Y-1.5716 Z0.3051
G01 X48.4297 Y-1.5715 Z0.3051
G01 X48.1861 Y-1.5639 Z0.3067
G01 X47.8945 Y-1.5548 Z0.3081
G01 X47.8901 Y-1.5546 Z0.3081
G01 X47.8162 Y-1.5524 Z0.3085
G01 X47.4377 Y-1.5409 Z0.3098
G01 X47.3548 Y-1.5385 Z0.3100
G01 X47.3500 Y-1.5383 Z0.3100
G01 X47.0502 Y-1.5297 Z0.3107
G01 X46.8150 Y-1.5229 Z0.3109
G01 X46.8105 Y-1.5228 Z0.3109
G01 X46.6535 Y-1.5184 Z0.3110
G01 X46.2749 Y-1.5080 Z0.3110
G01 X46.2700 Y-1.5079 Z0.3110
G01 X45.7347 Y-1.4938 Z0.3110
G01 X45.7303 Y-1.4937 Z0.3110
G01 X45.1950 Y-1.4802 Z0.3110
G01 X45.1906 Y-1.4801 Z0.3110
G01 X44.6553 Y-1.4672 Z0.3110
G01 X44.6504 Y-1.4671 Z0.3110
G01 X44.1154 Y-1.4550 Z0.3110
G01 X44.1106 Y-1.4550 Z0.3110
G01 X43.5750 Y-1.4435 Z0.3110
G01 X43.5707 Y-1.4434 Z0.3110
G01 X43.0353 Y-1.4325 Z0.3110
G01 X43.0306 Y-1.4325 Z0.3110
G01 X42.4952 Y-1.4223 Z0.3110
G01 X42.4905 Y-1.4222 Z0.3110
G01 X41.9551 Y-1.4127 Z0.3110
G01 X41.9505 Y-1.4127 Z0.3110
G01 X41.4151 Y-1.4038 Z0.3110
G01 X41.4104 Y-1.4038 Z0.3110
G01 X40.8750 Y-1.3956 Z0.3110
G01 X40.8703 Y-1.3955 Z0.3110
G01 X40.3349 Y-1.3881 Z0.3110
G01 X40.3305 Y-1.3880 Z0.3110
G01 X39.7954 Y-1.3812 Z0.3110
G01 X39.7907 Y-1.3812 Z0.3110
G01 X39.2550 Y-1.3750 Z0.3110
G01 X39.2503 Y-1.3749 Z0.3110
G01 X38.7148 Y-1.3694 Z0.3110
G01 X38.7101 Y-1.3694 Z0.3110
G01 X38.1747 Y-1.3645 Z0.3110
G01 X38.1700 Y-1.3645 Z0.3110
G01 X37.6346 Y-1.3603 Z0.3110
G01 X37.6300 Y-1.3603 Z0.3110
G01 X37.0945 Y-1.3568 Z0.3110
G01 X37.0901 Y-1.3567 Z0.3110
G01 X36.5546 Y-1.3538 Z0.3110
G01 X36.5499 Y-1.3538 Z0.3110
G01 X36.0144 Y-1.3516 Z0.3110
G01 X36.0098 Y-1.3516 Z0.3110
G01 X35.4743 Y-1.3501 Z0.3110
G01 X35.4697 Y-1.3501 Z0.3110
G01 X34.9342 Y-1.3492 Z0.3110
G01 X34.9295 Y-1.3492 Z0.3110
G01 X34.3943 Y-1.3490 Z0.3110
G01 X34.3896 Y-1.3490 Z0.3110
G01 X33.8542 Y-1.3495 Z0.3110
G01 X33.8498 Y-1.3495 Z0.3110
G01 X33.3143 Y-1.3506 Z0.3110
G01 X33.3097 Y-1.3506 Z0.3110
G01 X32.7742 Y-1.3524 Z0.3110
G01 X32.7695 Y-1.3524 Z0.3110
G01 X32.2340 Y-1.3548 Z0.3110
G01 X32.2294 Y-1.3549 Z0.3110
G01 X31.6939 Y-1.3580 Z0.3110
G01 X31.6892 Y-1.3580 Z0.3110
G01 X31.1538 Y-1.3618 Z0.3110
G01 X31.1491 Y-1.3618 Z0.3110
G01 X30.6137 Y-1.3662 Z0.3110
G01 X30.6092 Y-1.3663 Z0.3110
G01 X30.0738 Y-1.3714 Z0.3110
G01 X30.0691 Y-1.3714 Z0.3110
G01 X29.5337 Y-1.3772 Z0.3110
G01 X29.5288 Y-1.3772 Z0.3110
G01 X28.9931 Y-1.3837 Z0.3110
G01 X28.9889 Y-1.3837 Z0.3110
G01 X28.4537 Y-1.3907 Z0.3110
G01 X28.4488 Y-1.3908 Z0.3110
G01 X27.9134 Y-1.3986 Z0.3110
G01 X27.9087 Y-1.3987 Z0.3110
G01 X27.3733 Y-1.4071 Z0.3110
G01 X27.3689 Y-1.4072 Z0.3110
G01 X26.8335 Y-1.4162 Z0.3110
G01 X26.8286 Y-1.4163 Z0.3110
G01 X26.2932 Y-1.4261 Z0.3110
G01 X26.2888 Y-1.4261 Z0.3110
G01 X25.7535 Y-1.4365 Z0.3110
G01 X25.7488 Y-1.4366 Z0.3110
G01 X25.2132 Y-1.4477 Z0.3110
G01 X25.2084 Y-1.4477 Z0.3110
G01 X24.6733 Y-1.4595 Z0.3110
G01 X24.6690 Y-1.4596 Z0.3110
G01 X24.1337 Y-1.4719 Z0.3110
G01 X24.1287 Y-1.4720 Z0.3110
G01 X23.5934 Y-1.4851 Z0.3110
G01 X23.5890 Y-1.4852 Z0.3110
G01 X23.0537 Y-1.4989 Z0.3110
G01 X23.0490 Y-1.4990 Z0.3110
G01 X22.5138 Y-1.5134 Z0.3110
G01 X22.5091 Y-1.5135 Z0.3110
G01 X21.9736 Y-1.5286 Z0.3110
G01 X21.9688 Y-1.5287 Z0.3110
G01 X21.4338 Y-1.5444 Z0.3110
G01 X21.4295 Y-1.5445 Z0.3110
G01 X21.0630 Y-1.5557 Z0.3110
G01 X20.8943 Y-1.5609 Z0.3109
G01 X20.8894 Y-1.5610 Z0.3108
G01 X20.6662 Y-1.5681 Z0.3107
G01 X20.3542 Y-1.5781 Z0.3100
G01 X20.3498 Y-1.5782 Z0.3100
G01 X20.2787 Y-1.5805 Z0.3098
G01 X19.9001 Y-1.5930 Z0.3085
G01 X19.8143 Y-1.5959 Z0.3081
G01 X19.8095 Y-1.5960 Z0.3081
G01 X19.5303 Y-1.6056 Z0.3067
G01 X19.2747 Y-1.6144 Z0.3051
G01 X19.2701 Y-1.6145 Z0.3051
G01 X19.1689 Y-1.6181 Z0.3044
G01 X18.8154 Y-1.6307 Z0.3017
G01 X18.7350 Y-1.6335 Z0.3010
G01 X18.7303 Y-1.6337 Z0.3009
G01 X18.4697 Y-1.6433 Z0.2985
G01 X18.1949 Y-1.6534 Z0.2957
G01 X18.1903 Y-1.6535 Z0.2956
G01 X18.1314 Y-1.6557 Z0.2950
G01 X17.8001 Y-1.6683 Z0.2911
G01 X17.6556 Y-1.6738 Z0.2892
G01 X17.6507 Y-1.6740 Z0.2891
G01 X17.4756 Y-1.6809 Z0.2868
G01 X17.1575 Y-1.6934 Z0.2821
G01 X17.1157 Y-1.6950 Z0.2815
G01 X17.1113 Y-1.6952 Z0.2814
G01 X16.8455 Y-1.7060 Z0.2772
G01 X16.5762 Y-1.7169 Z0.2726
G01 X16.5716 Y-1.7170 Z0.2725
G01 X16.5392 Y-1.7184 Z0.2720
G01 X16.2385 Y-1.7309 Z0.2665
G01 X16.0363 Y-1.7394 Z0.2626
G01 X16.0314 Y-1.7396 Z0.2625
G01 X15.9429 Y-1.7433 Z0.2607
G01 X15.6521 Y-1.7559 Z0.2548
G01 X15.4968 Y-1.7625 Z0.2514
G01 X15.4922 Y-1.7627 Z0.2514
G01 X15.3658 Y-1.7683 Z0.2487
G01 X15.0837 Y-1.7808 Z0.2423
G01 X14.9572 Y-1.7864 Z0.2394
G01 X14.9529 Y-1.7866 Z0.2392
G01 X14.8054 Y-1.7933 Z0.2358
G01 X14.5307 Y-1.8057 Z0.2292
G01 X14.4177 Y-1.8109 Z0.2264
G01 X14.4128 Y-1.8111 Z0.2262
G01 X14.2592 Y-1.8182 Z0.2224
G01 X13.9905 Y-1.8307 Z0.2156
G01 X13.8783 Y-1.8360 Z0.2127
G01 X13.8738 Y-1.8362 Z0.2126
G01 X13.7245 Y-1.8434 Z0.2087
G01 X13.4607 Y-1.8560 Z0.2017
G01 X13.3387 Y-1.8619 Z0.1985
G01 X13.3337 Y-1.8621 Z0.1984
G01 X13.1988 Y-1.8687 Z0.1948
G01 X12.9385 Y-1.8815 Z0.1879
G01 X12.7992 Y-1.8884 Z0.1841
G01 X12.7947 Y-1.8886 Z0.1840
G01 X12.6795 Y-1.8944 Z0.1809
G01 X12.4215 Y-1.9074 Z0.1740
G01 X12.2599 Y-1.9156 Z0.1697
G01 X12.2553 Y-1.9158 Z0.1696
G01 X12.1641 Y-1.9205 Z0.1672
G01 X11.9071 Y-1.9337 Z0.1604
G01 X11.7203 Y-1.9434 Z0.1556
G01 X11.7157 Y-1.9437 Z0.1555
G01 X11.6500 Y-1.9471 Z0.1538
G01 X11.3926 Y-1.9607 Z0.1473
G01 X11.1812 Y-1.9719 Z0.1421
G01 X11.1768 Y-1.9722 Z0.1420
G01 X11.1346 Y-1.9744 Z0.1410
G01 X10.8756 Y-1.9884 Z0.1348
G01 X10.6420 Y-2.0011 Z0.1294
G01 X10.6369 Y-2.0013 Z0.1293
G01 X10.6153 Y-2.0025 Z0.1288
G01 X10.3535 Y-2.0170 Z0.1231
G01 X10.1025 Y-2.0309 Z0.1179
G01 X10.0979 Y-2.0312 Z0.1178
G01 X10.0896 Y-2.0316 Z0.1176
G01 X9.8236 Y-2.0467 Z0.1124
G01 X9.5633 Y-2.0614 Z0.1076
G01 X9.5588 Y-2.0617 Z0.1075
G01 X9.5550 Y-2.0619 Z0.1075
G01 X9.2835 Y-2.0776 Z0.1028
G01 X9.0247 Y-2.0926 Z0.0988
G01 X9.0192 Y-2.0929 Z0.0987
G01 X9.0087 Y-2.0935 Z0.0985
G01 X8.7304 Y-2.1099 Z0.0946
G01 X8.4850 Y-2.1244 Z0.0915
G01 X8.4803 Y-2.1248 Z0.0914
G01 X8.4483 Y-2.1267 Z0.0910
G01 X8.1620 Y-2.1440 Z0.0879
G01 X7.9455 Y-2.1570 Z0.0859
G01 X7.9409 Y-2.1573 Z0.0858
G01 X7.8712 Y-2.1615 Z0.0852
G01 X7.5756 Y-2.1798 Z0.0829
G01 X7.4067 Y-2.1902 Z0.0819
G01 X7.4023 Y-2.1905 Z0.0818
G01 X7.2749 Y-2.1985 Z0.0811
G01 X6.9958 Y-2.2160 Z0.0799
G01 X6.9687 Y-2.2157 Z0.0797
G01 X6.8488 Y-2.2144 Z0.0794
G01 X6.6566 Y-2.2080 Z0.0789
G01 X6.6220 Y-2.2069 Z0.0789
G01 X6.4046 Y-2.1947 Z0.0787
G01 X6.3386 Y-2.1894 Z0.0787
G01 X6.1985 Y-2.1783 Z0.0787
G01 X6.0032 Y-2.1578 Z0.0787
G01 X5.8202 Y-2.1340 Z0.0787
G01 X5.6459 Y-2.1066 Z0.0787
G01 X5.4810 Y-2.0762 Z0.0787
G01 X5.3290 Y-2.0437 Z0.0787
G01 X5.1851 Y-2.0087 Z0.0787
G01 X5.0505 Y-1.9718 Z0.0787
G01 X4.9257 Y-1.9334 Z0.0787
G01 X4.8109 Y-1.8941 Z0.0787
G01 X4.7043 Y-1.8539 Z0.0787
G01 X4.6053 Y-1.8127 Z0.0787
G01 X4.5141 Y-1.7712 Z0.0787
G01 X4.4323 Y-1.7307 Z0.0787
G01 X4.3559 Y-1.6894 Z0.0787
G01 X4.2858 Y-1.6483 Z0.0787
G01 X4.2225 Y-1.6081 Z0.0787
G01 X4.1651 Y-1.5686 Z0.0787
G01 X4.1116 Y-1.5288 Z0.0787
G01 X4.0645 Y-1.4911 Z0.0787
G01 X4.0196 Y-1.4524 Z0.0787
G01 X3.9776 Y-1.4132 Z0.0787
G01 X3.9416 Y-1.3770 Z0.0787
G01 X3.9059 Y-1.3385 Z0.0787
G01 X3.8720 Y-1.2990 Z0.0787
G01 X3.8429 Y-1.2624 Z0.0787
G01 X3.8131 Y-1.2218 Z0.0787
G01 X3.7860 Y-1.1821 Z0.0787
G01 X3.7591 Y-1.1395 Z0.0787
G01 X3.7343 Y-1.0968 Z0.0787
G01 X3.7103 Y-1.0520 Z0.0787
G01 X3.6866 Y-1.0038 Z0.0787
G01 X3.6648 Y-0.9553 Z0.0787
G01 X3.6442 Y-0.9053 Z0.0787
G01 X3.6240 Y-0.8510 Z0.0787
G01 X3.6046 Y-0.7931 Z0.0787
G01 X3.5866 Y-0.7337 Z0.0787
G01 X3.5701 Y-0.6720 Z0.0787
G01 X3.5548 Y-0.6070 Z0.0787
G01 X3.5411 Y-0.5398 Z0.0787
G01 X3.5287 Y-0.4694 Z0.0787
G01 X3.5185 Y-0.3990 Z0.0787
G01 X3.5094 Y-0.3221 Z0.0787
G01 X3.5024 Y-0.2442 Z0.0787
G01 X3.4972 Y-0.1636 Z0.0787
G01 X3.4943 Y-0.0859 Z0.0787
G01 X3.4932 Y0.0000 Z0.0787
G01 X2.7451 Y0.0000 Z0.0787 F20
G01 X2.7451 Y0.0000 Z0.0787 F50
G01 X2.7464 Y0.1021 Z0.0787
G01 X2.7501 Y0.2016 Z0.0787
G01 X2.7566 Y0.3029 Z0.0787
G01 X2.7653 Y0.3992 Z0.0787
G01 X2.7767 Y0.4955 Z0.0787
G01 X2.7902 Y0.5883 Z0.0787
G01 X2.8060 Y0.6787 Z0.0787
G01 X2.8247 Y0.7700 Z0.0787
G01 X2.8442 Y0.8529 Z0.0787
G01 X2.8675 Y0.9399 Z0.0787
G01 X2.8918 Y1.0205 Z0.0787
G01 X2.9183 Y1.0994 Z0.0787
G01 X2.9474 Y1.1775 Z0.0787
G01 X2.9777 Y1.2513 Z0.0787
G01 X3.0096 Y1.3222 Z0.0787
G01 X3.0447 Y1.3936 Z0.0787
G01 X3.0809 Y1.4612 Z0.0787
G01 X3.1198 Y1.5280 Z0.0787
G01 X3.1603 Y1.5922 Z0.0787
G01 X3.2027 Y1.6545 Z0.0787
G01 X3.2490 Y1.7172 Z0.0787
G01 X3.2955 Y1.7758 Z0.0787
G01 X3.3472 Y1.8359 Z0.0787
G01 X3.4015 Y1.8948 Z0.0787
G01 X3.4581 Y1.9515 Z0.0787
G01 X3.5205 Y2.0096 Z0.0787
G01 X3.5848 Y2.0652 Z0.0787
G01 X3.6553 Y2.1217 Z0.0787
G01 X3.7297 Y2.1769 Z0.0787
G01 X3.8101 Y2.2322 Z0.0787
G01 X3.8964 Y2.2870 Z0.0787
G01 X3.9877 Y2.3406 Z0.0787
G01 X4.0889 Y2.3953 Z0.0787
G01 X4.1923 Y2.4466 Z0.0787
G01 X4.3066 Y2.4986 Z0.0787
G01 X4.4285 Y2.5493 Z0.0787
G01 X4.5582 Y2.5983 Z0.0787
G01 X4.6945 Y2.6448 Z0.0787
G01 X4.8422 Y2.6903 Z0.0787
G01 X4.9967 Y2.7327 Z0.0787
G01 X5.1619 Y2.7729 Z0.0787
G01 X5.3357 Y2.8100 Z0.0787
G01 X5.5191 Y2.8439 Z0.0787
G01 X5.7145 Y2.8746 Z0.0787
G01 X5.9162 Y2.9008 Z0.0787
G01 X6.1301 Y2.9232 Z0.0787
G01 X6.3386 Y2.9398 Z0.0787
G01 X6.3528 Y2.9410 Z0.0787
G01 X6.5881 Y2.9542 Z0.0788
G01 X6.6566 Y2.9564 Z0.0789
G01 X6.8338 Y2.9623 Z0.0794
G01 X6.9687 Y2.9637 Z0.0797
G01 X7.0148 Y2.9642 Z0.0800
G01 X7.2749 Y2.9479 Z0.0811
G01 X7.4492 Y2.9370 Z0.0821
G01 X7.4527 Y2.9368 Z0.0822
G01 X7.5756 Y2.9292 Z0.0829
G01 X7.8712 Y2.9109 Z0.0852
G01 X7.9869 Y2.9038 Z0.0862
G01 X7.9906 Y2.9037 Z0.0863
G01 X8.1620 Y2.8933 Z0.0879
G01 X8.4483 Y2.8760 Z0.0910
G01 X8.5254 Y2.8714 Z0.0920
G01 X8.5292 Y2.8711 Z0.0920
G01 X8.7304 Y2.8592 Z0.0946
G01 X9.0087 Y2.8427 Z0.0985
G01 X9.0634 Y2.8396 Z0.0994
G01 X9.0679 Y2.8394 Z0.0994
G01 X9.2835 Y2.8269 Z0.1028
G01 X9.5550 Y2.8112 Z0.1075
G01 X9.6020 Y2.8085 Z0.1083
G01 X9.6056 Y2.8083 Z0.1084
G01 X9.8236 Y2.7959 Z0.1124
G01 X10.0896 Y2.7808 Z0.1176
G01 X10.1402 Y2.7780 Z0.1187
G01 X10.1439 Y2.7777 Z0.1187
G01 X10.3535 Y2.7661 Z0.1231
G01 X10.6153 Y2.7516 Z0.1288
G01 X10.6783 Y2.7481 Z0.1303
G01 X10.6825 Y2.7480 Z0.1303
G01 X10.8756 Y2.7375 Z0.1348
G01 X11.1346 Y2.7235 Z0.1410
G01 X11.2172 Y2.7190 Z0.1430
G01 X11.2207 Y2.7188 Z0.1431
G01 X11.3926 Y2.7098 Z0.1473
G01 X11.6500 Y2.6961 Z0.1538
G01 X11.7552 Y2.6906 Z0.1565
G01 X11.7589 Y2.6904 Z0.1566
G01 X11.9071 Y2.6827 Z0.1604
G01 X12.1641 Y2.6695 Z0.1672
G01 X12.2939 Y2.6628 Z0.1706
G01 X12.2976 Y2.6626 Z0.1707
G01 X12.4215 Y2.6563 Z0.1740
G01 X12.6795 Y2.6433 Z0.1809
G01 X12.8324 Y2.6356 Z0.1850
G01 X12.8360 Y2.6355 Z0.1851
G01 X12.9385 Y2.6304 Z0.1879
G01 X13.1988 Y2.6176 Z0.1948
G01 X13.3705 Y2.6092 Z0.1994
G01 X13.3744 Y2.6090 Z0.1995
G01 X13.4607 Y2.6049 Z0.2017
G01 X13.7245 Y2.5922 Z0.2087
G01 X13.9096 Y2.5834 Z0.2135
G01 X13.9131 Y2.5832 Z0.2136
G01 X13.9905 Y2.5796 Z0.2156
G01 X14.2592 Y2.5670 Z0.2224
G01 X14.4477 Y2.5583 Z0.2271
G01 X14.4516 Y2.5581 Z0.2272
G01 X14.5307 Y2.5545 Z0.2292
G01 X14.8054 Y2.5420 Z0.2358
G01 X14.9869 Y2.5338 Z0.2400
G01 X14.9903 Y2.5337 Z0.2401
G01 X15.0837 Y2.5295 Z0.2423
G01 X15.3658 Y2.5170 Z0.2487
G01 X15.5253 Y2.5100 Z0.2521
G01 X15.5289 Y2.5098 Z0.2522
G01 X15.6521 Y2.5045 Z0.2548
G01 X15.9429 Y2.4920 Z0.2607
G01 X16.0636 Y2.4868 Z0.2631
G01 X16.0675 Y2.4867 Z0.2632
G01 X16.2385 Y2.4796 Z0.2665
G01 X16.5392 Y2.4670 Z0.2720
G01 X16.6028 Y2.4644 Z0.2731
G01 X16.6064 Y2.4642 Z0.2731
G01 X16.8455 Y2.4546 Z0.2772
G01 X17.1415 Y2.4426 Z0.2819
G01 X17.1450 Y2.4425 Z0.2820
G01 X17.1575 Y2.4420 Z0.2821
G01 X17.4756 Y2.4294 Z0.2868
G01 X17.6801 Y2.4214 Z0.2895
G01 X17.6840 Y2.4213 Z0.2895
G01 X17.8001 Y2.4168 Z0.2911
G01 X18.1314 Y2.4043 Z0.2950
G01 X18.2187 Y2.4010 Z0.2959
G01 X18.2224 Y2.4009 Z0.2960
G01 X18.4697 Y2.3918 Z0.2985
G01 X18.7578 Y2.3812 Z0.3012
G01 X18.7615 Y2.3811 Z0.3012
G01 X18.8154 Y2.3791 Z0.3017
G01 X19.1689 Y2.3666 Z0.3044
G01 X19.2966 Y2.3620 Z0.3052
G01 X19.3003 Y2.3619 Z0.3053
G01 X19.5303 Y2.3540 Z0.3067
G01 X19.8351 Y2.3436 Z0.3082
G01 X19.8390 Y2.3435 Z0.3082
G01 X19.9001 Y2.3414 Z0.3085
G01 X20.2787 Y2.3289 Z0.3098
G01 X20.3745 Y2.3258 Z0.3101
G01 X20.3780 Y2.3257 Z0.3101
G01 X20.6662 Y2.3165 Z0.3107
G01 X20.9132 Y2.3087 Z0.3109
G01 X20.9171 Y2.3085 Z0.3109
G01 X21.0630 Y2.3040 Z0.3110
G01 X21.4523 Y2.2922 Z0.3110
G01 X21.4558 Y2.2921 Z0.3110
G01 X21.9907 Y2.2764 Z0.3110
G01 X21.9946 Y2.2763 Z0.3110
G01 X22.5301 Y2.2612 Z0.3110
G01 X22.5338 Y2.2611 Z0.3110
G01 X23.0691 Y2.2468 Z0.3110
G01 X23.0728 Y2.2467 Z0.3110
G01 X23.6081 Y2.2330 Z0.3110
G01 X23.6116 Y2.2329 Z0.3110
G01 X24.1470 Y2.2198 Z0.3110
G01 X24.1509 Y2.2197 Z0.3110
G01 X24.6862 Y2.2074 Z0.3110
G01 X24.6898 Y2.2073 Z0.3110
G01 X25.2248 Y2.1955 Z0.3110
G01 X25.2286 Y2.1955 Z0.3110
G01 X25.7643 Y2.1844 Z0.3110
G01 X25.7680 Y2.1844 Z0.3110
G01 X26.3033 Y2.1740 Z0.3110
G01 X26.3068 Y2.1739 Z0.3110
G01 X26.8422 Y2.1642 Z0.3110
G01 X26.8462 Y2.1641 Z0.3110
G01 X27.3816 Y2.1550 Z0.3110
G01 X27.3851 Y2.1550 Z0.3110
G01 X27.9205 Y2.1465 Z0.3110
G01 X27.9242 Y2.1465 Z0.3110
G01 X28.4596 Y2.1387 Z0.3110
G01 X28.4636 Y2.1387 Z0.3110
G01 X28.9987 Y2.1316 Z0.3110
G01 X29.0021 Y2.1316 Z0.3110
G01 X29.5378 Y2.1252 Z0.3110
G01 X29.5418 Y2.1251 Z0.3110
G01 X30.0772 Y2.1194 Z0.3110
G01 X30.0809 Y2.1193 Z0.3110
G01 X30.6163 Y2.1142 Z0.3110
G01 X30.6199 Y2.1142 Z0.3110
G01 X31.1553 Y2.1098 Z0.3110
G01 X31.1591 Y2.1098 Z0.3110
G01 X31.6945 Y2.1060 Z0.3110
G01 X31.6983 Y2.1059 Z0.3110
G01 X32.2337 Y2.1028 Z0.3110
G01 X32.2375 Y2.1028 Z0.3110
G01 X32.7729 Y2.1004 Z0.3110
G01 X32.7767 Y2.1003 Z0.3110
G01 X33.3122 Y2.0986 Z0.3110
G01 X33.3159 Y2.0986 Z0.3110
G01 X33.8514 Y2.0975 Z0.3110
G01 X33.8549 Y2.0975 Z0.3110
G01 X34.3903 Y2.0970 Z0.3110
G01 X34.3940 Y2.0970 Z0.3110
G01 X34.9292 Y2.0972 Z0.3110
G01 X34.9330 Y2.0972 Z0.3110
G01 X35.4685 Y2.0981 Z0.3110
G01 X35.4722 Y2.0981 Z0.3110
G01 X36.0076 Y2.0996 Z0.3110
G01 X36.0114 Y2.0996 Z0.3110
G01 X36.5468 Y2.1018 Z0.3110
G01 X36.5506 Y2.1018 Z0.3110
G01 X37.0861 Y2.1047 Z0.3110
G01 X37.0896 Y2.1048 Z0.3110
G01 X37.6250 Y2.1083 Z0.3110
G01 X37.6288 Y2.1083 Z0.3110
G01 X38.1642 Y2.1124 Z0.3110
G01 X38.1679 Y2.1125 Z0.3110
G01 X38.7034 Y2.1173 Z0.3110
G01 X38.7071 Y2.1174 Z0.3110
G01 X39.2426 Y2.1229 Z0.3110
G01 X39.2463 Y2.1229 Z0.3110
G01 X39.7821 Y2.1291 Z0.3110
G01 X39.7859 Y2.1291 Z0.3110
G01 X40.3209 Y2.1359 Z0.3110
G01 X40.3244 Y2.1360 Z0.3110
G01 X40.8599 Y2.1435 Z0.3110
G01 X40.8637 Y2.1435 Z0.3110
G01 X41.3990 Y2.1517 Z0.3110
G01 X41.4028 Y2.1517 Z0.3110
G01 X41.9382 Y2.1605 Z0.3110
G01 X41.9419 Y2.1606 Z0.3110
G01 X42.4773 Y2.1701 Z0.3110
G01 X42.4810 Y2.1702 Z0.3110
G01 X43.0164 Y2.1803 Z0.3110
G01 X43.0201 Y2.1804 Z0.3110
G01 X43.5555 Y2.1912 Z0.3110
G01 X43.5590 Y2.1913 Z0.3110
G01 X44.0946 Y2.2027 Z0.3110
G01 X44.0985 Y2.2028 Z0.3110
G01 X44.6335 Y2.2150 Z0.3110
G01 X44.6374 Y2.2150 Z0.3110
G01 X45.1727 Y2.2279 Z0.3110
G01 X45.1762 Y2.2279 Z0.3110
G01 X45.7115 Y2.2414 Z0.3110
G01 X45.7150 Y2.2415 Z0.3110
G01 X46.2503 Y2.2556 Z0.3110
G01 X46.2542 Y2.2557 Z0.3110
G01 X46.6535 Y2.2667 Z0.3110
G01 X46.7898 Y2.2705 Z0.3109
G01 X46.7935 Y2.2706 Z0.3109
G01 X47.0502 Y2.2780 Z0.3107
G01 X47.3284 Y2.2860 Z0.3101
G01 X47.3323 Y2.2861 Z0.3101
G01 X47.4377 Y2.2893 Z0.3098
G01 X47.8162 Y2.3007 Z0.3085
G01 X47.8675 Y2.3023 Z0.3083
G01 X47.8711 Y2.3024 Z0.3083
G01 X48.1861 Y2.3122 Z0.3067
G01 X48.4062 Y2.3191 Z0.3053
G01 X48.4100 Y2.3192 Z0.3053
G01 X48.5475 Y2.3237 Z0.3044
G01 X48.9010 Y2.3352 Z0.3017
G01 X48.9454 Y2.3367 Z0.3013
G01 X48.9490 Y2.3368 Z0.3012
G01 X49.2467 Y2.3468 Z0.2985
G01 X49.4839 Y2.3548 Z0.2961
G01 X49.4878 Y2.3550 Z0.2960
G01 X49.5850 Y2.3584 Z0.2950
G01 X49.9163 Y2.3700 Z0.2911
G01 X50.0229 Y2.3738 Z0.2897
G01 X50.0265 Y2.3739 Z0.2896
G01 X50.2409 Y2.3816 Z0.2868
G01 X50.5589 Y2.3932 Z0.2821
G01 X50.5616 Y2.3933 Z0.2821
G01 X50.5653 Y2.3934 Z0.2820
G01 X50.8709 Y2.4049 Z0.2772
G01 X51.1007 Y2.4135 Z0.2733
G01 X51.1048 Y2.4136 Z0.2732
G01 X51.1772 Y2.4164 Z0.2720
G01 X51.4779 Y2.4281 Z0.2665
G01 X51.6396 Y2.4344 Z0.2634
G01 X51.6428 Y2.4346 Z0.2633
G01 X51.7735 Y2.4398 Z0.2608
G01 X52.0643 Y2.4514 Z0.2548
G01 X52.1778 Y2.4559 Z0.2524
G01 X52.1816 Y2.4561 Z0.2523
G01 X52.3506 Y2.4631 Z0.2487
G01 X52.6327 Y2.4747 Z0.2423
G01 X52.7170 Y2.4782 Z0.2403
G01 X52.7209 Y2.4783 Z0.2402
G01 X52.9110 Y2.4864 Z0.2358
G01 X53.1857 Y2.4981 Z0.2292
G01 X53.2555 Y2.5011 Z0.2274
G01 X53.2590 Y2.5012 Z0.2274
G01 X53.4572 Y2.5099 Z0.2224
G01 X53.7259 Y2.5216 Z0.2156
G01 X53.7940 Y2.5246 Z0.2138
G01 X53.7976 Y2.5248 Z0.2137
G01 X53.9919 Y2.5335 Z0.2087
G01 X54.2557 Y2.5453 Z0.2017
G01 X54.3324 Y2.5488 Z0.1997
G01 X54.3368 Y2.5489 Z0.1996
G01 X54.5176 Y2.5573 Z0.1948
G01 X54.7779 Y2.5693 Z0.1879
G01 X54.8714 Y2.5737 Z0.1853
G01 X54.8750 Y2.5738 Z0.1852
G01 X55.0369 Y2.5815 Z0.1809
G01 X55.2949 Y2.5938 Z0.1740
G01 X55.4099 Y2.5992 Z0.1709
G01 X55.4133 Y2.5994 Z0.1709
G01 X55.5523 Y2.6061 Z0.1672
G01 X55.8094 Y2.6186 Z0.1604
G01 X55.9485 Y2.6254 Z0.1568
G01 X55.9526 Y2.6256 Z0.1567
G01 X56.0664 Y2.6312 Z0.1538
G01 X56.3238 Y2.6441 Z0.1473
G01 X56.4871 Y2.6523 Z0.1433
G01 X56.4905 Y2.6525 Z0.1432
G01 X56.5818 Y2.6571 Z0.1410
G01 X56.8408 Y2.6703 Z0.1348
G01 X57.0255 Y2.6798 Z0.1305
G01 X57.0295 Y2.6800 Z0.1305
G01 X57.1011 Y2.6837 Z0.1288
G01 X57.3629 Y2.6975 Z0.1231
G01 X57.5639 Y2.7080 Z0.1189
G01 X57.5675 Y2.7082 Z0.1188
G01 X57.6268 Y2.7114 Z0.1176
G01 X57.8928 Y2.7257 Z0.1124
G01 X58.1022 Y2.7369 Z0.1085
G01 X58.1059 Y2.7371 Z0.1085
G01 X58.1614 Y2.7401 Z0.1075
G01 X58.4330 Y2.7550 Z0.1028
G01 X58.6408 Y2.7665 Z0.0996
G01 X58.6445 Y2.7666 Z0.0995
G01 X58.7077 Y2.7702 Z0.0985
G01 X58.9860 Y2.7858 Z0.0946
G01 X59.1788 Y2.7966 Z0.0922
G01 X59.1824 Y2.7969 Z0.0921
G01 X59.2681 Y2.8018 Z0.0911
G01 X59.5544 Y2.8182 Z0.0879
G01 X59.7173 Y2.8275 Z0.0864
G01 X59.7215 Y2.8277 Z0.0863
G01 X59.8452 Y2.8350 Z0.0852
G01 X60.1408 Y2.8524 Z0.0829
G01 X60.2557 Y2.8591 Z0.0822
G01 X60.2590 Y2.8593 Z0.0822
G01 X60.4415 Y2.8702 Z0.0811
G01 X60.6924 Y2.8853 Z0.0800
G01 X60.7477 Y2.8845 Z0.0798
G01 X60.7994 Y2.8838 Z0.0796
G01 X60.9577 Y2.8772 Z0.0792
G01 X61.0598 Y2.8699 Z0.0789
G01 X61.1085 Y2.8664 Z0.0789
G01 X61.2503 Y2.8521 Z0.0788
G01 X61.3779 Y2.8351 Z0.0787
G01 X61.3856 Y2.8341 Z0.0787
G01 X61.5091 Y2.8137 Z0.0787
G01 X61.6281 Y2.7900 Z0.0787
G01 X61.7366 Y2.7647 Z0.0787
G01 X61.8388 Y2.7370 Z0.0787
G01 X61.9343 Y2.7075 Z0.0787
G01 X62.0216 Y2.6771 Z0.0787
G01 X62.1035 Y2.6452 Z0.0787
G01 X62.1808 Y2.6117 Z0.0787
G01 X62.2510 Y2.5781 Z0.0787
G01 X62.3182 Y2.5427 Z0.0787
G01 X62.3802 Y2.5069 Z0.0787
G01 X62.4364 Y2.4715 Z0.0787
G01 X62.4918 Y2.4335 Z0.0787
G01 X62.5432 Y2.3953 Z0.0787
G01 X62.5929 Y2.3553 Z0.0787
G01 X62.6392 Y2.3150 Z0.0787
G01 X62.6828 Y2.2739 Z0.0787
G01 X62.7265 Y2.2295 Z0.0787
G01 X62.7686 Y2.1834 Z0.0787
G01 X62.8083 Y2.1365 Z0.0787
G01 X62.8480 Y2.0859 Z0.0787
G01 X62.8868 Y2.0328 Z0.0787
G01 X62.9237 Y1.9782 Z0.0787
G01 X62.9602 Y1.9200 Z0.0787
G01 X62.9964 Y1.8577 Z0.0787
G01 X63.0305 Y1.7944 Z0.0787
G01 X63.0650 Y1.7249 Z0.0787
G01 X63.0971 Y1.6550 Z0.0787
G01 X63.1289 Y1.5796 Z0.0787
G01 X63.1584 Y1.5035 Z0.0787
G01 X63.1876 Y1.4213 Z0.0787
G01 X63.2143 Y1.3387 Z0.0787
G01 X63.2411 Y1.2478 Z0.0787
G01 X63.2644 Y1.1596 Z0.0787
G01 X63.2868 Y1.0653 Z0.0787
G01 X63.3068 Y0.9703 Z0.0787
G01 X63.3257 Y0.8690 Z0.0787
G01 X63.3417 Y0.7698 Z0.0787
G01 X63.3565 Y0.6624 Z0.0787
G01 X63.3684 Y0.5592 Z0.0787
G01 X63.3785 Y0.4498 Z0.0787
G01 X63.3864 Y0.3393 Z0.0787
G01 X63.3920 Y0.2282 Z0.0787
G01 X63.3954 Y0.1130 Z0.0787
G01 X63.3966 Y0.0000 Z0.0787
G01 X63.3954 Y-0.1130 Z0.0787
G01 X63.3920 Y-0.2283 Z0.0787
G01 X63.3864 Y-0.3399 Z0.0787
G01 X63.3785 Y-0.4498 Z0.0787
G01 X63.3683 Y-0.5605 Z0.0787
G01 X63.3565 Y-0.6624 Z0.0787
G01 X63.3417 Y-0.7698 Z0.0787
G01 X63.3255 Y-0.8701 Z0.0787
G01 X63.3068 Y-0.9703 Z0.0787
G01 X63.2866 Y-1.0662 Z0.0787
G01 X63.2644 Y-1.1598 Z0.0787
G01 X63.2411 Y-1.2478 Z0.0787
G01 X63.2143 Y-1.3387 Z0.0787
G01 X63.1876 Y-1.4213 Z0.0787
G01 X63.1582 Y-1.5041 Z0.0787
G01 X63.1289 Y-1.5796 Z0.0787
G01 X63.0971 Y-1.6550 Z0.0787
G01 X63.0650 Y-1.7249 Z0.0787
G01 X63.0305 Y-1.7944 Z0.0787
G01 X62.9963 Y-1.8578 Z0.0787
G01 X62.9602 Y-1.9200 Z0.0787
G01 X62.9237 Y-1.9782 Z0.0787
G01 X62.8868 Y-2.0328 Z0.0787
G01 X62.8480 Y-2.0859 Z0.0787
G01 X62.8083 Y-2.1365 Z0.0787
G01 X62.7686 Y-2.1834 Z0.0787
G01 X62.7265 Y-2.2295 Z0.0787
G01 X62.6825 Y-2.2742 Z0.0787
G01 X62.6392 Y-2.3150 Z0.0787
G01 X62.5929 Y-2.3553 Z0.0787
G01 X62.5432 Y-2.3953 Z0.0787
G01 X62.4918 Y-2.4335 Z0.0787
G01 X62.4364 Y-2.4715 Z0.0787
G01 X62.3802 Y-2.5069 Z0.0787
G01 X62.3181 Y-2.5427 Z0.0787
G01 X62.2510 Y-2.5781 Z0.0787
G01 X62.1806 Y-2.6118 Z0.0787
G01 X62.1035 Y-2.6452 Z0.0787
G01 X62.0216 Y-2.6771 Z0.0787
G01 X61.9343 Y-2.7075 Z0.0787
G01 X61.8387 Y-2.7370 Z0.0787
G01 X61.7366 Y-2.7647 Z0.0787
G01 X61.6281 Y-2.7900 Z0.0787
G01 X61.5091 Y-2.8137 Z0.0787
G01 X61.3856 Y-2.8341 Z0.0787
G01 X61.3779 Y-2.8351 Z0.0787
G01 X61.2503 Y-2.8521 Z0.0788
G01 X61.1085 Y-2.8664 Z0.0789
G01 X61.0598 Y-2.8699 Z0.0789
G01 X60.9577 Y-2.8772 Z0.0792
G01 X60.7994 Y-2.8838 Z0.0796
G01 X60.7477 Y-2.8845 Z0.0798
G01 X60.6924 Y-2.8853 Z0.0800
G01 X60.4415 Y-2.8702 Z0.0811
G01 X60.2590 Y-2.8593 Z0.0822
G01 X60.2557 Y-2.8591 Z0.0822
G01 X60.1408 Y-2.8524 Z0.0829
G01 X59.8452 Y-2.8350 Z0.0852
G01 X59.7215 Y-2.8277 Z0.0863
G01 X59.7173 Y-2.8275 Z0.0864
G01 X59.5544 Y-2.8182 Z0.0879
G01 X59.2681 Y-2.8018 Z0.0911
G01 X59.1824 Y-2.7969 Z0.0921
G01 X59.1788 Y-2.7966 Z0.0922
G01 X58.9860 Y-2.7858 Z0.0946
G01 X58.7077 Y-2.7701 Z0.0985
G01 X58.6445 Y-2.7666 Z0.0995
G01 X58.6408 Y-2.7665 Z0.0996
G01 X58.4330 Y-2.7551 Z0.1028
G01 X58.1614 Y-2.7401 Z0.1075
G01 X58.1059 Y-2.7371 Z0.1085
G01 X58.1022 Y-2.7369 Z0.1085
G01 X57.8928 Y-2.7257 Z0.1124
G01 X57.6268 Y-2.7114 Z0.1176
G01 X57.5675 Y-2.7082 Z0.1188
G01 X57.5639 Y-2.7080 Z0.1189
G01 X57.3629 Y-2.6975 Z0.1231
G01 X57.1011 Y-2.6837 Z0.1288
G01 X57.0295 Y-2.6800 Z0.1305
G01 X57.0255 Y-2.6798 Z0.1305
G01 X56.8408 Y-2.6704 Z0.1348
G01 X56.5818 Y-2.6571 Z0.1410
G01 X56.4905 Y-2.6525 Z0.1432
G01 X56.4871 Y-2.6523 Z0.1433
G01 X56.3238 Y-2.6441 Z0.1473
G01 X56.0664 Y-2.6312 Z0.1538
G01 X55.9526 Y-2.6256 Z0.1567
G01 X55.9485 Y-2.6254 Z0.1568
G01 X55.8094 Y-2.6187 Z0.1604
G01 X55.5523 Y-2.6061 Z0.1672
G01 X55.4133 Y-2.5994 Z0.1709
G01 X55.4099 Y-2.5992 Z0.1709
G01 X55.2949 Y-2.5938 Z0.1740
G01 X55.0369 Y-2.5815 Z0.1809
G01 X54.8750 Y-2.5738 Z0.1852
G01 X54.8714 Y-2.5737 Z0.1853
G01 X54.7779 Y-2.5693 Z0.1879
G01 X54.5176 Y-2.5573 Z0.1948
G01 X54.3368 Y-2.5489 Z0.1996
G01 X54.3324 Y-2.5488 Z0.1997
G01 X54.2557 Y-2.5453 Z0.2017
G01 X53.9919 Y-2.5335 Z0.2087
G01 X53.7976 Y-2.5248 Z0.2137
G01 X53.7940 Y-2.5246 Z0.2138
G01 X53.7259 Y-2.5216 Z0.2156
G01 X53.4572 Y-2.5098 Z0.2224
G01 X53.2590 Y-2.5012 Z0.2274
G01 X53.2555 Y-2.5011 Z0.2274
G01 X53.1857 Y-2.4981 Z0.2292
G01 X52.9110 Y-2.4864 Z0.2358
G01 X52.7209 Y-2.4783 Z0.2402
G01 X52.7170 Y-2.4782 Z0.2403
G01 X52.6327 Y-2.4747 Z0.2423
G01 X52.3506 Y-2.4630 Z0.2487
G01 X52.1816 Y-2.4561 Z0.2523
G01 X52.1778 Y-2.4559 Z0.2524
G01 X52.0643 Y-2.4514 Z0.2548
G01 X51.7735 Y-2.4398 Z0.2608
G01 X51.6428 Y-2.4346 Z0.2633
G01 X51.6396 Y-2.4344 Z0.2634
G01 X51.4779 Y-2.4281 Z0.2665
G01 X51.1772 Y-2.4164 Z0.2720
G01 X51.1048 Y-2.4136 Z0.2732
G01 X51.1007 Y-2.4135 Z0.2733
G01 X50.8709 Y-2.4049 Z0.2772
G01 X50.5653 Y-2.3934 Z0.2820
G01 X50.5616 Y-2.3933 Z0.2821
G01 X50.5589 Y-2.3932 Z0.2821
G01 X50.2409 Y-2.3816 Z0.2868
G01 X50.0265 Y-2.3739 Z0.2896
G01 X50.0229 Y-2.3738 Z0.2897
G01 X49.9163 Y-2.3700 Z0.2911
G01 X49.5850 Y-2.3584 Z0.2950
G01 X49.4878 Y-2.3550 Z0.2960
G01 X49.4839 Y-2.3548 Z0.2961
G01 X49.2467 Y-2.3468 Z0.2985
G01 X48.9490 Y-2.3368 Z0.3012
G01 X48.9454 Y-2.3367 Z0.3013
G01 X48.9010 Y-2.3352 Z0.3017
G01 X48.5475 Y-2.3237 Z0.3044
G01 X48.4100 Y-2.3192 Z0.3053
G01 X48.4062 Y-2.3191 Z0.3053
G01 X48.1861 Y-2.3122 Z0.3067
G01 X47.8711 Y-2.3024 Z0.3083
G01 X47.8675 Y-2.3023 Z0.3083
G01 X47.8162 Y-2.3007 Z0.3085
G01 X47.4377 Y-2.2893 Z0.3098
G01 X47.3323 Y-2.2861 Z0.3101
G01 X47.3284 Y-2.2860 Z0.3101
G01 X47.0502 Y-2.2780 Z0.3107
G01 X46.7935 Y-2.2706 Z0.3109
G01 X46.7898 Y-2.2705 Z0.3109
G01 X46.6535 Y-2.2667 Z0.3110
G01 X46.2542 Y-2.2557 Z0.3110
G01 X46.2503 Y-2.2556 Z0.3110
G01 X45.7150 Y-2.2415 Z0.3110
G01 X45.7115 Y-2.2414 Z0.3110
G01 X45.1762 Y-2.2279 Z0.3110
G01 X45.1727 Y-2.2279 Z0.3110
G01 X44.6374 Y-2.2150 Z0.3110
G01 X44.6335 Y-2.2150 Z0.3110
G01 X44.0985 Y-2.2028 Z0.3110
G01 X44.0946 Y-2.2028 Z0.3110
G01 X43.5590 Y-2.1913 Z0.3110
G01 X43.5555 Y-2.1912 Z0.3110
G01 X43.0201 Y-2.1804 Z0.3110
G01 X43.0164 Y-2.1803 Z0.3110
G01 X42.4810 Y-2.1702 Z0.3110
G01 X42.4773 Y-2.1701 Z0.3110
G01 X41.9419 Y-2.1606 Z0.3110
G01 X41.9382 Y-2.1605 Z0.3110
G01 X41.4028 Y-2.1517 Z0.3110
G01 X41.3990 Y-2.1517 Z0.3110
G01 X40.8637 Y-2.1435 Z0.3110
G01 X40.8599 Y-2.1435 Z0.3110
G01 X40.3244 Y-2.1360 Z0.3110
G01 X40.3209 Y-2.1359 Z0.3110
G01 X39.7859 Y-2.1291 Z0.3110
G01 X39.7821 Y-2.1291 Z0.3110
G01 X39.2463 Y-2.1229 Z0.3110
G01 X39.2426 Y-2.1229 Z0.3110
G01 X38.7071 Y-2.1174 Z0.3110
G01 X38.7034 Y-2.1173 Z0.3110
G01 X38.1679 Y-2.1125 Z0.3110
G01 X38.1642 Y-2.1124 Z0.3110
G01 X37.6288 Y-2.1083 Z0.3110
G01 X37.6250 Y-2.1083 Z0.3110
G01 X37.0896 Y-2.1048 Z0.3110
G01 X37.0861 Y-2.1047 Z0.3110
G01 X36.5506 Y-2.1018 Z0.3110
G01 X36.5468 Y-2.1018 Z0.3110
G01 X36.0114 Y-2.0996 Z0.3110
G01 X36.0076 Y-2.0996 Z0.3110
G01 X35.4722 Y-2.0981 Z0.3110
G01 X35.4685 Y-2.0981 Z0.3110
G01 X34.9330 Y-2.0972 Z0.3110
G01 X34.9292 Y-2.0972 Z0.3110
G01 X34.3940 Y-2.0970 Z0.3110
G01 X34.3903 Y-2.0970 Z0.3110
G01 X33.8549 Y-2.0975 Z0.3110
G01 X33.8514 Y-2.0975 Z0.3110
G01 X33.3159 Y-2.0986 Z0.3110
G01 X33.3122 Y-2.0986 Z0.3110
G01 X32.7767 Y-2.1003 Z0.3110
G01 X32.7729 Y-2.1004 Z0.3110
G01 X32.2375 Y-2.1028 Z0.3110
G01 X32.2337 Y-2.1028 Z0.3110
G01 X31.6983 Y-2.1059 Z0.3110
G01 X31.6945 Y-2.1060 Z0.3110
G01 X31.1591 Y-2.1098 Z0.3110
G01 X31.1553 Y-2.1098 Z0.3110
G01 X30.6199 Y-2.1142 Z0.3110
G01 X30.6163 Y-2.1142 Z0.3110
G01 X30.0809 Y-2.1193 Z0.3110
G01 X30.0772 Y-2.1194 Z0.3110
G01 X29.5418 Y-2.1251 Z0.3110
G01 X29.5378 Y-2.1252 Z0.3110
G01 X29.0021 Y-2.1316 Z0.3110
G01 X28.9987 Y-2.1316 Z0.3110
G01 X28.4636 Y-2.1387 Z0.3110
G01 X28.4596 Y-2.1387 Z0.3110
G01 X27.9242 Y-2.1465 Z0.3110
G01 X27.9205 Y-2.1465 Z0.3110
G01 X27.3851 Y-2.1550 Z0.3110
G01 X27.3816 Y-2.1550 Z0.3110
G01 X26.8462 Y-2.1641 Z0.3110
G01 X26.8422 Y-2.1642 Z0.3110
G01 X26.3068 Y-2.1739 Z0.3110
G01 X26.3033 Y-2.1740 Z0.3110
G01 X25.7680 Y-2.1844 Z0.3110
G01 X25.7643 Y-2.1844 Z0.3110
G01 X25.2286 Y-2.1955 Z0.3110
G01 X25.2248 Y-2.1955 Z0.3110
G01 X24.6898 Y-2.2073 Z0.3110
G01 X24.6862 Y-2.2074 Z0.3110
G01 X24.1509 Y-2.2197 Z0.3110
G01 X24.1470 Y-2.2198 Z0.3110
G01 X23.6116 Y-2.2329 Z0.3110
G01 X23.6081 Y-2.2330 Z0.3110
G01 X23.0728 Y-2.2467 Z0.3110
G01 X23.0691 Y-2.2468 Z0.3110
G01 X22.5338 Y-2.2611 Z0.3110
G01 X22.5301 Y-2.2612 Z0.3110
G01 X21.9946 Y-2.2763 Z0.3110
G01 X21.9907 Y-2.2764 Z0.3110
G01 X21.4558 Y-2.2921 Z0.3110
G01 X21.4523 Y-2.2922 Z0.3110
G01 X21.0630 Y-2.3040 Z0.3110
G01 X20.9171 Y-2.3085 Z0.3109
G01 X20.9132 Y-2.3087 Z0.3109
G01 X20.6662 Y-2.3165 Z0.3107
G01 X20.3780 Y-2.3257 Z0.3101
G01 X20.3745 Y-2.3258 Z0.3101
G01 X20.2787 Y-2.3289 Z0.3098
G01 X19.9001 Y-2.3414 Z0.3085
G01 X19.8390 Y-2.3435 Z0.3082
G01 X19.8351 Y-2.3436 Z0.3082
G01 X19.5303 Y-2.3540 Z0.3067
G01 X19.3003 Y-2.3619 Z0.3053
G01 X19.2966 Y-2.3620 Z0.3052
G01 X19.1689 Y-2.3666 Z0.3044
G01 X18.8154 Y-2.3791 Z0.3017
G01 X18.7615 Y-2.3811 Z0.3012
G01 X18.7578 Y-2.3812 Z0.3012
G01 X18.4697 Y-2.3918 Z0.2985
G01 X18.2224 Y-2.4009 Z0.2960
G01 X18.2187 Y-2.4010 Z0.2959
G01 X18.1314 Y-2.4043 Z0.2950
G01 X17.8001 Y-2.4168 Z0.2911
G01 X17.6840 Y-2.4213 Z0.2895
G01 X17.6801 Y-2.4214 Z0.2895
G01 X17.4756 Y-2.4295 Z0.2868
G01 X17.1575 Y-2.4420 Z0.2821
G01 X17.1450 Y-2.4425 Z0.2820
G01 X17.1415 Y-2.4426 Z0.2819
G01 X16.8455 Y-2.4546 Z0.2772
G01 X16.6064 Y-2.4642 Z0.2731
G01 X16.6028 Y-2.4644 Z0.2731
G01 X16.5392 Y-2.4670 Z0.2720
G01 X16.2385 Y-2.4796 Z0.2665
G01 X16.0675 Y-2.4867 Z0.2632
G01 X16.0636 Y-2.4868 Z0.2631
G01 X15.9429 Y-2.4920 Z0.2607
G01 X15.6521 Y-2.5045 Z0.2548
G01 X15.5289 Y-2.5098 Z0.2522
G01 X15.5253 Y-2.5100 Z0.2521
G01 X15.3658 Y-2.5170 Z0.2487
G01 X15.0837 Y-2.5295 Z0.2423
G01 X14.9903 Y-2.5337 Z0.2401
G01 X14.9869 Y-2.5338 Z0.2400
G01 X14.8054 Y-2.5420 Z0.2358
G01 X14.5307 Y-2.5545 Z0.2292
G01 X14.4516 Y-2.5581 Z0.2272
G01 X14.4477 Y-2.5583 Z0.2271
G01 X14.2592 Y-2.5670 Z0.2224
G01 X13.9905 Y-2.5796 Z0.2156
G01 X13.9131 Y-2.5832 Z0.2136
G01 X13.9096 Y-2.5834 Z0.2135
G01 X13.7245 Y-2.5922 Z0.2087
G01 X13.4607 Y-2.6049 Z0.2017
G01 X13.3744 Y-2.6090 Z0.1995
G01 X13.3705 Y-2.6092 Z0.1994
G01 X13.1988 Y-2.6176 Z0.1948
G01 X12.9385 Y-2.6304 Z0.1879
G01 X12.8360 Y-2.6355 Z0.1851
G01 X12.8324 Y-2.6356 Z0.1850
G01 X12.6795 Y-2.6433 Z0.1809
G01 X12.4215 Y-2.6563 Z0.1740
G01 X12.2976 Y-2.6626 Z0.1707
G01 X12.2939 Y-2.6628 Z0.1706
G01 X12.1641 Y-2.6695 Z0.1672
G01 X11.9071 Y-2.6827 Z0.1604
G01 X11.7589 Y-2.6904 Z0.1566
G01 X11.7552 Y-2.6906 Z0.1565
G01 X11.6500 Y-2.6961 Z0.1538
G01 X11.3926 Y-2.7097 Z0.1473
G01 X11.2207 Y-2.7188 Z0.1431
G01 X11.2172 Y-2.7190 Z0.1430
G01 X11.1346 Y-2.7235 Z0.1410
G01 X10.8756 Y-2.7375 Z0.1348
G01 X10.6825 Y-2.7480 Z0.1303
G01 X10.6783 Y-2.7481 Z0.1303
G01 X10.6153 Y-2.7516 Z0.1288
G01 X10.3535 Y-2.7661 Z0.1231
G01 X10.1439 Y-2.7777 Z0.1187
G01 X10.1402 Y-2.7780 Z0.1187
G01 X10.0896 Y-2.7808 Z0.1176
G01 X9.8236 Y-2.7959 Z0.1124
G01 X9.6056 Y-2.8083 Z0.1084
G01 X9.6020 Y-2.8085 Z0.1083
G01 X9.5550 Y-2.8112 Z0.1075
G01 X9.2835 Y-2.8269 Z0.1028
G01 X9.0679 Y-2.8394 Z0.0994
G01 X9.0634 Y-2.8396 Z0.0994
G01 X9.0087 Y-2.8428 Z0.0985
G01 X8.7304 Y-2.8592 Z0.0946
G01 X8.5292 Y-2.8711 Z0.0920
G01 X8.5254 Y-2.8714 Z0.0920
G01 X8.4483 Y-2.8760 Z0.0910
G01 X8.1620 Y-2.8933 Z0.0879
G01 X7.9906 Y-2.9037 Z0.0863
G01 X7.9869 Y-2.9038 Z0.0862
G01 X7.8712 Y-2.9109 Z0.0852
G01 X7.5756 Y-2.9292 Z0.0829
G01 X7.4527 Y-2.9368 Z0.0822
G01 X7.4492 Y-2.9370 Z0.0821
G01 X7.2749 Y-2.9479 Z0.0811
G01 X7.0148 Y-2.9642 Z0.0800
G01 X6.9687 Y-2.9637 Z0.0797
G01 X6.8338 Y-2.9623 Z0.0794
G01 X6.6566 Y-2.9564 Z0.0789
G01 X6.5881 Y-2.9542 Z0.0788
G01 X6.3528 Y-2.9410 Z0.0787
G01 X6.3386 Y-2.9398 Z0.0787
G01 X6.1301 Y-2.9232 Z0.0787
G01 X5.9162 Y-2.9008 Z0.0787
G01 X5.7145 Y-2.8746 Z0.0787
G01 X5.5191 Y-2.8439 Z0.0787
G01 X5.3357 Y-2.8100 Z0.0787
G01 X5.1619 Y-2.7729 Z0.0787
G01 X4.9967 Y-2.7327 Z0.0787
G01 X4.8422 Y-2.6903 Z0.0787
G01 X4.6946 Y-2.6449 Z0.0787
G01 X4.5582 Y-2.5983 Z0.0787
G01 X4.4285 Y-2.5493 Z0.0787
G01 X4.3068 Y-2.4987 Z0.0787
G01 X4.1923 Y-2.4466 Z0.0787
G01 X4.0889 Y-2.3953 Z0.0787
G01 X3.9877 Y-2.3406 Z0.0787
G01 X3.8966 Y-2.2872 Z0.0787
G01 X3.8101 Y-2.2322 Z0.0787
G01 X3.7297 Y-2.1769 Z0.0787
G01 X3.6553 Y-2.1217 Z0.0787
G01 X3.5848 Y-2.0652 Z0.0787
G01 X3.5205 Y-2.0096 Z0.0787
G01 X3.4581 Y-1.9515 Z0.0787
G01 X3.4015 Y-1.8948 Z0.0787
G01 X3.3472 Y-1.8359 Z0.0787
G01 X3.2955 Y-1.7758 Z0.0787
G01 X3.2490 Y-1.7172 Z0.0787
G01 X3.2027 Y-1.6545 Z0.0787
G01 X3.1603 Y-1.5922 Z0.0787
G01 X3.1198 Y-1.5280 Z0.0787
G01 X3.0809 Y-1.4612 Z0.0787
G01 X3.0447 Y-1.3936 Z0.0787
G01 X3.0096 Y-1.3222 Z0.0787
G01 X2.9777 Y-1.2513 Z0.0787
G01 X2.9474 Y-1.1775 Z0.0787
G01 X2.9185 Y-1.0998 Z0.0787
G01 X2.8918 Y-1.0205 Z0.0787
G01 X2.8675 Y-0.9399 Z0.0787
G01 X2.8442 Y-0.8529 Z0.0787
G01 X2.8249 Y-0.7708 Z0.0787
G01 X2.8060 Y-0.6787 Z0.0787
G01 X2.7902 Y-0.5885 Z0.0787
G01 X2.7767 Y-0.4955 Z0.0787
G01 X2.7653 Y-0.3992 Z0.0787
G01 X2.7566 Y-0.3029 Z0.0787
G01 X2.7501 Y-0.2016 Z0.0787
G01 X2.7464 Y-0.1021 Z0.0787
G01 X2.7451 Y0.0000 Z0.0787
G01 X1.9971 Y0.0000 Z0.0787 F20
G01 X1.9971 Y0.0000 Z0.0787 F50
G01 X1.9986 Y0.1219 Z0.0787
G01 X2.0031 Y0.2398 Z0.0787
G01 X2.0107 Y0.3587 Z0.0787
G01 X2.0214 Y0.4780 Z0.0787
G01 X2.0350 Y0.5932 Z0.0787
G01 X2.0515 Y0.7062 Z0.0787
G01 X2.0711 Y0.8187 Z0.0787
G01 X2.0940 Y0.9302 Z0.0787
G01 X2.1190 Y1.0364 Z0.0787
G01 X2.1477 Y1.1433 Z0.0787
G01 X2.1791 Y1.2478 Z0.0787
G01 X2.2133 Y1.3496 Z0.0787
G01 X2.2505 Y1.4494 Z0.0787
G01 X2.2905 Y1.5469 Z0.0787
G01 X2.3328 Y1.6410 Z0.0787
G01 X2.3793 Y1.7356 Z0.0787
G01 X2.4278 Y1.8261 Z0.0787
G01 X2.4798 Y1.9154 Z0.0787
G01 X2.5348 Y2.0027 Z0.0787
G01 X2.5924 Y2.0872 Z0.0787
G01 X2.6549 Y2.1720 Z0.0787
G01 X2.7190 Y2.2525 Z0.0787
G01 X2.7884 Y2.3334 Z0.0787
G01 X2.8620 Y2.4130 Z0.0787
G01 X2.9374 Y2.4887 Z0.0787
G01 X3.0211 Y2.5666 Z0.0787
G01 X3.1066 Y2.6406 Z0.0787
G01 X3.1972 Y2.7131 Z0.0787
G01 X3.2948 Y2.7856 Z0.0787
G01 X3.3975 Y2.8562 Z0.0787
G01 X3.5067 Y2.9257 Z0.0787
G01 X3.6218 Y2.9931 Z0.0787
G01 X3.7437 Y3.0590 Z0.0787
G01 X3.8709 Y3.1222 Z0.0787
G01 X4.0090 Y3.1850 Z0.0787
G01 X4.1525 Y3.2446 Z0.0787
G01 X4.3048 Y3.3021 Z0.0787
G01 X4.4642 Y3.3566 Z0.0787
G01 X4.6320 Y3.4082 Z0.0787
G01 X4.8087 Y3.4568 Z0.0787
G01 X4.9958 Y3.5023 Z0.0787
G01 X5.1897 Y3.5437 Z0.0787
G01 X5.3937 Y3.5813 Z0.0787
G01 X5.6084 Y3.6150 Z0.0787
G01 X5.8278 Y3.6436 Z0.0787
G01 X6.0618 Y3.6681 Z0.0787
G01 X6.3027 Y3.6873 Z0.0787
G01 X6.3386 Y3.6893 Z0.0787
G01 X6.5559 Y3.7015 Z0.0788
G01 X6.6566 Y3.7048 Z0.0789
G01 X6.8151 Y3.7101 Z0.0793
G01 X6.9687 Y3.7117 Z0.0797
G01 X7.0349 Y3.7125 Z0.0800
G01 X7.2749 Y3.6974 Z0.0811
G01 X7.4961 Y3.6835 Z0.0824
G01 X7.4987 Y3.6833 Z0.0824
G01 X7.5756 Y3.6786 Z0.0829
G01 X7.8712 Y3.6603 Z0.0852
G01 X8.0329 Y3.6504 Z0.0867
G01 X8.0368 Y3.6502 Z0.0867
G01 X8.1620 Y3.6427 Z0.0879
G01 X8.4483 Y3.6254 Z0.0910
G01 X8.5705 Y3.6180 Z0.0925
G01 X8.5733 Y3.6178 Z0.0926
G01 X8.7304 Y3.6085 Z0.0946
G01 X9.0087 Y3.5921 Z0.0985
G01 X9.1075 Y3.5862 Z0.1001
G01 X9.1109 Y3.5861 Z0.1001
G01 X9.2835 Y3.5761 Z0.1028
G01 X9.5550 Y3.5604 Z0.1075
G01 X9.6452 Y3.5552 Z0.1091
G01 X9.6479 Y3.5550 Z0.1092
G01 X9.8236 Y3.5451 Z0.1124
G01 X10.0896 Y3.5300 Z0.1176
G01 X10.1825 Y3.5248 Z0.1195
G01 X10.1853 Y3.5246 Z0.1196
G01 X10.3535 Y3.5153 Z0.1231
G01 X10.6153 Y3.5007 Z0.1288
G01 X10.7196 Y3.4950 Z0.1312
G01 X10.7229 Y3.4949 Z0.1313
G01 X10.8756 Y3.4866 Z0.1348
G01 X11.1346 Y3.4726 Z0.1410
G01 X11.2576 Y3.4659 Z0.1440
G01 X11.2603 Y3.4658 Z0.1440
G01 X11.3926 Y3.4588 Z0.1473
G01 X11.6500 Y3.4452 Z0.1538
G01 X11.7947 Y3.4375 Z0.1575
G01 X11.7975 Y3.4374 Z0.1576
G01 X11.9071 Y3.4318 Z0.1604
G01 X12.1641 Y3.4185 Z0.1672
G01 X12.3325 Y3.4098 Z0.1716
G01 X12.3352 Y3.4096 Z0.1717
G01 X12.4215 Y3.4053 Z0.1740
G01 X12.6795 Y3.3922 Z0.1809
G01 X12.8700 Y3.3827 Z0.1860
G01 X12.8728 Y3.3825 Z0.1861
G01 X12.9385 Y3.3793 Z0.1879
G01 X13.1988 Y3.3665 Z0.1948
G01 X13.4073 Y3.3562 Z0.2003
G01 X13.4102 Y3.3561 Z0.2004
G01 X13.4607 Y3.3537 Z0.2017
G01 X13.7245 Y3.3411 Z0.2087
G01 X13.9453 Y3.3305 Z0.2144
G01 X13.9481 Y3.3304 Z0.2145
G01 X13.9905 Y3.3284 Z0.2156
G01 X14.2592 Y3.3158 Z0.2224
G01 X14.4826 Y3.3054 Z0.2280
G01 X14.4867 Y3.3053 Z0.2281
G01 X14.5307 Y3.3033 Z0.2292
G01 X14.8054 Y3.2908 Z0.2358
G01 X15.0208 Y3.2811 Z0.2408
G01 X15.0233 Y3.2809 Z0.2409
G01 X15.0837 Y3.2783 Z0.2423
G01 X15.3658 Y3.2658 Z0.2487
G01 X15.5583 Y3.2573 Z0.2528
G01 X15.5611 Y3.2572 Z0.2529
G01 X15.6521 Y3.2532 Z0.2548
G01 X15.9429 Y3.2407 Z0.2607
G01 X16.0957 Y3.2342 Z0.2637
G01 X16.0986 Y3.2341 Z0.2638
G01 X16.2385 Y3.2282 Z0.2665
G01 X16.5392 Y3.2157 Z0.2720
G01 X16.6339 Y3.2117 Z0.2736
G01 X16.6367 Y3.2116 Z0.2737
G01 X16.8455 Y3.2032 Z0.2772
G01 X17.1575 Y3.1905 Z0.2821
G01 X17.1718 Y3.1900 Z0.2824
G01 X17.1744 Y3.1899 Z0.2824
G01 X17.4756 Y3.1780 Z0.2868
G01 X17.7094 Y3.1688 Z0.2899
G01 X17.7124 Y3.1687 Z0.2899
G01 X17.8001 Y3.1654 Z0.2911
G01 X18.1314 Y3.1528 Z0.2950
G01 X18.2471 Y3.1484 Z0.2962
G01 X18.2499 Y3.1483 Z0.2962
G01 X18.4697 Y3.1402 Z0.2985
G01 X18.7853 Y3.1287 Z0.3014
G01 X18.7881 Y3.1286 Z0.3014
G01 X18.8154 Y3.1276 Z0.3017
G01 X19.1689 Y3.1150 Z0.3044
G01 X19.3232 Y3.1096 Z0.3054
G01 X19.3260 Y3.1095 Z0.3054
G01 X19.5303 Y3.1024 Z0.3067
G01 X19.8608 Y3.0911 Z0.3083
G01 X19.8637 Y3.0911 Z0.3083
G01 X19.9001 Y3.0898 Z0.3085
G01 X20.2787 Y3.0773 Z0.3098
G01 X20.3992 Y3.0734 Z0.3101
G01 X20.4018 Y3.0733 Z0.3101
G01 X20.6662 Y3.0649 Z0.3107
G01 X20.9370 Y3.0562 Z0.3109
G01 X20.9400 Y3.0562 Z0.3109
