( Sample-ski-top-cutout.nc                                                     )
( Generated by MonkeyCAM v4.0.3 at 2014-10-16 22:28:10 PDT                     )
(                                                                              )
( This GCode program is provided on an "AS IS" BASIS WITHOUT WARRANTIES OR     )
( CONDITIONS OF ANY KIND, either express or implied. You should inspect this   )
( program very carefully to confirm you understand its operation. YOU ARE      )
( RESPONSIBLE FOR ENSURING THIS PROGRAM WILL NOT DAMAGE YOUR MACHINE OR        )
( MATERIALS.                                                                   )
(                                                                              )
( See http://www.github.com/mikemag/MonkeyCAM for License and documentation.   )
(                                                                              )
( * Rapid height: 0.6000" [1.5240cm]                                           )
( * Tool: T1, Quarter Inch Upcut Spiral, diameter 0.2469" [0.6273cm]           )
( * Height baseline [Z=0.0] is the top of the table.                           )
( * XY origin is the left side of the table, Y is center of the part.          )
( * Requires G54 to be the part work coordinate offsets [WCO]. [0, 0] is the   )
(   center of the nose, with the board extending to positive X. The cutter may )
(   move to negative values of X.                                              )
( * Requires G55 to be the machine WCO, with Z above the rapid height.         )
( * Units are inches                                                           )
( * Center of the board in G54:                                                )
(     X=36.0236 Y=0.0000 Z=0.0000                                              )
( * Cutter bounding box in G54:                                                )
(     X0.0000 Y-2.7771 Z-0.0100 to X69.6115 Y2.7771 Z0.6000                    )

G90 G20 G17 G40 G49
G43 H1 T1
G00 G54 X0 Y0 Z0.6000

G00 X0.6640 Y-0.0020 Z0.6000
M03
G04 P5
G01 X0.6640 Y-0.0020 Z0.2766 F70
G01 X0.6648 Y-0.0512 Z0.2766
G01 X0.6650 Y-0.0554 Z0.2766
G01 X0.6674 Y-0.1028 Z0.2766
G01 X0.6677 Y-0.1073 Z0.2766
G01 X0.6720 Y-0.1560 Z0.2766
G01 X0.6725 Y-0.1605 Z0.2766
G01 X0.6784 Y-0.2075 Z0.2766
G01 X0.6790 Y-0.2119 Z0.2766
G01 X0.6865 Y-0.2583 Z0.2766
G01 X0.6874 Y-0.2629 Z0.2766
G01 X0.6965 Y-0.3085 Z0.2766
G01 X0.6975 Y-0.3131 Z0.2766
G01 X0.7085 Y-0.3589 Z0.2766
G01 X0.7097 Y-0.3635 Z0.2766
G01 X0.7223 Y-0.4083 Z0.2766
G01 X0.7238 Y-0.4129 Z0.2766
G01 X0.7382 Y-0.4573 Z0.2766
G01 X0.7397 Y-0.4618 Z0.2766
G01 X0.7561 Y-0.5064 Z0.2766
G01 X0.7579 Y-0.5109 Z0.2766
G01 X0.7761 Y-0.5548 Z0.2766
G01 X0.7782 Y-0.5595 Z0.2766
G01 X0.7977 Y-0.6017 Z0.2766
G01 X0.7998 Y-0.6061 Z0.2766
G01 X0.8219 Y-0.6491 Z0.2766
G01 X0.8243 Y-0.6535 Z0.2766
G01 X0.8490 Y-0.6973 Z0.2766
G01 X0.8515 Y-0.7016 Z0.2766
G01 X0.8774 Y-0.7434 Z0.2766
G01 X0.8801 Y-0.7475 Z0.2766
G01 X0.9091 Y-0.7904 Z0.2766
G01 X0.9119 Y-0.7944 Z0.2766
G01 X0.9433 Y-0.8371 Z0.2766
G01 X0.9465 Y-0.8412 Z0.2766
G01 X0.9797 Y-0.8825 Z0.2766
G01 X0.9827 Y-0.8861 Z0.2766
G01 X1.0196 Y-0.9288 Z0.2766
G01 X1.0229 Y-0.9325 Z0.2766
G01 X1.0630 Y-0.9751 Z0.2766
G01 X1.0663 Y-0.9785 Z0.2766
G01 X1.1080 Y-1.0196 Z0.2766
G01 X1.1114 Y-1.0229 Z0.2766
G01 X1.1582 Y-1.0656 Z0.2766
G01 X1.1616 Y-1.0686 Z0.2766
G01 X1.2108 Y-1.1103 Z0.2766
G01 X1.2144 Y-1.1132 Z0.2766
G01 X1.2668 Y-1.1544 Z0.2766
G01 X1.2703 Y-1.1570 Z0.2766
G01 X1.3274 Y-1.1987 Z0.2766
G01 X1.3310 Y-1.2012 Z0.2766
G01 X1.3919 Y-1.2424 Z0.2766
G01 X1.3955 Y-1.2448 Z0.2766
G01 X1.4590 Y-1.2846 Z0.2766
G01 X1.4625 Y-1.2868 Z0.2766
G01 X1.5318 Y-1.3271 Z0.2766
G01 X1.5352 Y-1.3290 Z0.2766
G01 X1.6082 Y-1.3684 Z0.2766
G01 X1.6117 Y-1.3703 Z0.2766
G01 X1.6893 Y-1.4090 Z0.2766
G01 X1.6927 Y-1.4106 Z0.2766
G01 X1.7745 Y-1.4483 Z0.2766
G01 X1.7778 Y-1.4498 Z0.2766
G01 X1.8640 Y-1.4866 Z0.2766
G01 X1.8672 Y-1.4879 Z0.2766
G01 X1.9590 Y-1.5240 Z0.2766
G01 X1.9623 Y-1.5252 Z0.2766
G01 X2.0575 Y-1.5595 Z0.2766
G01 X2.0607 Y-1.5606 Z0.2766
G01 X2.1614 Y-1.5939 Z0.2766
G01 X2.1645 Y-1.5949 Z0.2766
G01 X2.2692 Y-1.6264 Z0.2766
G01 X2.2721 Y-1.6273 Z0.2766
G01 X2.3833 Y-1.6579 Z0.2766
G01 X2.3863 Y-1.6587 Z0.2766
G01 X2.5033 Y-1.6877 Z0.2766
G01 X2.5060 Y-1.6883 Z0.2766
G01 X2.6259 Y-1.7151 Z0.2766
G01 X2.6294 Y-1.7159 Z0.2766
G01 X2.7203 Y-1.7335 Z0.2766
G01 X2.7217 Y-1.7337 Z0.2766
G01 X2.8094 Y-1.7496 Z0.2766
G01 X2.8106 Y-1.7499 Z0.2766
G01 X2.8950 Y-1.7643 Z0.2766
G01 X2.8963 Y-1.7646 Z0.2766
G01 X2.9775 Y-1.7775 Z0.2766
G01 X2.9786 Y-1.7777 Z0.2766
G01 X3.0566 Y-1.7895 Z0.2766
G01 X3.0578 Y-1.7896 Z0.2766
G01 X3.1328 Y-1.8002 Z0.2766
G01 X3.1337 Y-1.8003 Z0.2766
G01 X3.2056 Y-1.8100 Z0.2766
G01 X3.2064 Y-1.8101 Z0.2766
G01 X3.2754 Y-1.8188 Z0.2766
G01 X3.2761 Y-1.8189 Z0.2766
G01 X3.3422 Y-1.8269 Z0.2766
G01 X3.3428 Y-1.8270 Z0.2766
G01 X3.4061 Y-1.8343 Z0.2766
G01 X3.4667 Y-1.8413 Z0.2766
G01 X3.5246 Y-1.8479 Z0.2766
G01 X3.5790 Y-1.8542 Z0.2766
G01 X3.6316 Y-1.8605 Z0.2766
G01 X3.6794 Y-1.8665 Z0.2766
G01 X3.7270 Y-1.8731 Z0.2766
G01 X3.7690 Y-1.8795 Z0.2766
G01 X3.8092 Y-1.8863 Z0.2766
G01 X3.8475 Y-1.8938 Z0.2766
G01 X3.8814 Y-1.9014 Z0.2766
G01 X3.9124 Y-1.9096 Z0.2766
G01 X3.9412 Y-1.9185 Z0.2766
G01 X3.9675 Y-1.9280 Z0.2766
G01 X3.9905 Y-1.9379 Z0.2766
G01 X4.0112 Y-1.9484 Z0.2766
G01 X4.0295 Y-1.9594 Z0.2766
G01 X4.0457 Y-1.9709 Z0.2766
G01 X4.0604 Y-1.9833 Z0.2766
G01 X4.0742 Y-1.9971 Z0.2766
G01 X4.0869 Y-2.0123 Z0.2766
G01 X4.0990 Y-2.0295 Z0.2766
G01 X4.1105 Y-2.0488 Z0.2766
G01 X4.1217 Y-2.0712 Z0.2766
G01 X4.1325 Y-2.0972 Z0.2766
G01 X4.1424 Y-2.1255 Z0.2766
G01 X4.1518 Y-2.1581 Z0.2766
G01 X4.1604 Y-2.1940 Z0.2766
G01 X4.1685 Y-2.2347 Z0.2766
G01 X4.1755 Y-2.2773 Z0.2766
G01 X4.1819 Y-2.3258 Z0.2766
G01 X4.1872 Y-2.3762 Z0.2766
G01 X4.1921 Y-2.4337 Z0.2766
G01 X4.1960 Y-2.4922 Z0.2766
G01 X4.1994 Y-2.5574 Z0.2766
G01 X4.2020 Y-2.6256 Z0.2766
G01 X4.2028 Y-2.6570 Z0.2766
G01 X4.2030 Y-2.6605 Z0.2766
G01 X4.2032 Y-2.6640 Z0.2766
G01 X4.2036 Y-2.6675 Z0.2766
G01 X4.2040 Y-2.6709 Z0.2766
G01 X4.2046 Y-2.6744 Z0.2766
G01 X4.2052 Y-2.6779 Z0.2766
G01 X4.2059 Y-2.6813 Z0.2766
G01 X4.2068 Y-2.6847 Z0.2766
G01 X4.2077 Y-2.6881 Z0.2766
G01 X4.2087 Y-2.6914 Z0.2766
G01 X4.2098 Y-2.6947 Z0.2766
G01 X4.2111 Y-2.6980 Z0.2766
G01 X4.2124 Y-2.7012 Z0.2766
G01 X4.2138 Y-2.7045 Z0.2766
G01 X4.2153 Y-2.7076 Z0.2766
G01 X4.2168 Y-2.7107 Z0.2766
G01 X4.2185 Y-2.7138 Z0.2766
G01 X4.2202 Y-2.7169 Z0.2766
G01 X4.2221 Y-2.7198 Z0.2766
G01 X4.2240 Y-2.7228 Z0.2766
G01 X4.2260 Y-2.7257 Z0.2766
G01 X4.2281 Y-2.7285 Z0.2766
G01 X4.2303 Y-2.7312 Z0.2766
G01 X4.2325 Y-2.7339 Z0.2766
G01 X4.2348 Y-2.7365 Z0.2766
G01 X4.2372 Y-2.7391 Z0.2766
G01 X4.2397 Y-2.7416 Z0.2766
G01 X4.2422 Y-2.7440 Z0.2766
G01 X4.2448 Y-2.7464 Z0.2766
G01 X4.2475 Y-2.7486 Z0.2766
G01 X4.2502 Y-2.7508 Z0.2766
G01 X4.2530 Y-2.7529 Z0.2766
G01 X4.2558 Y-2.7550 Z0.2766
G01 X4.2587 Y-2.7569 Z0.2766
G01 X4.2617 Y-2.7588 Z0.2766
G01 X4.2647 Y-2.7606 Z0.2766
G01 X4.2677 Y-2.7623 Z0.2766
G01 X4.2709 Y-2.7639 Z0.2766
G01 X4.2740 Y-2.7655 Z0.2766
G01 X4.2772 Y-2.7669 Z0.2766
G01 X4.2804 Y-2.7682 Z0.2766
G01 X4.2837 Y-2.7695 Z0.2766
G01 X4.2870 Y-2.7706 Z0.2766
G01 X4.2903 Y-2.7717 Z0.2766
G01 X4.2937 Y-2.7727 Z0.2766
G01 X4.2971 Y-2.7735 Z0.2766
G01 X4.3005 Y-2.7743 Z0.2766
G01 X4.3040 Y-2.7750 Z0.2766
G01 X4.3074 Y-2.7756 Z0.2766
G01 X4.3109 Y-2.7761 Z0.2766
G01 X4.3144 Y-2.7764 Z0.2766
G01 X4.3179 Y-2.7768 Z0.2766
G01 X4.3213 Y-2.7770 Z0.2766
G01 X4.3248 Y-2.7770 Z0.2766
G01 X4.3283 Y-2.7771 Z0.2766
G01 X4.3314 Y-2.7771 Z0.2766
G01 X4.3371 Y-2.7770 Z0.2766
G01 X4.3403 Y-2.7769 Z0.2766
G01 X4.9737 Y-2.7517 Z0.2766
G01 X5.6071 Y-2.7269 Z0.2766
G01 X6.2404 Y-2.7026 Z0.2766
G01 X6.8738 Y-2.6788 Z0.2766
G01 X7.5072 Y-2.6554 Z0.2766
G01 X8.1407 Y-2.6324 Z0.2766
G01 X8.7740 Y-2.6100 Z0.2766
G01 X9.4075 Y-2.5879 Z0.2766
G01 X10.0410 Y-2.5663 Z0.2766
G01 X10.6744 Y-2.5452 Z0.2766
G01 X11.3079 Y-2.5245 Z0.2766
G01 X11.9377 Y-2.5044 Z0.2766
G01 X11.9412 Y-2.5043 Z0.2766
G01 X12.5749 Y-2.4846 Z0.2766
G01 X13.2085 Y-2.4653 Z0.2766
G01 X13.8420 Y-2.4464 Z0.2766
G01 X14.4756 Y-2.4280 Z0.2766
G01 X15.1092 Y-2.4101 Z0.2766
G01 X15.7428 Y-2.3925 Z0.2766
G01 X16.3763 Y-2.3755 Z0.2766
G01 X17.0100 Y-2.3589 Z0.2766
G01 X17.6436 Y-2.3427 Z0.2766
G01 X18.1102 Y-2.3312 Z0.2766
G01 X18.2772 Y-2.3271 Z0.2766
G01 X18.8976 Y-2.3122 Z0.2766
G01 X18.9108 Y-2.3118 Z0.2766
G01 X19.5445 Y-2.2971 Z0.2766
G01 X19.6850 Y-2.2939 Z0.2766
G01 X20.1782 Y-2.2827 Z0.2766
G01 X20.4724 Y-2.2763 Z0.2766
G01 X20.8119 Y-2.2688 Z0.2766
G01 X21.4455 Y-2.2555 Z0.2766
G01 X22.0792 Y-2.2425 Z0.2766
G01 X22.7129 Y-2.2300 Z0.2766
G01 X23.3466 Y-2.2179 Z0.2766
G01 X23.9764 Y-2.2064 Z0.2766
G01 X23.9802 Y-2.2064 Z0.2766
G01 X24.6141 Y-2.1952 Z0.2766
G01 X25.2478 Y-2.1845 Z0.2766
G01 X25.8816 Y-2.1743 Z0.2766
G01 X26.5153 Y-2.1645 Z0.2766
G01 X27.1490 Y-2.1551 Z0.2766
G01 X27.7828 Y-2.1463 Z0.2766
G01 X28.4166 Y-2.1379 Z0.2766
G01 X29.0504 Y-2.1299 Z0.2766
G01 X29.6842 Y-2.1224 Z0.2766
G01 X30.3179 Y-2.1153 Z0.2766
G01 X30.9518 Y-2.1087 Z0.2766
G01 X31.5856 Y-2.1025 Z0.2766
G01 X32.2193 Y-2.0968 Z0.2766
G01 X32.8531 Y-2.0916 Z0.2766
G01 X33.4870 Y-2.0868 Z0.2766
G01 X34.1207 Y-2.0824 Z0.2766
G01 X34.7546 Y-2.0785 Z0.2766
G01 X35.3884 Y-2.0751 Z0.2766
G01 X36.0222 Y-2.0721 Z0.2766
G01 X36.6560 Y-2.0696 Z0.2766
G01 X37.2899 Y-2.0675 Z0.2766
G01 X37.9237 Y-2.0659 Z0.2766
G01 X38.5575 Y-2.0647 Z0.2766
G01 X39.1914 Y-2.0640 Z0.2766
G01 X39.8251 Y-2.0637 Z0.2766
G01 X40.4588 Y-2.0639 Z0.2766
G01 X41.0927 Y-2.0646 Z0.2766
G01 X41.7265 Y-2.0657 Z0.2766
G01 X42.3603 Y-2.0672 Z0.2766
G01 X42.9941 Y-2.0692 Z0.2766
G01 X43.6279 Y-2.0717 Z0.2766
G01 X44.2618 Y-2.0746 Z0.2766
G01 X44.8956 Y-2.0780 Z0.2766
G01 X45.5294 Y-2.0818 Z0.2766
G01 X46.1633 Y-2.0861 Z0.2766
G01 X46.7970 Y-2.0908 Z0.2766
G01 X47.4308 Y-2.0960 Z0.2766
G01 X48.0646 Y-2.1016 Z0.2766
G01 X48.6985 Y-2.1077 Z0.2766
G01 X49.3322 Y-2.1143 Z0.2766
G01 X49.8031 Y-2.1195 Z0.2766
G01 X49.9660 Y-2.1213 Z0.2766
G01 X50.5905 Y-2.1286 Z0.2766
G01 X50.5998 Y-2.1287 Z0.2766
G01 X51.2336 Y-2.1366 Z0.2766
G01 X51.3779 Y-2.1385 Z0.2766
G01 X51.8673 Y-2.1450 Z0.2766
G01 X52.1653 Y-2.1491 Z0.2766
G01 X52.5011 Y-2.1538 Z0.2766
G01 X53.1349 Y-2.1631 Z0.2766
G01 X53.7687 Y-2.1728 Z0.2766
G01 X54.4024 Y-2.1830 Z0.2766
G01 X55.0361 Y-2.1936 Z0.2766
G01 X55.6699 Y-2.2047 Z0.2766
G01 X56.3037 Y-2.2162 Z0.2766
G01 X56.3072 Y-2.2162 Z0.2766
G01 X56.9372 Y-2.2281 Z0.2766
G01 X57.5710 Y-2.2406 Z0.2766
G01 X58.2047 Y-2.2535 Z0.2766
G01 X58.8384 Y-2.2668 Z0.2766
G01 X59.4720 Y-2.2806 Z0.2766
G01 X60.1057 Y-2.2949 Z0.2766
G01 X60.7393 Y-2.3096 Z0.2766
G01 X61.3730 Y-2.3248 Z0.2766
G01 X62.0066 Y-2.3404 Z0.2766
G01 X62.6403 Y-2.3565 Z0.2766
G01 X63.2739 Y-2.3730 Z0.2766
G01 X63.9075 Y-2.3900 Z0.2766
G01 X64.5411 Y-2.4074 Z0.2766
G01 X65.1746 Y-2.4253 Z0.2766
G01 X65.8082 Y-2.4437 Z0.2766
G01 X66.4418 Y-2.4624 Z0.2766
G01 X67.0754 Y-2.4817 Z0.2766
G01 X67.7090 Y-2.5014 Z0.2766
G01 X67.7119 Y-2.5014 Z0.2766
G01 X67.7170 Y-2.5015 Z0.2766
G01 X67.7194 Y-2.5015 Z0.2766
G01 X67.7390 Y-2.5012 Z0.2766
G01 X67.7426 Y-2.5011 Z0.2766
G01 X67.7461 Y-2.5009 Z0.2766
G01 X67.7497 Y-2.5007 Z0.2766
G01 X67.7532 Y-2.5003 Z0.2766
G01 X67.7567 Y-2.4998 Z0.2766
G01 X67.7602 Y-2.4992 Z0.2766
G01 X67.7637 Y-2.4985 Z0.2766
G01 X67.7672 Y-2.4976 Z0.2766
G01 X67.7706 Y-2.4967 Z0.2766
G01 X67.7740 Y-2.4957 Z0.2766
G01 X67.7774 Y-2.4946 Z0.2766
G01 X67.7808 Y-2.4935 Z0.2766
G01 X67.7841 Y-2.4922 Z0.2766
G01 X67.7874 Y-2.4907 Z0.2766
G01 X67.7906 Y-2.4893 Z0.2766
G01 X67.7938 Y-2.4877 Z0.2766
G01 X67.7969 Y-2.4860 Z0.2766
G01 X67.8000 Y-2.4843 Z0.2766
G01 X67.8031 Y-2.4824 Z0.2766
G01 X67.8061 Y-2.4805 Z0.2766
G01 X67.8090 Y-2.4785 Z0.2766
G01 X67.8118 Y-2.4764 Z0.2766
G01 X67.8147 Y-2.4742 Z0.2766
G01 X67.8174 Y-2.4720 Z0.2766
G01 X67.8201 Y-2.4696 Z0.2766
G01 X67.8227 Y-2.4672 Z0.2766
G01 X67.8252 Y-2.4647 Z0.2766
G01 X67.8277 Y-2.4622 Z0.2766
G01 X67.8301 Y-2.4595 Z0.2766
G01 X67.8324 Y-2.4568 Z0.2766
G01 X67.8346 Y-2.4540 Z0.2766
G01 X67.8368 Y-2.4512 Z0.2766
G01 X67.8389 Y-2.4483 Z0.2766
G01 X67.8409 Y-2.4454 Z0.2766
G01 X67.8428 Y-2.4424 Z0.2766
G01 X67.8446 Y-2.4393 Z0.2766
G01 X67.8463 Y-2.4362 Z0.2766
G01 X67.8479 Y-2.4331 Z0.2766
G01 X67.8495 Y-2.4298 Z0.2766
G01 X67.8509 Y-2.4266 Z0.2766
G01 X67.8523 Y-2.4233 Z0.2766
G01 X67.8536 Y-2.4200 Z0.2766
G01 X67.8548 Y-2.4166 Z0.2766
G01 X67.8558 Y-2.4133 Z0.2766
G01 X67.8568 Y-2.4098 Z0.2766
G01 X67.8577 Y-2.4064 Z0.2766
G01 X67.8584 Y-2.4029 Z0.2766
G01 X67.8591 Y-2.3994 Z0.2766
G01 X67.8597 Y-2.3959 Z0.2766
G01 X67.8601 Y-2.3924 Z0.2766
G01 X67.8621 Y-2.3760 Z0.2766
G01 X67.8716 Y-2.3153 Z0.2766
G01 X67.8822 Y-2.2612 Z0.2766
G01 X67.8942 Y-2.2113 Z0.2766
G01 X67.9075 Y-2.1661 Z0.2766
G01 X67.9217 Y-2.1258 Z0.2766
G01 X67.9371 Y-2.0889 Z0.2766
G01 X67.9533 Y-2.0559 Z0.2766
G01 X67.9702 Y-2.0268 Z0.2766
G01 X67.9879 Y-2.0003 Z0.2766
G01 X68.0063 Y-1.9768 Z0.2766
G01 X68.0261 Y-1.9547 Z0.2766
G01 X68.0461 Y-1.9353 Z0.2766
G01 X68.0687 Y-1.9161 Z0.2766
G01 X68.0909 Y-1.8996 Z0.2766
G01 X68.1159 Y-1.8829 Z0.2766
G01 X68.1428 Y-1.8670 Z0.2766
G01 X68.1705 Y-1.8520 Z0.2766
G01 X68.1998 Y-1.8377 Z0.2766
G01 X68.2333 Y-1.8224 Z0.2766
G01 X68.2645 Y-1.8089 Z0.2766
G01 X68.3009 Y-1.7939 Z0.2766
G01 X68.3372 Y-1.7793 Z0.2766
G01 X68.3751 Y-1.7642 Z0.2766
G01 X68.4144 Y-1.7485 Z0.2766
G01 X68.4153 Y-1.7481 Z0.2766
G01 X68.4551 Y-1.7318 Z0.2766
G01 X68.4565 Y-1.7311 Z0.2766
G01 X68.4970 Y-1.7139 Z0.2766
G01 X68.4990 Y-1.7130 Z0.2766
G01 X68.5403 Y-1.6946 Z0.2766
G01 X68.5426 Y-1.6935 Z0.2766
G01 X68.5845 Y-1.6738 Z0.2766
G01 X68.5874 Y-1.6724 Z0.2766
G01 X68.6299 Y-1.6510 Z0.2766
G01 X68.6330 Y-1.6494 Z0.2766
G01 X68.6761 Y-1.6261 Z0.2766
G01 X68.6795 Y-1.6242 Z0.2766
G01 X68.7231 Y-1.5988 Z0.2766
G01 X68.7267 Y-1.5967 Z0.2766
G01 X68.7709 Y-1.5690 Z0.2766
G01 X68.7746 Y-1.5666 Z0.2766
G01 X68.8192 Y-1.5364 Z0.2766
G01 X68.8230 Y-1.5337 Z0.2766
G01 X68.8680 Y-1.5007 Z0.2766
G01 X68.8717 Y-1.4979 Z0.2766
G01 X68.9172 Y-1.4618 Z0.2766
G01 X68.9209 Y-1.4588 Z0.2766
G01 X68.9666 Y-1.4195 Z0.2766
G01 X68.9703 Y-1.4162 Z0.2766
G01 X69.0164 Y-1.3735 Z0.2766
G01 X69.0198 Y-1.3702 Z0.2766
G01 X69.0661 Y-1.3237 Z0.2766
G01 X69.0694 Y-1.3203 Z0.2766
G01 X69.1161 Y-1.2698 Z0.2766
G01 X69.1192 Y-1.2662 Z0.2766
G01 X69.1659 Y-1.2116 Z0.2766
G01 X69.1688 Y-1.2081 Z0.2766
G01 X69.2157 Y-1.1490 Z0.2766
G01 X69.2184 Y-1.1455 Z0.2766
G01 X69.2654 Y-1.0818 Z0.2766
G01 X69.2679 Y-1.0784 Z0.2766
G01 X69.3150 Y-1.0097 Z0.2766
G01 X69.3172 Y-1.0064 Z0.2766
G01 X69.3644 Y-0.9326 Z0.2766
G01 X69.3664 Y-0.9293 Z0.2766
G01 X69.4136 Y-0.8502 Z0.2766
G01 X69.4166 Y-0.8448 Z0.2766
G01 X69.4357 Y-0.8088 Z0.2766
G01 X69.4375 Y-0.8053 Z0.2766
G01 X69.4558 Y-0.7680 Z0.2766
G01 X69.4575 Y-0.7642 Z0.2766
G01 X69.4746 Y-0.7261 Z0.2766
G01 X69.4761 Y-0.7225 Z0.2766
G01 X69.4919 Y-0.6842 Z0.2766
G01 X69.4933 Y-0.6805 Z0.2766
G01 X69.5083 Y-0.6405 Z0.2766
G01 X69.5096 Y-0.6370 Z0.2766
G01 X69.5238 Y-0.5953 Z0.2766
G01 X69.5250 Y-0.5916 Z0.2766
G01 X69.5379 Y-0.5494 Z0.2766
G01 X69.5388 Y-0.5461 Z0.2766
G01 X69.5503 Y-0.5042 Z0.2766
G01 X69.5512 Y-0.5007 Z0.2766
G01 X69.5621 Y-0.4562 Z0.2766
G01 X69.5629 Y-0.4530 Z0.2766
G01 X69.5722 Y-0.4097 Z0.2766
G01 X69.5729 Y-0.4063 Z0.2766
G01 X69.5817 Y-0.3589 Z0.2766
G01 X69.5823 Y-0.3558 Z0.2766
G01 X69.5895 Y-0.3105 Z0.2766
G01 X69.5900 Y-0.3072 Z0.2766
G01 X69.5962 Y-0.2601 Z0.2766
G01 X69.5966 Y-0.2571 Z0.2766
G01 X69.6016 Y-0.2104 Z0.2766
G01 X69.6020 Y-0.2072 Z0.2766
G01 X69.6061 Y-0.1570 Z0.2766
G01 X69.6062 Y-0.1542 Z0.2766
G01 X69.6090 Y-0.1067 Z0.2766
G01 X69.6092 Y-0.1038 Z0.2766
G01 X69.6109 Y-0.0540 Z0.2766
G01 X69.6110 Y-0.0511 Z0.2766
G01 X69.6115 Y-0.0013 Z0.2766
G01 X69.6115 Y0.0013 Z0.2766
G01 X69.6110 Y0.0511 Z0.2766
G01 X69.6109 Y0.0540 Z0.2766
G01 X69.6092 Y0.1038 Z0.2766
G01 X69.6090 Y0.1067 Z0.2766
G01 X69.6062 Y0.1542 Z0.2766
G01 X69.6061 Y0.1570 Z0.2766
G01 X69.6020 Y0.2072 Z0.2766
G01 X69.6016 Y0.2104 Z0.2766
G01 X69.5966 Y0.2571 Z0.2766
G01 X69.5962 Y0.2601 Z0.2766
G01 X69.5900 Y0.3072 Z0.2766
G01 X69.5895 Y0.3105 Z0.2766
G01 X69.5823 Y0.3558 Z0.2766
G01 X69.5817 Y0.3589 Z0.2766
G01 X69.5729 Y0.4063 Z0.2766
G01 X69.5722 Y0.4097 Z0.2766
G01 X69.5629 Y0.4530 Z0.2766
G01 X69.5622 Y0.4562 Z0.2766
G01 X69.5514 Y0.5001 Z0.2766
G01 X69.5505 Y0.5037 Z0.2766
G01 X69.5388 Y0.5461 Z0.2766
G01 X69.5379 Y0.5494 Z0.2766
G01 X69.5250 Y0.5916 Z0.2766
G01 X69.5238 Y0.5953 Z0.2766
G01 X69.5096 Y0.6370 Z0.2766
G01 X69.5083 Y0.6405 Z0.2766
G01 X69.4933 Y0.6805 Z0.2766
G01 X69.4919 Y0.6842 Z0.2766
G01 X69.4761 Y0.7225 Z0.2766
G01 X69.4746 Y0.7261 Z0.2766
G01 X69.4575 Y0.7642 Z0.2766
G01 X69.4558 Y0.7680 Z0.2766
G01 X69.4378 Y0.8048 Z0.2766
G01 X69.4360 Y0.8083 Z0.2766
G01 X69.4166 Y0.8448 Z0.2766
G01 X69.4136 Y0.8502 Z0.2766
G01 X69.3664 Y0.9293 Z0.2766
G01 X69.3644 Y0.9326 Z0.2766
G01 X69.3172 Y1.0064 Z0.2766
G01 X69.3150 Y1.0097 Z0.2766
G01 X69.2679 Y1.0784 Z0.2766
G01 X69.2654 Y1.0818 Z0.2766
G01 X69.2184 Y1.1455 Z0.2766
G01 X69.2157 Y1.1490 Z0.2766
G01 X69.1688 Y1.2081 Z0.2766
G01 X69.1659 Y1.2116 Z0.2766
G01 X69.1192 Y1.2662 Z0.2766
G01 X69.1161 Y1.2698 Z0.2766
G01 X69.0694 Y1.3203 Z0.2766
G01 X69.0661 Y1.3237 Z0.2766
G01 X69.0198 Y1.3702 Z0.2766
G01 X69.0164 Y1.3735 Z0.2766
G01 X68.9703 Y1.4162 Z0.2766
G01 X68.9666 Y1.4195 Z0.2766
G01 X68.9209 Y1.4588 Z0.2766
G01 X68.9172 Y1.4618 Z0.2766
G01 X68.8717 Y1.4979 Z0.2766
G01 X68.8680 Y1.5007 Z0.2766
G01 X68.8230 Y1.5337 Z0.2766
G01 X68.8192 Y1.5364 Z0.2766
G01 X68.7746 Y1.5666 Z0.2766
G01 X68.7709 Y1.5690 Z0.2766
G01 X68.7267 Y1.5967 Z0.2766
G01 X68.7231 Y1.5988 Z0.2766
G01 X68.6795 Y1.6242 Z0.2766
G01 X68.6761 Y1.6261 Z0.2766
G01 X68.6330 Y1.6494 Z0.2766
G01 X68.6299 Y1.6510 Z0.2766
G01 X68.5874 Y1.6724 Z0.2766
G01 X68.5845 Y1.6738 Z0.2766
G01 X68.5426 Y1.6935 Z0.2766
G01 X68.5403 Y1.6946 Z0.2766
G01 X68.4990 Y1.7130 Z0.2766
G01 X68.4970 Y1.7139 Z0.2766
G01 X68.4565 Y1.7311 Z0.2766
G01 X68.4551 Y1.7318 Z0.2766
G01 X68.4153 Y1.7481 Z0.2766
G01 X68.4144 Y1.7485 Z0.2766
G01 X68.3754 Y1.7641 Z0.2766
G01 X68.3372 Y1.7793 Z0.2766
G01 X68.3009 Y1.7939 Z0.2766
G01 X68.2645 Y1.8089 Z0.2766
G01 X68.2333 Y1.8224 Z0.2766
G01 X68.1998 Y1.8377 Z0.2766
G01 X68.1705 Y1.8520 Z0.2766
G01 X68.1428 Y1.8670 Z0.2766
G01 X68.1159 Y1.8829 Z0.2766
G01 X68.0909 Y1.8996 Z0.2766
G01 X68.0687 Y1.9161 Z0.2766
G01 X68.0461 Y1.9353 Z0.2766
G01 X68.0261 Y1.9547 Z0.2766
G01 X68.0063 Y1.9768 Z0.2766
G01 X67.9879 Y2.0003 Z0.2766
G01 X67.9702 Y2.0268 Z0.2766
G01 X67.9533 Y2.0559 Z0.2766
G01 X67.9371 Y2.0889 Z0.2766
G01 X67.9217 Y2.1258 Z0.2766
G01 X67.9075 Y2.1659 Z0.2766
G01 X67.8943 Y2.2109 Z0.2766
G01 X67.8822 Y2.2612 Z0.2766
G01 X67.8716 Y2.3153 Z0.2766
G01 X67.8622 Y2.3755 Z0.2766
G01 X67.8601 Y2.3924 Z0.2766
G01 X67.8597 Y2.3959 Z0.2766
G01 X67.8591 Y2.3994 Z0.2766
G01 X67.8584 Y2.4029 Z0.2766
G01 X67.8577 Y2.4064 Z0.2766
G01 X67.8568 Y2.4098 Z0.2766
G01 X67.8558 Y2.4133 Z0.2766
G01 X67.8548 Y2.4166 Z0.2766
G01 X67.8536 Y2.4200 Z0.2766
G01 X67.8523 Y2.4233 Z0.2766
G01 X67.8509 Y2.4266 Z0.2766
G01 X67.8495 Y2.4298 Z0.2766
G01 X67.8479 Y2.4331 Z0.2766
G01 X67.8463 Y2.4362 Z0.2766
G01 X67.8446 Y2.4393 Z0.2766
G01 X67.8428 Y2.4424 Z0.2766
G01 X67.8409 Y2.4454 Z0.2766
G01 X67.8389 Y2.4483 Z0.2766
G01 X67.8368 Y2.4512 Z0.2766
G01 X67.8346 Y2.4540 Z0.2766
G01 X67.8324 Y2.4568 Z0.2766
G01 X67.8301 Y2.4595 Z0.2766
G01 X67.8277 Y2.4622 Z0.2766
G01 X67.8252 Y2.4647 Z0.2766
G01 X67.8227 Y2.4672 Z0.2766
G01 X67.8201 Y2.4696 Z0.2766
G01 X67.8174 Y2.4720 Z0.2766
G01 X67.8147 Y2.4742 Z0.2766
G01 X67.8118 Y2.4764 Z0.2766
G01 X67.8090 Y2.4785 Z0.2766
G01 X67.8061 Y2.4805 Z0.2766
G01 X67.8031 Y2.4824 Z0.2766
G01 X67.8000 Y2.4843 Z0.2766
G01 X67.7969 Y2.4860 Z0.2766
G01 X67.7938 Y2.4877 Z0.2766
G01 X67.7906 Y2.4893 Z0.2766
G01 X67.7874 Y2.4907 Z0.2766
G01 X67.7841 Y2.4922 Z0.2766
G01 X67.7808 Y2.4935 Z0.2766
G01 X67.7774 Y2.4946 Z0.2766
G01 X67.7740 Y2.4957 Z0.2766
G01 X67.7706 Y2.4967 Z0.2766
G01 X67.7672 Y2.4976 Z0.2766
G01 X67.7637 Y2.4985 Z0.2766
G01 X67.7602 Y2.4992 Z0.2766
G01 X67.7567 Y2.4998 Z0.2766
G01 X67.7532 Y2.5003 Z0.2766
G01 X67.7497 Y2.5007 Z0.2766
G01 X67.7461 Y2.5009 Z0.2766
G01 X67.7426 Y2.5011 Z0.2766
G01 X67.7390 Y2.5012 Z0.2766
G01 X67.7194 Y2.5015 Z0.2766
G01 X67.7170 Y2.5015 Z0.2766
G01 X67.7119 Y2.5014 Z0.2766
G01 X67.7090 Y2.5014 Z0.2766
G01 X67.0754 Y2.4816 Z0.2766
G01 X66.4418 Y2.4624 Z0.2766
G01 X65.8082 Y2.4437 Z0.2766
G01 X65.1746 Y2.4253 Z0.2766
G01 X64.5411 Y2.4074 Z0.2766
G01 X63.9075 Y2.3900 Z0.2766
G01 X63.2739 Y2.3730 Z0.2766
G01 X62.6403 Y2.3565 Z0.2766
G01 X62.0066 Y2.3404 Z0.2766
G01 X61.3730 Y2.3248 Z0.2766
G01 X60.7393 Y2.3096 Z0.2766
G01 X60.1057 Y2.2949 Z0.2766
G01 X59.4720 Y2.2806 Z0.2766
G01 X58.8384 Y2.2668 Z0.2766
G01 X58.2047 Y2.2535 Z0.2766
G01 X57.5710 Y2.2406 Z0.2766
G01 X56.9372 Y2.2281 Z0.2766
G01 X56.3075 Y2.2162 Z0.2766
G01 X56.3037 Y2.2162 Z0.2766
G01 X55.6699 Y2.2046 Z0.2766
G01 X55.0361 Y2.1936 Z0.2766
G01 X54.4024 Y2.1830 Z0.2766
G01 X53.7687 Y2.1728 Z0.2766
G01 X53.1349 Y2.1631 Z0.2766
G01 X52.5011 Y2.1538 Z0.2766
G01 X52.1653 Y2.1491 Z0.2766
G01 X51.8673 Y2.1450 Z0.2766
G01 X51.3779 Y2.1385 Z0.2766
G01 X51.2336 Y2.1366 Z0.2766
G01 X50.5998 Y2.1287 Z0.2766
G01 X50.5905 Y2.1286 Z0.2766
G01 X49.9660 Y2.1213 Z0.2766
G01 X49.8031 Y2.1195 Z0.2766
G01 X49.3322 Y2.1143 Z0.2766
G01 X48.6985 Y2.1077 Z0.2766
G01 X48.0646 Y2.1016 Z0.2766
G01 X47.4308 Y2.0960 Z0.2766
G01 X46.7970 Y2.0908 Z0.2766
G01 X46.1633 Y2.0861 Z0.2766
G01 X45.5294 Y2.0818 Z0.2766
G01 X44.8956 Y2.0780 Z0.2766
G01 X44.2618 Y2.0746 Z0.2766
G01 X43.6279 Y2.0717 Z0.2766
G01 X42.9941 Y2.0692 Z0.2766
G01 X42.3603 Y2.0672 Z0.2766
G01 X41.7265 Y2.0657 Z0.2766
G01 X41.0927 Y2.0646 Z0.2766
G01 X40.4588 Y2.0639 Z0.2766
G01 X39.8251 Y2.0637 Z0.2766
G01 X39.1914 Y2.0640 Z0.2766
G01 X38.5575 Y2.0647 Z0.2766
G01 X37.9237 Y2.0659 Z0.2766
G01 X37.2899 Y2.0675 Z0.2766
G01 X36.6560 Y2.0696 Z0.2766
G01 X36.0222 Y2.0721 Z0.2766
G01 X35.3884 Y2.0751 Z0.2766
G01 X34.7546 Y2.0785 Z0.2766
G01 X34.1207 Y2.0824 Z0.2766
G01 X33.4870 Y2.0868 Z0.2766
G01 X32.8531 Y2.0916 Z0.2766
G01 X32.2193 Y2.0968 Z0.2766
G01 X31.5856 Y2.1025 Z0.2766
G01 X30.9518 Y2.1087 Z0.2766
G01 X30.3179 Y2.1153 Z0.2766
G01 X29.6842 Y2.1224 Z0.2766
G01 X29.0504 Y2.1299 Z0.2766
G01 X28.4166 Y2.1379 Z0.2766
G01 X27.7828 Y2.1463 Z0.2766
G01 X27.1490 Y2.1551 Z0.2766
G01 X26.5153 Y2.1645 Z0.2766
G01 X25.8816 Y2.1743 Z0.2766
G01 X25.2478 Y2.1845 Z0.2766
G01 X24.6141 Y2.1952 Z0.2766
G01 X23.9802 Y2.2064 Z0.2766
G01 X23.9764 Y2.2064 Z0.2766
G01 X23.3466 Y2.2179 Z0.2766
G01 X22.7129 Y2.2300 Z0.2766
G01 X22.0792 Y2.2425 Z0.2766
G01 X21.4455 Y2.2555 Z0.2766
G01 X20.8119 Y2.2688 Z0.2766
G01 X20.4724 Y2.2763 Z0.2766
G01 X20.1782 Y2.2827 Z0.2766
G01 X19.6850 Y2.2939 Z0.2766
G01 X19.5445 Y2.2971 Z0.2766
G01 X18.9108 Y2.3118 Z0.2766
G01 X18.8976 Y2.3122 Z0.2766
G01 X18.2772 Y2.3271 Z0.2766
G01 X18.1102 Y2.3312 Z0.2766
G01 X17.6436 Y2.3427 Z0.2766
G01 X17.0100 Y2.3589 Z0.2766
G01 X16.3763 Y2.3755 Z0.2766
G01 X15.7428 Y2.3925 Z0.2766
G01 X15.1092 Y2.4101 Z0.2766
G01 X14.4756 Y2.4280 Z0.2766
G01 X13.8420 Y2.4464 Z0.2766
G01 X13.2085 Y2.4653 Z0.2766
G01 X12.5749 Y2.4846 Z0.2766
G01 X11.9412 Y2.5043 Z0.2766
G01 X11.9377 Y2.5044 Z0.2766
G01 X11.3079 Y2.5245 Z0.2766
G01 X10.6744 Y2.5452 Z0.2766
G01 X10.0410 Y2.5663 Z0.2766
G01 X9.4075 Y2.5879 Z0.2766
G01 X8.7740 Y2.6100 Z0.2766
G01 X8.1407 Y2.6324 Z0.2766
G01 X7.5072 Y2.6554 Z0.2766
G01 X6.8738 Y2.6788 Z0.2766
G01 X6.2404 Y2.7026 Z0.2766
G01 X5.6071 Y2.7269 Z0.2766
G01 X4.9737 Y2.7517 Z0.2766
G01 X4.3403 Y2.7769 Z0.2766
G01 X4.3371 Y2.7770 Z0.2766
G01 X4.3314 Y2.7771 Z0.2766
G01 X4.3283 Y2.7771 Z0.2766
G01 X4.3248 Y2.7770 Z0.2766
G01 X4.3213 Y2.7770 Z0.2766
G01 X4.3179 Y2.7768 Z0.2766
G01 X4.3144 Y2.7764 Z0.2766
G01 X4.3109 Y2.7761 Z0.2766
G01 X4.3074 Y2.7756 Z0.2766
G01 X4.3040 Y2.7750 Z0.2766
G01 X4.3005 Y2.7743 Z0.2766
G01 X4.2971 Y2.7735 Z0.2766
G01 X4.2937 Y2.7727 Z0.2766
G01 X4.2903 Y2.7717 Z0.2766
G01 X4.2870 Y2.7706 Z0.2766
G01 X4.2837 Y2.7695 Z0.2766
G01 X4.2804 Y2.7682 Z0.2766
G01 X4.2772 Y2.7669 Z0.2766
G01 X4.2740 Y2.7655 Z0.2766
G01 X4.2709 Y2.7639 Z0.2766
G01 X4.2677 Y2.7623 Z0.2766
G01 X4.2647 Y2.7606 Z0.2766
G01 X4.2617 Y2.7588 Z0.2766
G01 X4.2587 Y2.7569 Z0.2766
G01 X4.2558 Y2.7550 Z0.2766
G01 X4.2530 Y2.7529 Z0.2766
G01 X4.2502 Y2.7508 Z0.2766
G01 X4.2475 Y2.7486 Z0.2766
G01 X4.2448 Y2.7464 Z0.2766
G01 X4.2422 Y2.7440 Z0.2766
G01 X4.2397 Y2.7416 Z0.2766
G01 X4.2372 Y2.7391 Z0.2766
G01 X4.2348 Y2.7365 Z0.2766
G01 X4.2325 Y2.7339 Z0.2766
G01 X4.2303 Y2.7312 Z0.2766
G01 X4.2281 Y2.7285 Z0.2766
G01 X4.2260 Y2.7257 Z0.2766
G01 X4.2240 Y2.7228 Z0.2766
G01 X4.2221 Y2.7198 Z0.2766
G01 X4.2202 Y2.7169 Z0.2766
G01 X4.2185 Y2.7138 Z0.2766
G01 X4.2168 Y2.7107 Z0.2766
G01 X4.2153 Y2.7076 Z0.2766
G01 X4.2138 Y2.7045 Z0.2766
G01 X4.2124 Y2.7012 Z0.2766
G01 X4.2111 Y2.6980 Z0.2766
G01 X4.2098 Y2.6947 Z0.2766
G01 X4.2087 Y2.6914 Z0.2766
G01 X4.2077 Y2.6881 Z0.2766
G01 X4.2068 Y2.6847 Z0.2766
G01 X4.2059 Y2.6813 Z0.2766
G01 X4.2052 Y2.6779 Z0.2766
G01 X4.2046 Y2.6744 Z0.2766
G01 X4.2040 Y2.6709 Z0.2766
G01 X4.2036 Y2.6675 Z0.2766
G01 X4.2032 Y2.6640 Z0.2766
G01 X4.2030 Y2.6605 Z0.2766
G01 X4.2028 Y2.6570 Z0.2766
G01 X4.2019 Y2.6243 Z0.2766
G01 X4.1993 Y2.5557 Z0.2766
G01 X4.1960 Y2.4915 Z0.2766
G01 X4.1921 Y2.4337 Z0.2766
G01 X4.1872 Y2.3755 Z0.2766
G01 X4.1819 Y2.3258 Z0.2766
G01 X4.1755 Y2.2773 Z0.2766
G01 X4.1685 Y2.2346 Z0.2766
G01 X4.1603 Y2.1936 Z0.2766
G01 X4.1518 Y2.1581 Z0.2766
G01 X4.1424 Y2.1255 Z0.2766
G01 X4.1324 Y2.0968 Z0.2766
G01 X4.1217 Y2.0712 Z0.2766
G01 X4.1105 Y2.0488 Z0.2766
G01 X4.0990 Y2.0295 Z0.2766
G01 X4.0869 Y2.0123 Z0.2766
G01 X4.0742 Y1.9971 Z0.2766
G01 X4.0604 Y1.9833 Z0.2766
G01 X4.0457 Y1.9709 Z0.2766
G01 X4.0295 Y1.9594 Z0.2766
G01 X4.0112 Y1.9484 Z0.2766
G01 X3.9905 Y1.9379 Z0.2766
G01 X3.9672 Y1.9279 Z0.2766
G01 X3.9412 Y1.9185 Z0.2766
G01 X3.9124 Y1.9096 Z0.2766
G01 X3.8814 Y1.9014 Z0.2766
G01 X3.8475 Y1.8938 Z0.2766
G01 X3.8092 Y1.8863 Z0.2766
G01 X3.7690 Y1.8795 Z0.2766
G01 X3.7270 Y1.8731 Z0.2766
G01 X3.6794 Y1.8665 Z0.2766
G01 X3.6316 Y1.8605 Z0.2766
G01 X3.5790 Y1.8542 Z0.2766
G01 X3.5246 Y1.8479 Z0.2766
G01 X3.4668 Y1.8413 Z0.2766
G01 X3.4062 Y1.8344 Z0.2766
G01 X3.3428 Y1.8270 Z0.2766
G01 X3.3422 Y1.8269 Z0.2766
G01 X3.2761 Y1.8189 Z0.2766
G01 X3.2754 Y1.8188 Z0.2766
G01 X3.2064 Y1.8101 Z0.2766
G01 X3.2056 Y1.8100 Z0.2766
G01 X3.1337 Y1.8003 Z0.2766
G01 X3.1328 Y1.8002 Z0.2766
G01 X3.0578 Y1.7896 Z0.2766
G01 X3.0566 Y1.7895 Z0.2766
G01 X2.9786 Y1.7777 Z0.2766
G01 X2.9775 Y1.7775 Z0.2766
G01 X2.8963 Y1.7646 Z0.2766
G01 X2.8950 Y1.7643 Z0.2766
G01 X2.8106 Y1.7499 Z0.2766
G01 X2.8094 Y1.7496 Z0.2766
G01 X2.7217 Y1.7337 Z0.2766
G01 X2.7203 Y1.7335 Z0.2766
G01 X2.6294 Y1.7159 Z0.2766
G01 X2.6259 Y1.7151 Z0.2766
G01 X2.5060 Y1.6883 Z0.2766
G01 X2.5033 Y1.6877 Z0.2766
G01 X2.3863 Y1.6587 Z0.2766
G01 X2.3833 Y1.6579 Z0.2766
G01 X2.2721 Y1.6273 Z0.2766
G01 X2.2692 Y1.6264 Z0.2766
G01 X2.1645 Y1.5949 Z0.2766
G01 X2.1614 Y1.5939 Z0.2766
G01 X2.0607 Y1.5606 Z0.2766
G01 X2.0575 Y1.5595 Z0.2766
G01 X1.9623 Y1.5252 Z0.2766
G01 X1.9590 Y1.5240 Z0.2766
G01 X1.8672 Y1.4879 Z0.2766
G01 X1.8640 Y1.4866 Z0.2766
G01 X1.7778 Y1.4498 Z0.2766
G01 X1.7745 Y1.4483 Z0.2766
G01 X1.6924 Y1.4105 Z0.2766
G01 X1.6890 Y1.4088 Z0.2766
G01 X1.6117 Y1.3703 Z0.2766
G01 X1.6082 Y1.3684 Z0.2766
G01 X1.5352 Y1.3290 Z0.2766
G01 X1.5318 Y1.3271 Z0.2766
G01 X1.4625 Y1.2868 Z0.2766
G01 X1.4590 Y1.2846 Z0.2766
G01 X1.3955 Y1.2448 Z0.2766
G01 X1.3919 Y1.2424 Z0.2766
G01 X1.3310 Y1.2012 Z0.2766
G01 X1.3274 Y1.1987 Z0.2766
G01 X1.2700 Y1.1568 Z0.2766
G01 X1.2665 Y1.1542 Z0.2766
G01 X1.2144 Y1.1132 Z0.2766
G01 X1.2108 Y1.1103 Z0.2766
G01 X1.1616 Y1.0686 Z0.2766
G01 X1.1582 Y1.0656 Z0.2766
G01 X1.1114 Y1.0229 Z0.2766
G01 X1.1080 Y1.0196 Z0.2766
G01 X1.0663 Y0.9785 Z0.2766
G01 X1.0630 Y0.9751 Z0.2766
G01 X1.0229 Y0.9325 Z0.2766
G01 X1.0196 Y0.9288 Z0.2766
G01 X0.9827 Y0.8861 Z0.2766
G01 X0.9797 Y0.8825 Z0.2766
G01 X0.9465 Y0.8412 Z0.2766
G01 X0.9433 Y0.8371 Z0.2766
G01 X0.9119 Y0.7944 Z0.2766
G01 X0.9091 Y0.7904 Z0.2766
G01 X0.8801 Y0.7475 Z0.2766
G01 X0.8774 Y0.7434 Z0.2766
G01 X0.8515 Y0.7016 Z0.2766
G01 X0.8490 Y0.6973 Z0.2766
G01 X0.8243 Y0.6535 Z0.2766
G01 X0.8219 Y0.6491 Z0.2766
G01 X0.7998 Y0.6061 Z0.2766
G01 X0.7977 Y0.6017 Z0.2766
G01 X0.7782 Y0.5595 Z0.2766
G01 X0.7761 Y0.5548 Z0.2766
G01 X0.7579 Y0.5109 Z0.2766
G01 X0.7561 Y0.5064 Z0.2766
G01 X0.7397 Y0.4618 Z0.2766
G01 X0.7382 Y0.4573 Z0.2766
G01 X0.7238 Y0.4129 Z0.2766
G01 X0.7223 Y0.4083 Z0.2766
G01 X0.7097 Y0.3635 Z0.2766
G01 X0.7085 Y0.3589 Z0.2766
G01 X0.6975 Y0.3131 Z0.2766
G01 X0.6965 Y0.3085 Z0.2766
G01 X0.6874 Y0.2629 Z0.2766
G01 X0.6865 Y0.2583 Z0.2766
G01 X0.6790 Y0.2119 Z0.2766
G01 X0.6784 Y0.2075 Z0.2766
G01 X0.6725 Y0.1605 Z0.2766
G01 X0.6720 Y0.1560 Z0.2766
G01 X0.6677 Y0.1073 Z0.2766
G01 X0.6674 Y0.1028 Z0.2766
G01 X0.6650 Y0.0554 Z0.2766
G01 X0.6648 Y0.0512 Z0.2766
G01 X0.6640 Y0.0020 Z0.2766
G01 X0.6640 Y-0.0020 Z0.2766
G01 X0.6640 Y-0.0020 Z0.1333
G01 X0.6648 Y-0.0512 Z0.1333
G01 X0.6650 Y-0.0554 Z0.1333
G01 X0.6674 Y-0.1028 Z0.1333
G01 X0.6677 Y-0.1073 Z0.1333
G01 X0.6720 Y-0.1560 Z0.1333
G01 X0.6725 Y-0.1605 Z0.1333
G01 X0.6784 Y-0.2075 Z0.1333
G01 X0.6790 Y-0.2119 Z0.1333
G01 X0.6865 Y-0.2583 Z0.1333
G01 X0.6874 Y-0.2629 Z0.1333
G01 X0.6965 Y-0.3085 Z0.1333
G01 X0.6975 Y-0.3131 Z0.1333
G01 X0.7085 Y-0.3589 Z0.1333
G01 X0.7097 Y-0.3635 Z0.1333
G01 X0.7223 Y-0.4083 Z0.1333
G01 X0.7238 Y-0.4129 Z0.1333
G01 X0.7382 Y-0.4573 Z0.1333
G01 X0.7397 Y-0.4618 Z0.1333
G01 X0.7561 Y-0.5064 Z0.1333
G01 X0.7579 Y-0.5109 Z0.1333
G01 X0.7761 Y-0.5548 Z0.1333
G01 X0.7782 Y-0.5595 Z0.1333
G01 X0.7977 Y-0.6017 Z0.1333
G01 X0.7998 Y-0.6061 Z0.1333
G01 X0.8219 Y-0.6491 Z0.1333
G01 X0.8243 Y-0.6535 Z0.1333
G01 X0.8490 Y-0.6973 Z0.1333
G01 X0.8515 Y-0.7016 Z0.1333
G01 X0.8774 Y-0.7434 Z0.1333
G01 X0.8801 Y-0.7475 Z0.1333
G01 X0.9091 Y-0.7904 Z0.1333
G01 X0.9119 Y-0.7944 Z0.1333
G01 X0.9433 Y-0.8371 Z0.1333
G01 X0.9465 Y-0.8412 Z0.1333
G01 X0.9797 Y-0.8825 Z0.1333
G01 X0.9827 Y-0.8861 Z0.1333
G01 X1.0196 Y-0.9288 Z0.1333
G01 X1.0229 Y-0.9325 Z0.1333
G01 X1.0630 Y-0.9751 Z0.1333
G01 X1.0663 Y-0.9785 Z0.1333
G01 X1.1080 Y-1.0196 Z0.1333
G01 X1.1114 Y-1.0229 Z0.1333
G01 X1.1582 Y-1.0656 Z0.1333
G01 X1.1616 Y-1.0686 Z0.1333
G01 X1.2108 Y-1.1103 Z0.1333
G01 X1.2144 Y-1.1132 Z0.1333
G01 X1.2668 Y-1.1544 Z0.1333
G01 X1.2703 Y-1.1570 Z0.1333
G01 X1.3274 Y-1.1987 Z0.1333
G01 X1.3310 Y-1.2012 Z0.1333
G01 X1.3919 Y-1.2424 Z0.1333
G01 X1.3955 Y-1.2448 Z0.1333
G01 X1.4590 Y-1.2846 Z0.1333
G01 X1.4625 Y-1.2868 Z0.1333
G01 X1.5318 Y-1.3271 Z0.1333
G01 X1.5352 Y-1.3290 Z0.1333
G01 X1.6082 Y-1.3684 Z0.1333
G01 X1.6117 Y-1.3703 Z0.1333
G01 X1.6893 Y-1.4090 Z0.1333
G01 X1.6927 Y-1.4106 Z0.1333
G01 X1.7745 Y-1.4483 Z0.1333
G01 X1.7778 Y-1.4498 Z0.1333
G01 X1.8640 Y-1.4866 Z0.1333
G01 X1.8672 Y-1.4879 Z0.1333
G01 X1.9590 Y-1.5240 Z0.1333
G01 X1.9623 Y-1.5252 Z0.1333
G01 X2.0575 Y-1.5595 Z0.1333
G01 X2.0607 Y-1.5606 Z0.1333
G01 X2.1614 Y-1.5939 Z0.1333
G01 X2.1645 Y-1.5949 Z0.1333
G01 X2.2692 Y-1.6264 Z0.1333
G01 X2.2721 Y-1.6273 Z0.1333
G01 X2.3833 Y-1.6579 Z0.1333
G01 X2.3863 Y-1.6587 Z0.1333
G01 X2.5033 Y-1.6877 Z0.1333
G01 X2.5060 Y-1.6883 Z0.1333
G01 X2.6259 Y-1.7151 Z0.1333
G01 X2.6294 Y-1.7159 Z0.1333
G01 X2.7203 Y-1.7335 Z0.1333
G01 X2.7217 Y-1.7337 Z0.1333
G01 X2.8094 Y-1.7496 Z0.1333
G01 X2.8106 Y-1.7499 Z0.1333
G01 X2.8950 Y-1.7643 Z0.1333
G01 X2.8963 Y-1.7646 Z0.1333
G01 X2.9775 Y-1.7775 Z0.1333
G01 X2.9786 Y-1.7777 Z0.1333
G01 X3.0566 Y-1.7895 Z0.1333
G01 X3.0578 Y-1.7896 Z0.1333
G01 X3.1328 Y-1.8002 Z0.1333
G01 X3.1337 Y-1.8003 Z0.1333
G01 X3.2056 Y-1.8100 Z0.1333
G01 X3.2064 Y-1.8101 Z0.1333
G01 X3.2754 Y-1.8188 Z0.1333
G01 X3.2761 Y-1.8189 Z0.1333
G01 X3.3422 Y-1.8269 Z0.1333
G01 X3.3428 Y-1.8270 Z0.1333
G01 X3.4061 Y-1.8343 Z0.1333
G01 X3.4667 Y-1.8413 Z0.1333
G01 X3.5246 Y-1.8479 Z0.1333
G01 X3.5790 Y-1.8542 Z0.1333
G01 X3.6316 Y-1.8605 Z0.1333
G01 X3.6794 Y-1.8665 Z0.1333
G01 X3.7270 Y-1.8731 Z0.1333
G01 X3.7690 Y-1.8795 Z0.1333
G01 X3.8092 Y-1.8863 Z0.1333
G01 X3.8475 Y-1.8938 Z0.1333
G01 X3.8814 Y-1.9014 Z0.1333
G01 X3.9124 Y-1.9096 Z0.1333
G01 X3.9412 Y-1.9185 Z0.1333
G01 X3.9675 Y-1.9280 Z0.1333
G01 X3.9905 Y-1.9379 Z0.1333
G01 X4.0112 Y-1.9484 Z0.1333
G01 X4.0295 Y-1.9594 Z0.1333
G01 X4.0457 Y-1.9709 Z0.1333
G01 X4.0604 Y-1.9833 Z0.1333
G01 X4.0742 Y-1.9971 Z0.1333
G01 X4.0869 Y-2.0123 Z0.1333
G01 X4.0990 Y-2.0295 Z0.1333
G01 X4.1105 Y-2.0488 Z0.1333
G01 X4.1217 Y-2.0712 Z0.1333
G01 X4.1325 Y-2.0972 Z0.1333
G01 X4.1424 Y-2.1255 Z0.1333
G01 X4.1518 Y-2.1581 Z0.1333
G01 X4.1604 Y-2.1940 Z0.1333
G01 X4.1685 Y-2.2347 Z0.1333
G01 X4.1755 Y-2.2773 Z0.1333
G01 X4.1819 Y-2.3258 Z0.1333
G01 X4.1872 Y-2.3762 Z0.1333
G01 X4.1921 Y-2.4337 Z0.1333
G01 X4.1960 Y-2.4922 Z0.1333
G01 X4.1994 Y-2.5574 Z0.1333
G01 X4.2020 Y-2.6256 Z0.1333
G01 X4.2028 Y-2.6570 Z0.1333
G01 X4.2030 Y-2.6605 Z0.1333
G01 X4.2032 Y-2.6640 Z0.1333
G01 X4.2036 Y-2.6675 Z0.1333
G01 X4.2040 Y-2.6709 Z0.1333
G01 X4.2046 Y-2.6744 Z0.1333
G01 X4.2052 Y-2.6779 Z0.1333
G01 X4.2059 Y-2.6813 Z0.1333
G01 X4.2068 Y-2.6847 Z0.1333
G01 X4.2077 Y-2.6881 Z0.1333
G01 X4.2087 Y-2.6914 Z0.1333
G01 X4.2098 Y-2.6947 Z0.1333
G01 X4.2111 Y-2.6980 Z0.1333
G01 X4.2124 Y-2.7012 Z0.1333
G01 X4.2138 Y-2.7045 Z0.1333
G01 X4.2153 Y-2.7076 Z0.1333
G01 X4.2168 Y-2.7107 Z0.1333
G01 X4.2185 Y-2.7138 Z0.1333
G01 X4.2202 Y-2.7169 Z0.1333
G01 X4.2221 Y-2.7198 Z0.1333
G01 X4.2240 Y-2.7228 Z0.1333
G01 X4.2260 Y-2.7257 Z0.1333
G01 X4.2281 Y-2.7285 Z0.1333
G01 X4.2303 Y-2.7312 Z0.1333
G01 X4.2325 Y-2.7339 Z0.1333
G01 X4.2348 Y-2.7365 Z0.1333
G01 X4.2372 Y-2.7391 Z0.1333
G01 X4.2397 Y-2.7416 Z0.1333
G01 X4.2422 Y-2.7440 Z0.1333
G01 X4.2448 Y-2.7464 Z0.1333
G01 X4.2475 Y-2.7486 Z0.1333
G01 X4.2502 Y-2.7508 Z0.1333
G01 X4.2530 Y-2.7529 Z0.1333
G01 X4.2558 Y-2.7550 Z0.1333
G01 X4.2587 Y-2.7569 Z0.1333
G01 X4.2617 Y-2.7588 Z0.1333
G01 X4.2647 Y-2.7606 Z0.1333
G01 X4.2677 Y-2.7623 Z0.1333
G01 X4.2709 Y-2.7639 Z0.1333
G01 X4.2740 Y-2.7655 Z0.1333
G01 X4.2772 Y-2.7669 Z0.1333
G01 X4.2804 Y-2.7682 Z0.1333
G01 X4.2837 Y-2.7695 Z0.1333
G01 X4.2870 Y-2.7706 Z0.1333
G01 X4.2903 Y-2.7717 Z0.1333
G01 X4.2937 Y-2.7727 Z0.1333
G01 X4.2971 Y-2.7735 Z0.1333
G01 X4.3005 Y-2.7743 Z0.1333
G01 X4.3040 Y-2.7750 Z0.1333
G01 X4.3074 Y-2.7756 Z0.1333
G01 X4.3109 Y-2.7761 Z0.1333
G01 X4.3144 Y-2.7764 Z0.1333
G01 X4.3179 Y-2.7768 Z0.1333
G01 X4.3213 Y-2.7770 Z0.1333
G01 X4.3248 Y-2.7770 Z0.1333
G01 X4.3283 Y-2.7771 Z0.1333
G01 X4.3314 Y-2.7771 Z0.1333
G01 X4.3371 Y-2.7770 Z0.1333
G01 X4.3403 Y-2.7769 Z0.1333
G01 X4.9737 Y-2.7517 Z0.1333
G01 X5.6071 Y-2.7269 Z0.1333
G01 X6.2404 Y-2.7026 Z0.1333
G01 X6.8738 Y-2.6788 Z0.1333
G01 X7.5072 Y-2.6554 Z0.1333
G01 X8.1407 Y-2.6324 Z0.1333
G01 X8.7740 Y-2.6100 Z0.1333
G01 X9.4075 Y-2.5879 Z0.1333
G01 X10.0410 Y-2.5663 Z0.1333
G01 X10.6744 Y-2.5452 Z0.1333
G01 X11.3079 Y-2.5245 Z0.1333
G01 X11.9377 Y-2.5044 Z0.1333
G01 X11.9412 Y-2.5043 Z0.1333
G01 X12.5749 Y-2.4846 Z0.1333
G01 X13.2085 Y-2.4653 Z0.1333
G01 X13.8420 Y-2.4464 Z0.1333
G01 X14.4756 Y-2.4280 Z0.1333
G01 X15.1092 Y-2.4101 Z0.1333
G01 X15.7428 Y-2.3925 Z0.1333
G01 X16.3763 Y-2.3755 Z0.1333
G01 X17.0100 Y-2.3589 Z0.1333
G01 X17.6436 Y-2.3427 Z0.1333
G01 X18.1102 Y-2.3312 Z0.1333
G01 X18.2772 Y-2.3271 Z0.1333
G01 X18.8976 Y-2.3122 Z0.1333
G01 X18.9108 Y-2.3118 Z0.1333
G01 X19.5445 Y-2.2971 Z0.1333
G01 X19.6850 Y-2.2939 Z0.1333
G01 X20.1782 Y-2.2827 Z0.1333
G01 X20.4724 Y-2.2763 Z0.1333
G01 X20.8119 Y-2.2688 Z0.1333
G01 X21.4455 Y-2.2555 Z0.1333
G01 X22.0792 Y-2.2425 Z0.1333
G01 X22.7129 Y-2.2300 Z0.1333
G01 X23.3466 Y-2.2179 Z0.1333
G01 X23.9764 Y-2.2064 Z0.1333
G01 X23.9802 Y-2.2064 Z0.1333
G01 X24.6141 Y-2.1952 Z0.1333
G01 X25.2478 Y-2.1845 Z0.1333
G01 X25.8816 Y-2.1743 Z0.1333
G01 X26.5153 Y-2.1645 Z0.1333
G01 X27.1490 Y-2.1551 Z0.1333
G01 X27.7828 Y-2.1463 Z0.1333
G01 X28.4166 Y-2.1379 Z0.1333
G01 X29.0504 Y-2.1299 Z0.1333
G01 X29.6842 Y-2.1224 Z0.1333
G01 X30.3179 Y-2.1153 Z0.1333
G01 X30.9518 Y-2.1087 Z0.1333
G01 X31.5856 Y-2.1025 Z0.1333
G01 X32.2193 Y-2.0968 Z0.1333
G01 X32.8531 Y-2.0916 Z0.1333
G01 X33.4870 Y-2.0868 Z0.1333
G01 X34.1207 Y-2.0824 Z0.1333
G01 X34.7546 Y-2.0785 Z0.1333
G01 X35.3884 Y-2.0751 Z0.1333
G01 X36.0222 Y-2.0721 Z0.1333
G01 X36.6560 Y-2.0696 Z0.1333
G01 X37.2899 Y-2.0675 Z0.1333
G01 X37.9237 Y-2.0659 Z0.1333
G01 X38.5575 Y-2.0647 Z0.1333
G01 X39.1914 Y-2.0640 Z0.1333
G01 X39.8251 Y-2.0637 Z0.1333
G01 X40.4588 Y-2.0639 Z0.1333
G01 X41.0927 Y-2.0646 Z0.1333
G01 X41.7265 Y-2.0657 Z0.1333
G01 X42.3603 Y-2.0672 Z0.1333
G01 X42.9941 Y-2.0692 Z0.1333
G01 X43.6279 Y-2.0717 Z0.1333
G01 X44.2618 Y-2.0746 Z0.1333
G01 X44.8956 Y-2.0780 Z0.1333
G01 X45.5294 Y-2.0818 Z0.1333
G01 X46.1633 Y-2.0861 Z0.1333
G01 X46.7970 Y-2.0908 Z0.1333
G01 X47.4308 Y-2.0960 Z0.1333
G01 X48.0646 Y-2.1016 Z0.1333
G01 X48.6985 Y-2.1077 Z0.1333
G01 X49.3322 Y-2.1143 Z0.1333
G01 X49.8031 Y-2.1195 Z0.1333
G01 X49.9660 Y-2.1213 Z0.1333
G01 X50.5905 Y-2.1286 Z0.1333
G01 X50.5998 Y-2.1287 Z0.1333
G01 X51.2336 Y-2.1366 Z0.1333
G01 X51.3779 Y-2.1385 Z0.1333
G01 X51.8673 Y-2.1450 Z0.1333
G01 X52.1653 Y-2.1491 Z0.1333
G01 X52.5011 Y-2.1538 Z0.1333
G01 X53.1349 Y-2.1631 Z0.1333
G01 X53.7687 Y-2.1728 Z0.1333
G01 X54.4024 Y-2.1830 Z0.1333
G01 X55.0361 Y-2.1936 Z0.1333
G01 X55.6699 Y-2.2047 Z0.1333
G01 X56.3037 Y-2.2162 Z0.1333
G01 X56.3072 Y-2.2162 Z0.1333
G01 X56.9372 Y-2.2281 Z0.1333
G01 X57.5710 Y-2.2406 Z0.1333
G01 X58.2047 Y-2.2535 Z0.1333
G01 X58.8384 Y-2.2668 Z0.1333
G01 X59.4720 Y-2.2806 Z0.1333
G01 X60.1057 Y-2.2949 Z0.1333
G01 X60.7393 Y-2.3096 Z0.1333
G01 X61.3730 Y-2.3248 Z0.1333
G01 X62.0066 Y-2.3404 Z0.1333
G01 X62.6403 Y-2.3565 Z0.1333
G01 X63.2739 Y-2.3730 Z0.1333
G01 X63.9075 Y-2.3900 Z0.1333
G01 X64.5411 Y-2.4074 Z0.1333
G01 X65.1746 Y-2.4253 Z0.1333
G01 X65.8082 Y-2.4437 Z0.1333
G01 X66.4418 Y-2.4624 Z0.1333
G01 X67.0754 Y-2.4817 Z0.1333
G01 X67.7090 Y-2.5014 Z0.1333
G01 X67.7119 Y-2.5014 Z0.1333
G01 X67.7170 Y-2.5015 Z0.1333
G01 X67.7194 Y-2.5015 Z0.1333
G01 X67.7390 Y-2.5012 Z0.1333
G01 X67.7426 Y-2.5011 Z0.1333
G01 X67.7461 Y-2.5009 Z0.1333
G01 X67.7497 Y-2.5007 Z0.1333
G01 X67.7532 Y-2.5003 Z0.1333
G01 X67.7567 Y-2.4998 Z0.1333
G01 X67.7602 Y-2.4992 Z0.1333
G01 X67.7637 Y-2.4985 Z0.1333
G01 X67.7672 Y-2.4976 Z0.1333
G01 X67.7706 Y-2.4967 Z0.1333
G01 X67.7740 Y-2.4957 Z0.1333
G01 X67.7774 Y-2.4946 Z0.1333
G01 X67.7808 Y-2.4935 Z0.1333
G01 X67.7841 Y-2.4922 Z0.1333
G01 X67.7874 Y-2.4907 Z0.1333
G01 X67.7906 Y-2.4893 Z0.1333
G01 X67.7938 Y-2.4877 Z0.1333
G01 X67.7969 Y-2.4860 Z0.1333
G01 X67.8000 Y-2.4843 Z0.1333
G01 X67.8031 Y-2.4824 Z0.1333
G01 X67.8061 Y-2.4805 Z0.1333
G01 X67.8090 Y-2.4785 Z0.1333
G01 X67.8118 Y-2.4764 Z0.1333
G01 X67.8147 Y-2.4742 Z0.1333
G01 X67.8174 Y-2.4720 Z0.1333
G01 X67.8201 Y-2.4696 Z0.1333
G01 X67.8227 Y-2.4672 Z0.1333
G01 X67.8252 Y-2.4647 Z0.1333
G01 X67.8277 Y-2.4622 Z0.1333
G01 X67.8301 Y-2.4595 Z0.1333
G01 X67.8324 Y-2.4568 Z0.1333
G01 X67.8346 Y-2.4540 Z0.1333
G01 X67.8368 Y-2.4512 Z0.1333
G01 X67.8389 Y-2.4483 Z0.1333
G01 X67.8409 Y-2.4454 Z0.1333
G01 X67.8428 Y-2.4424 Z0.1333
G01 X67.8446 Y-2.4393 Z0.1333
G01 X67.8463 Y-2.4362 Z0.1333
G01 X67.8479 Y-2.4331 Z0.1333
G01 X67.8495 Y-2.4298 Z0.1333
G01 X67.8509 Y-2.4266 Z0.1333
G01 X67.8523 Y-2.4233 Z0.1333
G01 X67.8536 Y-2.4200 Z0.1333
G01 X67.8548 Y-2.4166 Z0.1333
G01 X67.8558 Y-2.4133 Z0.1333
G01 X67.8568 Y-2.4098 Z0.1333
G01 X67.8577 Y-2.4064 Z0.1333
G01 X67.8584 Y-2.4029 Z0.1333
G01 X67.8591 Y-2.3994 Z0.1333
G01 X67.8597 Y-2.3959 Z0.1333
G01 X67.8601 Y-2.3924 Z0.1333
G01 X67.8621 Y-2.3760 Z0.1333
G01 X67.8716 Y-2.3153 Z0.1333
G01 X67.8822 Y-2.2612 Z0.1333
G01 X67.8942 Y-2.2113 Z0.1333
G01 X67.9075 Y-2.1661 Z0.1333
G01 X67.9217 Y-2.1258 Z0.1333
G01 X67.9371 Y-2.0889 Z0.1333
G01 X67.9533 Y-2.0559 Z0.1333
G01 X67.9702 Y-2.0268 Z0.1333
G01 X67.9879 Y-2.0003 Z0.1333
G01 X68.0063 Y-1.9768 Z0.1333
G01 X68.0261 Y-1.9547 Z0.1333
G01 X68.0461 Y-1.9353 Z0.1333
G01 X68.0687 Y-1.9161 Z0.1333
G01 X68.0909 Y-1.8996 Z0.1333
G01 X68.1159 Y-1.8829 Z0.1333
G01 X68.1428 Y-1.8670 Z0.1333
G01 X68.1705 Y-1.8520 Z0.1333
G01 X68.1998 Y-1.8377 Z0.1333
G01 X68.2333 Y-1.8224 Z0.1333
G01 X68.2645 Y-1.8089 Z0.1333
G01 X68.3009 Y-1.7939 Z0.1333
G01 X68.3372 Y-1.7793 Z0.1333
G01 X68.3751 Y-1.7642 Z0.1333
G01 X68.4144 Y-1.7485 Z0.1333
G01 X68.4153 Y-1.7481 Z0.1333
G01 X68.4551 Y-1.7318 Z0.1333
G01 X68.4565 Y-1.7311 Z0.1333
G01 X68.4970 Y-1.7139 Z0.1333
G01 X68.4990 Y-1.7130 Z0.1333
G01 X68.5403 Y-1.6946 Z0.1333
G01 X68.5426 Y-1.6935 Z0.1333
G01 X68.5845 Y-1.6738 Z0.1333
G01 X68.5874 Y-1.6724 Z0.1333
G01 X68.6299 Y-1.6510 Z0.1333
G01 X68.6330 Y-1.6494 Z0.1333
G01 X68.6761 Y-1.6261 Z0.1333
G01 X68.6795 Y-1.6242 Z0.1333
G01 X68.7231 Y-1.5988 Z0.1333
G01 X68.7267 Y-1.5967 Z0.1333
G01 X68.7709 Y-1.5690 Z0.1333
G01 X68.7746 Y-1.5666 Z0.1333
G01 X68.8192 Y-1.5364 Z0.1333
G01 X68.8230 Y-1.5337 Z0.1333
G01 X68.8680 Y-1.5007 Z0.1333
G01 X68.8717 Y-1.4979 Z0.1333
G01 X68.9172 Y-1.4618 Z0.1333
G01 X68.9209 Y-1.4588 Z0.1333
G01 X68.9666 Y-1.4195 Z0.1333
G01 X68.9703 Y-1.4162 Z0.1333
G01 X69.0164 Y-1.3735 Z0.1333
G01 X69.0198 Y-1.3702 Z0.1333
G01 X69.0661 Y-1.3237 Z0.1333
G01 X69.0694 Y-1.3203 Z0.1333
G01 X69.1161 Y-1.2698 Z0.1333
G01 X69.1192 Y-1.2662 Z0.1333
G01 X69.1659 Y-1.2116 Z0.1333
G01 X69.1688 Y-1.2081 Z0.1333
G01 X69.2157 Y-1.1490 Z0.1333
G01 X69.2184 Y-1.1455 Z0.1333
G01 X69.2654 Y-1.0818 Z0.1333
G01 X69.2679 Y-1.0784 Z0.1333
G01 X69.3150 Y-1.0097 Z0.1333
G01 X69.3172 Y-1.0064 Z0.1333
G01 X69.3644 Y-0.9326 Z0.1333
G01 X69.3664 Y-0.9293 Z0.1333
G01 X69.4136 Y-0.8502 Z0.1333
G01 X69.4166 Y-0.8448 Z0.1333
G01 X69.4357 Y-0.8088 Z0.1333
G01 X69.4375 Y-0.8053 Z0.1333
G01 X69.4558 Y-0.7680 Z0.1333
G01 X69.4575 Y-0.7642 Z0.1333
G01 X69.4746 Y-0.7261 Z0.1333
G01 X69.4761 Y-0.7225 Z0.1333
G01 X69.4919 Y-0.6842 Z0.1333
G01 X69.4933 Y-0.6805 Z0.1333
G01 X69.5083 Y-0.6405 Z0.1333
G01 X69.5096 Y-0.6370 Z0.1333
G01 X69.5238 Y-0.5953 Z0.1333
G01 X69.5250 Y-0.5916 Z0.1333
G01 X69.5379 Y-0.5494 Z0.1333
G01 X69.5388 Y-0.5461 Z0.1333
G01 X69.5503 Y-0.5042 Z0.1333
G01 X69.5512 Y-0.5007 Z0.1333
G01 X69.5621 Y-0.4562 Z0.1333
G01 X69.5629 Y-0.4530 Z0.1333
G01 X69.5722 Y-0.4097 Z0.1333
G01 X69.5729 Y-0.4063 Z0.1333
G01 X69.5817 Y-0.3589 Z0.1333
G01 X69.5823 Y-0.3558 Z0.1333
G01 X69.5895 Y-0.3105 Z0.1333
G01 X69.5900 Y-0.3072 Z0.1333
G01 X69.5962 Y-0.2601 Z0.1333
G01 X69.5966 Y-0.2571 Z0.1333
G01 X69.6016 Y-0.2104 Z0.1333
G01 X69.6020 Y-0.2072 Z0.1333
G01 X69.6061 Y-0.1570 Z0.1333
G01 X69.6062 Y-0.1542 Z0.1333
G01 X69.6090 Y-0.1067 Z0.1333
G01 X69.6092 Y-0.1038 Z0.1333
G01 X69.6109 Y-0.0540 Z0.1333
G01 X69.6110 Y-0.0511 Z0.1333
G01 X69.6115 Y-0.0013 Z0.1333
G01 X69.6115 Y0.0013 Z0.1333
G01 X69.6110 Y0.0511 Z0.1333
G01 X69.6109 Y0.0540 Z0.1333
G01 X69.6092 Y0.1038 Z0.1333
G01 X69.6090 Y0.1067 Z0.1333
G01 X69.6062 Y0.1542 Z0.1333
G01 X69.6061 Y0.1570 Z0.1333
G01 X69.6020 Y0.2072 Z0.1333
G01 X69.6016 Y0.2104 Z0.1333
G01 X69.5966 Y0.2571 Z0.1333
G01 X69.5962 Y0.2601 Z0.1333
G01 X69.5900 Y0.3072 Z0.1333
G01 X69.5895 Y0.3105 Z0.1333
G01 X69.5823 Y0.3558 Z0.1333
G01 X69.5817 Y0.3589 Z0.1333
G01 X69.5729 Y0.4063 Z0.1333
G01 X69.5722 Y0.4097 Z0.1333
G01 X69.5629 Y0.4530 Z0.1333
G01 X69.5622 Y0.4562 Z0.1333
G01 X69.5514 Y0.5001 Z0.1333
G01 X69.5505 Y0.5037 Z0.1333
G01 X69.5388 Y0.5461 Z0.1333
G01 X69.5379 Y0.5494 Z0.1333
G01 X69.5250 Y0.5916 Z0.1333
G01 X69.5238 Y0.5953 Z0.1333
G01 X69.5096 Y0.6370 Z0.1333
G01 X69.5083 Y0.6405 Z0.1333
G01 X69.4933 Y0.6805 Z0.1333
G01 X69.4919 Y0.6842 Z0.1333
G01 X69.4761 Y0.7225 Z0.1333
G01 X69.4746 Y0.7261 Z0.1333
G01 X69.4575 Y0.7642 Z0.1333
G01 X69.4558 Y0.7680 Z0.1333
G01 X69.4378 Y0.8048 Z0.1333
G01 X69.4360 Y0.8083 Z0.1333
G01 X69.4166 Y0.8448 Z0.1333
G01 X69.4136 Y0.8502 Z0.1333
G01 X69.3664 Y0.9293 Z0.1333
G01 X69.3644 Y0.9326 Z0.1333
G01 X69.3172 Y1.0064 Z0.1333
G01 X69.3150 Y1.0097 Z0.1333
G01 X69.2679 Y1.0784 Z0.1333
G01 X69.2654 Y1.0818 Z0.1333
G01 X69.2184 Y1.1455 Z0.1333
G01 X69.2157 Y1.1490 Z0.1333
G01 X69.1688 Y1.2081 Z0.1333
G01 X69.1659 Y1.2116 Z0.1333
G01 X69.1192 Y1.2662 Z0.1333
G01 X69.1161 Y1.2698 Z0.1333
G01 X69.0694 Y1.3203 Z0.1333
G01 X69.0661 Y1.3237 Z0.1333
G01 X69.0198 Y1.3702 Z0.1333
G01 X69.0164 Y1.3735 Z0.1333
G01 X68.9703 Y1.4162 Z0.1333
G01 X68.9666 Y1.4195 Z0.1333
G01 X68.9209 Y1.4588 Z0.1333
G01 X68.9172 Y1.4618 Z0.1333
G01 X68.8717 Y1.4979 Z0.1333
G01 X68.8680 Y1.5007 Z0.1333
G01 X68.8230 Y1.5337 Z0.1333
G01 X68.8192 Y1.5364 Z0.1333
G01 X68.7746 Y1.5666 Z0.1333
G01 X68.7709 Y1.5690 Z0.1333
G01 X68.7267 Y1.5967 Z0.1333
G01 X68.7231 Y1.5988 Z0.1333
G01 X68.6795 Y1.6242 Z0.1333
G01 X68.6761 Y1.6261 Z0.1333
G01 X68.6330 Y1.6494 Z0.1333
G01 X68.6299 Y1.6510 Z0.1333
G01 X68.5874 Y1.6724 Z0.1333
G01 X68.5845 Y1.6738 Z0.1333
G01 X68.5426 Y1.6935 Z0.1333
G01 X68.5403 Y1.6946 Z0.1333
G01 X68.4990 Y1.7130 Z0.1333
G01 X68.4970 Y1.7139 Z0.1333
G01 X68.4565 Y1.7311 Z0.1333
G01 X68.4551 Y1.7318 Z0.1333
G01 X68.4153 Y1.7481 Z0.1333
G01 X68.4144 Y1.7485 Z0.1333
G01 X68.3754 Y1.7641 Z0.1333
G01 X68.3372 Y1.7793 Z0.1333
G01 X68.3009 Y1.7939 Z0.1333
G01 X68.2645 Y1.8089 Z0.1333
G01 X68.2333 Y1.8224 Z0.1333
G01 X68.1998 Y1.8377 Z0.1333
G01 X68.1705 Y1.8520 Z0.1333
G01 X68.1428 Y1.8670 Z0.1333
G01 X68.1159 Y1.8829 Z0.1333
G01 X68.0909 Y1.8996 Z0.1333
G01 X68.0687 Y1.9161 Z0.1333
G01 X68.0461 Y1.9353 Z0.1333
G01 X68.0261 Y1.9547 Z0.1333
G01 X68.0063 Y1.9768 Z0.1333
G01 X67.9879 Y2.0003 Z0.1333
G01 X67.9702 Y2.0268 Z0.1333
G01 X67.9533 Y2.0559 Z0.1333
G01 X67.9371 Y2.0889 Z0.1333
G01 X67.9217 Y2.1258 Z0.1333
G01 X67.9075 Y2.1659 Z0.1333
G01 X67.8943 Y2.2109 Z0.1333
G01 X67.8822 Y2.2612 Z0.1333
G01 X67.8716 Y2.3153 Z0.1333
G01 X67.8622 Y2.3755 Z0.1333
G01 X67.8601 Y2.3924 Z0.1333
G01 X67.8597 Y2.3959 Z0.1333
G01 X67.8591 Y2.3994 Z0.1333
G01 X67.8584 Y2.4029 Z0.1333
G01 X67.8577 Y2.4064 Z0.1333
G01 X67.8568 Y2.4098 Z0.1333
G01 X67.8558 Y2.4133 Z0.1333
G01 X67.8548 Y2.4166 Z0.1333
G01 X67.8536 Y2.4200 Z0.1333
G01 X67.8523 Y2.4233 Z0.1333
G01 X67.8509 Y2.4266 Z0.1333
G01 X67.8495 Y2.4298 Z0.1333
G01 X67.8479 Y2.4331 Z0.1333
G01 X67.8463 Y2.4362 Z0.1333
G01 X67.8446 Y2.4393 Z0.1333
G01 X67.8428 Y2.4424 Z0.1333
G01 X67.8409 Y2.4454 Z0.1333
G01 X67.8389 Y2.4483 Z0.1333
G01 X67.8368 Y2.4512 Z0.1333
G01 X67.8346 Y2.4540 Z0.1333
G01 X67.8324 Y2.4568 Z0.1333
G01 X67.8301 Y2.4595 Z0.1333
G01 X67.8277 Y2.4622 Z0.1333
G01 X67.8252 Y2.4647 Z0.1333
G01 X67.8227 Y2.4672 Z0.1333
G01 X67.8201 Y2.4696 Z0.1333
G01 X67.8174 Y2.4720 Z0.1333
G01 X67.8147 Y2.4742 Z0.1333
G01 X67.8118 Y2.4764 Z0.1333
G01 X67.8090 Y2.4785 Z0.1333
G01 X67.8061 Y2.4805 Z0.1333
G01 X67.8031 Y2.4824 Z0.1333
G01 X67.8000 Y2.4843 Z0.1333
G01 X67.7969 Y2.4860 Z0.1333
G01 X67.7938 Y2.4877 Z0.1333
G01 X67.7906 Y2.4893 Z0.1333
G01 X67.7874 Y2.4907 Z0.1333
G01 X67.7841 Y2.4922 Z0.1333
G01 X67.7808 Y2.4935 Z0.1333
G01 X67.7774 Y2.4946 Z0.1333
G01 X67.7740 Y2.4957 Z0.1333
G01 X67.7706 Y2.4967 Z0.1333
G01 X67.7672 Y2.4976 Z0.1333
G01 X67.7637 Y2.4985 Z0.1333
G01 X67.7602 Y2.4992 Z0.1333
G01 X67.7567 Y2.4998 Z0.1333
G01 X67.7532 Y2.5003 Z0.1333
G01 X67.7497 Y2.5007 Z0.1333
G01 X67.7461 Y2.5009 Z0.1333
G01 X67.7426 Y2.5011 Z0.1333
G01 X67.7390 Y2.5012 Z0.1333
G01 X67.7194 Y2.5015 Z0.1333
G01 X67.7170 Y2.5015 Z0.1333
G01 X67.7119 Y2.5014 Z0.1333
G01 X67.7090 Y2.5014 Z0.1333
G01 X67.0754 Y2.4816 Z0.1333
G01 X66.4418 Y2.4624 Z0.1333
G01 X65.8082 Y2.4437 Z0.1333
G01 X65.1746 Y2.4253 Z0.1333
G01 X64.5411 Y2.4074 Z0.1333
G01 X63.9075 Y2.3900 Z0.1333
G01 X63.2739 Y2.3730 Z0.1333
G01 X62.6403 Y2.3565 Z0.1333
G01 X62.0066 Y2.3404 Z0.1333
G01 X61.3730 Y2.3248 Z0.1333
G01 X60.7393 Y2.3096 Z0.1333
G01 X60.1057 Y2.2949 Z0.1333
G01 X59.4720 Y2.2806 Z0.1333
G01 X58.8384 Y2.2668 Z0.1333
G01 X58.2047 Y2.2535 Z0.1333
G01 X57.5710 Y2.2406 Z0.1333
G01 X56.9372 Y2.2281 Z0.1333
G01 X56.3075 Y2.2162 Z0.1333
G01 X56.3037 Y2.2162 Z0.1333
G01 X55.6699 Y2.2046 Z0.1333
G01 X55.0361 Y2.1936 Z0.1333
G01 X54.4024 Y2.1830 Z0.1333
G01 X53.7687 Y2.1728 Z0.1333
G01 X53.1349 Y2.1631 Z0.1333
G01 X52.5011 Y2.1538 Z0.1333
G01 X52.1653 Y2.1491 Z0.1333
G01 X51.8673 Y2.1450 Z0.1333
G01 X51.3779 Y2.1385 Z0.1333
G01 X51.2336 Y2.1366 Z0.1333
G01 X50.5998 Y2.1287 Z0.1333
G01 X50.5905 Y2.1286 Z0.1333
G01 X49.9660 Y2.1213 Z0.1333
G01 X49.8031 Y2.1195 Z0.1333
G01 X49.3322 Y2.1143 Z0.1333
G01 X48.6985 Y2.1077 Z0.1333
G01 X48.0646 Y2.1016 Z0.1333
G01 X47.4308 Y2.0960 Z0.1333
G01 X46.7970 Y2.0908 Z0.1333
G01 X46.1633 Y2.0861 Z0.1333
G01 X45.5294 Y2.0818 Z0.1333
G01 X44.8956 Y2.0780 Z0.1333
G01 X44.2618 Y2.0746 Z0.1333
G01 X43.6279 Y2.0717 Z0.1333
G01 X42.9941 Y2.0692 Z0.1333
G01 X42.3603 Y2.0672 Z0.1333
G01 X41.7265 Y2.0657 Z0.1333
G01 X41.0927 Y2.0646 Z0.1333
G01 X40.4588 Y2.0639 Z0.1333
G01 X39.8251 Y2.0637 Z0.1333
G01 X39.1914 Y2.0640 Z0.1333
G01 X38.5575 Y2.0647 Z0.1333
G01 X37.9237 Y2.0659 Z0.1333
G01 X37.2899 Y2.0675 Z0.1333
G01 X36.6560 Y2.0696 Z0.1333
G01 X36.0222 Y2.0721 Z0.1333
G01 X35.3884 Y2.0751 Z0.1333
G01 X34.7546 Y2.0785 Z0.1333
G01 X34.1207 Y2.0824 Z0.1333
G01 X33.4870 Y2.0868 Z0.1333
G01 X32.8531 Y2.0916 Z0.1333
G01 X32.2193 Y2.0968 Z0.1333
G01 X31.5856 Y2.1025 Z0.1333
G01 X30.9518 Y2.1087 Z0.1333
G01 X30.3179 Y2.1153 Z0.1333
G01 X29.6842 Y2.1224 Z0.1333
G01 X29.0504 Y2.1299 Z0.1333
G01 X28.4166 Y2.1379 Z0.1333
G01 X27.7828 Y2.1463 Z0.1333
G01 X27.1490 Y2.1551 Z0.1333
G01 X26.5153 Y2.1645 Z0.1333
G01 X25.8816 Y2.1743 Z0.1333
G01 X25.2478 Y2.1845 Z0.1333
G01 X24.6141 Y2.1952 Z0.1333
G01 X23.9802 Y2.2064 Z0.1333
G01 X23.9764 Y2.2064 Z0.1333
G01 X23.3466 Y2.2179 Z0.1333
G01 X22.7129 Y2.2300 Z0.1333
G01 X22.0792 Y2.2425 Z0.1333
G01 X21.4455 Y2.2555 Z0.1333
G01 X20.8119 Y2.2688 Z0.1333
G01 X20.4724 Y2.2763 Z0.1333
G01 X20.1782 Y2.2827 Z0.1333
G01 X19.6850 Y2.2939 Z0.1333
G01 X19.5445 Y2.2971 Z0.1333
G01 X18.9108 Y2.3118 Z0.1333
G01 X18.8976 Y2.3122 Z0.1333
G01 X18.2772 Y2.3271 Z0.1333
G01 X18.1102 Y2.3312 Z0.1333
G01 X17.6436 Y2.3427 Z0.1333
G01 X17.0100 Y2.3589 Z0.1333
G01 X16.3763 Y2.3755 Z0.1333
G01 X15.7428 Y2.3925 Z0.1333
G01 X15.1092 Y2.4101 Z0.1333
G01 X14.4756 Y2.4280 Z0.1333
G01 X13.8420 Y2.4464 Z0.1333
G01 X13.2085 Y2.4653 Z0.1333
G01 X12.5749 Y2.4846 Z0.1333
G01 X11.9412 Y2.5043 Z0.1333
G01 X11.9377 Y2.5044 Z0.1333
G01 X11.3079 Y2.5245 Z0.1333
G01 X10.6744 Y2.5452 Z0.1333
G01 X10.0410 Y2.5663 Z0.1333
G01 X9.4075 Y2.5879 Z0.1333
G01 X8.7740 Y2.6100 Z0.1333
G01 X8.1407 Y2.6324 Z0.1333
G01 X7.5072 Y2.6554 Z0.1333
G01 X6.8738 Y2.6788 Z0.1333
G01 X6.2404 Y2.7026 Z0.1333
G01 X5.6071 Y2.7269 Z0.1333
G01 X4.9737 Y2.7517 Z0.1333
G01 X4.3403 Y2.7769 Z0.1333
G01 X4.3371 Y2.7770 Z0.1333
G01 X4.3314 Y2.7771 Z0.1333
G01 X4.3283 Y2.7771 Z0.1333
G01 X4.3248 Y2.7770 Z0.1333
G01 X4.3213 Y2.7770 Z0.1333
G01 X4.3179 Y2.7768 Z0.1333
G01 X4.3144 Y2.7764 Z0.1333
G01 X4.3109 Y2.7761 Z0.1333
G01 X4.3074 Y2.7756 Z0.1333
G01 X4.3040 Y2.7750 Z0.1333
G01 X4.3005 Y2.7743 Z0.1333
G01 X4.2971 Y2.7735 Z0.1333
G01 X4.2937 Y2.7727 Z0.1333
G01 X4.2903 Y2.7717 Z0.1333
G01 X4.2870 Y2.7706 Z0.1333
G01 X4.2837 Y2.7695 Z0.1333
G01 X4.2804 Y2.7682 Z0.1333
G01 X4.2772 Y2.7669 Z0.1333
G01 X4.2740 Y2.7655 Z0.1333
G01 X4.2709 Y2.7639 Z0.1333
G01 X4.2677 Y2.7623 Z0.1333
G01 X4.2647 Y2.7606 Z0.1333
G01 X4.2617 Y2.7588 Z0.1333
G01 X4.2587 Y2.7569 Z0.1333
G01 X4.2558 Y2.7550 Z0.1333
G01 X4.2530 Y2.7529 Z0.1333
G01 X4.2502 Y2.7508 Z0.1333
G01 X4.2475 Y2.7486 Z0.1333
G01 X4.2448 Y2.7464 Z0.1333
G01 X4.2422 Y2.7440 Z0.1333
G01 X4.2397 Y2.7416 Z0.1333
G01 X4.2372 Y2.7391 Z0.1333
G01 X4.2348 Y2.7365 Z0.1333
G01 X4.2325 Y2.7339 Z0.1333
G01 X4.2303 Y2.7312 Z0.1333
G01 X4.2281 Y2.7285 Z0.1333
G01 X4.2260 Y2.7257 Z0.1333
G01 X4.2240 Y2.7228 Z0.1333
G01 X4.2221 Y2.7198 Z0.1333
G01 X4.2202 Y2.7169 Z0.1333
G01 X4.2185 Y2.7138 Z0.1333
G01 X4.2168 Y2.7107 Z0.1333
G01 X4.2153 Y2.7076 Z0.1333
G01 X4.2138 Y2.7045 Z0.1333
G01 X4.2124 Y2.7012 Z0.1333
G01 X4.2111 Y2.6980 Z0.1333
G01 X4.2098 Y2.6947 Z0.1333
G01 X4.2087 Y2.6914 Z0.1333
G01 X4.2077 Y2.6881 Z0.1333
G01 X4.2068 Y2.6847 Z0.1333
G01 X4.2059 Y2.6813 Z0.1333
G01 X4.2052 Y2.6779 Z0.1333
G01 X4.2046 Y2.6744 Z0.1333
G01 X4.2040 Y2.6709 Z0.1333
G01 X4.2036 Y2.6675 Z0.1333
G01 X4.2032 Y2.6640 Z0.1333
G01 X4.2030 Y2.6605 Z0.1333
G01 X4.2028 Y2.6570 Z0.1333
G01 X4.2019 Y2.6243 Z0.1333
G01 X4.1993 Y2.5557 Z0.1333
G01 X4.1960 Y2.4915 Z0.1333
G01 X4.1921 Y2.4337 Z0.1333
G01 X4.1872 Y2.3755 Z0.1333
G01 X4.1819 Y2.3258 Z0.1333
G01 X4.1755 Y2.2773 Z0.1333
G01 X4.1685 Y2.2346 Z0.1333
G01 X4.1603 Y2.1936 Z0.1333
G01 X4.1518 Y2.1581 Z0.1333
G01 X4.1424 Y2.1255 Z0.1333
G01 X4.1324 Y2.0968 Z0.1333
G01 X4.1217 Y2.0712 Z0.1333
G01 X4.1105 Y2.0488 Z0.1333
G01 X4.0990 Y2.0295 Z0.1333
G01 X4.0869 Y2.0123 Z0.1333
G01 X4.0742 Y1.9971 Z0.1333
G01 X4.0604 Y1.9833 Z0.1333
G01 X4.0457 Y1.9709 Z0.1333
G01 X4.0295 Y1.9594 Z0.1333
G01 X4.0112 Y1.9484 Z0.1333
G01 X3.9905 Y1.9379 Z0.1333
G01 X3.9672 Y1.9279 Z0.1333
G01 X3.9412 Y1.9185 Z0.1333
G01 X3.9124 Y1.9096 Z0.1333
G01 X3.8814 Y1.9014 Z0.1333
G01 X3.8475 Y1.8938 Z0.1333
G01 X3.8092 Y1.8863 Z0.1333
G01 X3.7690 Y1.8795 Z0.1333
G01 X3.7270 Y1.8731 Z0.1333
G01 X3.6794 Y1.8665 Z0.1333
G01 X3.6316 Y1.8605 Z0.1333
G01 X3.5790 Y1.8542 Z0.1333
G01 X3.5246 Y1.8479 Z0.1333
G01 X3.4668 Y1.8413 Z0.1333
G01 X3.4062 Y1.8344 Z0.1333
G01 X3.3428 Y1.8270 Z0.1333
G01 X3.3422 Y1.8269 Z0.1333
G01 X3.2761 Y1.8189 Z0.1333
G01 X3.2754 Y1.8188 Z0.1333
G01 X3.2064 Y1.8101 Z0.1333
G01 X3.2056 Y1.8100 Z0.1333
G01 X3.1337 Y1.8003 Z0.1333
G01 X3.1328 Y1.8002 Z0.1333
G01 X3.0578 Y1.7896 Z0.1333
G01 X3.0566 Y1.7895 Z0.1333
G01 X2.9786 Y1.7777 Z0.1333
G01 X2.9775 Y1.7775 Z0.1333
G01 X2.8963 Y1.7646 Z0.1333
G01 X2.8950 Y1.7643 Z0.1333
G01 X2.8106 Y1.7499 Z0.1333
G01 X2.8094 Y1.7496 Z0.1333
G01 X2.7217 Y1.7337 Z0.1333
G01 X2.7203 Y1.7335 Z0.1333
G01 X2.6294 Y1.7159 Z0.1333
G01 X2.6259 Y1.7151 Z0.1333
G01 X2.5060 Y1.6883 Z0.1333
G01 X2.5033 Y1.6877 Z0.1333
G01 X2.3863 Y1.6587 Z0.1333
G01 X2.3833 Y1.6579 Z0.1333
G01 X2.2721 Y1.6273 Z0.1333
G01 X2.2692 Y1.6264 Z0.1333
G01 X2.1645 Y1.5949 Z0.1333
G01 X2.1614 Y1.5939 Z0.1333
G01 X2.0607 Y1.5606 Z0.1333
G01 X2.0575 Y1.5595 Z0.1333
G01 X1.9623 Y1.5252 Z0.1333
G01 X1.9590 Y1.5240 Z0.1333
G01 X1.8672 Y1.4879 Z0.1333
G01 X1.8640 Y1.4866 Z0.1333
G01 X1.7778 Y1.4498 Z0.1333
G01 X1.7745 Y1.4483 Z0.1333
G01 X1.6924 Y1.4105 Z0.1333
G01 X1.6890 Y1.4088 Z0.1333
G01 X1.6117 Y1.3703 Z0.1333
G01 X1.6082 Y1.3684 Z0.1333
G01 X1.5352 Y1.3290 Z0.1333
G01 X1.5318 Y1.3271 Z0.1333
G01 X1.4625 Y1.2868 Z0.1333
G01 X1.4590 Y1.2846 Z0.1333
G01 X1.3955 Y1.2448 Z0.1333
G01 X1.3919 Y1.2424 Z0.1333
G01 X1.3310 Y1.2012 Z0.1333
G01 X1.3274 Y1.1987 Z0.1333
G01 X1.2700 Y1.1568 Z0.1333
G01 X1.2665 Y1.1542 Z0.1333
G01 X1.2144 Y1.1132 Z0.1333
G01 X1.2108 Y1.1103 Z0.1333
G01 X1.1616 Y1.0686 Z0.1333
G01 X1.1582 Y1.0656 Z0.1333
G01 X1.1114 Y1.0229 Z0.1333
G01 X1.1080 Y1.0196 Z0.1333
G01 X1.0663 Y0.9785 Z0.1333
G01 X1.0630 Y0.9751 Z0.1333
G01 X1.0229 Y0.9325 Z0.1333
G01 X1.0196 Y0.9288 Z0.1333
G01 X0.9827 Y0.8861 Z0.1333
G01 X0.9797 Y0.8825 Z0.1333
G01 X0.9465 Y0.8412 Z0.1333
G01 X0.9433 Y0.8371 Z0.1333
G01 X0.9119 Y0.7944 Z0.1333
G01 X0.9091 Y0.7904 Z0.1333
G01 X0.8801 Y0.7475 Z0.1333
G01 X0.8774 Y0.7434 Z0.1333
G01 X0.8515 Y0.7016 Z0.1333
G01 X0.8490 Y0.6973 Z0.1333
G01 X0.8243 Y0.6535 Z0.1333
G01 X0.8219 Y0.6491 Z0.1333
G01 X0.7998 Y0.6061 Z0.1333
G01 X0.7977 Y0.6017 Z0.1333
G01 X0.7782 Y0.5595 Z0.1333
G01 X0.7761 Y0.5548 Z0.1333
G01 X0.7579 Y0.5109 Z0.1333
G01 X0.7561 Y0.5064 Z0.1333
G01 X0.7397 Y0.4618 Z0.1333
G01 X0.7382 Y0.4573 Z0.1333
G01 X0.7238 Y0.4129 Z0.1333
G01 X0.7223 Y0.4083 Z0.1333
G01 X0.7097 Y0.3635 Z0.1333
G01 X0.7085 Y0.3589 Z0.1333
G01 X0.6975 Y0.3131 Z0.1333
G01 X0.6965 Y0.3085 Z0.1333
G01 X0.6874 Y0.2629 Z0.1333
G01 X0.6865 Y0.2583 Z0.1333
G01 X0.6790 Y0.2119 Z0.1333
G01 X0.6784 Y0.2075 Z0.1333
G01 X0.6725 Y0.1605 Z0.1333
G01 X0.6720 Y0.1560 Z0.1333
G01 X0.6677 Y0.1073 Z0.1333
G01 X0.6674 Y0.1028 Z0.1333
G01 X0.6650 Y0.0554 Z0.1333
G01 X0.6648 Y0.0512 Z0.1333
G01 X0.6640 Y0.0020 Z0.1333
G01 X0.6640 Y-0.0020 Z0.1333
G01 X0.6640 Y-0.0020 Z-0.0100
G01 X0.6648 Y-0.0512 Z-0.0100
G01 X0.6650 Y-0.0554 Z-0.0100
G01 X0.6674 Y-0.1028 Z-0.0100
G01 X0.6677 Y-0.1073 Z-0.0100
G01 X0.6720 Y-0.1560 Z-0.0100
G01 X0.6725 Y-0.1605 Z-0.0100
G01 X0.6784 Y-0.2075 Z-0.0100
G01 X0.6790 Y-0.2119 Z-0.0100
G01 X0.6865 Y-0.2583 Z-0.0100
G01 X0.6874 Y-0.2629 Z-0.0100
G01 X0.6965 Y-0.3085 Z-0.0100
G01 X0.6975 Y-0.3131 Z-0.0100
G01 X0.7085 Y-0.3589 Z-0.0100
G01 X0.7097 Y-0.3635 Z-0.0100
G01 X0.7223 Y-0.4083 Z-0.0100
G01 X0.7238 Y-0.4129 Z-0.0100
G01 X0.7382 Y-0.4573 Z-0.0100
G01 X0.7397 Y-0.4618 Z-0.0100
G01 X0.7561 Y-0.5064 Z-0.0100
G01 X0.7579 Y-0.5109 Z-0.0100
G01 X0.7761 Y-0.5548 Z-0.0100
G01 X0.7782 Y-0.5595 Z-0.0100
G01 X0.7977 Y-0.6017 Z-0.0100
G01 X0.7998 Y-0.6061 Z-0.0100
G01 X0.8219 Y-0.6491 Z-0.0100
G01 X0.8243 Y-0.6535 Z-0.0100
G01 X0.8490 Y-0.6973 Z-0.0100
G01 X0.8515 Y-0.7016 Z-0.0100
G01 X0.8774 Y-0.7434 Z-0.0100
G01 X0.8801 Y-0.7475 Z-0.0100
G01 X0.9091 Y-0.7904 Z-0.0100
G01 X0.9119 Y-0.7944 Z-0.0100
G01 X0.9433 Y-0.8371 Z-0.0100
G01 X0.9465 Y-0.8412 Z-0.0100
G01 X0.9797 Y-0.8825 Z-0.0100
G01 X0.9827 Y-0.8861 Z-0.0100
G01 X1.0196 Y-0.9288 Z-0.0100
G01 X1.0229 Y-0.9325 Z-0.0100
G01 X1.0630 Y-0.9751 Z-0.0100
G01 X1.0663 Y-0.9785 Z-0.0100
G01 X1.1080 Y-1.0196 Z-0.0100
G01 X1.1114 Y-1.0229 Z-0.0100
G01 X1.1582 Y-1.0656 Z-0.0100
G01 X1.1616 Y-1.0686 Z-0.0100
G01 X1.2108 Y-1.1103 Z-0.0100
G01 X1.2144 Y-1.1132 Z-0.0100
G01 X1.2668 Y-1.1544 Z-0.0100
G01 X1.2703 Y-1.1570 Z-0.0100
G01 X1.3274 Y-1.1987 Z-0.0100
G01 X1.3310 Y-1.2012 Z-0.0100
G01 X1.3919 Y-1.2424 Z-0.0100
G01 X1.3955 Y-1.2448 Z-0.0100
G01 X1.4590 Y-1.2846 Z-0.0100
G01 X1.4625 Y-1.2868 Z-0.0100
G01 X1.5318 Y-1.3271 Z-0.0100
G01 X1.5352 Y-1.3290 Z-0.0100
G01 X1.6082 Y-1.3684 Z-0.0100
G01 X1.6117 Y-1.3703 Z-0.0100
G01 X1.6893 Y-1.4090 Z-0.0100
G01 X1.6927 Y-1.4106 Z-0.0100
G01 X1.7745 Y-1.4483 Z-0.0100
G01 X1.7778 Y-1.4498 Z-0.0100
G01 X1.8640 Y-1.4866 Z-0.0100
G01 X1.8672 Y-1.4879 Z-0.0100
G01 X1.9590 Y-1.5240 Z-0.0100
G01 X1.9623 Y-1.5252 Z-0.0100
G01 X2.0575 Y-1.5595 Z-0.0100
G01 X2.0607 Y-1.5606 Z-0.0100
G01 X2.1614 Y-1.5939 Z-0.0100
G01 X2.1645 Y-1.5949 Z-0.0100
G01 X2.2692 Y-1.6264 Z-0.0100
G01 X2.2721 Y-1.6273 Z-0.0100
G01 X2.3833 Y-1.6579 Z-0.0100
G01 X2.3863 Y-1.6587 Z-0.0100
G01 X2.5033 Y-1.6877 Z-0.0100
G01 X2.5060 Y-1.6883 Z-0.0100
G01 X2.6259 Y-1.7151 Z-0.0100
G01 X2.6294 Y-1.7159 Z-0.0100
G01 X2.7203 Y-1.7335 Z-0.0100
G01 X2.7217 Y-1.7337 Z-0.0100
G01 X2.8094 Y-1.7496 Z-0.0100
G01 X2.8106 Y-1.7499 Z-0.0100
G01 X2.8950 Y-1.7643 Z-0.0100
G01 X2.8963 Y-1.7646 Z-0.0100
G01 X2.9775 Y-1.7775 Z-0.0100
G01 X2.9786 Y-1.7777 Z-0.0100
G01 X3.0566 Y-1.7895 Z-0.0100
G01 X3.0578 Y-1.7896 Z-0.0100
G01 X3.1328 Y-1.8002 Z-0.0100
G01 X3.1337 Y-1.8003 Z-0.0100
G01 X3.2056 Y-1.8100 Z-0.0100
G01 X3.2064 Y-1.8101 Z-0.0100
G01 X3.2754 Y-1.8188 Z-0.0100
G01 X3.2761 Y-1.8189 Z-0.0100
G01 X3.3422 Y-1.8269 Z-0.0100
G01 X3.3428 Y-1.8270 Z-0.0100
G01 X3.4061 Y-1.8343 Z-0.0100
G01 X3.4667 Y-1.8413 Z-0.0100
G01 X3.5246 Y-1.8479 Z-0.0100
G01 X3.5790 Y-1.8542 Z-0.0100
G01 X3.6316 Y-1.8605 Z-0.0100
G01 X3.6794 Y-1.8665 Z-0.0100
G01 X3.7270 Y-1.8731 Z-0.0100
G01 X3.7690 Y-1.8795 Z-0.0100
G01 X3.8092 Y-1.8863 Z-0.0100
G01 X3.8475 Y-1.8938 Z-0.0100
G01 X3.8814 Y-1.9014 Z-0.0100
G01 X3.9124 Y-1.9096 Z-0.0100
G01 X3.9412 Y-1.9185 Z-0.0100
G01 X3.9675 Y-1.9280 Z-0.0100
G01 X3.9905 Y-1.9379 Z-0.0100
G01 X4.0112 Y-1.9484 Z-0.0100
G01 X4.0295 Y-1.9594 Z-0.0100
G01 X4.0457 Y-1.9709 Z-0.0100
G01 X4.0604 Y-1.9833 Z-0.0100
G01 X4.0742 Y-1.9971 Z-0.0100
G01 X4.0869 Y-2.0123 Z-0.0100
G01 X4.0990 Y-2.0295 Z-0.0100
G01 X4.1105 Y-2.0488 Z-0.0100
G01 X4.1217 Y-2.0712 Z-0.0100
G01 X4.1325 Y-2.0972 Z-0.0100
G01 X4.1424 Y-2.1255 Z-0.0100
G01 X4.1518 Y-2.1581 Z-0.0100
G01 X4.1604 Y-2.1940 Z-0.0100
G01 X4.1685 Y-2.2347 Z-0.0100
G01 X4.1755 Y-2.2773 Z-0.0100
G01 X4.1819 Y-2.3258 Z-0.0100
G01 X4.1872 Y-2.3762 Z-0.0100
G01 X4.1921 Y-2.4337 Z-0.0100
G01 X4.1960 Y-2.4922 Z-0.0100
G01 X4.1994 Y-2.5574 Z-0.0100
G01 X4.2020 Y-2.6256 Z-0.0100
G01 X4.2028 Y-2.6570 Z-0.0100
G01 X4.2030 Y-2.6605 Z-0.0100
G01 X4.2032 Y-2.6640 Z-0.0100
G01 X4.2036 Y-2.6675 Z-0.0100
G01 X4.2040 Y-2.6709 Z-0.0100
G01 X4.2046 Y-2.6744 Z-0.0100
G01 X4.2052 Y-2.6779 Z-0.0100
G01 X4.2059 Y-2.6813 Z-0.0100
G01 X4.2068 Y-2.6847 Z-0.0100
G01 X4.2077 Y-2.6881 Z-0.0100
G01 X4.2087 Y-2.6914 Z-0.0100
G01 X4.2098 Y-2.6947 Z-0.0100
G01 X4.2111 Y-2.6980 Z-0.0100
G01 X4.2124 Y-2.7012 Z-0.0100
G01 X4.2138 Y-2.7045 Z-0.0100
G01 X4.2153 Y-2.7076 Z-0.0100
G01 X4.2168 Y-2.7107 Z-0.0100
G01 X4.2185 Y-2.7138 Z-0.0100
G01 X4.2202 Y-2.7169 Z-0.0100
G01 X4.2221 Y-2.7198 Z-0.0100
G01 X4.2240 Y-2.7228 Z-0.0100
G01 X4.2260 Y-2.7257 Z-0.0100
G01 X4.2281 Y-2.7285 Z-0.0100
G01 X4.2303 Y-2.7312 Z-0.0100
G01 X4.2325 Y-2.7339 Z-0.0100
G01 X4.2348 Y-2.7365 Z-0.0100
G01 X4.2372 Y-2.7391 Z-0.0100
G01 X4.2397 Y-2.7416 Z-0.0100
G01 X4.2422 Y-2.7440 Z-0.0100
G01 X4.2448 Y-2.7464 Z-0.0100
G01 X4.2475 Y-2.7486 Z-0.0100
G01 X4.2502 Y-2.7508 Z-0.0100
G01 X4.2530 Y-2.7529 Z-0.0100
G01 X4.2558 Y-2.7550 Z-0.0100
G01 X4.2587 Y-2.7569 Z-0.0100
G01 X4.2617 Y-2.7588 Z-0.0100
G01 X4.2647 Y-2.7606 Z-0.0100
G01 X4.2677 Y-2.7623 Z-0.0100
G01 X4.2709 Y-2.7639 Z-0.0100
G01 X4.2740 Y-2.7655 Z-0.0100
G01 X4.2772 Y-2.7669 Z-0.0100
G01 X4.2804 Y-2.7682 Z-0.0100
G01 X4.2837 Y-2.7695 Z-0.0100
G01 X4.2870 Y-2.7706 Z-0.0100
G01 X4.2903 Y-2.7717 Z-0.0100
G01 X4.2937 Y-2.7727 Z-0.0100
G01 X4.2971 Y-2.7735 Z-0.0100
G01 X4.3005 Y-2.7743 Z-0.0100
G01 X4.3040 Y-2.7750 Z-0.0100
G01 X4.3074 Y-2.7756 Z-0.0100
G01 X4.3109 Y-2.7761 Z-0.0100
G01 X4.3144 Y-2.7764 Z-0.0100
G01 X4.3179 Y-2.7768 Z-0.0100
G01 X4.3213 Y-2.7770 Z-0.0100
G01 X4.3248 Y-2.7770 Z-0.0100
G01 X4.3283 Y-2.7771 Z-0.0100
G01 X4.3314 Y-2.7771 Z-0.0100
G01 X4.3371 Y-2.7770 Z-0.0100
G01 X4.3403 Y-2.7769 Z-0.0100
G01 X4.9737 Y-2.7517 Z-0.0100
G01 X5.6071 Y-2.7269 Z-0.0100
G01 X6.2404 Y-2.7026 Z-0.0100
G01 X6.8738 Y-2.6788 Z-0.0100
G01 X7.5072 Y-2.6554 Z-0.0100
G01 X8.1407 Y-2.6324 Z-0.0100
G01 X8.7740 Y-2.6100 Z-0.0100
G01 X9.4075 Y-2.5879 Z-0.0100
G01 X10.0410 Y-2.5663 Z-0.0100
G01 X10.6744 Y-2.5452 Z-0.0100
G01 X11.3079 Y-2.5245 Z-0.0100
G01 X11.9377 Y-2.5044 Z-0.0100
G01 X11.9412 Y-2.5043 Z-0.0100
G01 X12.5749 Y-2.4846 Z-0.0100
G01 X13.2085 Y-2.4653 Z-0.0100
G01 X13.8420 Y-2.4464 Z-0.0100
G01 X14.4756 Y-2.4280 Z-0.0100
G01 X15.1092 Y-2.4101 Z-0.0100
G01 X15.7428 Y-2.3925 Z-0.0100
G01 X16.3763 Y-2.3755 Z-0.0100
G01 X17.0100 Y-2.3589 Z-0.0100
G01 X17.6436 Y-2.3427 Z-0.0100
G01 X18.1102 Y-2.3312 Z-0.0099
G01 X18.2772 Y-2.3271 Z0.0090
G01 X18.8976 Y-2.3122 Z0.0800
G01 X18.9108 Y-2.3118 Z0.0800
G01 X19.5445 Y-2.2971 Z0.0800
G01 X19.6850 Y-2.2939 Z0.0799
G01 X20.1782 Y-2.2827 Z0.0236
G01 X20.4724 Y-2.2763 Z-0.0100
G01 X20.8119 Y-2.2688 Z-0.0100
G01 X21.4455 Y-2.2555 Z-0.0100
G01 X22.0792 Y-2.2425 Z-0.0100
G01 X22.7129 Y-2.2300 Z-0.0100
G01 X23.3466 Y-2.2179 Z-0.0100
G01 X23.9764 Y-2.2064 Z-0.0100
G01 X23.9802 Y-2.2064 Z-0.0100
G01 X24.6141 Y-2.1952 Z-0.0100
G01 X25.2478 Y-2.1845 Z-0.0100
G01 X25.8816 Y-2.1743 Z-0.0100
G01 X26.5153 Y-2.1645 Z-0.0100
G01 X27.1490 Y-2.1551 Z-0.0100
G01 X27.7828 Y-2.1463 Z-0.0100
G01 X28.4166 Y-2.1379 Z-0.0100
G01 X29.0504 Y-2.1299 Z-0.0100
G01 X29.6842 Y-2.1224 Z-0.0100
G01 X30.3179 Y-2.1153 Z-0.0100
G01 X30.9518 Y-2.1087 Z-0.0100
G01 X31.5856 Y-2.1025 Z-0.0100
G01 X32.2193 Y-2.0968 Z-0.0100
G01 X32.8531 Y-2.0916 Z-0.0100
G01 X33.4870 Y-2.0868 Z-0.0100
G01 X34.1207 Y-2.0824 Z-0.0100
G01 X34.7546 Y-2.0785 Z-0.0100
G01 X35.3884 Y-2.0751 Z-0.0100
G01 X36.0222 Y-2.0721 Z-0.0100
G01 X36.6560 Y-2.0696 Z-0.0100
G01 X37.2899 Y-2.0675 Z-0.0100
G01 X37.9237 Y-2.0659 Z-0.0100
G01 X38.5575 Y-2.0647 Z-0.0100
G01 X39.1914 Y-2.0640 Z-0.0100
G01 X39.8251 Y-2.0637 Z-0.0100
G01 X40.4588 Y-2.0639 Z-0.0100
G01 X41.0927 Y-2.0646 Z-0.0100
G01 X41.7265 Y-2.0657 Z-0.0100
G01 X42.3603 Y-2.0672 Z-0.0100
G01 X42.9941 Y-2.0692 Z-0.0100
G01 X43.6279 Y-2.0717 Z-0.0100
G01 X44.2618 Y-2.0746 Z-0.0100
G01 X44.8956 Y-2.0780 Z-0.0100
G01 X45.5294 Y-2.0818 Z-0.0100
G01 X46.1633 Y-2.0861 Z-0.0100
G01 X46.7970 Y-2.0908 Z-0.0100
G01 X47.4308 Y-2.0960 Z-0.0100
G01 X48.0646 Y-2.1016 Z-0.0100
G01 X48.6985 Y-2.1077 Z-0.0100
G01 X49.3322 Y-2.1143 Z-0.0100
G01 X49.8031 Y-2.1195 Z-0.0099
G01 X49.9660 Y-2.1213 Z0.0085
G01 X50.5905 Y-2.1286 Z0.0800
G01 X50.5998 Y-2.1287 Z0.0800
G01 X51.2336 Y-2.1366 Z0.0800
G01 X51.3779 Y-2.1385 Z0.0799
G01 X51.8673 Y-2.1450 Z0.0240
G01 X52.1653 Y-2.1491 Z-0.0100
G01 X52.5011 Y-2.1538 Z-0.0100
G01 X53.1349 Y-2.1631 Z-0.0100
G01 X53.7687 Y-2.1728 Z-0.0100
G01 X54.4024 Y-2.1830 Z-0.0100
G01 X55.0361 Y-2.1936 Z-0.0100
G01 X55.6699 Y-2.2047 Z-0.0100
G01 X56.3037 Y-2.2162 Z-0.0100
G01 X56.3072 Y-2.2162 Z-0.0100
G01 X56.9372 Y-2.2281 Z-0.0100
G01 X57.5710 Y-2.2406 Z-0.0100
G01 X58.2047 Y-2.2535 Z-0.0100
G01 X58.8384 Y-2.2668 Z-0.0100
G01 X59.4720 Y-2.2806 Z-0.0100
G01 X60.1057 Y-2.2949 Z-0.0100
G01 X60.7393 Y-2.3096 Z-0.0100
G01 X61.3730 Y-2.3248 Z-0.0100
G01 X62.0066 Y-2.3404 Z-0.0100
G01 X62.6403 Y-2.3565 Z-0.0100
G01 X63.2739 Y-2.3730 Z-0.0100
G01 X63.9075 Y-2.3900 Z-0.0100
G01 X64.5411 Y-2.4074 Z-0.0100
G01 X65.1746 Y-2.4253 Z-0.0100
G01 X65.8082 Y-2.4437 Z-0.0100
G01 X66.4418 Y-2.4624 Z-0.0100
G01 X67.0754 Y-2.4817 Z-0.0100
G01 X67.7090 Y-2.5014 Z-0.0100
G01 X67.7119 Y-2.5014 Z-0.0100
G01 X67.7170 Y-2.5015 Z-0.0100
G01 X67.7194 Y-2.5015 Z-0.0100
G01 X67.7390 Y-2.5012 Z-0.0100
G01 X67.7426 Y-2.5011 Z-0.0100
G01 X67.7461 Y-2.5009 Z-0.0100
G01 X67.7497 Y-2.5007 Z-0.0100
G01 X67.7532 Y-2.5003 Z-0.0100
G01 X67.7567 Y-2.4998 Z-0.0100
G01 X67.7602 Y-2.4992 Z-0.0100
G01 X67.7637 Y-2.4985 Z-0.0100
G01 X67.7672 Y-2.4976 Z-0.0100
G01 X67.7706 Y-2.4967 Z-0.0100
G01 X67.7740 Y-2.4957 Z-0.0100
G01 X67.7774 Y-2.4946 Z-0.0100
G01 X67.7808 Y-2.4935 Z-0.0100
G01 X67.7841 Y-2.4922 Z-0.0100
G01 X67.7874 Y-2.4907 Z-0.0100
G01 X67.7906 Y-2.4893 Z-0.0100
G01 X67.7938 Y-2.4877 Z-0.0100
G01 X67.7969 Y-2.4860 Z-0.0100
G01 X67.8000 Y-2.4843 Z-0.0100
G01 X67.8031 Y-2.4824 Z-0.0100
G01 X67.8061 Y-2.4805 Z-0.0100
G01 X67.8090 Y-2.4785 Z-0.0100
G01 X67.8118 Y-2.4764 Z-0.0100
G01 X67.8147 Y-2.4742 Z-0.0100
G01 X67.8174 Y-2.4720 Z-0.0100
G01 X67.8201 Y-2.4696 Z-0.0100
G01 X67.8227 Y-2.4672 Z-0.0100
G01 X67.8252 Y-2.4647 Z-0.0100
G01 X67.8277 Y-2.4622 Z-0.0100
G01 X67.8301 Y-2.4595 Z-0.0100
G01 X67.8324 Y-2.4568 Z-0.0100
G01 X67.8346 Y-2.4540 Z-0.0100
G01 X67.8368 Y-2.4512 Z-0.0100
G01 X67.8389 Y-2.4483 Z-0.0100
G01 X67.8409 Y-2.4454 Z-0.0100
G01 X67.8428 Y-2.4424 Z-0.0100
G01 X67.8446 Y-2.4393 Z-0.0100
G01 X67.8463 Y-2.4362 Z-0.0100
G01 X67.8479 Y-2.4331 Z-0.0100
G01 X67.8495 Y-2.4298 Z-0.0100
G01 X67.8509 Y-2.4266 Z-0.0100
G01 X67.8523 Y-2.4233 Z-0.0100
G01 X67.8536 Y-2.4200 Z-0.0100
G01 X67.8548 Y-2.4166 Z-0.0100
G01 X67.8558 Y-2.4133 Z-0.0100
G01 X67.8568 Y-2.4098 Z-0.0100
G01 X67.8577 Y-2.4064 Z-0.0100
G01 X67.8584 Y-2.4029 Z-0.0100
G01 X67.8591 Y-2.3994 Z-0.0100
G01 X67.8597 Y-2.3959 Z-0.0100
G01 X67.8601 Y-2.3924 Z-0.0100
G01 X67.8621 Y-2.3760 Z-0.0100
G01 X67.8716 Y-2.3153 Z-0.0100
G01 X67.8822 Y-2.2612 Z-0.0100
G01 X67.8942 Y-2.2113 Z-0.0100
G01 X67.9075 Y-2.1661 Z-0.0100
G01 X67.9217 Y-2.1258 Z-0.0100
G01 X67.9371 Y-2.0889 Z-0.0100
G01 X67.9533 Y-2.0559 Z-0.0100
G01 X67.9702 Y-2.0268 Z-0.0100
G01 X67.9879 Y-2.0003 Z-0.0100
G01 X68.0063 Y-1.9768 Z-0.0100
G01 X68.0261 Y-1.9547 Z-0.0100
G01 X68.0461 Y-1.9353 Z-0.0100
G01 X68.0687 Y-1.9161 Z-0.0100
G01 X68.0909 Y-1.8996 Z-0.0100
G01 X68.1159 Y-1.8829 Z-0.0100
G01 X68.1428 Y-1.8670 Z-0.0100
G01 X68.1705 Y-1.8520 Z-0.0100
G01 X68.1998 Y-1.8377 Z-0.0100
G01 X68.2333 Y-1.8224 Z-0.0100
G01 X68.2645 Y-1.8089 Z-0.0100
G01 X68.3009 Y-1.7939 Z-0.0100
G01 X68.3372 Y-1.7793 Z-0.0100
G01 X68.3751 Y-1.7642 Z-0.0100
G01 X68.4144 Y-1.7485 Z-0.0100
G01 X68.4153 Y-1.7481 Z-0.0100
G01 X68.4551 Y-1.7318 Z-0.0100
G01 X68.4565 Y-1.7311 Z-0.0100
G01 X68.4970 Y-1.7139 Z-0.0100
G01 X68.4990 Y-1.7130 Z-0.0100
G01 X68.5403 Y-1.6946 Z-0.0100
G01 X68.5426 Y-1.6935 Z-0.0100
G01 X68.5845 Y-1.6738 Z-0.0100
G01 X68.5874 Y-1.6724 Z-0.0100
G01 X68.6299 Y-1.6510 Z-0.0100
G01 X68.6330 Y-1.6494 Z-0.0100
G01 X68.6761 Y-1.6261 Z-0.0100
G01 X68.6795 Y-1.6242 Z-0.0100
G01 X68.7231 Y-1.5988 Z-0.0100
G01 X68.7267 Y-1.5967 Z-0.0100
G01 X68.7709 Y-1.5690 Z-0.0100
G01 X68.7746 Y-1.5666 Z-0.0100
G01 X68.8192 Y-1.5364 Z-0.0100
G01 X68.8230 Y-1.5337 Z-0.0100
G01 X68.8680 Y-1.5007 Z-0.0100
G01 X68.8717 Y-1.4979 Z-0.0100
G01 X68.9172 Y-1.4618 Z-0.0100
G01 X68.9209 Y-1.4588 Z-0.0100
G01 X68.9666 Y-1.4195 Z-0.0100
G01 X68.9703 Y-1.4162 Z-0.0100
G01 X69.0164 Y-1.3735 Z-0.0100
G01 X69.0198 Y-1.3702 Z-0.0100
G01 X69.0661 Y-1.3237 Z-0.0100
G01 X69.0694 Y-1.3203 Z-0.0100
G01 X69.1161 Y-1.2698 Z-0.0100
G01 X69.1192 Y-1.2662 Z-0.0100
G01 X69.1659 Y-1.2116 Z-0.0100
G01 X69.1688 Y-1.2081 Z-0.0100
G01 X69.2157 Y-1.1490 Z-0.0100
G01 X69.2184 Y-1.1455 Z-0.0100
G01 X69.2654 Y-1.0818 Z-0.0100
G01 X69.2679 Y-1.0784 Z-0.0100
G01 X69.3150 Y-1.0097 Z-0.0100
G01 X69.3172 Y-1.0064 Z-0.0100
G01 X69.3644 Y-0.9326 Z-0.0100
G01 X69.3664 Y-0.9293 Z-0.0100
G01 X69.4136 Y-0.8502 Z-0.0100
G01 X69.4166 Y-0.8448 Z-0.0100
G01 X69.4357 Y-0.8088 Z-0.0100
G01 X69.4375 Y-0.8053 Z-0.0100
G01 X69.4558 Y-0.7680 Z-0.0100
G01 X69.4575 Y-0.7642 Z-0.0100
G01 X69.4746 Y-0.7261 Z-0.0100
G01 X69.4761 Y-0.7225 Z-0.0100
G01 X69.4919 Y-0.6842 Z-0.0100
G01 X69.4933 Y-0.6805 Z-0.0100
G01 X69.5083 Y-0.6405 Z-0.0100
G01 X69.5096 Y-0.6370 Z-0.0100
G01 X69.5238 Y-0.5953 Z-0.0100
G01 X69.5250 Y-0.5916 Z-0.0100
G01 X69.5379 Y-0.5494 Z-0.0100
G01 X69.5388 Y-0.5461 Z-0.0100
G01 X69.5503 Y-0.5042 Z-0.0100
G01 X69.5512 Y-0.5007 Z-0.0100
G01 X69.5621 Y-0.4562 Z-0.0100
G01 X69.5629 Y-0.4530 Z-0.0100
G01 X69.5722 Y-0.4097 Z-0.0100
G01 X69.5729 Y-0.4063 Z-0.0100
G01 X69.5817 Y-0.3589 Z-0.0100
G01 X69.5823 Y-0.3558 Z-0.0100
G01 X69.5895 Y-0.3105 Z-0.0100
G01 X69.5900 Y-0.3072 Z-0.0100
G01 X69.5962 Y-0.2601 Z-0.0100
G01 X69.5966 Y-0.2571 Z-0.0100
G01 X69.6016 Y-0.2104 Z-0.0100
G01 X69.6020 Y-0.2072 Z-0.0100
G01 X69.6061 Y-0.1570 Z-0.0100
G01 X69.6062 Y-0.1542 Z-0.0100
G01 X69.6090 Y-0.1067 Z-0.0100
G01 X69.6092 Y-0.1038 Z-0.0100
G01 X69.6109 Y-0.0540 Z-0.0100
G01 X69.6110 Y-0.0511 Z-0.0100
G01 X69.6115 Y-0.0013 Z-0.0100
G01 X69.6115 Y0.0013 Z-0.0100
G01 X69.6110 Y0.0511 Z-0.0100
G01 X69.6109 Y0.0540 Z-0.0100
G01 X69.6092 Y0.1038 Z-0.0100
G01 X69.6090 Y0.1067 Z-0.0100
G01 X69.6062 Y0.1542 Z-0.0100
G01 X69.6061 Y0.1570 Z-0.0100
G01 X69.6020 Y0.2072 Z-0.0100
G01 X69.6016 Y0.2104 Z-0.0100
G01 X69.5966 Y0.2571 Z-0.0100
G01 X69.5962 Y0.2601 Z-0.0100
G01 X69.5900 Y0.3072 Z-0.0100
G01 X69.5895 Y0.3105 Z-0.0100
G01 X69.5823 Y0.3558 Z-0.0100
G01 X69.5817 Y0.3589 Z-0.0100
G01 X69.5729 Y0.4063 Z-0.0100
G01 X69.5722 Y0.4097 Z-0.0100
G01 X69.5629 Y0.4530 Z-0.0100
G01 X69.5622 Y0.4562 Z-0.0100
G01 X69.5514 Y0.5001 Z-0.0100
G01 X69.5505 Y0.5037 Z-0.0100
G01 X69.5388 Y0.5461 Z-0.0100
G01 X69.5379 Y0.5494 Z-0.0100
G01 X69.5250 Y0.5916 Z-0.0100
G01 X69.5238 Y0.5953 Z-0.0100
G01 X69.5096 Y0.6370 Z-0.0100
G01 X69.5083 Y0.6405 Z-0.0100
G01 X69.4933 Y0.6805 Z-0.0100
G01 X69.4919 Y0.6842 Z-0.0100
G01 X69.4761 Y0.7225 Z-0.0100
G01 X69.4746 Y0.7261 Z-0.0100
G01 X69.4575 Y0.7642 Z-0.0100
G01 X69.4558 Y0.7680 Z-0.0100
G01 X69.4378 Y0.8048 Z-0.0100
G01 X69.4360 Y0.8083 Z-0.0100
G01 X69.4166 Y0.8448 Z-0.0100
G01 X69.4136 Y0.8502 Z-0.0100
G01 X69.3664 Y0.9293 Z-0.0100
G01 X69.3644 Y0.9326 Z-0.0100
G01 X69.3172 Y1.0064 Z-0.0100
G01 X69.3150 Y1.0097 Z-0.0100
G01 X69.2679 Y1.0784 Z-0.0100
G01 X69.2654 Y1.0818 Z-0.0100
G01 X69.2184 Y1.1455 Z-0.0100
G01 X69.2157 Y1.1490 Z-0.0100
G01 X69.1688 Y1.2081 Z-0.0100
G01 X69.1659 Y1.2116 Z-0.0100
G01 X69.1192 Y1.2662 Z-0.0100
G01 X69.1161 Y1.2698 Z-0.0100
G01 X69.0694 Y1.3203 Z-0.0100
G01 X69.0661 Y1.3237 Z-0.0100
G01 X69.0198 Y1.3702 Z-0.0100
G01 X69.0164 Y1.3735 Z-0.0100
G01 X68.9703 Y1.4162 Z-0.0100
G01 X68.9666 Y1.4195 Z-0.0100
G01 X68.9209 Y1.4588 Z-0.0100
G01 X68.9172 Y1.4618 Z-0.0100
G01 X68.8717 Y1.4979 Z-0.0100
G01 X68.8680 Y1.5007 Z-0.0100
G01 X68.8230 Y1.5337 Z-0.0100
G01 X68.8192 Y1.5364 Z-0.0100
G01 X68.7746 Y1.5666 Z-0.0100
G01 X68.7709 Y1.5690 Z-0.0100
G01 X68.7267 Y1.5967 Z-0.0100
G01 X68.7231 Y1.5988 Z-0.0100
G01 X68.6795 Y1.6242 Z-0.0100
G01 X68.6761 Y1.6261 Z-0.0100
G01 X68.6330 Y1.6494 Z-0.0100
G01 X68.6299 Y1.6510 Z-0.0100
G01 X68.5874 Y1.6724 Z-0.0100
G01 X68.5845 Y1.6738 Z-0.0100
G01 X68.5426 Y1.6935 Z-0.0100
G01 X68.5403 Y1.6946 Z-0.0100
G01 X68.4990 Y1.7130 Z-0.0100
G01 X68.4970 Y1.7139 Z-0.0100
G01 X68.4565 Y1.7311 Z-0.0100
G01 X68.4551 Y1.7318 Z-0.0100
G01 X68.4153 Y1.7481 Z-0.0100
G01 X68.4144 Y1.7485 Z-0.0100
G01 X68.3754 Y1.7641 Z-0.0100
G01 X68.3372 Y1.7793 Z-0.0100
G01 X68.3009 Y1.7939 Z-0.0100
G01 X68.2645 Y1.8089 Z-0.0100
G01 X68.2333 Y1.8224 Z-0.0100
G01 X68.1998 Y1.8377 Z-0.0100
G01 X68.1705 Y1.8520 Z-0.0100
G01 X68.1428 Y1.8670 Z-0.0100
G01 X68.1159 Y1.8829 Z-0.0100
G01 X68.0909 Y1.8996 Z-0.0100
G01 X68.0687 Y1.9161 Z-0.0100
G01 X68.0461 Y1.9353 Z-0.0100
G01 X68.0261 Y1.9547 Z-0.0100
G01 X68.0063 Y1.9768 Z-0.0100
G01 X67.9879 Y2.0003 Z-0.0100
G01 X67.9702 Y2.0268 Z-0.0100
G01 X67.9533 Y2.0559 Z-0.0100
G01 X67.9371 Y2.0889 Z-0.0100
G01 X67.9217 Y2.1258 Z-0.0100
G01 X67.9075 Y2.1659 Z-0.0100
G01 X67.8943 Y2.2109 Z-0.0100
G01 X67.8822 Y2.2612 Z-0.0100
G01 X67.8716 Y2.3153 Z-0.0100
G01 X67.8622 Y2.3755 Z-0.0100
G01 X67.8601 Y2.3924 Z-0.0100
G01 X67.8597 Y2.3959 Z-0.0100
G01 X67.8591 Y2.3994 Z-0.0100
G01 X67.8584 Y2.4029 Z-0.0100
G01 X67.8577 Y2.4064 Z-0.0100
G01 X67.8568 Y2.4098 Z-0.0100
G01 X67.8558 Y2.4133 Z-0.0100
G01 X67.8548 Y2.4166 Z-0.0100
G01 X67.8536 Y2.4200 Z-0.0100
G01 X67.8523 Y2.4233 Z-0.0100
G01 X67.8509 Y2.4266 Z-0.0100
G01 X67.8495 Y2.4298 Z-0.0100
G01 X67.8479 Y2.4331 Z-0.0100
G01 X67.8463 Y2.4362 Z-0.0100
G01 X67.8446 Y2.4393 Z-0.0100
G01 X67.8428 Y2.4424 Z-0.0100
G01 X67.8409 Y2.4454 Z-0.0100
G01 X67.8389 Y2.4483 Z-0.0100
G01 X67.8368 Y2.4512 Z-0.0100
G01 X67.8346 Y2.4540 Z-0.0100
G01 X67.8324 Y2.4568 Z-0.0100
G01 X67.8301 Y2.4595 Z-0.0100
G01 X67.8277 Y2.4622 Z-0.0100
G01 X67.8252 Y2.4647 Z-0.0100
G01 X67.8227 Y2.4672 Z-0.0100
G01 X67.8201 Y2.4696 Z-0.0100
G01 X67.8174 Y2.4720 Z-0.0100
G01 X67.8147 Y2.4742 Z-0.0100
G01 X67.8118 Y2.4764 Z-0.0100
G01 X67.8090 Y2.4785 Z-0.0100
G01 X67.8061 Y2.4805 Z-0.0100
G01 X67.8031 Y2.4824 Z-0.0100
G01 X67.8000 Y2.4843 Z-0.0100
G01 X67.7969 Y2.4860 Z-0.0100
G01 X67.7938 Y2.4877 Z-0.0100
G01 X67.7906 Y2.4893 Z-0.0100
G01 X67.7874 Y2.4907 Z-0.0100
G01 X67.7841 Y2.4922 Z-0.0100
G01 X67.7808 Y2.4935 Z-0.0100
G01 X67.7774 Y2.4946 Z-0.0100
G01 X67.7740 Y2.4957 Z-0.0100
G01 X67.7706 Y2.4967 Z-0.0100
G01 X67.7672 Y2.4976 Z-0.0100
G01 X67.7637 Y2.4985 Z-0.0100
G01 X67.7602 Y2.4992 Z-0.0100
G01 X67.7567 Y2.4998 Z-0.0100
G01 X67.7532 Y2.5003 Z-0.0100
G01 X67.7497 Y2.5007 Z-0.0100
G01 X67.7461 Y2.5009 Z-0.0100
G01 X67.7426 Y2.5011 Z-0.0100
G01 X67.7390 Y2.5012 Z-0.0100
G01 X67.7194 Y2.5015 Z-0.0100
G01 X67.7170 Y2.5015 Z-0.0100
G01 X67.7119 Y2.5014 Z-0.0100
G01 X67.7090 Y2.5014 Z-0.0100
G01 X67.0754 Y2.4816 Z-0.0100
G01 X66.4418 Y2.4624 Z-0.0100
G01 X65.8082 Y2.4437 Z-0.0100
G01 X65.1746 Y2.4253 Z-0.0100
G01 X64.5411 Y2.4074 Z-0.0100
G01 X63.9075 Y2.3900 Z-0.0100
G01 X63.2739 Y2.3730 Z-0.0100
G01 X62.6403 Y2.3565 Z-0.0100
G01 X62.0066 Y2.3404 Z-0.0100
G01 X61.3730 Y2.3248 Z-0.0100
G01 X60.7393 Y2.3096 Z-0.0100
G01 X60.1057 Y2.2949 Z-0.0100
G01 X59.4720 Y2.2806 Z-0.0100
G01 X58.8384 Y2.2668 Z-0.0100
G01 X58.2047 Y2.2535 Z-0.0100
G01 X57.5710 Y2.2406 Z-0.0100
G01 X56.9372 Y2.2281 Z-0.0100
G01 X56.3075 Y2.2162 Z-0.0100
G01 X56.3037 Y2.2162 Z-0.0100
G01 X55.6699 Y2.2046 Z-0.0100
G01 X55.0361 Y2.1936 Z-0.0100
G01 X54.4024 Y2.1830 Z-0.0100
G01 X53.7687 Y2.1728 Z-0.0100
G01 X53.1349 Y2.1631 Z-0.0100
G01 X52.5011 Y2.1538 Z-0.0100
G01 X52.1653 Y2.1491 Z-0.0100
G01 X51.8673 Y2.1450 Z0.0240
G01 X51.3779 Y2.1385 Z0.0799
G01 X51.2336 Y2.1366 Z0.0800
G01 X50.5998 Y2.1287 Z0.0800
G01 X50.5905 Y2.1286 Z0.0800
G01 X49.9660 Y2.1213 Z0.0085
G01 X49.8031 Y2.1195 Z-0.0099
G01 X49.3322 Y2.1143 Z-0.0100
G01 X48.6985 Y2.1077 Z-0.0100
G01 X48.0646 Y2.1016 Z-0.0100
G01 X47.4308 Y2.0960 Z-0.0100
G01 X46.7970 Y2.0908 Z-0.0100
G01 X46.1633 Y2.0861 Z-0.0100
G01 X45.5294 Y2.0818 Z-0.0100
G01 X44.8956 Y2.0780 Z-0.0100
G01 X44.2618 Y2.0746 Z-0.0100
G01 X43.6279 Y2.0717 Z-0.0100
G01 X42.9941 Y2.0692 Z-0.0100
G01 X42.3603 Y2.0672 Z-0.0100
G01 X41.7265 Y2.0657 Z-0.0100
G01 X41.0927 Y2.0646 Z-0.0100
G01 X40.4588 Y2.0639 Z-0.0100
G01 X39.8251 Y2.0637 Z-0.0100
G01 X39.1914 Y2.0640 Z-0.0100
G01 X38.5575 Y2.0647 Z-0.0100
G01 X37.9237 Y2.0659 Z-0.0100
G01 X37.2899 Y2.0675 Z-0.0100
G01 X36.6560 Y2.0696 Z-0.0100
G01 X36.0222 Y2.0721 Z-0.0100
G01 X35.3884 Y2.0751 Z-0.0100
G01 X34.7546 Y2.0785 Z-0.0100
G01 X34.1207 Y2.0824 Z-0.0100
G01 X33.4870 Y2.0868 Z-0.0100
G01 X32.8531 Y2.0916 Z-0.0100
G01 X32.2193 Y2.0968 Z-0.0100
G01 X31.5856 Y2.1025 Z-0.0100
G01 X30.9518 Y2.1087 Z-0.0100
G01 X30.3179 Y2.1153 Z-0.0100
G01 X29.6842 Y2.1224 Z-0.0100
G01 X29.0504 Y2.1299 Z-0.0100
G01 X28.4166 Y2.1379 Z-0.0100
G01 X27.7828 Y2.1463 Z-0.0100
G01 X27.1490 Y2.1551 Z-0.0100
G01 X26.5153 Y2.1645 Z-0.0100
G01 X25.8816 Y2.1743 Z-0.0100
G01 X25.2478 Y2.1845 Z-0.0100
G01 X24.6141 Y2.1952 Z-0.0100
G01 X23.9802 Y2.2064 Z-0.0100
G01 X23.9764 Y2.2064 Z-0.0100
G01 X23.3466 Y2.2179 Z-0.0100
G01 X22.7129 Y2.2300 Z-0.0100
G01 X22.0792 Y2.2425 Z-0.0100
G01 X21.4455 Y2.2555 Z-0.0100
G01 X20.8119 Y2.2688 Z-0.0100
G01 X20.4724 Y2.2763 Z-0.0100
G01 X20.1782 Y2.2827 Z0.0236
G01 X19.6850 Y2.2939 Z0.0799
G01 X19.5445 Y2.2971 Z0.0800
G01 X18.9108 Y2.3118 Z0.0800
G01 X18.8976 Y2.3122 Z0.0800
G01 X18.2772 Y2.3271 Z0.0090
G01 X18.1102 Y2.3312 Z-0.0099
G01 X17.6436 Y2.3427 Z-0.0100
G01 X17.0100 Y2.3589 Z-0.0100
G01 X16.3763 Y2.3755 Z-0.0100
G01 X15.7428 Y2.3925 Z-0.0100
G01 X15.1092 Y2.4101 Z-0.0100
G01 X14.4756 Y2.4280 Z-0.0100
G01 X13.8420 Y2.4464 Z-0.0100
G01 X13.2085 Y2.4653 Z-0.0100
G01 X12.5749 Y2.4846 Z-0.0100
G01 X11.9412 Y2.5043 Z-0.0100
G01 X11.9377 Y2.5044 Z-0.0100
G01 X11.3079 Y2.5245 Z-0.0100
G01 X10.6744 Y2.5452 Z-0.0100
G01 X10.0410 Y2.5663 Z-0.0100
G01 X9.4075 Y2.5879 Z-0.0100
G01 X8.7740 Y2.6100 Z-0.0100
G01 X8.1407 Y2.6324 Z-0.0100
G01 X7.5072 Y2.6554 Z-0.0100
G01 X6.8738 Y2.6788 Z-0.0100
G01 X6.2404 Y2.7026 Z-0.0100
G01 X5.6071 Y2.7269 Z-0.0100
G01 X4.9737 Y2.7517 Z-0.0100
G01 X4.3403 Y2.7769 Z-0.0100
G01 X4.3371 Y2.7770 Z-0.0100
G01 X4.3314 Y2.7771 Z-0.0100
G01 X4.3283 Y2.7771 Z-0.0100
G01 X4.3248 Y2.7770 Z-0.0100
G01 X4.3213 Y2.7770 Z-0.0100
G01 X4.3179 Y2.7768 Z-0.0100
G01 X4.3144 Y2.7764 Z-0.0100
G01 X4.3109 Y2.7761 Z-0.0100
G01 X4.3074 Y2.7756 Z-0.0100
G01 X4.3040 Y2.7750 Z-0.0100
G01 X4.3005 Y2.7743 Z-0.0100
G01 X4.2971 Y2.7735 Z-0.0100
G01 X4.2937 Y2.7727 Z-0.0100
G01 X4.2903 Y2.7717 Z-0.0100
G01 X4.2870 Y2.7706 Z-0.0100
G01 X4.2837 Y2.7695 Z-0.0100
G01 X4.2804 Y2.7682 Z-0.0100
G01 X4.2772 Y2.7669 Z-0.0100
G01 X4.2740 Y2.7655 Z-0.0100
G01 X4.2709 Y2.7639 Z-0.0100
G01 X4.2677 Y2.7623 Z-0.0100
G01 X4.2647 Y2.7606 Z-0.0100
G01 X4.2617 Y2.7588 Z-0.0100
G01 X4.2587 Y2.7569 Z-0.0100
G01 X4.2558 Y2.7550 Z-0.0100
G01 X4.2530 Y2.7529 Z-0.0100
G01 X4.2502 Y2.7508 Z-0.0100
G01 X4.2475 Y2.7486 Z-0.0100
G01 X4.2448 Y2.7464 Z-0.0100
G01 X4.2422 Y2.7440 Z-0.0100
G01 X4.2397 Y2.7416 Z-0.0100
G01 X4.2372 Y2.7391 Z-0.0100
G01 X4.2348 Y2.7365 Z-0.0100
G01 X4.2325 Y2.7339 Z-0.0100
G01 X4.2303 Y2.7312 Z-0.0100
G01 X4.2281 Y2.7285 Z-0.0100
G01 X4.2260 Y2.7257 Z-0.0100
G01 X4.2240 Y2.7228 Z-0.0100
G01 X4.2221 Y2.7198 Z-0.0100
G01 X4.2202 Y2.7169 Z-0.0100
G01 X4.2185 Y2.7138 Z-0.0100
G01 X4.2168 Y2.7107 Z-0.0100
G01 X4.2153 Y2.7076 Z-0.0100
G01 X4.2138 Y2.7045 Z-0.0100
G01 X4.2124 Y2.7012 Z-0.0100
G01 X4.2111 Y2.6980 Z-0.0100
G01 X4.2098 Y2.6947 Z-0.0100
G01 X4.2087 Y2.6914 Z-0.0100
G01 X4.2077 Y2.6881 Z-0.0100
G01 X4.2068 Y2.6847 Z-0.0100
G01 X4.2059 Y2.6813 Z-0.0100
G01 X4.2052 Y2.6779 Z-0.0100
G01 X4.2046 Y2.6744 Z-0.0100
G01 X4.2040 Y2.6709 Z-0.0100
G01 X4.2036 Y2.6675 Z-0.0100
G01 X4.2032 Y2.6640 Z-0.0100
G01 X4.2030 Y2.6605 Z-0.0100
G01 X4.2028 Y2.6570 Z-0.0100
G01 X4.2019 Y2.6243 Z-0.0100
G01 X4.1993 Y2.5557 Z-0.0100
G01 X4.1960 Y2.4915 Z-0.0100
G01 X4.1921 Y2.4337 Z-0.0100
G01 X4.1872 Y2.3755 Z-0.0100
G01 X4.1819 Y2.3258 Z-0.0100
G01 X4.1755 Y2.2773 Z-0.0100
G01 X4.1685 Y2.2346 Z-0.0100
G01 X4.1603 Y2.1936 Z-0.0100
G01 X4.1518 Y2.1581 Z-0.0100
G01 X4.1424 Y2.1255 Z-0.0100
G01 X4.1324 Y2.0968 Z-0.0100
G01 X4.1217 Y2.0712 Z-0.0100
G01 X4.1105 Y2.0488 Z-0.0100
G01 X4.0990 Y2.0295 Z-0.0100
G01 X4.0869 Y2.0123 Z-0.0100
G01 X4.0742 Y1.9971 Z-0.0100
G01 X4.0604 Y1.9833 Z-0.0100
G01 X4.0457 Y1.9709 Z-0.0100
G01 X4.0295 Y1.9594 Z-0.0100
G01 X4.0112 Y1.9484 Z-0.0100
G01 X3.9905 Y1.9379 Z-0.0100
G01 X3.9672 Y1.9279 Z-0.0100
G01 X3.9412 Y1.9185 Z-0.0100
G01 X3.9124 Y1.9096 Z-0.0100
G01 X3.8814 Y1.9014 Z-0.0100
G01 X3.8475 Y1.8938 Z-0.0100
G01 X3.8092 Y1.8863 Z-0.0100
G01 X3.7690 Y1.8795 Z-0.0100
G01 X3.7270 Y1.8731 Z-0.0100
G01 X3.6794 Y1.8665 Z-0.0100
G01 X3.6316 Y1.8605 Z-0.0100
G01 X3.5790 Y1.8542 Z-0.0100
G01 X3.5246 Y1.8479 Z-0.0100
G01 X3.4668 Y1.8413 Z-0.0100
G01 X3.4062 Y1.8344 Z-0.0100
G01 X3.3428 Y1.8270 Z-0.0100
G01 X3.3422 Y1.8269 Z-0.0100
G01 X3.2761 Y1.8189 Z-0.0100
G01 X3.2754 Y1.8188 Z-0.0100
G01 X3.2064 Y1.8101 Z-0.0100
G01 X3.2056 Y1.8100 Z-0.0100
G01 X3.1337 Y1.8003 Z-0.0100
G01 X3.1328 Y1.8002 Z-0.0100
G01 X3.0578 Y1.7896 Z-0.0100
G01 X3.0566 Y1.7895 Z-0.0100
G01 X2.9786 Y1.7777 Z-0.0100
G01 X2.9775 Y1.7775 Z-0.0100
G01 X2.8963 Y1.7646 Z-0.0100
G01 X2.8950 Y1.7643 Z-0.0100
G01 X2.8106 Y1.7499 Z-0.0100
G01 X2.8094 Y1.7496 Z-0.0100
G01 X2.7217 Y1.7337 Z-0.0100
G01 X2.7203 Y1.7335 Z-0.0100
G01 X2.6294 Y1.7159 Z-0.0100
G01 X2.6259 Y1.7151 Z-0.0100
G01 X2.5060 Y1.6883 Z-0.0100
G01 X2.5033 Y1.6877 Z-0.0100
G01 X2.3863 Y1.6587 Z-0.0100
G01 X2.3833 Y1.6579 Z-0.0100
G01 X2.2721 Y1.6273 Z-0.0100
G01 X2.2692 Y1.6264 Z-0.0100
G01 X2.1645 Y1.5949 Z-0.0100
G01 X2.1614 Y1.5939 Z-0.0100
G01 X2.0607 Y1.5606 Z-0.0100
G01 X2.0575 Y1.5595 Z-0.0100
G01 X1.9623 Y1.5252 Z-0.0100
G01 X1.9590 Y1.5240 Z-0.0100
G01 X1.8672 Y1.4879 Z-0.0100
G01 X1.8640 Y1.4866 Z-0.0100
G01 X1.7778 Y1.4498 Z-0.0100
G01 X1.7745 Y1.4483 Z-0.0100
G01 X1.6924 Y1.4105 Z-0.0100
G01 X1.6890 Y1.4088 Z-0.0100
G01 X1.6117 Y1.3703 Z-0.0100
G01 X1.6082 Y1.3684 Z-0.0100
G01 X1.5352 Y1.3290 Z-0.0100
G01 X1.5318 Y1.3271 Z-0.0100
G01 X1.4625 Y1.2868 Z-0.0100
G01 X1.4590 Y1.2846 Z-0.0100
G01 X1.3955 Y1.2448 Z-0.0100
G01 X1.3919 Y1.2424 Z-0.0100
G01 X1.3310 Y1.2012 Z-0.0100
G01 X1.3274 Y1.1987 Z-0.0100
G01 X1.2700 Y1.1568 Z-0.0100
G01 X1.2665 Y1.1542 Z-0.0100
G01 X1.2144 Y1.1132 Z-0.0100
G01 X1.2108 Y1.1103 Z-0.0100
G01 X1.1616 Y1.0686 Z-0.0100
G01 X1.1582 Y1.0656 Z-0.0100
G01 X1.1114 Y1.0229 Z-0.0100
G01 X1.1080 Y1.0196 Z-0.0100
G01 X1.0663 Y0.9785 Z-0.0100
G01 X1.0630 Y0.9751 Z-0.0100
G01 X1.0229 Y0.9325 Z-0.0100
G01 X1.0196 Y0.9288 Z-0.0100
G01 X0.9827 Y0.8861 Z-0.0100
G01 X0.9797 Y0.8825 Z-0.0100
G01 X0.9465 Y0.8412 Z-0.0100
G01 X0.9433 Y0.8371 Z-0.0100
G01 X0.9119 Y0.7944 Z-0.0100
G01 X0.9091 Y0.7904 Z-0.0100
G01 X0.8801 Y0.7475 Z-0.0100
G01 X0.8774 Y0.7434 Z-0.0100
G01 X0.8515 Y0.7016 Z-0.0100
G01 X0.8490 Y0.6973 Z-0.0100
G01 X0.8243 Y0.6535 Z-0.0100
G01 X0.8219 Y0.6491 Z-0.0100
G01 X0.7998 Y0.6061 Z-0.0100
G01 X0.7977 Y0.6017 Z-0.0100
G01 X0.7782 Y0.5595 Z-0.0100
G01 X0.7761 Y0.5548 Z-0.0100
G01 X0.7579 Y0.5109 Z-0.0100
G01 X0.7561 Y0.5064 Z-0.0100
G01 X0.7397 Y0.4618 Z-0.0100
G01 X0.7382 Y0.4573 Z-0.0100
G01 X0.7238 Y0.4129 Z-0.0100
G01 X0.7223 Y0.4083 Z-0.0100
G01 X0.7097 Y0.3635 Z-0.0100
G01 X0.7085 Y0.3589 Z-0.0100
G01 X0.6975 Y0.3131 Z-0.0100
G01 X0.6965 Y0.3085 Z-0.0100
G01 X0.6874 Y0.2629 Z-0.0100
G01 X0.6865 Y0.2583 Z-0.0100
G01 X0.6790 Y0.2119 Z-0.0100
G01 X0.6784 Y0.2075 Z-0.0100
G01 X0.6725 Y0.1605 Z-0.0100
G01 X0.6720 Y0.1560 Z-0.0100
G01 X0.6677 Y0.1073 Z-0.0100
G01 X0.6674 Y0.1028 Z-0.0100
G01 X0.6650 Y0.0554 Z-0.0100
G01 X0.6648 Y0.0512 Z-0.0100
G01 X0.6640 Y0.0020 Z-0.0100
G01 X0.6640 Y-0.0020 Z-0.0100
G00 X0.6640 Y-0.0020 Z0.6000
M05
G00 X0.0000 Y0.0000 Z0.6000
G49
G01 G55 Z0 F20
G00 G55 X0 Y0 Z0
M30
