( Sample-ski-top-cutout.nc                                                     )
( Generated by MonkeyCAM v4.0.5 at 2017-06-29 21:42:58 New Zealand Standard Time
(                                                                              )
( This GCode program is provided on an "AS IS" BASIS WITHOUT WARRANTIES OR     )
( CONDITIONS OF ANY KIND, either express or implied. You should inspect this   )
( program very carefully to confirm you understand its operation. YOU ARE      )
( RESPONSIBLE FOR ENSURING THIS PROGRAM WILL NOT DAMAGE YOUR MACHINE OR        )
( MATERIALS.                                                                   )
(                                                                              )
( See http://www.github.com/mikemag/MonkeyCAM for License and documentation.   )
(                                                                              )
( * Rapid height: 0.6000" [1.5240cm]                                           )
( * Tool: T1, Quarter Inch Upcut Spiral, diameter 0.2469" [0.6273cm]           )
( * Height baseline [Z=0.0] is the top of the table.                           )
( * XY origin is the left side of the table, Y is center of the part.          )
( * Requires G54 to be the part work coordinate offsets [WCO]. [0, 0] is the   )
(   center of the nose, with the board extending to positive X. The cutter may )
(   move to negative values of X.                                              )
( * Requires G55 to be the machine WCO, with Z above the rapid height.         )
( * Units are inches                                                           )
( * Center of the board in G54:                                                )
(     X=36.0236 Y=0.0000 Z=0.0000                                              )
( * Cutter bounding box in G54:                                                )
(     X0.0000 Y-2.7770 Z-0.0100 to X69.6116 Y2.7770 Z0.6000                    )

G90 G20 G17 G40 G49
G43 H1 T1
G00 G54 X0 Y0 Z0.6000

G00 X0.6640 Y-0.0020 Z0.6000
M03
G04 P5
G01 X0.6640 Y-0.0020 Z0.2050 F80
G01 X0.6648 Y-0.0512 Z0.2050
G01 X0.6650 Y-0.0554 Z0.2050
G01 X0.6674 Y-0.1028 Z0.2050
G01 X0.6677 Y-0.1073 Z0.2050
G01 X0.6720 Y-0.1560 Z0.2050
G01 X0.6725 Y-0.1605 Z0.2050
G01 X0.6784 Y-0.2075 Z0.2050
G01 X0.6790 Y-0.2119 Z0.2050
G01 X0.6865 Y-0.2583 Z0.2050
G01 X0.6874 Y-0.2629 Z0.2050
G01 X0.6965 Y-0.3085 Z0.2050
G01 X0.6975 Y-0.3131 Z0.2050
G01 X0.7085 Y-0.3589 Z0.2050
G01 X0.7097 Y-0.3635 Z0.2050
G01 X0.7223 Y-0.4083 Z0.2050
G01 X0.7238 Y-0.4130 Z0.2050
G01 X0.7381 Y-0.4572 Z0.2050
G01 X0.7397 Y-0.4617 Z0.2050
G01 X0.7562 Y-0.5064 Z0.2050
G01 X0.7579 Y-0.5109 Z0.2050
G01 X0.7759 Y-0.5544 Z0.2050
G01 X0.7780 Y-0.5590 Z0.2050
G01 X0.7979 Y-0.6020 Z0.2050
G01 X0.8001 Y-0.6066 Z0.2050
G01 X0.8220 Y-0.6492 Z0.2050
G01 X0.8242 Y-0.6534 Z0.2050
G01 X0.8489 Y-0.6972 Z0.2050
G01 X0.8515 Y-0.7016 Z0.2050
G01 X0.8774 Y-0.7433 Z0.2050
G01 X0.8801 Y-0.7475 Z0.2050
G01 X0.9091 Y-0.7904 Z0.2050
G01 X0.9119 Y-0.7944 Z0.2050
G01 X0.9431 Y-0.8367 Z0.2050
G01 X0.9462 Y-0.8407 Z0.2050
G01 X0.9803 Y-0.8833 Z0.2050
G01 X0.9833 Y-0.8870 Z0.2050
G01 X1.0192 Y-0.9284 Z0.2050
G01 X1.0226 Y-0.9321 Z0.2050
G01 X1.0626 Y-0.9747 Z0.2050
G01 X1.0659 Y-0.9780 Z0.2050
G01 X1.1088 Y-1.0203 Z0.2050
G01 X1.1122 Y-1.0236 Z0.2050
G01 X1.1578 Y-1.0652 Z0.2050
G01 X1.1612 Y-1.0683 Z0.2050
G01 X1.2110 Y-1.1104 Z0.2050
G01 X1.2145 Y-1.1133 Z0.2050
G01 X1.2676 Y-1.1550 Z0.2050
G01 X1.2712 Y-1.1577 Z0.2050
G01 X1.3263 Y-1.1979 Z0.2050
G01 X1.3299 Y-1.2004 Z0.2050
G01 X1.3920 Y-1.2424 Z0.2050
G01 X1.3955 Y-1.2447 Z0.2050
G01 X1.4590 Y-1.2846 Z0.2050
G01 X1.4625 Y-1.2868 Z0.2050
G01 X1.5318 Y-1.3271 Z0.2050
G01 X1.5352 Y-1.3290 Z0.2050
G01 X1.6082 Y-1.3684 Z0.2050
G01 X1.6117 Y-1.3702 Z0.2050
G01 X1.6894 Y-1.4090 Z0.2050
G01 X1.6928 Y-1.4106 Z0.2050
G01 X1.7745 Y-1.4483 Z0.2050
G01 X1.7778 Y-1.4498 Z0.2050
G01 X1.8640 Y-1.4865 Z0.2050
G01 X1.8672 Y-1.4879 Z0.2050
G01 X1.9590 Y-1.5239 Z0.2050
G01 X1.9623 Y-1.5251 Z0.2050
G01 X2.0575 Y-1.5595 Z0.2050
G01 X2.0607 Y-1.5606 Z0.2050
G01 X2.1614 Y-1.5939 Z0.2050
G01 X2.1645 Y-1.5948 Z0.2050
G01 X2.2692 Y-1.6264 Z0.2050
G01 X2.2721 Y-1.6273 Z0.2050
G01 X2.3833 Y-1.6578 Z0.2050
G01 X2.3863 Y-1.6586 Z0.2050
G01 X2.5033 Y-1.6876 Z0.2050
G01 X2.5060 Y-1.6883 Z0.2050
G01 X2.6259 Y-1.7151 Z0.2050
G01 X2.6294 Y-1.7158 Z0.2050
G01 X2.7203 Y-1.7334 Z0.2050
G01 X2.7217 Y-1.7337 Z0.2050
G01 X2.8094 Y-1.7496 Z0.2050
G01 X2.8106 Y-1.7498 Z0.2050
G01 X2.8950 Y-1.7643 Z0.2050
G01 X2.8963 Y-1.7645 Z0.2050
G01 X2.9775 Y-1.7775 Z0.2050
G01 X2.9786 Y-1.7777 Z0.2050
G01 X3.0566 Y-1.7894 Z0.2050
G01 X3.0578 Y-1.7896 Z0.2050
G01 X3.1328 Y-1.8002 Z0.2050
G01 X3.1337 Y-1.8003 Z0.2050
G01 X3.2056 Y-1.8099 Z0.2050
G01 X3.2064 Y-1.8100 Z0.2050
G01 X3.2754 Y-1.8188 Z0.2050
G01 X3.2761 Y-1.8188 Z0.2050
G01 X3.3422 Y-1.8268 Z0.2050
G01 X3.3428 Y-1.8269 Z0.2050
G01 X3.4061 Y-1.8343 Z0.2050
G01 X3.4667 Y-1.8412 Z0.2050
G01 X3.5246 Y-1.8478 Z0.2050
G01 X3.5790 Y-1.8541 Z0.2050
G01 X3.6316 Y-1.8604 Z0.2050
G01 X3.6794 Y-1.8665 Z0.2050
G01 X3.7270 Y-1.8730 Z0.2050
G01 X3.7690 Y-1.8794 Z0.2050
G01 X3.8092 Y-1.8863 Z0.2050
G01 X3.8475 Y-1.8938 Z0.2050
G01 X3.8814 Y-1.9014 Z0.2050
G01 X3.9124 Y-1.9096 Z0.2050
G01 X3.9412 Y-1.9185 Z0.2050
G01 X3.9675 Y-1.9280 Z0.2050
G01 X3.9905 Y-1.9379 Z0.2050
G01 X4.0112 Y-1.9483 Z0.2050
G01 X4.0295 Y-1.9593 Z0.2050
G01 X4.0457 Y-1.9709 Z0.2050
G01 X4.0604 Y-1.9833 Z0.2050
G01 X4.0742 Y-1.9971 Z0.2050
G01 X4.0869 Y-2.0122 Z0.2050
G01 X4.0990 Y-2.0294 Z0.2050
G01 X4.1105 Y-2.0488 Z0.2050
G01 X4.1217 Y-2.0712 Z0.2050
G01 X4.1325 Y-2.0971 Z0.2050
G01 X4.1424 Y-2.1255 Z0.2050
G01 X4.1518 Y-2.1581 Z0.2050
G01 X4.1606 Y-2.1948 Z0.2050
G01 X4.1685 Y-2.2345 Z0.2050
G01 X4.1755 Y-2.2778 Z0.2050
G01 X4.1819 Y-2.3257 Z0.2050
G01 X4.1872 Y-2.3761 Z0.2050
G01 X4.1921 Y-2.4336 Z0.2050
G01 X4.1961 Y-2.4930 Z0.2050
G01 X4.1994 Y-2.5573 Z0.2050
G01 X4.2020 Y-2.6256 Z0.2050
G01 X4.2028 Y-2.6570 Z0.2050
G01 X4.2030 Y-2.6605 Z0.2050
G01 X4.2032 Y-2.6639 Z0.2050
G01 X4.2036 Y-2.6674 Z0.2050
G01 X4.2040 Y-2.6709 Z0.2050
G01 X4.2046 Y-2.6744 Z0.2050
G01 X4.2052 Y-2.6778 Z0.2050
G01 X4.2059 Y-2.6812 Z0.2050
G01 X4.2068 Y-2.6846 Z0.2050
G01 X4.2077 Y-2.6880 Z0.2050
G01 X4.2087 Y-2.6914 Z0.2050
G01 X4.2098 Y-2.6947 Z0.2050
G01 X4.2111 Y-2.6979 Z0.2050
G01 X4.2124 Y-2.7012 Z0.2050
G01 X4.2138 Y-2.7044 Z0.2050
G01 X4.2153 Y-2.7076 Z0.2050
G01 X4.2168 Y-2.7107 Z0.2050
G01 X4.2185 Y-2.7138 Z0.2050
G01 X4.2202 Y-2.7168 Z0.2050
G01 X4.2221 Y-2.7198 Z0.2050
G01 X4.2240 Y-2.7227 Z0.2050
G01 X4.2260 Y-2.7256 Z0.2050
G01 X4.2281 Y-2.7284 Z0.2050
G01 X4.2303 Y-2.7312 Z0.2050
G01 X4.2325 Y-2.7339 Z0.2050
G01 X4.2348 Y-2.7365 Z0.2050
G01 X4.2372 Y-2.7390 Z0.2050
G01 X4.2397 Y-2.7416 Z0.2050
G01 X4.2422 Y-2.7440 Z0.2050
G01 X4.2448 Y-2.7463 Z0.2050
G01 X4.2475 Y-2.7486 Z0.2050
G01 X4.2502 Y-2.7508 Z0.2050
G01 X4.2530 Y-2.7529 Z0.2050
G01 X4.2558 Y-2.7550 Z0.2050
G01 X4.2587 Y-2.7569 Z0.2050
G01 X4.2617 Y-2.7588 Z0.2050
G01 X4.2647 Y-2.7605 Z0.2050
G01 X4.2677 Y-2.7623 Z0.2050
G01 X4.2709 Y-2.7639 Z0.2050
G01 X4.2740 Y-2.7654 Z0.2050
G01 X4.2772 Y-2.7668 Z0.2050
G01 X4.2804 Y-2.7682 Z0.2050
G01 X4.2837 Y-2.7694 Z0.2050
G01 X4.2870 Y-2.7706 Z0.2050
G01 X4.2903 Y-2.7717 Z0.2050
G01 X4.2937 Y-2.7726 Z0.2050
G01 X4.2971 Y-2.7735 Z0.2050
G01 X4.3005 Y-2.7743 Z0.2050
G01 X4.3040 Y-2.7750 Z0.2050
G01 X4.3074 Y-2.7755 Z0.2050
G01 X4.3109 Y-2.7761 Z0.2050
G01 X4.3144 Y-2.7764 Z0.2050
G01 X4.3179 Y-2.7767 Z0.2050
G01 X4.3213 Y-2.7769 Z0.2050
G01 X4.3248 Y-2.7770 Z0.2050
G01 X4.3283 Y-2.7770 Z0.2050
G01 X4.3314 Y-2.7770 Z0.2050
G01 X4.3371 Y-2.7770 Z0.2050
G01 X4.3403 Y-2.7769 Z0.2050
G01 X4.9737 Y-2.7516 Z0.2050
G01 X5.6071 Y-2.7269 Z0.2050
G01 X6.2404 Y-2.7026 Z0.2050
G01 X6.8738 Y-2.6787 Z0.2050
G01 X7.5072 Y-2.6553 Z0.2050
G01 X8.1407 Y-2.6324 Z0.2050
G01 X8.7740 Y-2.6099 Z0.2050
G01 X9.4075 Y-2.5879 Z0.2050
G01 X10.0410 Y-2.5663 Z0.2050
G01 X10.6744 Y-2.5451 Z0.2050
G01 X11.3079 Y-2.5245 Z0.2050
G01 X11.9377 Y-2.5044 Z0.2050
G01 X11.9412 Y-2.5043 Z0.2050
G01 X12.5748 Y-2.4845 Z0.2050
G01 X13.2085 Y-2.4653 Z0.2050
G01 X13.8420 Y-2.4464 Z0.2050
G01 X14.4756 Y-2.4280 Z0.2050
G01 X15.1092 Y-2.4100 Z0.2050
G01 X15.7428 Y-2.3925 Z0.2050
G01 X16.3763 Y-2.3755 Z0.2050
G01 X17.0099 Y-2.3589 Z0.2050
G01 X17.6436 Y-2.3427 Z0.2050
G01 X18.1102 Y-2.3312 Z0.2050
G01 X18.2772 Y-2.3271 Z0.2050
G01 X18.8976 Y-2.3122 Z0.2050
G01 X18.9108 Y-2.3118 Z0.2050
G01 X19.5445 Y-2.2970 Z0.2050
G01 X19.6850 Y-2.2938 Z0.2050
G01 X20.1782 Y-2.2827 Z0.2050
G01 X20.4724 Y-2.2762 Z0.2050
G01 X20.8119 Y-2.2688 Z0.2050
G01 X21.4455 Y-2.2554 Z0.2050
G01 X22.0792 Y-2.2425 Z0.2050
G01 X22.7129 Y-2.2300 Z0.2050
G01 X23.3466 Y-2.2179 Z0.2050
G01 X23.9764 Y-2.2064 Z0.2050
G01 X23.9802 Y-2.2064 Z0.2050
G01 X24.6141 Y-2.1952 Z0.2050
G01 X25.2478 Y-2.1845 Z0.2050
G01 X25.8816 Y-2.1743 Z0.2050
G01 X26.5153 Y-2.1645 Z0.2050
G01 X27.1490 Y-2.1551 Z0.2050
G01 X27.7828 Y-2.1463 Z0.2050
G01 X28.4166 Y-2.1379 Z0.2050
G01 X29.0504 Y-2.1299 Z0.2050
G01 X29.6842 Y-2.1224 Z0.2050
G01 X30.3179 Y-2.1153 Z0.2050
G01 X30.9518 Y-2.1087 Z0.2050
G01 X31.5856 Y-2.1025 Z0.2050
G01 X32.2193 Y-2.0968 Z0.2050
G01 X32.8531 Y-2.0916 Z0.2050
G01 X33.4870 Y-2.0868 Z0.2050
G01 X34.1207 Y-2.0824 Z0.2050
G01 X34.7546 Y-2.0785 Z0.2050
G01 X35.3884 Y-2.0751 Z0.2050
G01 X36.0222 Y-2.0721 Z0.2050
G01 X36.6560 Y-2.0696 Z0.2050
G01 X37.2899 Y-2.0675 Z0.2050
G01 X37.9237 Y-2.0659 Z0.2050
G01 X38.5575 Y-2.0647 Z0.2050
G01 X39.1914 Y-2.0640 Z0.2050
G01 X39.8251 Y-2.0637 Z0.2050
G01 X40.4588 Y-2.0639 Z0.2050
G01 X41.0927 Y-2.0646 Z0.2050
G01 X41.7265 Y-2.0657 Z0.2050
G01 X42.3603 Y-2.0672 Z0.2050
G01 X42.9941 Y-2.0692 Z0.2050
G01 X43.6279 Y-2.0717 Z0.2050
G01 X44.2618 Y-2.0746 Z0.2050
G01 X44.8956 Y-2.0780 Z0.2050
G01 X45.5294 Y-2.0818 Z0.2050
G01 X46.1633 Y-2.0861 Z0.2050
G01 X46.7970 Y-2.0908 Z0.2050
G01 X47.4308 Y-2.0960 Z0.2050
G01 X48.0646 Y-2.1016 Z0.2050
G01 X48.6985 Y-2.1077 Z0.2050
G01 X49.3322 Y-2.1143 Z0.2050
G01 X49.8031 Y-2.1195 Z0.2050
G01 X49.9660 Y-2.1213 Z0.2050
G01 X50.5905 Y-2.1286 Z0.2050
G01 X50.5998 Y-2.1287 Z0.2050
G01 X51.2336 Y-2.1366 Z0.2050
G01 X51.3779 Y-2.1385 Z0.2050
G01 X51.8673 Y-2.1450 Z0.2050
G01 X52.1653 Y-2.1491 Z0.2050
G01 X52.5011 Y-2.1538 Z0.2050
G01 X53.1349 Y-2.1631 Z0.2050
G01 X53.7687 Y-2.1728 Z0.2050
G01 X54.4024 Y-2.1830 Z0.2050
G01 X55.0361 Y-2.1936 Z0.2050
G01 X55.6699 Y-2.2047 Z0.2050
G01 X56.3037 Y-2.2162 Z0.2050
G01 X56.3072 Y-2.2162 Z0.2050
G01 X56.9372 Y-2.2281 Z0.2050
G01 X57.5710 Y-2.2406 Z0.2050
G01 X58.2047 Y-2.2535 Z0.2050
G01 X58.8384 Y-2.2668 Z0.2050
G01 X59.4720 Y-2.2807 Z0.2050
G01 X60.1057 Y-2.2949 Z0.2050
G01 X60.7393 Y-2.3096 Z0.2050
G01 X61.3730 Y-2.3248 Z0.2050
G01 X62.0066 Y-2.3404 Z0.2050
G01 X62.6403 Y-2.3565 Z0.2050
G01 X63.2739 Y-2.3730 Z0.2050
G01 X63.9075 Y-2.3900 Z0.2050
G01 X64.5411 Y-2.4074 Z0.2050
G01 X65.1746 Y-2.4253 Z0.2050
G01 X65.8082 Y-2.4437 Z0.2050
G01 X66.4418 Y-2.4624 Z0.2050
G01 X67.0754 Y-2.4817 Z0.2050
G01 X67.7090 Y-2.5014 Z0.2050
G01 X67.7116 Y-2.5014 Z0.2050
G01 X67.7157 Y-2.5015 Z0.2050
G01 X67.7194 Y-2.5015 Z0.2050
G01 X67.7229 Y-2.5014 Z0.2050
G01 X67.7265 Y-2.5013 Z0.2050
G01 X67.7300 Y-2.5010 Z0.2050
G01 X67.7335 Y-2.5007 Z0.2050
G01 X67.7371 Y-2.5002 Z0.2050
G01 X67.7406 Y-2.4997 Z0.2050
G01 X67.7440 Y-2.4990 Z0.2050
G01 X67.7475 Y-2.4983 Z0.2050
G01 X67.7509 Y-2.4974 Z0.2050
G01 X67.7544 Y-2.4964 Z0.2050
G01 X67.7577 Y-2.4954 Z0.2050
G01 X67.7611 Y-2.4942 Z0.2050
G01 X67.7644 Y-2.4930 Z0.2050
G01 X67.7677 Y-2.4916 Z0.2050
G01 X67.7709 Y-2.4902 Z0.2050
G01 X67.7742 Y-2.4887 Z0.2050
G01 X67.7773 Y-2.4871 Z0.2050
G01 X67.7804 Y-2.4853 Z0.2050
G01 X67.7835 Y-2.4836 Z0.2050
G01 X67.7865 Y-2.4817 Z0.2050
G01 X67.7894 Y-2.4797 Z0.2050
G01 X67.7923 Y-2.4777 Z0.2050
G01 X67.7951 Y-2.4755 Z0.2050
G01 X67.7979 Y-2.4733 Z0.2050
G01 X67.8006 Y-2.4710 Z0.2050
G01 X67.8033 Y-2.4687 Z0.2050
G01 X67.8058 Y-2.4662 Z0.2050
G01 X67.8083 Y-2.4637 Z0.2050
G01 X67.8107 Y-2.4611 Z0.2050
G01 X67.8131 Y-2.4585 Z0.2050
G01 X67.8153 Y-2.4557 Z0.2050
G01 X67.8175 Y-2.4529 Z0.2050
G01 X67.8196 Y-2.4501 Z0.2050
G01 X67.8217 Y-2.4472 Z0.2050
G01 X67.8236 Y-2.4442 Z0.2050
G01 X67.8255 Y-2.4412 Z0.2050
G01 X67.8272 Y-2.4381 Z0.2050
G01 X67.8289 Y-2.4350 Z0.2050
G01 X67.8305 Y-2.4318 Z0.2050
G01 X67.8320 Y-2.4286 Z0.2050
G01 X67.8334 Y-2.4254 Z0.2050
G01 X67.8348 Y-2.4221 Z0.2050
G01 X67.8359 Y-2.4187 Z0.2050
G01 X67.8371 Y-2.4154 Z0.2050
G01 X67.8381 Y-2.4120 Z0.2050
G01 X67.8390 Y-2.4086 Z0.2050
G01 X67.8399 Y-2.4051 Z0.2050
G01 X67.8406 Y-2.4016 Z0.2050
G01 X67.8412 Y-2.3982 Z0.2050
G01 X67.8417 Y-2.3947 Z0.2050
G01 X67.8422 Y-2.3911 Z0.2050
G01 X67.8425 Y-2.3876 Z0.2050
G01 X67.8427 Y-2.3841 Z0.2050
G01 X67.8428 Y-2.3805 Z0.2050
G01 X67.8435 Y-2.3504 Z0.2050
G01 X67.8453 Y-2.2826 Z0.2050
G01 X67.8478 Y-2.2191 Z0.2050
G01 X67.8509 Y-2.1601 Z0.2050
G01 X67.8547 Y-2.1038 Z0.2050
G01 X67.8590 Y-2.0535 Z0.2050
G01 X67.8642 Y-2.0068 Z0.2050
G01 X67.8701 Y-1.9635 Z0.2050
G01 X67.8769 Y-1.9242 Z0.2050
G01 X67.8840 Y-1.8903 Z0.2050
G01 X67.8922 Y-1.8585 Z0.2050
G01 X67.9008 Y-1.8311 Z0.2050
G01 X67.9100 Y-1.8070 Z0.2050
G01 X67.9194 Y-1.7866 Z0.2050
G01 X67.9296 Y-1.7681 Z0.2050
G01 X67.9393 Y-1.7537 Z0.2050
G01 X67.9504 Y-1.7399 Z0.2050
G01 X67.9614 Y-1.7286 Z0.2050
G01 X67.9741 Y-1.7176 Z0.2050
G01 X67.9877 Y-1.7078 Z0.2050
G01 X68.0037 Y-1.6983 Z0.2050
G01 X68.0217 Y-1.6892 Z0.2050
G01 X68.0432 Y-1.6802 Z0.2050
G01 X68.0661 Y-1.6722 Z0.2050
G01 X68.0935 Y-1.6641 Z0.2050
G01 X68.1219 Y-1.6569 Z0.2050
G01 X68.1554 Y-1.6497 Z0.2050
G01 X68.1920 Y-1.6429 Z0.2050
G01 X68.2290 Y-1.6368 Z0.2050
G01 X68.2702 Y-1.6307 Z0.2050
G01 X68.3159 Y-1.6245 Z0.2050
G01 X68.3625 Y-1.6186 Z0.2050
G01 X68.4131 Y-1.6124 Z0.2050
G01 X68.4665 Y-1.6060 Z0.2050
G01 X68.5227 Y-1.5992 Z0.2050
G01 X68.5820 Y-1.5918 Z0.2050
G01 X68.5826 Y-1.5918 Z0.2050
G01 X68.6444 Y-1.5838 Z0.2050
G01 X68.6451 Y-1.5837 Z0.2050
G01 X68.7097 Y-1.5750 Z0.2050
G01 X68.7107 Y-1.5749 Z0.2050
G01 X68.7783 Y-1.5653 Z0.2050
G01 X68.7794 Y-1.5651 Z0.2050
G01 X68.8501 Y-1.5544 Z0.2050
G01 X68.8512 Y-1.5542 Z0.2050
G01 X68.9251 Y-1.5423 Z0.2050
G01 X68.9264 Y-1.5421 Z0.2050
G01 X69.0034 Y-1.5288 Z0.2050
G01 X69.0048 Y-1.5286 Z0.2050
G01 X69.0850 Y-1.5138 Z0.2050
G01 X69.0863 Y-1.5136 Z0.2050
G01 X69.1699 Y-1.4972 Z0.2050
G01 X69.1714 Y-1.4969 Z0.2050
G01 X69.2583 Y-1.4788 Z0.2050
G01 X69.2598 Y-1.4785 Z0.2050
G01 X69.3502 Y-1.4584 Z0.2050
G01 X69.3531 Y-1.4577 Z0.2050
G01 X69.3935 Y-1.4478 Z0.2050
G01 X69.3956 Y-1.4472 Z0.2050
G01 X69.4369 Y-1.4362 Z0.2050
G01 X69.4393 Y-1.4356 Z0.2050
G01 X69.4759 Y-1.4251 Z0.2050
G01 X69.4783 Y-1.4243 Z0.2050
G01 X69.5123 Y-1.4138 Z0.2050
G01 X69.5148 Y-1.4130 Z0.2050
G01 X69.5272 Y-1.4088 Z0.2050
G01 X69.5305 Y-1.4077 Z0.2050
G01 X69.5338 Y-1.4064 Z0.2050
G01 X69.5370 Y-1.4051 Z0.2050
G01 X69.5402 Y-1.4037 Z0.2050
G01 X69.5434 Y-1.4022 Z0.2050
G01 X69.5465 Y-1.4005 Z0.2050
G01 X69.5495 Y-1.3988 Z0.2050
G01 X69.5525 Y-1.3970 Z0.2050
G01 X69.5555 Y-1.3952 Z0.2050
G01 X69.5584 Y-1.3932 Z0.2050
G01 X69.5613 Y-1.3912 Z0.2050
G01 X69.5641 Y-1.3891 Z0.2050
G01 X69.5668 Y-1.3869 Z0.2050
G01 X69.5695 Y-1.3846 Z0.2050
G01 X69.5721 Y-1.3823 Z0.2050
G01 X69.5746 Y-1.3798 Z0.2050
G01 X69.5771 Y-1.3774 Z0.2050
G01 X69.5795 Y-1.3748 Z0.2050
G01 X69.5818 Y-1.3722 Z0.2050
G01 X69.5840 Y-1.3695 Z0.2050
G01 X69.5862 Y-1.3667 Z0.2050
G01 X69.5883 Y-1.3639 Z0.2050
G01 X69.5903 Y-1.3611 Z0.2050
G01 X69.5922 Y-1.3581 Z0.2050
G01 X69.5941 Y-1.3551 Z0.2050
G01 X69.5958 Y-1.3521 Z0.2050
G01 X69.5975 Y-1.3490 Z0.2050
G01 X69.5991 Y-1.3459 Z0.2050
G01 X69.6006 Y-1.3427 Z0.2050
G01 X69.6020 Y-1.3395 Z0.2050
G01 X69.6033 Y-1.3362 Z0.2050
G01 X69.6045 Y-1.3330 Z0.2050
G01 X69.6056 Y-1.3296 Z0.2050
G01 X69.6066 Y-1.3263 Z0.2050
G01 X69.6076 Y-1.3229 Z0.2050
G01 X69.6084 Y-1.3195 Z0.2050
G01 X69.6092 Y-1.3161 Z0.2050
G01 X69.6098 Y-1.3127 Z0.2050
G01 X69.6103 Y-1.3092 Z0.2050
G01 X69.6108 Y-1.3057 Z0.2050
G01 X69.6112 Y-1.3022 Z0.2050
G01 X69.6114 Y-1.2987 Z0.2050
G01 X69.6116 Y-1.2952 Z0.2050
G01 X69.6116 Y-1.2917 Z0.2050
G01 X69.6116 Y1.2917 Z0.2050
G01 X69.6116 Y1.2952 Z0.2050
G01 X69.6114 Y1.2987 Z0.2050
G01 X69.6112 Y1.3022 Z0.2050
G01 X69.6108 Y1.3057 Z0.2050
G01 X69.6103 Y1.3092 Z0.2050
G01 X69.6098 Y1.3127 Z0.2050
G01 X69.6092 Y1.3161 Z0.2050
G01 X69.6084 Y1.3195 Z0.2050
G01 X69.6076 Y1.3229 Z0.2050
G01 X69.6066 Y1.3263 Z0.2050
G01 X69.6056 Y1.3296 Z0.2050
G01 X69.6045 Y1.3330 Z0.2050
G01 X69.6033 Y1.3362 Z0.2050
G01 X69.6020 Y1.3395 Z0.2050
G01 X69.6006 Y1.3427 Z0.2050
G01 X69.5991 Y1.3459 Z0.2050
G01 X69.5975 Y1.3490 Z0.2050
G01 X69.5958 Y1.3521 Z0.2050
G01 X69.5941 Y1.3551 Z0.2050
G01 X69.5922 Y1.3581 Z0.2050
G01 X69.5903 Y1.3611 Z0.2050
G01 X69.5883 Y1.3639 Z0.2050
G01 X69.5862 Y1.3667 Z0.2050
G01 X69.5840 Y1.3695 Z0.2050
G01 X69.5818 Y1.3722 Z0.2050
G01 X69.5795 Y1.3748 Z0.2050
G01 X69.5771 Y1.3774 Z0.2050
G01 X69.5746 Y1.3798 Z0.2050
G01 X69.5721 Y1.3823 Z0.2050
G01 X69.5695 Y1.3846 Z0.2050
G01 X69.5668 Y1.3869 Z0.2050
G01 X69.5641 Y1.3891 Z0.2050
G01 X69.5613 Y1.3912 Z0.2050
G01 X69.5584 Y1.3932 Z0.2050
G01 X69.5555 Y1.3952 Z0.2050
G01 X69.5525 Y1.3970 Z0.2050
G01 X69.5495 Y1.3988 Z0.2050
G01 X69.5465 Y1.4005 Z0.2050
G01 X69.5434 Y1.4022 Z0.2050
G01 X69.5402 Y1.4037 Z0.2050
G01 X69.5370 Y1.4051 Z0.2050
G01 X69.5338 Y1.4064 Z0.2050
G01 X69.5305 Y1.4077 Z0.2050
G01 X69.5272 Y1.4088 Z0.2050
G01 X69.5148 Y1.4130 Z0.2050
G01 X69.5123 Y1.4138 Z0.2050
G01 X69.4783 Y1.4243 Z0.2050
G01 X69.4759 Y1.4251 Z0.2050
G01 X69.4393 Y1.4356 Z0.2050
G01 X69.4369 Y1.4362 Z0.2050
G01 X69.3956 Y1.4472 Z0.2050
G01 X69.3935 Y1.4478 Z0.2050
G01 X69.3531 Y1.4577 Z0.2050
G01 X69.3502 Y1.4584 Z0.2050
G01 X69.2598 Y1.4785 Z0.2050
G01 X69.2583 Y1.4788 Z0.2050
G01 X69.1714 Y1.4969 Z0.2050
G01 X69.1699 Y1.4972 Z0.2050
G01 X69.0863 Y1.5136 Z0.2050
G01 X69.0850 Y1.5138 Z0.2050
G01 X69.0048 Y1.5286 Z0.2050
G01 X69.0034 Y1.5288 Z0.2050
G01 X68.9264 Y1.5421 Z0.2050
G01 X68.9251 Y1.5423 Z0.2050
G01 X68.8512 Y1.5542 Z0.2050
G01 X68.8501 Y1.5544 Z0.2050
G01 X68.7794 Y1.5651 Z0.2050
G01 X68.7783 Y1.5653 Z0.2050
G01 X68.7107 Y1.5749 Z0.2050
G01 X68.7097 Y1.5750 Z0.2050
G01 X68.6451 Y1.5837 Z0.2050
G01 X68.6444 Y1.5838 Z0.2050
G01 X68.5826 Y1.5918 Z0.2050
G01 X68.5820 Y1.5918 Z0.2050
G01 X68.5231 Y1.5991 Z0.2050
G01 X68.4666 Y1.6059 Z0.2050
G01 X68.4131 Y1.6124 Z0.2050
G01 X68.3625 Y1.6186 Z0.2050
G01 X68.3159 Y1.6245 Z0.2050
G01 X68.2702 Y1.6307 Z0.2050
G01 X68.2290 Y1.6368 Z0.2050
G01 X68.1920 Y1.6429 Z0.2050
G01 X68.1554 Y1.6497 Z0.2050
G01 X68.1219 Y1.6569 Z0.2050
G01 X68.0935 Y1.6641 Z0.2050
G01 X68.0661 Y1.6722 Z0.2050
G01 X68.0432 Y1.6802 Z0.2050
G01 X68.0217 Y1.6892 Z0.2050
G01 X68.0037 Y1.6983 Z0.2050
G01 X67.9877 Y1.7078 Z0.2050
G01 X67.9741 Y1.7176 Z0.2050
G01 X67.9614 Y1.7286 Z0.2050
G01 X67.9504 Y1.7399 Z0.2050
G01 X67.9393 Y1.7537 Z0.2050
G01 X67.9296 Y1.7681 Z0.2050
G01 X67.9194 Y1.7866 Z0.2050
G01 X67.9100 Y1.8070 Z0.2050
G01 X67.9008 Y1.8311 Z0.2050
G01 X67.8922 Y1.8585 Z0.2050
G01 X67.8840 Y1.8903 Z0.2050
G01 X67.8769 Y1.9242 Z0.2050
G01 X67.8702 Y1.9633 Z0.2050
G01 X67.8642 Y2.0064 Z0.2050
G01 X67.8590 Y2.0535 Z0.2050
G01 X67.8548 Y2.1029 Z0.2050
G01 X67.8509 Y2.1601 Z0.2050
G01 X67.8478 Y2.2191 Z0.2050
G01 X67.8453 Y2.2826 Z0.2050
G01 X67.8435 Y2.3504 Z0.2050
G01 X67.8428 Y2.3805 Z0.2050
G01 X67.8427 Y2.3841 Z0.2050
G01 X67.8425 Y2.3876 Z0.2050
G01 X67.8422 Y2.3911 Z0.2050
G01 X67.8417 Y2.3947 Z0.2050
G01 X67.8412 Y2.3982 Z0.2050
G01 X67.8406 Y2.4016 Z0.2050
G01 X67.8399 Y2.4051 Z0.2050
G01 X67.8390 Y2.4086 Z0.2050
G01 X67.8381 Y2.4120 Z0.2050
G01 X67.8371 Y2.4154 Z0.2050
G01 X67.8359 Y2.4187 Z0.2050
G01 X67.8348 Y2.4221 Z0.2050
G01 X67.8334 Y2.4254 Z0.2050
G01 X67.8320 Y2.4286 Z0.2050
G01 X67.8305 Y2.4318 Z0.2050
G01 X67.8289 Y2.4350 Z0.2050
G01 X67.8272 Y2.4381 Z0.2050
G01 X67.8255 Y2.4412 Z0.2050
G01 X67.8236 Y2.4442 Z0.2050
G01 X67.8217 Y2.4472 Z0.2050
G01 X67.8196 Y2.4501 Z0.2050
G01 X67.8175 Y2.4529 Z0.2050
G01 X67.8153 Y2.4557 Z0.2050
G01 X67.8131 Y2.4585 Z0.2050
G01 X67.8107 Y2.4611 Z0.2050
G01 X67.8083 Y2.4637 Z0.2050
G01 X67.8058 Y2.4662 Z0.2050
G01 X67.8033 Y2.4687 Z0.2050
G01 X67.8006 Y2.4710 Z0.2050
G01 X67.7979 Y2.4733 Z0.2050
G01 X67.7951 Y2.4755 Z0.2050
G01 X67.7923 Y2.4777 Z0.2050
G01 X67.7894 Y2.4797 Z0.2050
G01 X67.7865 Y2.4817 Z0.2050
G01 X67.7835 Y2.4836 Z0.2050
G01 X67.7804 Y2.4853 Z0.2050
G01 X67.7773 Y2.4871 Z0.2050
G01 X67.7742 Y2.4887 Z0.2050
G01 X67.7709 Y2.4902 Z0.2050
G01 X67.7677 Y2.4916 Z0.2050
G01 X67.7644 Y2.4930 Z0.2050
G01 X67.7611 Y2.4942 Z0.2050
G01 X67.7577 Y2.4954 Z0.2050
G01 X67.7544 Y2.4964 Z0.2050
G01 X67.7509 Y2.4974 Z0.2050
G01 X67.7475 Y2.4983 Z0.2050
G01 X67.7440 Y2.4990 Z0.2050
G01 X67.7406 Y2.4997 Z0.2050
G01 X67.7371 Y2.5002 Z0.2050
G01 X67.7335 Y2.5007 Z0.2050
G01 X67.7300 Y2.5010 Z0.2050
G01 X67.7265 Y2.5013 Z0.2050
G01 X67.7229 Y2.5014 Z0.2050
G01 X67.7194 Y2.5015 Z0.2050
G01 X67.7157 Y2.5015 Z0.2050
G01 X67.7116 Y2.5014 Z0.2050
G01 X67.7090 Y2.5014 Z0.2050
G01 X67.0754 Y2.4816 Z0.2050
G01 X66.4418 Y2.4624 Z0.2050
G01 X65.8082 Y2.4437 Z0.2050
G01 X65.1746 Y2.4253 Z0.2050
G01 X64.5411 Y2.4074 Z0.2050
G01 X63.9075 Y2.3900 Z0.2050
G01 X63.2739 Y2.3730 Z0.2050
G01 X62.6403 Y2.3565 Z0.2050
G01 X62.0066 Y2.3404 Z0.2050
G01 X61.3730 Y2.3248 Z0.2050
G01 X60.7393 Y2.3096 Z0.2050
G01 X60.1057 Y2.2949 Z0.2050
G01 X59.4720 Y2.2807 Z0.2050
G01 X58.8384 Y2.2668 Z0.2050
G01 X58.2047 Y2.2535 Z0.2050
G01 X57.5710 Y2.2406 Z0.2050
G01 X56.9372 Y2.2281 Z0.2050
G01 X56.3075 Y2.2162 Z0.2050
G01 X56.3037 Y2.2162 Z0.2050
G01 X55.6699 Y2.2047 Z0.2050
G01 X55.0361 Y2.1936 Z0.2050
G01 X54.4024 Y2.1830 Z0.2050
G01 X53.7687 Y2.1728 Z0.2050
G01 X53.1349 Y2.1631 Z0.2050
G01 X52.5011 Y2.1538 Z0.2050
G01 X52.1653 Y2.1491 Z0.2050
G01 X51.8673 Y2.1450 Z0.2050
G01 X51.3779 Y2.1385 Z0.2050
G01 X51.2336 Y2.1366 Z0.2050
G01 X50.5998 Y2.1287 Z0.2050
G01 X50.5905 Y2.1286 Z0.2050
G01 X49.9660 Y2.1213 Z0.2050
G01 X49.8031 Y2.1195 Z0.2050
G01 X49.3322 Y2.1143 Z0.2050
G01 X48.6985 Y2.1077 Z0.2050
G01 X48.0646 Y2.1016 Z0.2050
G01 X47.4308 Y2.0960 Z0.2050
G01 X46.7970 Y2.0908 Z0.2050
G01 X46.1633 Y2.0861 Z0.2050
G01 X45.5294 Y2.0818 Z0.2050
G01 X44.8956 Y2.0780 Z0.2050
G01 X44.2618 Y2.0746 Z0.2050
G01 X43.6279 Y2.0717 Z0.2050
G01 X42.9941 Y2.0692 Z0.2050
G01 X42.3603 Y2.0672 Z0.2050
G01 X41.7265 Y2.0657 Z0.2050
G01 X41.0927 Y2.0646 Z0.2050
G01 X40.4588 Y2.0639 Z0.2050
G01 X39.8251 Y2.0637 Z0.2050
G01 X39.1914 Y2.0640 Z0.2050
G01 X38.5575 Y2.0647 Z0.2050
G01 X37.9237 Y2.0659 Z0.2050
G01 X37.2899 Y2.0675 Z0.2050
G01 X36.6560 Y2.0696 Z0.2050
G01 X36.0222 Y2.0721 Z0.2050
G01 X35.3884 Y2.0751 Z0.2050
G01 X34.7546 Y2.0785 Z0.2050
G01 X34.1207 Y2.0824 Z0.2050
G01 X33.4870 Y2.0868 Z0.2050
G01 X32.8531 Y2.0916 Z0.2050
G01 X32.2193 Y2.0968 Z0.2050
G01 X31.5856 Y2.1025 Z0.2050
G01 X30.9518 Y2.1087 Z0.2050
G01 X30.3179 Y2.1153 Z0.2050
G01 X29.6842 Y2.1224 Z0.2050
G01 X29.0504 Y2.1299 Z0.2050
G01 X28.4166 Y2.1379 Z0.2050
G01 X27.7828 Y2.1463 Z0.2050
G01 X27.1490 Y2.1551 Z0.2050
G01 X26.5153 Y2.1645 Z0.2050
G01 X25.8816 Y2.1743 Z0.2050
G01 X25.2478 Y2.1845 Z0.2050
G01 X24.6141 Y2.1952 Z0.2050
G01 X23.9802 Y2.2064 Z0.2050
G01 X23.9764 Y2.2064 Z0.2050
G01 X23.3466 Y2.2179 Z0.2050
G01 X22.7129 Y2.2300 Z0.2050
G01 X22.0792 Y2.2425 Z0.2050
G01 X21.4455 Y2.2554 Z0.2050
G01 X20.8119 Y2.2688 Z0.2050
G01 X20.4724 Y2.2762 Z0.2050
G01 X20.1782 Y2.2827 Z0.2050
G01 X19.6850 Y2.2938 Z0.2050
G01 X19.5445 Y2.2970 Z0.2050
G01 X18.9108 Y2.3118 Z0.2050
G01 X18.8976 Y2.3122 Z0.2050
G01 X18.2772 Y2.3271 Z0.2050
G01 X18.1102 Y2.3312 Z0.2050
G01 X17.6436 Y2.3427 Z0.2050
G01 X17.0099 Y2.3589 Z0.2050
G01 X16.3763 Y2.3755 Z0.2050
G01 X15.7428 Y2.3925 Z0.2050
G01 X15.1092 Y2.4100 Z0.2050
G01 X14.4756 Y2.4280 Z0.2050
G01 X13.8420 Y2.4464 Z0.2050
G01 X13.2085 Y2.4653 Z0.2050
G01 X12.5748 Y2.4846 Z0.2050
G01 X11.9412 Y2.5043 Z0.2050
G01 X11.9377 Y2.5044 Z0.2050
G01 X11.3079 Y2.5245 Z0.2050
G01 X10.6744 Y2.5451 Z0.2050
G01 X10.0410 Y2.5663 Z0.2050
G01 X9.4075 Y2.5879 Z0.2050
G01 X8.7740 Y2.6099 Z0.2050
G01 X8.1407 Y2.6324 Z0.2050
G01 X7.5072 Y2.6553 Z0.2050
G01 X6.8738 Y2.6787 Z0.2050
G01 X6.2404 Y2.7026 Z0.2050
G01 X5.6071 Y2.7269 Z0.2050
G01 X4.9737 Y2.7516 Z0.2050
G01 X4.3403 Y2.7769 Z0.2050
G01 X4.3371 Y2.7770 Z0.2050
G01 X4.3314 Y2.7770 Z0.2050
G01 X4.3283 Y2.7770 Z0.2050
G01 X4.3248 Y2.7770 Z0.2050
G01 X4.3213 Y2.7769 Z0.2050
G01 X4.3179 Y2.7767 Z0.2050
G01 X4.3144 Y2.7764 Z0.2050
G01 X4.3109 Y2.7761 Z0.2050
G01 X4.3074 Y2.7755 Z0.2050
G01 X4.3040 Y2.7750 Z0.2050
G01 X4.3005 Y2.7743 Z0.2050
G01 X4.2971 Y2.7735 Z0.2050
G01 X4.2937 Y2.7726 Z0.2050
G01 X4.2903 Y2.7717 Z0.2050
G01 X4.2870 Y2.7706 Z0.2050
G01 X4.2837 Y2.7694 Z0.2050
G01 X4.2804 Y2.7682 Z0.2050
G01 X4.2772 Y2.7668 Z0.2050
G01 X4.2740 Y2.7654 Z0.2050
G01 X4.2709 Y2.7639 Z0.2050
G01 X4.2677 Y2.7623 Z0.2050
G01 X4.2647 Y2.7605 Z0.2050
G01 X4.2617 Y2.7588 Z0.2050
G01 X4.2587 Y2.7569 Z0.2050
G01 X4.2558 Y2.7550 Z0.2050
G01 X4.2530 Y2.7529 Z0.2050
G01 X4.2502 Y2.7508 Z0.2050
G01 X4.2475 Y2.7486 Z0.2050
G01 X4.2448 Y2.7463 Z0.2050
G01 X4.2422 Y2.7440 Z0.2050
G01 X4.2397 Y2.7416 Z0.2050
G01 X4.2372 Y2.7390 Z0.2050
G01 X4.2348 Y2.7365 Z0.2050
G01 X4.2325 Y2.7339 Z0.2050
G01 X4.2303 Y2.7312 Z0.2050
G01 X4.2281 Y2.7284 Z0.2050
G01 X4.2260 Y2.7256 Z0.2050
G01 X4.2240 Y2.7227 Z0.2050
G01 X4.2221 Y2.7198 Z0.2050
G01 X4.2202 Y2.7168 Z0.2050
G01 X4.2185 Y2.7138 Z0.2050
G01 X4.2168 Y2.7107 Z0.2050
G01 X4.2153 Y2.7076 Z0.2050
G01 X4.2138 Y2.7044 Z0.2050
G01 X4.2124 Y2.7012 Z0.2050
G01 X4.2111 Y2.6979 Z0.2050
G01 X4.2098 Y2.6947 Z0.2050
G01 X4.2087 Y2.6914 Z0.2050
G01 X4.2077 Y2.6880 Z0.2050
G01 X4.2068 Y2.6846 Z0.2050
G01 X4.2059 Y2.6812 Z0.2050
G01 X4.2052 Y2.6778 Z0.2050
G01 X4.2046 Y2.6744 Z0.2050
G01 X4.2040 Y2.6709 Z0.2050
G01 X4.2036 Y2.6674 Z0.2050
G01 X4.2032 Y2.6639 Z0.2050
G01 X4.2030 Y2.6605 Z0.2050
G01 X4.2028 Y2.6570 Z0.2050
G01 X4.2019 Y2.6243 Z0.2050
G01 X4.1993 Y2.5557 Z0.2050
G01 X4.1960 Y2.4915 Z0.2050
G01 X4.1921 Y2.4336 Z0.2050
G01 X4.1872 Y2.3755 Z0.2050
G01 X4.1819 Y2.3257 Z0.2050
G01 X4.1755 Y2.2772 Z0.2050
G01 X4.1685 Y2.2345 Z0.2050
G01 X4.1604 Y2.1939 Z0.2050
G01 X4.1518 Y2.1579 Z0.2050
G01 X4.1424 Y2.1255 Z0.2050
G01 X4.1324 Y2.0969 Z0.2050
G01 X4.1217 Y2.0712 Z0.2050
G01 X4.1105 Y2.0488 Z0.2050
G01 X4.0990 Y2.0294 Z0.2050
G01 X4.0869 Y2.0122 Z0.2050
G01 X4.0742 Y1.9971 Z0.2050
G01 X4.0604 Y1.9833 Z0.2050
G01 X4.0457 Y1.9709 Z0.2050
G01 X4.0295 Y1.9593 Z0.2050
G01 X4.0112 Y1.9483 Z0.2050
G01 X3.9905 Y1.9379 Z0.2050
G01 X3.9675 Y1.9280 Z0.2050
G01 X3.9412 Y1.9185 Z0.2050
G01 X3.9124 Y1.9096 Z0.2050
G01 X3.8814 Y1.9014 Z0.2050
G01 X3.8475 Y1.8938 Z0.2050
G01 X3.8092 Y1.8863 Z0.2050
G01 X3.7690 Y1.8794 Z0.2050
G01 X3.7270 Y1.8730 Z0.2050
G01 X3.6794 Y1.8665 Z0.2050
G01 X3.6316 Y1.8604 Z0.2050
G01 X3.5790 Y1.8541 Z0.2050
G01 X3.5246 Y1.8478 Z0.2050
G01 X3.4668 Y1.8412 Z0.2050
G01 X3.4062 Y1.8343 Z0.2050
G01 X3.3428 Y1.8269 Z0.2050
G01 X3.3422 Y1.8268 Z0.2050
G01 X3.2761 Y1.8188 Z0.2050
G01 X3.2754 Y1.8188 Z0.2050
G01 X3.2064 Y1.8100 Z0.2050
G01 X3.2056 Y1.8099 Z0.2050
G01 X3.1337 Y1.8003 Z0.2050
G01 X3.1328 Y1.8002 Z0.2050
G01 X3.0578 Y1.7896 Z0.2050
G01 X3.0566 Y1.7894 Z0.2050
G01 X2.9786 Y1.7777 Z0.2050
G01 X2.9775 Y1.7775 Z0.2050
G01 X2.8963 Y1.7645 Z0.2050
G01 X2.8950 Y1.7643 Z0.2050
G01 X2.8106 Y1.7498 Z0.2050
G01 X2.8094 Y1.7496 Z0.2050
G01 X2.7217 Y1.7337 Z0.2050
G01 X2.7203 Y1.7334 Z0.2050
G01 X2.6294 Y1.7158 Z0.2050
G01 X2.6259 Y1.7151 Z0.2050
G01 X2.5060 Y1.6883 Z0.2050
G01 X2.5033 Y1.6876 Z0.2050
G01 X2.3863 Y1.6586 Z0.2050
G01 X2.3833 Y1.6578 Z0.2050
G01 X2.2721 Y1.6273 Z0.2050
G01 X2.2692 Y1.6264 Z0.2050
G01 X2.1645 Y1.5948 Z0.2050
G01 X2.1614 Y1.5939 Z0.2050
G01 X2.0607 Y1.5606 Z0.2050
G01 X2.0575 Y1.5595 Z0.2050
G01 X1.9623 Y1.5251 Z0.2050
G01 X1.9590 Y1.5239 Z0.2050
G01 X1.8672 Y1.4879 Z0.2050
G01 X1.8640 Y1.4865 Z0.2050
G01 X1.7778 Y1.4498 Z0.2050
G01 X1.7745 Y1.4483 Z0.2050
G01 X1.6924 Y1.4104 Z0.2050
G01 X1.6890 Y1.4088 Z0.2050
G01 X1.6117 Y1.3702 Z0.2050
G01 X1.6082 Y1.3684 Z0.2050
G01 X1.5352 Y1.3290 Z0.2050
G01 X1.5318 Y1.3271 Z0.2050
G01 X1.4625 Y1.2868 Z0.2050
G01 X1.4590 Y1.2846 Z0.2050
G01 X1.3955 Y1.2447 Z0.2050
G01 X1.3920 Y1.2424 Z0.2050
G01 X1.3299 Y1.2004 Z0.2050
G01 X1.3263 Y1.1979 Z0.2050
G01 X1.2710 Y1.1575 Z0.2050
G01 X1.2674 Y1.1549 Z0.2050
G01 X1.2145 Y1.1133 Z0.2050
G01 X1.2110 Y1.1104 Z0.2050
G01 X1.1612 Y1.0683 Z0.2050
G01 X1.1578 Y1.0652 Z0.2050
G01 X1.1122 Y1.0236 Z0.2050
G01 X1.1088 Y1.0203 Z0.2050
G01 X1.0659 Y0.9780 Z0.2050
G01 X1.0626 Y0.9747 Z0.2050
G01 X1.0226 Y0.9321 Z0.2050
G01 X1.0192 Y0.9284 Z0.2050
G01 X0.9833 Y0.8870 Z0.2050
G01 X0.9803 Y0.8833 Z0.2050
G01 X0.9462 Y0.8407 Z0.2050
G01 X0.9431 Y0.8367 Z0.2050
G01 X0.9119 Y0.7944 Z0.2050
G01 X0.9091 Y0.7904 Z0.2050
G01 X0.8801 Y0.7475 Z0.2050
G01 X0.8774 Y0.7433 Z0.2050
G01 X0.8515 Y0.7016 Z0.2050
G01 X0.8489 Y0.6972 Z0.2050
G01 X0.8242 Y0.6534 Z0.2050
G01 X0.8220 Y0.6492 Z0.2050
G01 X0.8001 Y0.6066 Z0.2050
G01 X0.7979 Y0.6020 Z0.2050
G01 X0.7780 Y0.5590 Z0.2050
G01 X0.7759 Y0.5544 Z0.2050
G01 X0.7579 Y0.5109 Z0.2050
G01 X0.7562 Y0.5064 Z0.2050
G01 X0.7397 Y0.4617 Z0.2050
G01 X0.7381 Y0.4572 Z0.2050
G01 X0.7238 Y0.4130 Z0.2050
G01 X0.7223 Y0.4083 Z0.2050
G01 X0.7097 Y0.3635 Z0.2050
G01 X0.7085 Y0.3589 Z0.2050
G01 X0.6975 Y0.3131 Z0.2050
G01 X0.6965 Y0.3085 Z0.2050
G01 X0.6874 Y0.2629 Z0.2050
G01 X0.6865 Y0.2583 Z0.2050
G01 X0.6790 Y0.2119 Z0.2050
G01 X0.6784 Y0.2075 Z0.2050
G01 X0.6725 Y0.1605 Z0.2050
G01 X0.6720 Y0.1560 Z0.2050
G01 X0.6677 Y0.1073 Z0.2050
G01 X0.6674 Y0.1028 Z0.2050
G01 X0.6650 Y0.0554 Z0.2050
G01 X0.6648 Y0.0512 Z0.2050
G01 X0.6640 Y0.0020 Z0.2050
G01 X0.6640 Y-0.0020 Z0.2050
G01 X0.6640 Y-0.0020 Z-0.0100
G01 X0.6648 Y-0.0512 Z-0.0100
G01 X0.6650 Y-0.0554 Z-0.0100
G01 X0.6674 Y-0.1028 Z-0.0100
G01 X0.6677 Y-0.1073 Z-0.0100
G01 X0.6720 Y-0.1560 Z-0.0100
G01 X0.6725 Y-0.1605 Z-0.0100
G01 X0.6784 Y-0.2075 Z-0.0100
G01 X0.6790 Y-0.2119 Z-0.0100
G01 X0.6865 Y-0.2583 Z-0.0100
G01 X0.6874 Y-0.2629 Z-0.0100
G01 X0.6965 Y-0.3085 Z-0.0100
G01 X0.6975 Y-0.3131 Z-0.0100
G01 X0.7085 Y-0.3589 Z-0.0100
G01 X0.7097 Y-0.3635 Z-0.0100
G01 X0.7223 Y-0.4083 Z-0.0100
G01 X0.7238 Y-0.4130 Z-0.0100
G01 X0.7381 Y-0.4572 Z-0.0100
G01 X0.7397 Y-0.4617 Z-0.0100
G01 X0.7562 Y-0.5064 Z-0.0100
G01 X0.7579 Y-0.5109 Z-0.0100
G01 X0.7759 Y-0.5544 Z-0.0100
G01 X0.7780 Y-0.5590 Z-0.0100
G01 X0.7979 Y-0.6020 Z-0.0100
G01 X0.8001 Y-0.6066 Z-0.0100
G01 X0.8220 Y-0.6492 Z-0.0100
G01 X0.8242 Y-0.6534 Z-0.0100
G01 X0.8489 Y-0.6972 Z-0.0100
G01 X0.8515 Y-0.7016 Z-0.0100
G01 X0.8774 Y-0.7433 Z-0.0100
G01 X0.8801 Y-0.7475 Z-0.0100
G01 X0.9091 Y-0.7904 Z-0.0100
G01 X0.9119 Y-0.7944 Z-0.0100
G01 X0.9431 Y-0.8367 Z-0.0100
G01 X0.9462 Y-0.8407 Z-0.0100
G01 X0.9803 Y-0.8833 Z-0.0100
G01 X0.9833 Y-0.8870 Z-0.0100
G01 X1.0192 Y-0.9284 Z-0.0100
G01 X1.0226 Y-0.9321 Z-0.0100
G01 X1.0626 Y-0.9747 Z-0.0100
G01 X1.0659 Y-0.9780 Z-0.0100
G01 X1.1088 Y-1.0203 Z-0.0100
G01 X1.1122 Y-1.0236 Z-0.0100
G01 X1.1578 Y-1.0652 Z-0.0100
G01 X1.1612 Y-1.0683 Z-0.0100
G01 X1.2110 Y-1.1104 Z-0.0100
G01 X1.2145 Y-1.1133 Z-0.0100
G01 X1.2676 Y-1.1550 Z-0.0100
G01 X1.2712 Y-1.1577 Z-0.0100
G01 X1.3263 Y-1.1979 Z-0.0100
G01 X1.3299 Y-1.2004 Z-0.0100
G01 X1.3920 Y-1.2424 Z-0.0100
G01 X1.3955 Y-1.2447 Z-0.0100
G01 X1.4590 Y-1.2846 Z-0.0100
G01 X1.4625 Y-1.2868 Z-0.0100
G01 X1.5318 Y-1.3271 Z-0.0100
G01 X1.5352 Y-1.3290 Z-0.0100
G01 X1.6082 Y-1.3684 Z-0.0100
G01 X1.6117 Y-1.3702 Z-0.0100
G01 X1.6894 Y-1.4090 Z-0.0100
G01 X1.6928 Y-1.4106 Z-0.0100
G01 X1.7745 Y-1.4483 Z-0.0100
G01 X1.7778 Y-1.4498 Z-0.0100
G01 X1.8640 Y-1.4865 Z-0.0100
G01 X1.8672 Y-1.4879 Z-0.0100
G01 X1.9590 Y-1.5239 Z-0.0100
G01 X1.9623 Y-1.5251 Z-0.0100
G01 X2.0575 Y-1.5595 Z-0.0100
G01 X2.0607 Y-1.5606 Z-0.0100
G01 X2.1614 Y-1.5939 Z-0.0100
G01 X2.1645 Y-1.5948 Z-0.0100
G01 X2.2692 Y-1.6264 Z-0.0100
G01 X2.2721 Y-1.6273 Z-0.0100
G01 X2.3833 Y-1.6578 Z-0.0100
G01 X2.3863 Y-1.6586 Z-0.0100
G01 X2.5033 Y-1.6876 Z-0.0100
G01 X2.5060 Y-1.6883 Z-0.0100
G01 X2.6259 Y-1.7151 Z-0.0100
G01 X2.6294 Y-1.7158 Z-0.0100
G01 X2.7203 Y-1.7334 Z-0.0100
G01 X2.7217 Y-1.7337 Z-0.0100
G01 X2.8094 Y-1.7496 Z-0.0100
G01 X2.8106 Y-1.7498 Z-0.0100
G01 X2.8950 Y-1.7643 Z-0.0100
G01 X2.8963 Y-1.7645 Z-0.0100
G01 X2.9775 Y-1.7775 Z-0.0100
G01 X2.9786 Y-1.7777 Z-0.0100
G01 X3.0566 Y-1.7894 Z-0.0100
G01 X3.0578 Y-1.7896 Z-0.0100
G01 X3.1328 Y-1.8002 Z-0.0100
G01 X3.1337 Y-1.8003 Z-0.0100
G01 X3.2056 Y-1.8099 Z-0.0100
G01 X3.2064 Y-1.8100 Z-0.0100
G01 X3.2754 Y-1.8188 Z-0.0100
G01 X3.2761 Y-1.8188 Z-0.0100
G01 X3.3422 Y-1.8268 Z-0.0100
G01 X3.3428 Y-1.8269 Z-0.0100
G01 X3.4061 Y-1.8343 Z-0.0100
G01 X3.4667 Y-1.8412 Z-0.0100
G01 X3.5246 Y-1.8478 Z-0.0100
G01 X3.5790 Y-1.8541 Z-0.0100
G01 X3.6316 Y-1.8604 Z-0.0100
G01 X3.6794 Y-1.8665 Z-0.0100
G01 X3.7270 Y-1.8730 Z-0.0100
G01 X3.7690 Y-1.8794 Z-0.0100
G01 X3.8092 Y-1.8863 Z-0.0100
G01 X3.8475 Y-1.8938 Z-0.0100
G01 X3.8814 Y-1.9014 Z-0.0100
G01 X3.9124 Y-1.9096 Z-0.0100
G01 X3.9412 Y-1.9185 Z-0.0100
G01 X3.9675 Y-1.9280 Z-0.0100
G01 X3.9905 Y-1.9379 Z-0.0100
G01 X4.0112 Y-1.9483 Z-0.0100
G01 X4.0295 Y-1.9593 Z-0.0100
G01 X4.0457 Y-1.9709 Z-0.0100
G01 X4.0604 Y-1.9833 Z-0.0100
G01 X4.0742 Y-1.9971 Z-0.0100
G01 X4.0869 Y-2.0122 Z-0.0100
G01 X4.0990 Y-2.0294 Z-0.0100
G01 X4.1105 Y-2.0488 Z-0.0100
G01 X4.1217 Y-2.0712 Z-0.0100
G01 X4.1325 Y-2.0971 Z-0.0100
G01 X4.1424 Y-2.1255 Z-0.0100
G01 X4.1518 Y-2.1581 Z-0.0100
G01 X4.1606 Y-2.1948 Z-0.0100
G01 X4.1685 Y-2.2345 Z-0.0100
G01 X4.1755 Y-2.2778 Z-0.0100
G01 X4.1819 Y-2.3257 Z-0.0100
G01 X4.1872 Y-2.3761 Z-0.0100
G01 X4.1921 Y-2.4336 Z-0.0100
G01 X4.1961 Y-2.4930 Z-0.0100
G01 X4.1994 Y-2.5573 Z-0.0100
G01 X4.2020 Y-2.6256 Z-0.0100
G01 X4.2028 Y-2.6570 Z-0.0100
G01 X4.2030 Y-2.6605 Z-0.0100
G01 X4.2032 Y-2.6639 Z-0.0100
G01 X4.2036 Y-2.6674 Z-0.0100
G01 X4.2040 Y-2.6709 Z-0.0100
G01 X4.2046 Y-2.6744 Z-0.0100
G01 X4.2052 Y-2.6778 Z-0.0100
G01 X4.2059 Y-2.6812 Z-0.0100
G01 X4.2068 Y-2.6846 Z-0.0100
G01 X4.2077 Y-2.6880 Z-0.0100
G01 X4.2087 Y-2.6914 Z-0.0100
G01 X4.2098 Y-2.6947 Z-0.0100
G01 X4.2111 Y-2.6979 Z-0.0100
G01 X4.2124 Y-2.7012 Z-0.0100
G01 X4.2138 Y-2.7044 Z-0.0100
G01 X4.2153 Y-2.7076 Z-0.0100
G01 X4.2168 Y-2.7107 Z-0.0100
G01 X4.2185 Y-2.7138 Z-0.0100
G01 X4.2202 Y-2.7168 Z-0.0100
G01 X4.2221 Y-2.7198 Z-0.0100
G01 X4.2240 Y-2.7227 Z-0.0100
G01 X4.2260 Y-2.7256 Z-0.0100
G01 X4.2281 Y-2.7284 Z-0.0100
G01 X4.2303 Y-2.7312 Z-0.0100
G01 X4.2325 Y-2.7339 Z-0.0100
G01 X4.2348 Y-2.7365 Z-0.0100
G01 X4.2372 Y-2.7390 Z-0.0100
G01 X4.2397 Y-2.7416 Z-0.0100
G01 X4.2422 Y-2.7440 Z-0.0100
G01 X4.2448 Y-2.7463 Z-0.0100
G01 X4.2475 Y-2.7486 Z-0.0100
G01 X4.2502 Y-2.7508 Z-0.0100
G01 X4.2530 Y-2.7529 Z-0.0100
G01 X4.2558 Y-2.7550 Z-0.0100
G01 X4.2587 Y-2.7569 Z-0.0100
G01 X4.2617 Y-2.7588 Z-0.0100
G01 X4.2647 Y-2.7605 Z-0.0100
G01 X4.2677 Y-2.7623 Z-0.0100
G01 X4.2709 Y-2.7639 Z-0.0100
G01 X4.2740 Y-2.7654 Z-0.0100
G01 X4.2772 Y-2.7668 Z-0.0100
G01 X4.2804 Y-2.7682 Z-0.0100
G01 X4.2837 Y-2.7694 Z-0.0100
G01 X4.2870 Y-2.7706 Z-0.0100
G01 X4.2903 Y-2.7717 Z-0.0100
G01 X4.2937 Y-2.7726 Z-0.0100
G01 X4.2971 Y-2.7735 Z-0.0100
G01 X4.3005 Y-2.7743 Z-0.0100
G01 X4.3040 Y-2.7750 Z-0.0100
G01 X4.3074 Y-2.7755 Z-0.0100
G01 X4.3109 Y-2.7761 Z-0.0100
G01 X4.3144 Y-2.7764 Z-0.0100
G01 X4.3179 Y-2.7767 Z-0.0100
G01 X4.3213 Y-2.7769 Z-0.0100
G01 X4.3248 Y-2.7770 Z-0.0100
G01 X4.3283 Y-2.7770 Z-0.0100
G01 X4.3314 Y-2.7770 Z-0.0100
G01 X4.3371 Y-2.7770 Z-0.0100
G01 X4.3403 Y-2.7769 Z-0.0100
G01 X4.9737 Y-2.7516 Z-0.0100
G01 X5.6071 Y-2.7269 Z-0.0100
G01 X6.2404 Y-2.7026 Z-0.0100
G01 X6.8738 Y-2.6787 Z-0.0100
G01 X7.5072 Y-2.6553 Z-0.0100
G01 X8.1407 Y-2.6324 Z-0.0100
G01 X8.7740 Y-2.6099 Z-0.0100
G01 X9.4075 Y-2.5879 Z-0.0100
G01 X10.0410 Y-2.5663 Z-0.0100
G01 X10.6744 Y-2.5451 Z-0.0100
G01 X11.3079 Y-2.5245 Z-0.0100
G01 X11.9377 Y-2.5044 Z-0.0100
G01 X11.9412 Y-2.5043 Z-0.0100
G01 X12.5748 Y-2.4845 Z-0.0100
G01 X13.2085 Y-2.4653 Z-0.0100
G01 X13.8420 Y-2.4464 Z-0.0100
G01 X14.4756 Y-2.4280 Z-0.0100
G01 X15.1092 Y-2.4100 Z-0.0100
G01 X15.7428 Y-2.3925 Z-0.0100
G01 X16.3763 Y-2.3755 Z-0.0100
G01 X17.0099 Y-2.3589 Z-0.0100
G01 X17.6436 Y-2.3427 Z-0.0100
G01 X18.1102 Y-2.3312 Z-0.0099
G01 X18.2772 Y-2.3271 Z0.0090
G01 X18.8976 Y-2.3122 Z0.0800
G01 X18.9108 Y-2.3118 Z0.0800
G01 X19.5445 Y-2.2970 Z0.0800
G01 X19.6850 Y-2.2938 Z0.0799
G01 X20.1782 Y-2.2827 Z0.0236
G01 X20.4724 Y-2.2762 Z-0.0100
G01 X20.8119 Y-2.2688 Z-0.0100
G01 X21.4455 Y-2.2554 Z-0.0100
G01 X22.0792 Y-2.2425 Z-0.0100
G01 X22.7129 Y-2.2300 Z-0.0100
G01 X23.3466 Y-2.2179 Z-0.0100
G01 X23.9764 Y-2.2064 Z-0.0100
G01 X23.9802 Y-2.2064 Z-0.0100
G01 X24.6141 Y-2.1952 Z-0.0100
G01 X25.2478 Y-2.1845 Z-0.0100
G01 X25.8816 Y-2.1743 Z-0.0100
G01 X26.5153 Y-2.1645 Z-0.0100
G01 X27.1490 Y-2.1551 Z-0.0100
G01 X27.7828 Y-2.1463 Z-0.0100
G01 X28.4166 Y-2.1379 Z-0.0100
G01 X29.0504 Y-2.1299 Z-0.0100
G01 X29.6842 Y-2.1224 Z-0.0100
G01 X30.3179 Y-2.1153 Z-0.0100
G01 X30.9518 Y-2.1087 Z-0.0100
G01 X31.5856 Y-2.1025 Z-0.0100
G01 X32.2193 Y-2.0968 Z-0.0100
G01 X32.8531 Y-2.0916 Z-0.0100
G01 X33.4870 Y-2.0868 Z-0.0100
G01 X34.1207 Y-2.0824 Z-0.0100
G01 X34.7546 Y-2.0785 Z-0.0100
G01 X35.3884 Y-2.0751 Z-0.0100
G01 X36.0222 Y-2.0721 Z-0.0100
G01 X36.6560 Y-2.0696 Z-0.0100
G01 X37.2899 Y-2.0675 Z-0.0100
G01 X37.9237 Y-2.0659 Z-0.0100
G01 X38.5575 Y-2.0647 Z-0.0100
G01 X39.1914 Y-2.0640 Z-0.0100
G01 X39.8251 Y-2.0637 Z-0.0100
G01 X40.4588 Y-2.0639 Z-0.0100
G01 X41.0927 Y-2.0646 Z-0.0100
G01 X41.7265 Y-2.0657 Z-0.0100
G01 X42.3603 Y-2.0672 Z-0.0100
G01 X42.9941 Y-2.0692 Z-0.0100
G01 X43.6279 Y-2.0717 Z-0.0100
G01 X44.2618 Y-2.0746 Z-0.0100
G01 X44.8956 Y-2.0780 Z-0.0100
G01 X45.5294 Y-2.0818 Z-0.0100
G01 X46.1633 Y-2.0861 Z-0.0100
G01 X46.7970 Y-2.0908 Z-0.0100
G01 X47.4308 Y-2.0960 Z-0.0100
G01 X48.0646 Y-2.1016 Z-0.0100
G01 X48.6985 Y-2.1077 Z-0.0100
G01 X49.3322 Y-2.1143 Z-0.0100
G01 X49.8031 Y-2.1195 Z-0.0099
G01 X49.9660 Y-2.1213 Z0.0085
G01 X50.5905 Y-2.1286 Z0.0800
G01 X50.5998 Y-2.1287 Z0.0800
G01 X51.2336 Y-2.1366 Z0.0800
G01 X51.3779 Y-2.1385 Z0.0799
G01 X51.8673 Y-2.1450 Z0.0240
G01 X52.1653 Y-2.1491 Z-0.0100
G01 X52.5011 Y-2.1538 Z-0.0100
G01 X53.1349 Y-2.1631 Z-0.0100
G01 X53.7687 Y-2.1728 Z-0.0100
G01 X54.4024 Y-2.1830 Z-0.0100
G01 X55.0361 Y-2.1936 Z-0.0100
G01 X55.6699 Y-2.2047 Z-0.0100
G01 X56.3037 Y-2.2162 Z-0.0100
G01 X56.3072 Y-2.2162 Z-0.0100
G01 X56.9372 Y-2.2281 Z-0.0100
G01 X57.5710 Y-2.2406 Z-0.0100
G01 X58.2047 Y-2.2535 Z-0.0100
G01 X58.8384 Y-2.2668 Z-0.0100
G01 X59.4720 Y-2.2807 Z-0.0100
G01 X60.1057 Y-2.2949 Z-0.0100
G01 X60.7393 Y-2.3096 Z-0.0100
G01 X61.3730 Y-2.3248 Z-0.0100
G01 X62.0066 Y-2.3404 Z-0.0100
G01 X62.6403 Y-2.3565 Z-0.0100
G01 X63.2739 Y-2.3730 Z-0.0100
G01 X63.9075 Y-2.3900 Z-0.0100
G01 X64.5411 Y-2.4074 Z-0.0100
G01 X65.1746 Y-2.4253 Z-0.0100
G01 X65.8082 Y-2.4437 Z-0.0100
G01 X66.4418 Y-2.4624 Z-0.0100
G01 X67.0754 Y-2.4817 Z-0.0100
G01 X67.7090 Y-2.5014 Z-0.0100
G01 X67.7116 Y-2.5014 Z-0.0100
G01 X67.7157 Y-2.5015 Z-0.0100
G01 X67.7194 Y-2.5015 Z-0.0100
G01 X67.7229 Y-2.5014 Z-0.0100
G01 X67.7265 Y-2.5013 Z-0.0100
G01 X67.7300 Y-2.5010 Z-0.0100
G01 X67.7335 Y-2.5007 Z-0.0100
G01 X67.7371 Y-2.5002 Z-0.0100
G01 X67.7406 Y-2.4997 Z-0.0100
G01 X67.7440 Y-2.4990 Z-0.0100
G01 X67.7475 Y-2.4983 Z-0.0100
G01 X67.7509 Y-2.4974 Z-0.0100
G01 X67.7544 Y-2.4964 Z-0.0100
G01 X67.7577 Y-2.4954 Z-0.0100
G01 X67.7611 Y-2.4942 Z-0.0100
G01 X67.7644 Y-2.4930 Z-0.0100
G01 X67.7677 Y-2.4916 Z-0.0100
G01 X67.7709 Y-2.4902 Z-0.0100
G01 X67.7742 Y-2.4887 Z-0.0100
G01 X67.7773 Y-2.4871 Z-0.0100
G01 X67.7804 Y-2.4853 Z-0.0100
G01 X67.7835 Y-2.4836 Z-0.0100
G01 X67.7865 Y-2.4817 Z-0.0100
G01 X67.7894 Y-2.4797 Z-0.0100
G01 X67.7923 Y-2.4777 Z-0.0100
G01 X67.7951 Y-2.4755 Z-0.0100
G01 X67.7979 Y-2.4733 Z-0.0100
G01 X67.8006 Y-2.4710 Z-0.0100
G01 X67.8033 Y-2.4687 Z-0.0100
G01 X67.8058 Y-2.4662 Z-0.0100
G01 X67.8083 Y-2.4637 Z-0.0100
G01 X67.8107 Y-2.4611 Z-0.0100
G01 X67.8131 Y-2.4585 Z-0.0100
G01 X67.8153 Y-2.4557 Z-0.0100
G01 X67.8175 Y-2.4529 Z-0.0100
G01 X67.8196 Y-2.4501 Z-0.0100
G01 X67.8217 Y-2.4472 Z-0.0100
G01 X67.8236 Y-2.4442 Z-0.0100
G01 X67.8255 Y-2.4412 Z-0.0100
G01 X67.8272 Y-2.4381 Z-0.0100
G01 X67.8289 Y-2.4350 Z-0.0100
G01 X67.8305 Y-2.4318 Z-0.0100
G01 X67.8320 Y-2.4286 Z-0.0100
G01 X67.8334 Y-2.4254 Z-0.0100
G01 X67.8348 Y-2.4221 Z-0.0100
G01 X67.8359 Y-2.4187 Z-0.0100
G01 X67.8371 Y-2.4154 Z-0.0100
G01 X67.8381 Y-2.4120 Z-0.0100
G01 X67.8390 Y-2.4086 Z-0.0100
G01 X67.8399 Y-2.4051 Z-0.0100
G01 X67.8406 Y-2.4016 Z-0.0100
G01 X67.8412 Y-2.3982 Z-0.0100
G01 X67.8417 Y-2.3947 Z-0.0100
G01 X67.8422 Y-2.3911 Z-0.0100
G01 X67.8425 Y-2.3876 Z-0.0100
G01 X67.8427 Y-2.3841 Z-0.0100
G01 X67.8428 Y-2.3805 Z-0.0100
G01 X67.8435 Y-2.3504 Z-0.0100
G01 X67.8453 Y-2.2826 Z-0.0100
G01 X67.8478 Y-2.2191 Z-0.0100
G01 X67.8509 Y-2.1601 Z-0.0100
G01 X67.8547 Y-2.1038 Z-0.0100
G01 X67.8590 Y-2.0535 Z-0.0100
G01 X67.8642 Y-2.0068 Z-0.0100
G01 X67.8701 Y-1.9635 Z-0.0100
G01 X67.8769 Y-1.9242 Z-0.0100
G01 X67.8840 Y-1.8903 Z-0.0100
G01 X67.8922 Y-1.8585 Z-0.0100
G01 X67.9008 Y-1.8311 Z-0.0100
G01 X67.9100 Y-1.8070 Z-0.0100
G01 X67.9194 Y-1.7866 Z-0.0100
G01 X67.9296 Y-1.7681 Z-0.0100
G01 X67.9393 Y-1.7537 Z-0.0100
G01 X67.9504 Y-1.7399 Z-0.0100
G01 X67.9614 Y-1.7286 Z-0.0100
G01 X67.9741 Y-1.7176 Z-0.0100
G01 X67.9877 Y-1.7078 Z-0.0100
G01 X68.0037 Y-1.6983 Z-0.0100
G01 X68.0217 Y-1.6892 Z-0.0100
G01 X68.0432 Y-1.6802 Z-0.0100
G01 X68.0661 Y-1.6722 Z-0.0100
G01 X68.0935 Y-1.6641 Z-0.0100
G01 X68.1219 Y-1.6569 Z-0.0100
G01 X68.1554 Y-1.6497 Z-0.0100
G01 X68.1920 Y-1.6429 Z-0.0100
G01 X68.2290 Y-1.6368 Z-0.0100
G01 X68.2702 Y-1.6307 Z-0.0100
G01 X68.3159 Y-1.6245 Z-0.0100
G01 X68.3625 Y-1.6186 Z-0.0100
G01 X68.4131 Y-1.6124 Z-0.0100
G01 X68.4665 Y-1.6060 Z-0.0100
G01 X68.5227 Y-1.5992 Z-0.0100
G01 X68.5820 Y-1.5918 Z-0.0100
G01 X68.5826 Y-1.5918 Z-0.0100
G01 X68.6444 Y-1.5838 Z-0.0100
G01 X68.6451 Y-1.5837 Z-0.0100
G01 X68.7097 Y-1.5750 Z-0.0100
G01 X68.7107 Y-1.5749 Z-0.0100
G01 X68.7783 Y-1.5653 Z-0.0100
G01 X68.7794 Y-1.5651 Z-0.0100
G01 X68.8501 Y-1.5544 Z-0.0100
G01 X68.8512 Y-1.5542 Z-0.0100
G01 X68.9251 Y-1.5423 Z-0.0100
G01 X68.9264 Y-1.5421 Z-0.0100
G01 X69.0034 Y-1.5288 Z-0.0100
G01 X69.0048 Y-1.5286 Z-0.0100
G01 X69.0850 Y-1.5138 Z-0.0100
G01 X69.0863 Y-1.5136 Z-0.0100
G01 X69.1699 Y-1.4972 Z-0.0100
G01 X69.1714 Y-1.4969 Z-0.0100
G01 X69.2583 Y-1.4788 Z-0.0100
G01 X69.2598 Y-1.4785 Z-0.0100
G01 X69.3502 Y-1.4584 Z-0.0100
G01 X69.3531 Y-1.4577 Z-0.0100
G01 X69.3935 Y-1.4478 Z-0.0100
G01 X69.3956 Y-1.4472 Z-0.0100
G01 X69.4369 Y-1.4362 Z-0.0100
G01 X69.4393 Y-1.4356 Z-0.0100
G01 X69.4759 Y-1.4251 Z-0.0100
G01 X69.4783 Y-1.4243 Z-0.0100
G01 X69.5123 Y-1.4138 Z-0.0100
G01 X69.5148 Y-1.4130 Z-0.0100
G01 X69.5272 Y-1.4088 Z-0.0100
G01 X69.5305 Y-1.4077 Z-0.0100
G01 X69.5338 Y-1.4064 Z-0.0100
G01 X69.5370 Y-1.4051 Z-0.0100
G01 X69.5402 Y-1.4037 Z-0.0100
G01 X69.5434 Y-1.4022 Z-0.0100
G01 X69.5465 Y-1.4005 Z-0.0100
G01 X69.5495 Y-1.3988 Z-0.0100
G01 X69.5525 Y-1.3970 Z-0.0100
G01 X69.5555 Y-1.3952 Z-0.0100
G01 X69.5584 Y-1.3932 Z-0.0100
G01 X69.5613 Y-1.3912 Z-0.0100
G01 X69.5641 Y-1.3891 Z-0.0100
G01 X69.5668 Y-1.3869 Z-0.0100
G01 X69.5695 Y-1.3846 Z-0.0100
G01 X69.5721 Y-1.3823 Z-0.0100
G01 X69.5746 Y-1.3798 Z-0.0100
G01 X69.5771 Y-1.3774 Z-0.0100
G01 X69.5795 Y-1.3748 Z-0.0100
G01 X69.5818 Y-1.3722 Z-0.0100
G01 X69.5840 Y-1.3695 Z-0.0100
G01 X69.5862 Y-1.3667 Z-0.0100
G01 X69.5883 Y-1.3639 Z-0.0100
G01 X69.5903 Y-1.3611 Z-0.0100
G01 X69.5922 Y-1.3581 Z-0.0100
G01 X69.5941 Y-1.3551 Z-0.0100
G01 X69.5958 Y-1.3521 Z-0.0100
G01 X69.5975 Y-1.3490 Z-0.0100
G01 X69.5991 Y-1.3459 Z-0.0100
G01 X69.6006 Y-1.3427 Z-0.0100
G01 X69.6020 Y-1.3395 Z-0.0100
G01 X69.6033 Y-1.3362 Z-0.0100
G01 X69.6045 Y-1.3330 Z-0.0100
G01 X69.6056 Y-1.3296 Z-0.0100
G01 X69.6066 Y-1.3263 Z-0.0100
G01 X69.6076 Y-1.3229 Z-0.0100
G01 X69.6084 Y-1.3195 Z-0.0100
G01 X69.6092 Y-1.3161 Z-0.0100
G01 X69.6098 Y-1.3127 Z-0.0100
G01 X69.6103 Y-1.3092 Z-0.0100
G01 X69.6108 Y-1.3057 Z-0.0100
G01 X69.6112 Y-1.3022 Z-0.0100
G01 X69.6114 Y-1.2987 Z-0.0100
G01 X69.6116 Y-1.2952 Z-0.0100
G01 X69.6116 Y-1.2917 Z-0.0100
G01 X69.6116 Y1.2917 Z-0.0100
G01 X69.6116 Y1.2952 Z-0.0100
G01 X69.6114 Y1.2987 Z-0.0100
G01 X69.6112 Y1.3022 Z-0.0100
G01 X69.6108 Y1.3057 Z-0.0100
G01 X69.6103 Y1.3092 Z-0.0100
G01 X69.6098 Y1.3127 Z-0.0100
G01 X69.6092 Y1.3161 Z-0.0100
G01 X69.6084 Y1.3195 Z-0.0100
G01 X69.6076 Y1.3229 Z-0.0100
G01 X69.6066 Y1.3263 Z-0.0100
G01 X69.6056 Y1.3296 Z-0.0100
G01 X69.6045 Y1.3330 Z-0.0100
G01 X69.6033 Y1.3362 Z-0.0100
G01 X69.6020 Y1.3395 Z-0.0100
G01 X69.6006 Y1.3427 Z-0.0100
G01 X69.5991 Y1.3459 Z-0.0100
G01 X69.5975 Y1.3490 Z-0.0100
G01 X69.5958 Y1.3521 Z-0.0100
G01 X69.5941 Y1.3551 Z-0.0100
G01 X69.5922 Y1.3581 Z-0.0100
G01 X69.5903 Y1.3611 Z-0.0100
G01 X69.5883 Y1.3639 Z-0.0100
G01 X69.5862 Y1.3667 Z-0.0100
G01 X69.5840 Y1.3695 Z-0.0100
G01 X69.5818 Y1.3722 Z-0.0100
G01 X69.5795 Y1.3748 Z-0.0100
G01 X69.5771 Y1.3774 Z-0.0100
G01 X69.5746 Y1.3798 Z-0.0100
G01 X69.5721 Y1.3823 Z-0.0100
G01 X69.5695 Y1.3846 Z-0.0100
G01 X69.5668 Y1.3869 Z-0.0100
G01 X69.5641 Y1.3891 Z-0.0100
G01 X69.5613 Y1.3912 Z-0.0100
G01 X69.5584 Y1.3932 Z-0.0100
G01 X69.5555 Y1.3952 Z-0.0100
G01 X69.5525 Y1.3970 Z-0.0100
G01 X69.5495 Y1.3988 Z-0.0100
G01 X69.5465 Y1.4005 Z-0.0100
G01 X69.5434 Y1.4022 Z-0.0100
G01 X69.5402 Y1.4037 Z-0.0100
G01 X69.5370 Y1.4051 Z-0.0100
G01 X69.5338 Y1.4064 Z-0.0100
G01 X69.5305 Y1.4077 Z-0.0100
G01 X69.5272 Y1.4088 Z-0.0100
G01 X69.5148 Y1.4130 Z-0.0100
G01 X69.5123 Y1.4138 Z-0.0100
G01 X69.4783 Y1.4243 Z-0.0100
G01 X69.4759 Y1.4251 Z-0.0100
G01 X69.4393 Y1.4356 Z-0.0100
G01 X69.4369 Y1.4362 Z-0.0100
G01 X69.3956 Y1.4472 Z-0.0100
G01 X69.3935 Y1.4478 Z-0.0100
G01 X69.3531 Y1.4577 Z-0.0100
G01 X69.3502 Y1.4584 Z-0.0100
G01 X69.2598 Y1.4785 Z-0.0100
G01 X69.2583 Y1.4788 Z-0.0100
G01 X69.1714 Y1.4969 Z-0.0100
G01 X69.1699 Y1.4972 Z-0.0100
G01 X69.0863 Y1.5136 Z-0.0100
G01 X69.0850 Y1.5138 Z-0.0100
G01 X69.0048 Y1.5286 Z-0.0100
G01 X69.0034 Y1.5288 Z-0.0100
G01 X68.9264 Y1.5421 Z-0.0100
G01 X68.9251 Y1.5423 Z-0.0100
G01 X68.8512 Y1.5542 Z-0.0100
G01 X68.8501 Y1.5544 Z-0.0100
G01 X68.7794 Y1.5651 Z-0.0100
G01 X68.7783 Y1.5653 Z-0.0100
G01 X68.7107 Y1.5749 Z-0.0100
G01 X68.7097 Y1.5750 Z-0.0100
G01 X68.6451 Y1.5837 Z-0.0100
G01 X68.6444 Y1.5838 Z-0.0100
G01 X68.5826 Y1.5918 Z-0.0100
G01 X68.5820 Y1.5918 Z-0.0100
G01 X68.5231 Y1.5991 Z-0.0100
G01 X68.4666 Y1.6059 Z-0.0100
G01 X68.4131 Y1.6124 Z-0.0100
G01 X68.3625 Y1.6186 Z-0.0100
G01 X68.3159 Y1.6245 Z-0.0100
G01 X68.2702 Y1.6307 Z-0.0100
G01 X68.2290 Y1.6368 Z-0.0100
G01 X68.1920 Y1.6429 Z-0.0100
G01 X68.1554 Y1.6497 Z-0.0100
G01 X68.1219 Y1.6569 Z-0.0100
G01 X68.0935 Y1.6641 Z-0.0100
G01 X68.0661 Y1.6722 Z-0.0100
G01 X68.0432 Y1.6802 Z-0.0100
G01 X68.0217 Y1.6892 Z-0.0100
G01 X68.0037 Y1.6983 Z-0.0100
G01 X67.9877 Y1.7078 Z-0.0100
G01 X67.9741 Y1.7176 Z-0.0100
G01 X67.9614 Y1.7286 Z-0.0100
G01 X67.9504 Y1.7399 Z-0.0100
G01 X67.9393 Y1.7537 Z-0.0100
G01 X67.9296 Y1.7681 Z-0.0100
G01 X67.9194 Y1.7866 Z-0.0100
G01 X67.9100 Y1.8070 Z-0.0100
G01 X67.9008 Y1.8311 Z-0.0100
G01 X67.8922 Y1.8585 Z-0.0100
G01 X67.8840 Y1.8903 Z-0.0100
G01 X67.8769 Y1.9242 Z-0.0100
G01 X67.8702 Y1.9633 Z-0.0100
G01 X67.8642 Y2.0064 Z-0.0100
G01 X67.8590 Y2.0535 Z-0.0100
G01 X67.8548 Y2.1029 Z-0.0100
G01 X67.8509 Y2.1601 Z-0.0100
G01 X67.8478 Y2.2191 Z-0.0100
G01 X67.8453 Y2.2826 Z-0.0100
G01 X67.8435 Y2.3504 Z-0.0100
G01 X67.8428 Y2.3805 Z-0.0100
G01 X67.8427 Y2.3841 Z-0.0100
G01 X67.8425 Y2.3876 Z-0.0100
G01 X67.8422 Y2.3911 Z-0.0100
G01 X67.8417 Y2.3947 Z-0.0100
G01 X67.8412 Y2.3982 Z-0.0100
G01 X67.8406 Y2.4016 Z-0.0100
G01 X67.8399 Y2.4051 Z-0.0100
G01 X67.8390 Y2.4086 Z-0.0100
G01 X67.8381 Y2.4120 Z-0.0100
G01 X67.8371 Y2.4154 Z-0.0100
G01 X67.8359 Y2.4187 Z-0.0100
G01 X67.8348 Y2.4221 Z-0.0100
G01 X67.8334 Y2.4254 Z-0.0100
G01 X67.8320 Y2.4286 Z-0.0100
G01 X67.8305 Y2.4318 Z-0.0100
G01 X67.8289 Y2.4350 Z-0.0100
G01 X67.8272 Y2.4381 Z-0.0100
G01 X67.8255 Y2.4412 Z-0.0100
G01 X67.8236 Y2.4442 Z-0.0100
G01 X67.8217 Y2.4472 Z-0.0100
G01 X67.8196 Y2.4501 Z-0.0100
G01 X67.8175 Y2.4529 Z-0.0100
G01 X67.8153 Y2.4557 Z-0.0100
G01 X67.8131 Y2.4585 Z-0.0100
G01 X67.8107 Y2.4611 Z-0.0100
G01 X67.8083 Y2.4637 Z-0.0100
G01 X67.8058 Y2.4662 Z-0.0100
G01 X67.8033 Y2.4687 Z-0.0100
G01 X67.8006 Y2.4710 Z-0.0100
G01 X67.7979 Y2.4733 Z-0.0100
G01 X67.7951 Y2.4755 Z-0.0100
G01 X67.7923 Y2.4777 Z-0.0100
G01 X67.7894 Y2.4797 Z-0.0100
G01 X67.7865 Y2.4817 Z-0.0100
G01 X67.7835 Y2.4836 Z-0.0100
G01 X67.7804 Y2.4853 Z-0.0100
G01 X67.7773 Y2.4871 Z-0.0100
G01 X67.7742 Y2.4887 Z-0.0100
G01 X67.7709 Y2.4902 Z-0.0100
G01 X67.7677 Y2.4916 Z-0.0100
G01 X67.7644 Y2.4930 Z-0.0100
G01 X67.7611 Y2.4942 Z-0.0100
G01 X67.7577 Y2.4954 Z-0.0100
G01 X67.7544 Y2.4964 Z-0.0100
G01 X67.7509 Y2.4974 Z-0.0100
G01 X67.7475 Y2.4983 Z-0.0100
G01 X67.7440 Y2.4990 Z-0.0100
G01 X67.7406 Y2.4997 Z-0.0100
G01 X67.7371 Y2.5002 Z-0.0100
G01 X67.7335 Y2.5007 Z-0.0100
G01 X67.7300 Y2.5010 Z-0.0100
G01 X67.7265 Y2.5013 Z-0.0100
G01 X67.7229 Y2.5014 Z-0.0100
G01 X67.7194 Y2.5015 Z-0.0100
G01 X67.7157 Y2.5015 Z-0.0100
G01 X67.7116 Y2.5014 Z-0.0100
G01 X67.7090 Y2.5014 Z-0.0100
G01 X67.0754 Y2.4816 Z-0.0100
G01 X66.4418 Y2.4624 Z-0.0100
G01 X65.8082 Y2.4437 Z-0.0100
G01 X65.1746 Y2.4253 Z-0.0100
G01 X64.5411 Y2.4074 Z-0.0100
G01 X63.9075 Y2.3900 Z-0.0100
G01 X63.2739 Y2.3730 Z-0.0100
G01 X62.6403 Y2.3565 Z-0.0100
G01 X62.0066 Y2.3404 Z-0.0100
G01 X61.3730 Y2.3248 Z-0.0100
G01 X60.7393 Y2.3096 Z-0.0100
G01 X60.1057 Y2.2949 Z-0.0100
G01 X59.4720 Y2.2807 Z-0.0100
G01 X58.8384 Y2.2668 Z-0.0100
G01 X58.2047 Y2.2535 Z-0.0100
G01 X57.5710 Y2.2406 Z-0.0100
G01 X56.9372 Y2.2281 Z-0.0100
G01 X56.3075 Y2.2162 Z-0.0100
G01 X56.3037 Y2.2162 Z-0.0100
G01 X55.6699 Y2.2047 Z-0.0100
G01 X55.0361 Y2.1936 Z-0.0100
G01 X54.4024 Y2.1830 Z-0.0100
G01 X53.7687 Y2.1728 Z-0.0100
G01 X53.1349 Y2.1631 Z-0.0100
G01 X52.5011 Y2.1538 Z-0.0100
G01 X52.1653 Y2.1491 Z-0.0100
G01 X51.8673 Y2.1450 Z0.0240
G01 X51.3779 Y2.1385 Z0.0799
G01 X51.2336 Y2.1366 Z0.0800
G01 X50.5998 Y2.1287 Z0.0800
G01 X50.5905 Y2.1286 Z0.0800
G01 X49.9660 Y2.1213 Z0.0085
G01 X49.8031 Y2.1195 Z-0.0099
G01 X49.3322 Y2.1143 Z-0.0100
G01 X48.6985 Y2.1077 Z-0.0100
G01 X48.0646 Y2.1016 Z-0.0100
G01 X47.4308 Y2.0960 Z-0.0100
G01 X46.7970 Y2.0908 Z-0.0100
G01 X46.1633 Y2.0861 Z-0.0100
G01 X45.5294 Y2.0818 Z-0.0100
G01 X44.8956 Y2.0780 Z-0.0100
G01 X44.2618 Y2.0746 Z-0.0100
G01 X43.6279 Y2.0717 Z-0.0100
G01 X42.9941 Y2.0692 Z-0.0100
G01 X42.3603 Y2.0672 Z-0.0100
G01 X41.7265 Y2.0657 Z-0.0100
G01 X41.0927 Y2.0646 Z-0.0100
G01 X40.4588 Y2.0639 Z-0.0100
G01 X39.8251 Y2.0637 Z-0.0100
G01 X39.1914 Y2.0640 Z-0.0100
G01 X38.5575 Y2.0647 Z-0.0100
G01 X37.9237 Y2.0659 Z-0.0100
G01 X37.2899 Y2.0675 Z-0.0100
G01 X36.6560 Y2.0696 Z-0.0100
G01 X36.0222 Y2.0721 Z-0.0100
G01 X35.3884 Y2.0751 Z-0.0100
G01 X34.7546 Y2.0785 Z-0.0100
G01 X34.1207 Y2.0824 Z-0.0100
G01 X33.4870 Y2.0868 Z-0.0100
G01 X32.8531 Y2.0916 Z-0.0100
G01 X32.2193 Y2.0968 Z-0.0100
G01 X31.5856 Y2.1025 Z-0.0100
G01 X30.9518 Y2.1087 Z-0.0100
G01 X30.3179 Y2.1153 Z-0.0100
G01 X29.6842 Y2.1224 Z-0.0100
G01 X29.0504 Y2.1299 Z-0.0100
G01 X28.4166 Y2.1379 Z-0.0100
G01 X27.7828 Y2.1463 Z-0.0100
G01 X27.1490 Y2.1551 Z-0.0100
G01 X26.5153 Y2.1645 Z-0.0100
G01 X25.8816 Y2.1743 Z-0.0100
G01 X25.2478 Y2.1845 Z-0.0100
G01 X24.6141 Y2.1952 Z-0.0100
G01 X23.9802 Y2.2064 Z-0.0100
G01 X23.9764 Y2.2064 Z-0.0100
G01 X23.3466 Y2.2179 Z-0.0100
G01 X22.7129 Y2.2300 Z-0.0100
G01 X22.0792 Y2.2425 Z-0.0100
G01 X21.4455 Y2.2554 Z-0.0100
G01 X20.8119 Y2.2688 Z-0.0100
G01 X20.4724 Y2.2762 Z-0.0100
G01 X20.1782 Y2.2827 Z0.0236
G01 X19.6850 Y2.2938 Z0.0799
G01 X19.5445 Y2.2970 Z0.0800
G01 X18.9108 Y2.3118 Z0.0800
G01 X18.8976 Y2.3122 Z0.0800
G01 X18.2772 Y2.3271 Z0.0090
G01 X18.1102 Y2.3312 Z-0.0099
G01 X17.6436 Y2.3427 Z-0.0100
G01 X17.0099 Y2.3589 Z-0.0100
G01 X16.3763 Y2.3755 Z-0.0100
G01 X15.7428 Y2.3925 Z-0.0100
G01 X15.1092 Y2.4100 Z-0.0100
G01 X14.4756 Y2.4280 Z-0.0100
G01 X13.8420 Y2.4464 Z-0.0100
G01 X13.2085 Y2.4653 Z-0.0100
G01 X12.5748 Y2.4846 Z-0.0100
G01 X11.9412 Y2.5043 Z-0.0100
G01 X11.9377 Y2.5044 Z-0.0100
G01 X11.3079 Y2.5245 Z-0.0100
G01 X10.6744 Y2.5451 Z-0.0100
G01 X10.0410 Y2.5663 Z-0.0100
G01 X9.4075 Y2.5879 Z-0.0100
G01 X8.7740 Y2.6099 Z-0.0100
G01 X8.1407 Y2.6324 Z-0.0100
G01 X7.5072 Y2.6553 Z-0.0100
G01 X6.8738 Y2.6787 Z-0.0100
G01 X6.2404 Y2.7026 Z-0.0100
G01 X5.6071 Y2.7269 Z-0.0100
G01 X4.9737 Y2.7516 Z-0.0100
G01 X4.3403 Y2.7769 Z-0.0100
G01 X4.3371 Y2.7770 Z-0.0100
G01 X4.3314 Y2.7770 Z-0.0100
G01 X4.3283 Y2.7770 Z-0.0100
G01 X4.3248 Y2.7770 Z-0.0100
G01 X4.3213 Y2.7769 Z-0.0100
G01 X4.3179 Y2.7767 Z-0.0100
G01 X4.3144 Y2.7764 Z-0.0100
G01 X4.3109 Y2.7761 Z-0.0100
G01 X4.3074 Y2.7755 Z-0.0100
G01 X4.3040 Y2.7750 Z-0.0100
G01 X4.3005 Y2.7743 Z-0.0100
G01 X4.2971 Y2.7735 Z-0.0100
G01 X4.2937 Y2.7726 Z-0.0100
G01 X4.2903 Y2.7717 Z-0.0100
G01 X4.2870 Y2.7706 Z-0.0100
G01 X4.2837 Y2.7694 Z-0.0100
G01 X4.2804 Y2.7682 Z-0.0100
G01 X4.2772 Y2.7668 Z-0.0100
G01 X4.2740 Y2.7654 Z-0.0100
G01 X4.2709 Y2.7639 Z-0.0100
G01 X4.2677 Y2.7623 Z-0.0100
G01 X4.2647 Y2.7605 Z-0.0100
G01 X4.2617 Y2.7588 Z-0.0100
G01 X4.2587 Y2.7569 Z-0.0100
G01 X4.2558 Y2.7550 Z-0.0100
G01 X4.2530 Y2.7529 Z-0.0100
G01 X4.2502 Y2.7508 Z-0.0100
G01 X4.2475 Y2.7486 Z-0.0100
G01 X4.2448 Y2.7463 Z-0.0100
G01 X4.2422 Y2.7440 Z-0.0100
G01 X4.2397 Y2.7416 Z-0.0100
G01 X4.2372 Y2.7390 Z-0.0100
G01 X4.2348 Y2.7365 Z-0.0100
G01 X4.2325 Y2.7339 Z-0.0100
G01 X4.2303 Y2.7312 Z-0.0100
G01 X4.2281 Y2.7284 Z-0.0100
G01 X4.2260 Y2.7256 Z-0.0100
G01 X4.2240 Y2.7227 Z-0.0100
G01 X4.2221 Y2.7198 Z-0.0100
G01 X4.2202 Y2.7168 Z-0.0100
G01 X4.2185 Y2.7138 Z-0.0100
G01 X4.2168 Y2.7107 Z-0.0100
G01 X4.2153 Y2.7076 Z-0.0100
G01 X4.2138 Y2.7044 Z-0.0100
G01 X4.2124 Y2.7012 Z-0.0100
G01 X4.2111 Y2.6979 Z-0.0100
G01 X4.2098 Y2.6947 Z-0.0100
G01 X4.2087 Y2.6914 Z-0.0100
G01 X4.2077 Y2.6880 Z-0.0100
G01 X4.2068 Y2.6846 Z-0.0100
G01 X4.2059 Y2.6812 Z-0.0100
G01 X4.2052 Y2.6778 Z-0.0100
G01 X4.2046 Y2.6744 Z-0.0100
G01 X4.2040 Y2.6709 Z-0.0100
G01 X4.2036 Y2.6674 Z-0.0100
G01 X4.2032 Y2.6639 Z-0.0100
G01 X4.2030 Y2.6605 Z-0.0100
G01 X4.2028 Y2.6570 Z-0.0100
G01 X4.2019 Y2.6243 Z-0.0100
G01 X4.1993 Y2.5557 Z-0.0100
G01 X4.1960 Y2.4915 Z-0.0100
G01 X4.1921 Y2.4336 Z-0.0100
G01 X4.1872 Y2.3755 Z-0.0100
G01 X4.1819 Y2.3257 Z-0.0100
G01 X4.1755 Y2.2772 Z-0.0100
G01 X4.1685 Y2.2345 Z-0.0100
G01 X4.1604 Y2.1939 Z-0.0100
G01 X4.1518 Y2.1579 Z-0.0100
G01 X4.1424 Y2.1255 Z-0.0100
G01 X4.1324 Y2.0969 Z-0.0100
G01 X4.1217 Y2.0712 Z-0.0100
G01 X4.1105 Y2.0488 Z-0.0100
G01 X4.0990 Y2.0294 Z-0.0100
G01 X4.0869 Y2.0122 Z-0.0100
G01 X4.0742 Y1.9971 Z-0.0100
G01 X4.0604 Y1.9833 Z-0.0100
G01 X4.0457 Y1.9709 Z-0.0100
G01 X4.0295 Y1.9593 Z-0.0100
G01 X4.0112 Y1.9483 Z-0.0100
G01 X3.9905 Y1.9379 Z-0.0100
G01 X3.9675 Y1.9280 Z-0.0100
G01 X3.9412 Y1.9185 Z-0.0100
G01 X3.9124 Y1.9096 Z-0.0100
G01 X3.8814 Y1.9014 Z-0.0100
G01 X3.8475 Y1.8938 Z-0.0100
G01 X3.8092 Y1.8863 Z-0.0100
G01 X3.7690 Y1.8794 Z-0.0100
G01 X3.7270 Y1.8730 Z-0.0100
G01 X3.6794 Y1.8665 Z-0.0100
G01 X3.6316 Y1.8604 Z-0.0100
G01 X3.5790 Y1.8541 Z-0.0100
G01 X3.5246 Y1.8478 Z-0.0100
G01 X3.4668 Y1.8412 Z-0.0100
G01 X3.4062 Y1.8343 Z-0.0100
G01 X3.3428 Y1.8269 Z-0.0100
G01 X3.3422 Y1.8268 Z-0.0100
G01 X3.2761 Y1.8188 Z-0.0100
G01 X3.2754 Y1.8188 Z-0.0100
G01 X3.2064 Y1.8100 Z-0.0100
G01 X3.2056 Y1.8099 Z-0.0100
G01 X3.1337 Y1.8003 Z-0.0100
G01 X3.1328 Y1.8002 Z-0.0100
G01 X3.0578 Y1.7896 Z-0.0100
G01 X3.0566 Y1.7894 Z-0.0100
G01 X2.9786 Y1.7777 Z-0.0100
G01 X2.9775 Y1.7775 Z-0.0100
G01 X2.8963 Y1.7645 Z-0.0100
G01 X2.8950 Y1.7643 Z-0.0100
G01 X2.8106 Y1.7498 Z-0.0100
G01 X2.8094 Y1.7496 Z-0.0100
G01 X2.7217 Y1.7337 Z-0.0100
G01 X2.7203 Y1.7334 Z-0.0100
G01 X2.6294 Y1.7158 Z-0.0100
G01 X2.6259 Y1.7151 Z-0.0100
G01 X2.5060 Y1.6883 Z-0.0100
G01 X2.5033 Y1.6876 Z-0.0100
G01 X2.3863 Y1.6586 Z-0.0100
G01 X2.3833 Y1.6578 Z-0.0100
G01 X2.2721 Y1.6273 Z-0.0100
G01 X2.2692 Y1.6264 Z-0.0100
G01 X2.1645 Y1.5948 Z-0.0100
G01 X2.1614 Y1.5939 Z-0.0100
G01 X2.0607 Y1.5606 Z-0.0100
G01 X2.0575 Y1.5595 Z-0.0100
G01 X1.9623 Y1.5251 Z-0.0100
G01 X1.9590 Y1.5239 Z-0.0100
G01 X1.8672 Y1.4879 Z-0.0100
G01 X1.8640 Y1.4865 Z-0.0100
G01 X1.7778 Y1.4498 Z-0.0100
G01 X1.7745 Y1.4483 Z-0.0100
G01 X1.6924 Y1.4104 Z-0.0100
G01 X1.6890 Y1.4088 Z-0.0100
G01 X1.6117 Y1.3702 Z-0.0100
G01 X1.6082 Y1.3684 Z-0.0100
G01 X1.5352 Y1.3290 Z-0.0100
G01 X1.5318 Y1.3271 Z-0.0100
G01 X1.4625 Y1.2868 Z-0.0100
G01 X1.4590 Y1.2846 Z-0.0100
G01 X1.3955 Y1.2447 Z-0.0100
G01 X1.3920 Y1.2424 Z-0.0100
G01 X1.3299 Y1.2004 Z-0.0100
G01 X1.3263 Y1.1979 Z-0.0100
G01 X1.2710 Y1.1575 Z-0.0100
G01 X1.2674 Y1.1549 Z-0.0100
G01 X1.2145 Y1.1133 Z-0.0100
G01 X1.2110 Y1.1104 Z-0.0100
G01 X1.1612 Y1.0683 Z-0.0100
G01 X1.1578 Y1.0652 Z-0.0100
G01 X1.1122 Y1.0236 Z-0.0100
G01 X1.1088 Y1.0203 Z-0.0100
G01 X1.0659 Y0.9780 Z-0.0100
G01 X1.0626 Y0.9747 Z-0.0100
G01 X1.0226 Y0.9321 Z-0.0100
G01 X1.0192 Y0.9284 Z-0.0100
G01 X0.9833 Y0.8870 Z-0.0100
G01 X0.9803 Y0.8833 Z-0.0100
G01 X0.9462 Y0.8407 Z-0.0100
G01 X0.9431 Y0.8367 Z-0.0100
G01 X0.9119 Y0.7944 Z-0.0100
G01 X0.9091 Y0.7904 Z-0.0100
G01 X0.8801 Y0.7475 Z-0.0100
G01 X0.8774 Y0.7433 Z-0.0100
G01 X0.8515 Y0.7016 Z-0.0100
G01 X0.8489 Y0.6972 Z-0.0100
G01 X0.8242 Y0.6534 Z-0.0100
G01 X0.8220 Y0.6492 Z-0.0100
G01 X0.8001 Y0.6066 Z-0.0100
G01 X0.7979 Y0.6020 Z-0.0100
G01 X0.7780 Y0.5590 Z-0.0100
G01 X0.7759 Y0.5544 Z-0.0100
G01 X0.7579 Y0.5109 Z-0.0100
G01 X0.7562 Y0.5064 Z-0.0100
G01 X0.7397 Y0.4617 Z-0.0100
G01 X0.7381 Y0.4572 Z-0.0100
G01 X0.7238 Y0.4130 Z-0.0100
G01 X0.7223 Y0.4083 Z-0.0100
G01 X0.7097 Y0.3635 Z-0.0100
G01 X0.7085 Y0.3589 Z-0.0100
G01 X0.6975 Y0.3131 Z-0.0100
G01 X0.6965 Y0.3085 Z-0.0100
G01 X0.6874 Y0.2629 Z-0.0100
G01 X0.6865 Y0.2583 Z-0.0100
G01 X0.6790 Y0.2119 Z-0.0100
G01 X0.6784 Y0.2075 Z-0.0100
G01 X0.6725 Y0.1605 Z-0.0100
G01 X0.6720 Y0.1560 Z-0.0100
G01 X0.6677 Y0.1073 Z-0.0100
G01 X0.6674 Y0.1028 Z-0.0100
G01 X0.6650 Y0.0554 Z-0.0100
G01 X0.6648 Y0.0512 Z-0.0100
G01 X0.6640 Y0.0020 Z-0.0100
G01 X0.6640 Y-0.0020 Z-0.0100
G00 X0.6640 Y-0.0020 Z0.6000
M05
G00 X0.0000 Y0.0000 Z0.6000
G49
G01 G55 Z0 F20
G00 G55 X0 Y0 Z0
M30
