( Sample-snowboard-edge-trench.nc                                              )
( Generated by MonkeyCAM v4.0 at 2013-10-21 22:47:51                           )
(                                                                              )
( This GCode program is provided on an "AS IS" BASIS WITHOUT WARRANTIES OR     )
( CONDITIONS OF ANY KIND, either express or implied. You should inspect this   )
( program very carefully to confirm you understand its operation. YOU ARE      )
( RESPONSIBLE FOR ENSURING THIS PROGRAM WILL NOT DAMAGE YOUR MACHINE OR        )
( MATERIALS.                                                                   )
(                                                                              )
( See http://www.github.com/MonkeyCAM for License and documentation.           )
(                                                                              )
( * Rapid height: 0.6000" [1.5240cm]                                           )
( * Tool: T1, Quarter Inch Upcut Spiral, diameter 0.2469" [0.6273cm]           )
( * Height basline [Z=0.0] is the top of the table.                            )
( * XY origin is the left side of the table, Y is center of the part.          )
( * Requires G54 to be the part work coordinate offsets [WCO]. [0, 0] is the   )
(   center of the nose, with the board extending to positive X. The cutter may )
(   move to negative values of X.                                              )
( * Requires G55 to be the machine WCO, with Z above the rapid height.         )
( * Units are inches                                                           )
( * Cutter bounding box in G54:                                                )
(     X0.0000 Y-5.8743 Z0.0000 to X64.0254 Y5.8743 Z0.6000                     )

G90 G20 G17 G40 G49
G43 H1 T1
G00 G54 X0 Y0 Z0.6000

G00 X3.6901 Y4.8364 Z0.6000
M03
G04 P5
G01 X3.6901 Y4.8364 Z0.2800 F70
G01 X7.5533 Y4.5939 Z0.2800
G01 X7.5570 Y4.5937 Z0.2800
G01 X7.5577 Y4.5936 Z0.2800
G01 X7.5585 Y4.5936 Z0.2800
G01 X8.0894 Y4.5609 Z0.2800
G01 X8.0902 Y4.5609 Z0.2800
G01 X8.0908 Y4.5608 Z0.2800
G01 X8.0914 Y4.5608 Z0.2800
G01 X8.0919 Y4.5607 Z0.2800
G01 X8.6246 Y4.5286 Z0.2800
G01 X8.6257 Y4.5285 Z0.2800
G01 X8.6292 Y4.5283 Z0.2800
G01 X9.1618 Y4.4969 Z0.2800
G01 X9.1629 Y4.4968 Z0.2800
G01 X9.6979 Y4.4659 Z0.2800
G01 X9.6988 Y4.4658 Z0.2800
G01 X9.6998 Y4.4657 Z0.2800
G01 X10.2341 Y4.4355 Z0.2800
G01 X10.2351 Y4.4355 Z0.2800
G01 X10.7703 Y4.4058 Z0.2800
G01 X10.7711 Y4.4058 Z0.2800
G01 X10.7718 Y4.4057 Z0.2800
G01 X11.3054 Y4.3769 Z0.2800
G01 X11.3072 Y4.3768 Z0.2800
G01 X11.3082 Y4.3768 Z0.2800
G01 X11.8394 Y4.3487 Z0.2800
G01 X11.8401 Y4.3487 Z0.2800
G01 X11.8408 Y4.3486 Z0.2800
G01 X11.8445 Y4.3484 Z0.2800
G01 X12.3770 Y4.3209 Z0.2800
G01 X12.3775 Y4.3209 Z0.2800
G01 X12.3782 Y4.3208 Z0.2800
G01 X12.3805 Y4.3207 Z0.2800
G01 X12.9127 Y4.2939 Z0.2800
G01 X12.9133 Y4.2938 Z0.2800
G01 X12.9140 Y4.2938 Z0.2800
G01 X12.9172 Y4.2937 Z0.2800
G01 X13.4484 Y4.2675 Z0.2800
G01 X13.4492 Y4.2675 Z0.2800
G01 X13.4499 Y4.2675 Z0.2800
G01 X13.4538 Y4.2673 Z0.2800
G01 X13.9869 Y4.2418 Z0.2800
G01 X13.9878 Y4.2417 Z0.2800
G01 X13.9904 Y4.2416 Z0.2800
G01 X14.5213 Y4.2169 Z0.2800
G01 X14.5269 Y4.2166 Z0.2800
G01 X15.0616 Y4.1924 Z0.2800
G01 X15.0634 Y4.1922 Z0.2800
G01 X15.5977 Y4.1686 Z0.2800
G01 X15.6005 Y4.1685 Z0.2800
G01 X16.1343 Y4.1455 Z0.2800
G01 X16.1348 Y4.1455 Z0.2800
G01 X16.1373 Y4.1454 Z0.2800
G01 X16.6701 Y4.1232 Z0.2800
G01 X16.6715 Y4.1231 Z0.2800
G01 X16.6733 Y4.1231 Z0.2800
G01 X17.2053 Y4.1015 Z0.2800
G01 X17.2068 Y4.1015 Z0.2800
G01 X17.2100 Y4.1014 Z0.2800
G01 X17.7444 Y4.0804 Z0.2800
G01 X17.7453 Y4.0804 Z0.2800
G01 X17.7478 Y4.0803 Z0.2800
G01 X18.2818 Y4.0600 Z0.2800
G01 X18.2834 Y4.0600 Z0.2800
G01 X18.8177 Y4.0403 Z0.2800
G01 X18.8188 Y4.0403 Z0.2800
G01 X18.8214 Y4.0401 Z0.2800
G01 X19.3530 Y4.0212 Z0.2800
G01 X19.3542 Y4.0212 Z0.2800
G01 X19.3577 Y4.0211 Z0.2800
G01 X19.3592 Y4.0211 Z0.2800
G01 X19.8913 Y4.0028 Z0.2800
G01 X19.8929 Y4.0028 Z0.2800
G01 X19.8938 Y4.0027 Z0.2800
G01 X20.4281 Y3.9851 Z0.2800
G01 X20.4298 Y3.9851 Z0.2800
G01 X20.4324 Y3.9850 Z0.2800
G01 X20.9636 Y3.9680 Z0.2800
G01 X20.9669 Y3.9680 Z0.2800
G01 X20.9692 Y3.9679 Z0.2800
G01 X21.5021 Y3.9517 Z0.2800
G01 X21.5046 Y3.9516 Z0.2800
G01 X22.0398 Y3.9359 Z0.2800
G01 X22.0409 Y3.9358 Z0.2800
G01 X22.5748 Y3.9208 Z0.2800
G01 X22.5761 Y3.9208 Z0.2800
G01 X22.5796 Y3.9207 Z0.2800
G01 X23.1137 Y3.9064 Z0.2800
G01 X23.1151 Y3.9063 Z0.2800
G01 X23.6506 Y3.8926 Z0.2800
G01 X23.6523 Y3.8926 Z0.2800
G01 X24.1875 Y3.8795 Z0.2800
G01 X24.1891 Y3.8795 Z0.2800
G01 X24.7246 Y3.8671 Z0.2800
G01 X24.7252 Y3.8671 Z0.2800
G01 X24.7266 Y3.8671 Z0.2800
G01 X25.2597 Y3.8554 Z0.2800
G01 X25.2603 Y3.8554 Z0.2800
G01 X25.2639 Y3.8553 Z0.2800
G01 X25.2663 Y3.8552 Z0.2800
G01 X25.7978 Y3.8442 Z0.2800
G01 X25.8005 Y3.8442 Z0.2800
G01 X25.8012 Y3.8442 Z0.2800
G01 X26.3356 Y3.8338 Z0.2800
G01 X26.3366 Y3.8338 Z0.2800
G01 X26.3380 Y3.8338 Z0.2800
G01 X26.8703 Y3.8241 Z0.2800
G01 X26.8719 Y3.8241 Z0.2800
G01 X26.8754 Y3.8240 Z0.2800
G01 X26.8763 Y3.8240 Z0.2800
G01 X27.4097 Y3.8150 Z0.2800
G01 X27.4121 Y3.8150 Z0.2800
G01 X27.9466 Y3.8066 Z0.2800
G01 X27.9494 Y3.8065 Z0.2800
G01 X28.4825 Y3.7988 Z0.2800
G01 X28.4842 Y3.7988 Z0.2800
G01 X28.4860 Y3.7987 Z0.2800
G01 X29.0209 Y3.7917 Z0.2800
G01 X29.0229 Y3.7917 Z0.2800
G01 X29.5578 Y3.7852 Z0.2800
G01 X29.5607 Y3.7852 Z0.2800
G01 X30.0950 Y3.7795 Z0.2800
G01 X30.0988 Y3.7794 Z0.2800
G01 X30.6321 Y3.7744 Z0.2800
G01 X30.6344 Y3.7744 Z0.2800
G01 X31.1691 Y3.7699 Z0.2800
G01 X31.1696 Y3.7699 Z0.2800
G01 X31.1732 Y3.7699 Z0.2800
G01 X31.1737 Y3.7698 Z0.2800
G01 X31.7062 Y3.7661 Z0.2800
G01 X31.7076 Y3.7661 Z0.2800
G01 X32.2434 Y3.7630 Z0.2800
G01 X32.2448 Y3.7630 Z0.2800
G01 X32.7805 Y3.7605 Z0.2800
G01 X32.7818 Y3.7605 Z0.2800
G01 X33.3176 Y3.7588 Z0.2800
G01 X33.3189 Y3.7588 Z0.2800
G01 X33.8547 Y3.7577 Z0.2800
G01 X33.8561 Y3.7577 Z0.2800
G01 X34.3918 Y3.7572 Z0.2800
G01 X34.3931 Y3.7572 Z0.2800
G01 X34.9289 Y3.7574 Z0.2800
G01 X34.9303 Y3.7574 Z0.2800
G01 X35.4661 Y3.7583 Z0.2800
G01 X35.4674 Y3.7583 Z0.2800
G01 X36.0032 Y3.7598 Z0.2800
G01 X36.0045 Y3.7598 Z0.2800
G01 X36.5403 Y3.7620 Z0.2800
G01 X36.5417 Y3.7620 Z0.2800
G01 X37.0774 Y3.7649 Z0.2800
G01 X37.0787 Y3.7649 Z0.2800
G01 X37.6145 Y3.7684 Z0.2800
G01 X37.6159 Y3.7684 Z0.2800
G01 X38.1501 Y3.7725 Z0.2800
G01 X38.1520 Y3.7726 Z0.2800
G01 X38.1543 Y3.7726 Z0.2800
G01 X38.6859 Y3.7774 Z0.2800
G01 X38.6901 Y3.7775 Z0.2800
G01 X39.2242 Y3.7830 Z0.2800
G01 X39.2272 Y3.7830 Z0.2800
G01 X39.7619 Y3.7892 Z0.2800
G01 X39.7642 Y3.7892 Z0.2800
G01 X40.2972 Y3.7960 Z0.2800
G01 X40.2980 Y3.7960 Z0.2800
G01 X40.3012 Y3.7961 Z0.2800
G01 X40.8370 Y3.8035 Z0.2800
G01 X40.8383 Y3.8036 Z0.2800
G01 X41.3726 Y3.8117 Z0.2800
G01 X41.3754 Y3.8117 Z0.2800
G01 X41.9087 Y3.8205 Z0.2800
G01 X41.9096 Y3.8205 Z0.2800
G01 X41.9124 Y3.8206 Z0.2800
G01 X42.4481 Y3.8301 Z0.2800
G01 X42.4495 Y3.8301 Z0.2800
G01 X42.9838 Y3.8402 Z0.2800
G01 X42.9845 Y3.8402 Z0.2800
G01 X42.9874 Y3.8403 Z0.2800
G01 X43.5187 Y3.8510 Z0.2800
G01 X43.5212 Y3.8511 Z0.2800
G01 X43.5247 Y3.8511 Z0.2800
G01 X43.5254 Y3.8511 Z0.2800
G01 X44.0586 Y3.8625 Z0.2800
G01 X44.0601 Y3.8626 Z0.2800
G01 X44.5959 Y3.8747 Z0.2800
G01 X44.5975 Y3.8748 Z0.2800
G01 X45.1327 Y3.8876 Z0.2800
G01 X45.1342 Y3.8876 Z0.2800
G01 X45.6671 Y3.9010 Z0.2800
G01 X45.6696 Y3.9011 Z0.2800
G01 X45.6725 Y3.9012 Z0.2800
G01 X46.2052 Y3.9152 Z0.2800
G01 X46.2070 Y3.9152 Z0.2800
G01 X46.2094 Y3.9153 Z0.2800
G01 X46.7428 Y3.9300 Z0.2800
G01 X46.7444 Y3.9301 Z0.2800
G01 X46.7464 Y3.9301 Z0.2800
G01 X47.2808 Y3.9455 Z0.2800
G01 X47.2833 Y3.9456 Z0.2800
G01 X47.8177 Y3.9617 Z0.2800
G01 X47.8196 Y3.9618 Z0.2800
G01 X48.3535 Y3.9785 Z0.2800
G01 X48.3562 Y3.9786 Z0.2800
G01 X48.3573 Y3.9786 Z0.2800
G01 X48.8900 Y3.9960 Z0.2800
G01 X48.8922 Y3.9961 Z0.2800
G01 X48.8949 Y3.9961 Z0.2800
G01 X49.4277 Y4.0141 Z0.2800
G01 X49.4298 Y4.0142 Z0.2800
G01 X49.9650 Y4.0329 Z0.2800
G01 X49.9659 Y4.0330 Z0.2800
G01 X49.9673 Y4.0330 Z0.2800
G01 X50.5006 Y4.0524 Z0.2800
G01 X50.5014 Y4.0524 Z0.2800
G01 X50.5049 Y4.0525 Z0.2800
G01 X51.0385 Y4.0725 Z0.2800
G01 X51.0394 Y4.0725 Z0.2800
G01 X51.0401 Y4.0726 Z0.2800
G01 X51.5753 Y4.0934 Z0.2800
G01 X51.5763 Y4.0934 Z0.2800
G01 X51.5768 Y4.0934 Z0.2800
G01 X52.1118 Y4.1148 Z0.2800
G01 X52.1123 Y4.1148 Z0.2800
G01 X52.1132 Y4.1148 Z0.2800
G01 X52.6476 Y4.1369 Z0.2800
G01 X52.6509 Y4.1370 Z0.2800
G01 X52.6516 Y4.1371 Z0.2800
G01 X53.1852 Y4.1598 Z0.2800
G01 X53.1876 Y4.1599 Z0.2800
G01 X53.1883 Y4.1599 Z0.2800
G01 X53.7202 Y4.1831 Z0.2800
G01 X53.7224 Y4.1832 Z0.2800
G01 X53.7240 Y4.1833 Z0.2800
G01 X54.2574 Y4.2072 Z0.2800
G01 X54.2589 Y4.2073 Z0.2800
G01 X54.2597 Y4.2074 Z0.2800
G01 X54.7949 Y4.2321 Z0.2800
G01 X54.7958 Y4.2321 Z0.2800
G01 X54.7962 Y4.2321 Z0.2800
G01 X55.3314 Y4.2575 Z0.2800
G01 X55.3319 Y4.2575 Z0.2800
G01 X55.3337 Y4.2576 Z0.2800
G01 X55.8677 Y4.2836 Z0.2800
G01 X55.8692 Y4.2837 Z0.2800
G01 X56.4044 Y4.3104 Z0.2800
G01 X56.4053 Y4.3105 Z0.2800
G01 X56.9406 Y4.3379 Z0.2800
G01 X56.9421 Y4.3379 Z0.2800
G01 X57.4772 Y4.3660 Z0.2800
G01 X57.4788 Y4.3661 Z0.2800
G01 X58.0131 Y4.3947 Z0.2800
G01 X58.0138 Y4.3948 Z0.2800
G01 X58.0174 Y4.3950 Z0.2800
G01 X58.5498 Y4.4242 Z0.2800
G01 X58.5508 Y4.4243 Z0.2800
G01 X58.5518 Y4.4243 Z0.2800
G01 X58.5528 Y4.4244 Z0.2800
G01 X59.0857 Y4.4543 Z0.2800
G01 X59.0870 Y4.4544 Z0.2800
G01 X59.6220 Y4.4850 Z0.2800
G01 X59.6237 Y4.4851 Z0.2800
G01 X60.1585 Y4.5165 Z0.2800
G01 X60.1600 Y4.5166 Z0.2800
G01 X64.0254 Y4.7479 Z0.2800
G01 X63.9632 Y5.7861 Z0.2800
G01 X60.0977 Y5.5547 Z0.2800
G01 X59.5628 Y5.5233 Z0.2800
G01 X59.0295 Y5.4927 Z0.2800
G01 X59.0277 Y5.4926 Z0.2800
G01 X58.4929 Y5.4626 Z0.2800
G01 X58.4915 Y5.4625 Z0.2800
G01 X58.4903 Y5.4625 Z0.2800
G01 X57.9579 Y5.4333 Z0.2800
G01 X57.9544 Y5.4331 Z0.2800
G01 X57.4255 Y5.4048 Z0.2800
G01 X57.4221 Y5.4045 Z0.2800
G01 X56.8877 Y5.3765 Z0.2800
G01 X56.8869 Y5.3765 Z0.2800
G01 X56.3525 Y5.3492 Z0.2800
G01 X56.3514 Y5.3491 Z0.2800
G01 X55.8174 Y5.3224 Z0.2800
G01 X55.8166 Y5.3224 Z0.2800
G01 X55.2827 Y5.2964 Z0.2800
G01 X55.2815 Y5.2964 Z0.2800
G01 X54.7473 Y5.2710 Z0.2800
G01 X54.7465 Y5.2710 Z0.2800
G01 X54.7460 Y5.2709 Z0.2800
G01 X54.2117 Y5.2462 Z0.2800
G01 X54.2111 Y5.2462 Z0.2800
G01 X53.6764 Y5.2222 Z0.2800
G01 X53.1411 Y5.1988 Z0.2800
G01 X53.1404 Y5.1988 Z0.2800
G01 X52.6059 Y5.1761 Z0.2800
G01 X52.6050 Y5.1760 Z0.2800
G01 X52.0721 Y5.1540 Z0.2800
G01 X52.0696 Y5.1539 Z0.2800
G01 X51.5367 Y5.1326 Z0.2800
G01 X51.5350 Y5.1326 Z0.2800
G01 X50.9996 Y5.1118 Z0.2800
G01 X50.9988 Y5.1118 Z0.2800
G01 X50.4645 Y5.0917 Z0.2800
G01 X50.4619 Y5.0916 Z0.2800
G01 X50.4600 Y5.0915 Z0.2800
G01 X49.9306 Y5.0724 Z0.2800
G01 X49.9284 Y5.0723 Z0.2800
G01 X49.3931 Y5.0535 Z0.2800
G01 X49.3920 Y5.0535 Z0.2800
G01 X48.8576 Y5.0355 Z0.2800
G01 X48.3220 Y5.0180 Z0.2800
G01 X48.3210 Y5.0180 Z0.2800
G01 X47.7887 Y5.0013 Z0.2800
G01 X47.7871 Y5.0013 Z0.2800
G01 X47.7864 Y5.0013 Z0.2800
G01 X47.2509 Y4.9851 Z0.2800
G01 X47.2495 Y4.9851 Z0.2800
G01 X47.2479 Y4.9850 Z0.2800
G01 X46.7152 Y4.9696 Z0.2800
G01 X46.7148 Y4.9696 Z0.2800
G01 X46.1796 Y4.9548 Z0.2800
G01 X45.6466 Y4.9408 Z0.2800
G01 X45.6453 Y4.9408 Z0.2800
G01 X45.6427 Y4.9407 Z0.2800
G01 X45.1083 Y4.9273 Z0.2800
G01 X45.1072 Y4.9273 Z0.2800
G01 X45.1059 Y4.9272 Z0.2800
G01 X44.5755 Y4.9145 Z0.2800
G01 X44.5743 Y4.9145 Z0.2800
G01 X44.5715 Y4.9144 Z0.2800
G01 X44.0376 Y4.9024 Z0.2800
G01 X44.0360 Y4.9023 Z0.2800
G01 X44.0345 Y4.9023 Z0.2800
G01 X43.5044 Y4.8909 Z0.2800
G01 X43.5033 Y4.8909 Z0.2800
G01 X43.5003 Y4.8909 Z0.2800
G01 X42.9655 Y4.8801 Z0.2800
G01 X42.4319 Y4.8700 Z0.2800
G01 X42.4298 Y4.8699 Z0.2800
G01 X42.4274 Y4.8698 Z0.2800
G01 X41.8978 Y4.8604 Z0.2800
G01 X41.8970 Y4.8604 Z0.2800
G01 X41.8940 Y4.8604 Z0.2800
G01 X41.3583 Y4.8516 Z0.2800
G01 X40.8225 Y4.8434 Z0.2800
G01 X40.8204 Y4.8433 Z0.2800
G01 X40.2910 Y4.8360 Z0.2800
G01 X40.2904 Y4.8360 Z0.2800
G01 X40.2866 Y4.8359 Z0.2800
G01 X39.7509 Y4.8291 Z0.2800
G01 X39.2151 Y4.8229 Z0.2800
G01 X38.6794 Y4.8174 Z0.2800
G01 X38.1435 Y4.8125 Z0.2800
G01 X37.6077 Y4.8084 Z0.2800
G01 X37.0719 Y4.8049 Z0.2800
G01 X36.5361 Y4.8020 Z0.2800
G01 X36.0003 Y4.7998 Z0.2800
G01 X35.4644 Y4.7983 Z0.2800
G01 X34.9286 Y4.7974 Z0.2800
G01 X34.3928 Y4.7972 Z0.2800
G01 X33.8570 Y4.7977 Z0.2800
G01 X33.3212 Y4.7988 Z0.2800
G01 X32.7854 Y4.8005 Z0.2800
G01 X32.2496 Y4.8030 Z0.2800
G01 X31.7137 Y4.8061 Z0.2800
G01 X31.1778 Y4.8099 Z0.2800
G01 X31.1731 Y4.8099 Z0.2800
G01 X30.6437 Y4.8143 Z0.2800
G01 X30.6416 Y4.8143 Z0.2800
G01 X30.1063 Y4.8194 Z0.2800
G01 X29.5705 Y4.8251 Z0.2800
G01 X29.0347 Y4.8316 Z0.2800
G01 X28.4990 Y4.8387 Z0.2800
G01 X27.9631 Y4.8464 Z0.2800
G01 X27.4274 Y4.8548 Z0.2800
G01 X26.8915 Y4.8639 Z0.2800
G01 X26.8888 Y4.8639 Z0.2800
G01 X26.8880 Y4.8640 Z0.2800
G01 X26.3579 Y4.8736 Z0.2800
G01 X26.3552 Y4.8737 Z0.2800
G01 X26.3547 Y4.8737 Z0.2800
G01 X25.8201 Y4.8841 Z0.2800
G01 X25.2851 Y4.8951 Z0.2800
G01 X25.2823 Y4.8951 Z0.2800
G01 X25.2813 Y4.8952 Z0.2800
G01 X24.7509 Y4.9068 Z0.2800
G01 X24.7490 Y4.9068 Z0.2800
G01 X24.7469 Y4.9069 Z0.2800
G01 X24.2140 Y4.9192 Z0.2800
G01 X24.2113 Y4.9192 Z0.2800
G01 X24.2101 Y4.9193 Z0.2800
G01 X23.6796 Y4.9322 Z0.2800
G01 X23.6784 Y4.9323 Z0.2800
G01 X23.6772 Y4.9323 Z0.2800
G01 X23.1429 Y4.9460 Z0.2800
G01 X23.1403 Y4.9460 Z0.2800
G01 X23.1390 Y4.9461 Z0.2800
G01 X22.6088 Y4.9603 Z0.2800
G01 X22.6068 Y4.9603 Z0.2800
G01 X22.6057 Y4.9604 Z0.2800
G01 X22.0717 Y4.9754 Z0.2800
G01 X22.0694 Y4.9754 Z0.2800
G01 X22.0679 Y4.9755 Z0.2800
G01 X21.5353 Y4.9911 Z0.2800
G01 X21.5347 Y4.9911 Z0.2800
G01 X20.9993 Y5.0074 Z0.2800
G01 X20.4644 Y5.0245 Z0.2800
G01 X20.4636 Y5.0245 Z0.2800
G01 X19.9286 Y5.0422 Z0.2800
G01 X19.9277 Y5.0422 Z0.2800
G01 X19.9259 Y5.0422 Z0.2800
G01 X19.3963 Y5.0604 Z0.2800
G01 X19.3952 Y5.0604 Z0.2800
G01 X19.3921 Y5.0605 Z0.2800
G01 X18.8579 Y5.0796 Z0.2800
G01 X18.8570 Y5.0796 Z0.2800
G01 X18.3216 Y5.0992 Z0.2800
G01 X18.3197 Y5.0993 Z0.2800
G01 X17.7870 Y5.1195 Z0.2800
G01 X17.7861 Y5.1195 Z0.2800
G01 X17.2549 Y5.1404 Z0.2800
G01 X17.2538 Y5.1405 Z0.2800
G01 X17.2497 Y5.1407 Z0.2800
G01 X16.7172 Y5.1622 Z0.2800
G01 X16.7157 Y5.1622 Z0.2800
G01 X16.7135 Y5.1623 Z0.2800
G01 X16.1805 Y5.1845 Z0.2800
G01 X16.1799 Y5.1846 Z0.2800
G01 X15.6456 Y5.2075 Z0.2800
G01 X15.6447 Y5.2075 Z0.2800
G01 X15.1100 Y5.2312 Z0.2800
G01 X15.1093 Y5.2312 Z0.2800
G01 X14.5755 Y5.2554 Z0.2800
G01 X14.5741 Y5.2555 Z0.2800
G01 X14.0388 Y5.2805 Z0.2800
G01 X14.0373 Y5.2805 Z0.2800
G01 X13.5085 Y5.3059 Z0.2800
G01 X13.5076 Y5.3059 Z0.2800
G01 X13.5069 Y5.3059 Z0.2800
G01 X13.5037 Y5.3061 Z0.2800
G01 X12.9725 Y5.3322 Z0.2800
G01 X12.9718 Y5.3322 Z0.2800
G01 X12.9711 Y5.3323 Z0.2800
G01 X12.9687 Y5.3324 Z0.2800
G01 X12.4366 Y5.3592 Z0.2800
G01 X12.4338 Y5.3593 Z0.2800
G01 X12.4332 Y5.3594 Z0.2800
G01 X11.9027 Y5.3868 Z0.2800
G01 X11.9019 Y5.3868 Z0.2800
G01 X11.9012 Y5.3868 Z0.2800
G01 X11.8983 Y5.3870 Z0.2800
G01 X11.3648 Y5.4152 Z0.2800
G01 X11.3638 Y5.4153 Z0.2800
G01 X11.3630 Y5.4153 Z0.2800
G01 X10.8290 Y5.4442 Z0.2800
G01 X10.8282 Y5.4442 Z0.2800
G01 X10.2931 Y5.4738 Z0.2800
G01 X10.2924 Y5.4739 Z0.2800
G01 X9.7581 Y5.5041 Z0.2800
G01 X9.2237 Y5.5350 Z0.2800
G01 X9.2230 Y5.5351 Z0.2800
G01 X8.6881 Y5.5666 Z0.2800
G01 X8.6873 Y5.5667 Z0.2800
G01 X8.6854 Y5.5668 Z0.2800
G01 X8.1534 Y5.5989 Z0.2800
G01 X8.1529 Y5.5990 Z0.2800
G01 X8.1519 Y5.5990 Z0.2800
G01 X7.6186 Y5.6318 Z0.2800
G01 X3.7553 Y5.8743 Z0.2800
G01 X3.6901 Y4.8364 Z0.2800
G01 X3.6901 Y4.8364 Z0.1400
G01 X7.5533 Y4.5939 Z0.1400
G01 X7.5570 Y4.5937 Z0.1400
G01 X7.5577 Y4.5936 Z0.1400
G01 X7.5585 Y4.5936 Z0.1400
G01 X8.0894 Y4.5609 Z0.1400
G01 X8.0902 Y4.5609 Z0.1400
G01 X8.0908 Y4.5608 Z0.1400
G01 X8.0914 Y4.5608 Z0.1400
G01 X8.0919 Y4.5607 Z0.1400
G01 X8.6246 Y4.5286 Z0.1400
G01 X8.6257 Y4.5285 Z0.1400
G01 X8.6292 Y4.5283 Z0.1400
G01 X9.1618 Y4.4969 Z0.1400
G01 X9.1629 Y4.4968 Z0.1400
G01 X9.6979 Y4.4659 Z0.1400
G01 X9.6988 Y4.4658 Z0.1400
G01 X9.6998 Y4.4657 Z0.1400
G01 X10.2341 Y4.4355 Z0.1400
G01 X10.2351 Y4.4355 Z0.1400
G01 X10.7703 Y4.4058 Z0.1400
G01 X10.7711 Y4.4058 Z0.1400
G01 X10.7718 Y4.4057 Z0.1400
G01 X11.3054 Y4.3769 Z0.1400
G01 X11.3072 Y4.3768 Z0.1400
G01 X11.3082 Y4.3768 Z0.1400
G01 X11.8394 Y4.3487 Z0.1400
G01 X11.8401 Y4.3487 Z0.1400
G01 X11.8408 Y4.3486 Z0.1400
G01 X11.8445 Y4.3484 Z0.1400
G01 X12.3770 Y4.3209 Z0.1400
G01 X12.3775 Y4.3209 Z0.1400
G01 X12.3782 Y4.3208 Z0.1400
G01 X12.3805 Y4.3207 Z0.1400
G01 X12.9127 Y4.2939 Z0.1400
G01 X12.9133 Y4.2938 Z0.1400
G01 X12.9140 Y4.2938 Z0.1400
G01 X12.9172 Y4.2937 Z0.1400
G01 X13.4484 Y4.2675 Z0.1400
G01 X13.4492 Y4.2675 Z0.1400
G01 X13.4499 Y4.2675 Z0.1400
G01 X13.4538 Y4.2673 Z0.1400
G01 X13.9869 Y4.2418 Z0.1400
G01 X13.9878 Y4.2417 Z0.1400
G01 X13.9904 Y4.2416 Z0.1400
G01 X14.5213 Y4.2169 Z0.1400
G01 X14.5269 Y4.2166 Z0.1400
G01 X15.0616 Y4.1924 Z0.1400
G01 X15.0634 Y4.1922 Z0.1400
G01 X15.5977 Y4.1686 Z0.1400
G01 X15.6005 Y4.1685 Z0.1400
G01 X16.1343 Y4.1455 Z0.1400
G01 X16.1348 Y4.1455 Z0.1400
G01 X16.1373 Y4.1454 Z0.1400
G01 X16.6701 Y4.1232 Z0.1400
G01 X16.6715 Y4.1231 Z0.1400
G01 X16.6733 Y4.1231 Z0.1400
G01 X17.2053 Y4.1015 Z0.1400
G01 X17.2068 Y4.1015 Z0.1400
G01 X17.2100 Y4.1014 Z0.1400
G01 X17.7444 Y4.0804 Z0.1400
G01 X17.7453 Y4.0804 Z0.1400
G01 X17.7478 Y4.0803 Z0.1400
G01 X18.2818 Y4.0600 Z0.1400
G01 X18.2834 Y4.0600 Z0.1400
G01 X18.8177 Y4.0403 Z0.1400
G01 X18.8188 Y4.0403 Z0.1400
G01 X18.8214 Y4.0401 Z0.1400
G01 X19.3530 Y4.0212 Z0.1400
G01 X19.3542 Y4.0212 Z0.1400
G01 X19.3577 Y4.0211 Z0.1400
G01 X19.3592 Y4.0211 Z0.1400
G01 X19.8913 Y4.0028 Z0.1400
G01 X19.8929 Y4.0028 Z0.1400
G01 X19.8938 Y4.0027 Z0.1400
G01 X20.4281 Y3.9851 Z0.1400
G01 X20.4298 Y3.9851 Z0.1400
G01 X20.4324 Y3.9850 Z0.1400
G01 X20.9636 Y3.9680 Z0.1400
G01 X20.9669 Y3.9680 Z0.1400
G01 X20.9692 Y3.9679 Z0.1400
G01 X21.5021 Y3.9517 Z0.1400
G01 X21.5046 Y3.9516 Z0.1400
G01 X22.0398 Y3.9359 Z0.1400
G01 X22.0409 Y3.9358 Z0.1400
G01 X22.5748 Y3.9208 Z0.1400
G01 X22.5761 Y3.9208 Z0.1400
G01 X22.5796 Y3.9207 Z0.1400
G01 X23.1137 Y3.9064 Z0.1400
G01 X23.1151 Y3.9063 Z0.1400
G01 X23.6506 Y3.8926 Z0.1400
G01 X23.6523 Y3.8926 Z0.1400
G01 X24.1875 Y3.8795 Z0.1400
G01 X24.1891 Y3.8795 Z0.1400
G01 X24.7246 Y3.8671 Z0.1400
G01 X24.7252 Y3.8671 Z0.1400
G01 X24.7266 Y3.8671 Z0.1400
G01 X25.2597 Y3.8554 Z0.1400
G01 X25.2603 Y3.8554 Z0.1400
G01 X25.2639 Y3.8553 Z0.1400
G01 X25.2663 Y3.8552 Z0.1400
G01 X25.7978 Y3.8442 Z0.1400
G01 X25.8005 Y3.8442 Z0.1400
G01 X25.8012 Y3.8442 Z0.1400
G01 X26.3356 Y3.8338 Z0.1400
G01 X26.3366 Y3.8338 Z0.1400
G01 X26.3380 Y3.8338 Z0.1400
G01 X26.8703 Y3.8241 Z0.1400
G01 X26.8719 Y3.8241 Z0.1400
G01 X26.8754 Y3.8240 Z0.1400
G01 X26.8763 Y3.8240 Z0.1400
G01 X27.4097 Y3.8150 Z0.1400
G01 X27.4121 Y3.8150 Z0.1400
G01 X27.9466 Y3.8066 Z0.1400
G01 X27.9494 Y3.8065 Z0.1400
G01 X28.4825 Y3.7988 Z0.1400
G01 X28.4842 Y3.7988 Z0.1400
G01 X28.4860 Y3.7987 Z0.1400
G01 X29.0209 Y3.7917 Z0.1400
G01 X29.0229 Y3.7917 Z0.1400
G01 X29.5578 Y3.7852 Z0.1400
G01 X29.5607 Y3.7852 Z0.1400
G01 X30.0950 Y3.7795 Z0.1400
G01 X30.0988 Y3.7794 Z0.1400
G01 X30.6321 Y3.7744 Z0.1400
G01 X30.6344 Y3.7744 Z0.1400
G01 X31.1691 Y3.7699 Z0.1400
G01 X31.1696 Y3.7699 Z0.1400
G01 X31.1732 Y3.7699 Z0.1400
G01 X31.1737 Y3.7698 Z0.1400
G01 X31.7062 Y3.7661 Z0.1400
G01 X31.7076 Y3.7661 Z0.1400
G01 X32.2434 Y3.7630 Z0.1400
G01 X32.2448 Y3.7630 Z0.1400
G01 X32.7805 Y3.7605 Z0.1400
G01 X32.7818 Y3.7605 Z0.1400
G01 X33.3176 Y3.7588 Z0.1400
G01 X33.3189 Y3.7588 Z0.1400
G01 X33.8547 Y3.7577 Z0.1400
G01 X33.8561 Y3.7577 Z0.1400
G01 X34.3918 Y3.7572 Z0.1400
G01 X34.3931 Y3.7572 Z0.1400
G01 X34.9289 Y3.7574 Z0.1400
G01 X34.9303 Y3.7574 Z0.1400
G01 X35.4661 Y3.7583 Z0.1400
G01 X35.4674 Y3.7583 Z0.1400
G01 X36.0032 Y3.7598 Z0.1400
G01 X36.0045 Y3.7598 Z0.1400
G01 X36.5403 Y3.7620 Z0.1400
G01 X36.5417 Y3.7620 Z0.1400
G01 X37.0774 Y3.7649 Z0.1400
G01 X37.0787 Y3.7649 Z0.1400
G01 X37.6145 Y3.7684 Z0.1400
G01 X37.6159 Y3.7684 Z0.1400
G01 X38.1501 Y3.7725 Z0.1400
G01 X38.1520 Y3.7726 Z0.1400
G01 X38.1543 Y3.7726 Z0.1400
G01 X38.6859 Y3.7774 Z0.1400
G01 X38.6901 Y3.7775 Z0.1400
G01 X39.2242 Y3.7830 Z0.1400
G01 X39.2272 Y3.7830 Z0.1400
G01 X39.7619 Y3.7892 Z0.1400
G01 X39.7642 Y3.7892 Z0.1400
G01 X40.2972 Y3.7960 Z0.1400
G01 X40.2980 Y3.7960 Z0.1400
G01 X40.3012 Y3.7961 Z0.1400
G01 X40.8370 Y3.8035 Z0.1400
G01 X40.8383 Y3.8036 Z0.1400
G01 X41.3726 Y3.8117 Z0.1400
G01 X41.3754 Y3.8117 Z0.1400
G01 X41.9087 Y3.8205 Z0.1400
G01 X41.9096 Y3.8205 Z0.1400
G01 X41.9124 Y3.8206 Z0.1400
G01 X42.4481 Y3.8301 Z0.1400
G01 X42.4495 Y3.8301 Z0.1400
G01 X42.9838 Y3.8402 Z0.1400
G01 X42.9845 Y3.8402 Z0.1400
G01 X42.9874 Y3.8403 Z0.1400
G01 X43.5187 Y3.8510 Z0.1400
G01 X43.5212 Y3.8511 Z0.1400
G01 X43.5247 Y3.8511 Z0.1400
G01 X43.5254 Y3.8511 Z0.1400
G01 X44.0586 Y3.8625 Z0.1400
G01 X44.0601 Y3.8626 Z0.1400
G01 X44.5959 Y3.8747 Z0.1400
G01 X44.5975 Y3.8748 Z0.1400
G01 X45.1327 Y3.8876 Z0.1400
G01 X45.1342 Y3.8876 Z0.1400
G01 X45.6671 Y3.9010 Z0.1400
G01 X45.6696 Y3.9011 Z0.1400
G01 X45.6725 Y3.9012 Z0.1400
G01 X46.2052 Y3.9152 Z0.1400
G01 X46.2070 Y3.9152 Z0.1400
G01 X46.2094 Y3.9153 Z0.1400
G01 X46.7428 Y3.9300 Z0.1400
G01 X46.7444 Y3.9301 Z0.1400
G01 X46.7464 Y3.9301 Z0.1400
G01 X47.2808 Y3.9455 Z0.1400
G01 X47.2833 Y3.9456 Z0.1400
G01 X47.8177 Y3.9617 Z0.1400
G01 X47.8196 Y3.9618 Z0.1400
G01 X48.3535 Y3.9785 Z0.1400
G01 X48.3562 Y3.9786 Z0.1400
G01 X48.3573 Y3.9786 Z0.1400
G01 X48.8900 Y3.9960 Z0.1400
G01 X48.8922 Y3.9961 Z0.1400
G01 X48.8949 Y3.9961 Z0.1400
G01 X49.4277 Y4.0141 Z0.1400
G01 X49.4298 Y4.0142 Z0.1400
G01 X49.9650 Y4.0329 Z0.1400
G01 X49.9659 Y4.0330 Z0.1400
G01 X49.9673 Y4.0330 Z0.1400
G01 X50.5006 Y4.0524 Z0.1400
G01 X50.5014 Y4.0524 Z0.1400
G01 X50.5049 Y4.0525 Z0.1400
G01 X51.0385 Y4.0725 Z0.1400
G01 X51.0394 Y4.0725 Z0.1400
G01 X51.0401 Y4.0726 Z0.1400
G01 X51.5753 Y4.0934 Z0.1400
G01 X51.5763 Y4.0934 Z0.1400
G01 X51.5768 Y4.0934 Z0.1400
G01 X52.1118 Y4.1148 Z0.1400
G01 X52.1123 Y4.1148 Z0.1400
G01 X52.1132 Y4.1148 Z0.1400
G01 X52.6476 Y4.1369 Z0.1400
G01 X52.6509 Y4.1370 Z0.1400
G01 X52.6516 Y4.1371 Z0.1400
G01 X53.1852 Y4.1598 Z0.1400
G01 X53.1876 Y4.1599 Z0.1400
G01 X53.1883 Y4.1599 Z0.1400
G01 X53.7202 Y4.1831 Z0.1400
G01 X53.7224 Y4.1832 Z0.1400
G01 X53.7240 Y4.1833 Z0.1400
G01 X54.2574 Y4.2072 Z0.1400
G01 X54.2589 Y4.2073 Z0.1400
G01 X54.2597 Y4.2074 Z0.1400
G01 X54.7949 Y4.2321 Z0.1400
G01 X54.7958 Y4.2321 Z0.1400
G01 X54.7962 Y4.2321 Z0.1400
G01 X55.3314 Y4.2575 Z0.1400
G01 X55.3319 Y4.2575 Z0.1400
G01 X55.3337 Y4.2576 Z0.1400
G01 X55.8677 Y4.2836 Z0.1400
G01 X55.8692 Y4.2837 Z0.1400
G01 X56.4044 Y4.3104 Z0.1400
G01 X56.4053 Y4.3105 Z0.1400
G01 X56.9406 Y4.3379 Z0.1400
G01 X56.9421 Y4.3379 Z0.1400
G01 X57.4772 Y4.3660 Z0.1400
G01 X57.4788 Y4.3661 Z0.1400
G01 X58.0131 Y4.3947 Z0.1400
G01 X58.0138 Y4.3948 Z0.1400
G01 X58.0174 Y4.3950 Z0.1400
G01 X58.5498 Y4.4242 Z0.1400
G01 X58.5508 Y4.4243 Z0.1400
G01 X58.5518 Y4.4243 Z0.1400
G01 X58.5528 Y4.4244 Z0.1400
G01 X59.0857 Y4.4543 Z0.1400
G01 X59.0870 Y4.4544 Z0.1400
G01 X59.6220 Y4.4850 Z0.1400
G01 X59.6237 Y4.4851 Z0.1400
G01 X60.1585 Y4.5165 Z0.1400
G01 X60.1600 Y4.5166 Z0.1400
G01 X64.0254 Y4.7479 Z0.1400
G01 X63.9632 Y5.7861 Z0.1400
G01 X60.0977 Y5.5547 Z0.1400
G01 X59.5628 Y5.5233 Z0.1400
G01 X59.0295 Y5.4927 Z0.1400
G01 X59.0277 Y5.4926 Z0.1400
G01 X58.4929 Y5.4626 Z0.1400
G01 X58.4915 Y5.4625 Z0.1400
G01 X58.4903 Y5.4625 Z0.1400
G01 X57.9579 Y5.4333 Z0.1400
G01 X57.9544 Y5.4331 Z0.1400
G01 X57.4255 Y5.4048 Z0.1400
G01 X57.4221 Y5.4045 Z0.1400
G01 X56.8877 Y5.3765 Z0.1400
G01 X56.8869 Y5.3765 Z0.1400
G01 X56.3525 Y5.3492 Z0.1400
G01 X56.3514 Y5.3491 Z0.1400
G01 X55.8174 Y5.3224 Z0.1400
G01 X55.8166 Y5.3224 Z0.1400
G01 X55.2827 Y5.2964 Z0.1400
G01 X55.2815 Y5.2964 Z0.1400
G01 X54.7473 Y5.2710 Z0.1400
G01 X54.7465 Y5.2710 Z0.1400
G01 X54.7460 Y5.2709 Z0.1400
G01 X54.2117 Y5.2462 Z0.1400
G01 X54.2111 Y5.2462 Z0.1400
G01 X53.6764 Y5.2222 Z0.1400
G01 X53.1411 Y5.1988 Z0.1400
G01 X53.1404 Y5.1988 Z0.1400
G01 X52.6059 Y5.1761 Z0.1400
G01 X52.6050 Y5.1760 Z0.1400
G01 X52.0721 Y5.1540 Z0.1400
G01 X52.0696 Y5.1539 Z0.1400
G01 X51.5367 Y5.1326 Z0.1400
G01 X51.5350 Y5.1326 Z0.1400
G01 X50.9996 Y5.1118 Z0.1400
G01 X50.9988 Y5.1118 Z0.1400
G01 X50.4645 Y5.0917 Z0.1400
G01 X50.4619 Y5.0916 Z0.1400
G01 X50.4600 Y5.0915 Z0.1400
G01 X49.9306 Y5.0724 Z0.1400
G01 X49.9284 Y5.0723 Z0.1400
G01 X49.3931 Y5.0535 Z0.1400
G01 X49.3920 Y5.0535 Z0.1400
G01 X48.8576 Y5.0355 Z0.1400
G01 X48.3220 Y5.0180 Z0.1400
G01 X48.3210 Y5.0180 Z0.1400
G01 X47.7887 Y5.0013 Z0.1400
G01 X47.7871 Y5.0013 Z0.1400
G01 X47.7864 Y5.0013 Z0.1400
G01 X47.2509 Y4.9851 Z0.1400
G01 X47.2495 Y4.9851 Z0.1400
G01 X47.2479 Y4.9850 Z0.1400
G01 X46.7152 Y4.9696 Z0.1400
G01 X46.7148 Y4.9696 Z0.1400
G01 X46.1796 Y4.9548 Z0.1400
G01 X45.6466 Y4.9408 Z0.1400
G01 X45.6453 Y4.9408 Z0.1400
G01 X45.6427 Y4.9407 Z0.1400
G01 X45.1083 Y4.9273 Z0.1400
G01 X45.1072 Y4.9273 Z0.1400
G01 X45.1059 Y4.9272 Z0.1400
G01 X44.5755 Y4.9145 Z0.1400
G01 X44.5743 Y4.9145 Z0.1400
G01 X44.5715 Y4.9144 Z0.1400
G01 X44.0376 Y4.9024 Z0.1400
G01 X44.0360 Y4.9023 Z0.1400
G01 X44.0345 Y4.9023 Z0.1400
G01 X43.5044 Y4.8909 Z0.1400
G01 X43.5033 Y4.8909 Z0.1400
G01 X43.5003 Y4.8909 Z0.1400
G01 X42.9655 Y4.8801 Z0.1400
G01 X42.4319 Y4.8700 Z0.1400
G01 X42.4298 Y4.8699 Z0.1400
G01 X42.4274 Y4.8698 Z0.1400
G01 X41.8978 Y4.8604 Z0.1400
G01 X41.8970 Y4.8604 Z0.1400
G01 X41.8940 Y4.8604 Z0.1400
G01 X41.3583 Y4.8516 Z0.1400
G01 X40.8225 Y4.8434 Z0.1400
G01 X40.8204 Y4.8433 Z0.1400
G01 X40.2910 Y4.8360 Z0.1400
G01 X40.2904 Y4.8360 Z0.1400
G01 X40.2866 Y4.8359 Z0.1400
G01 X39.7509 Y4.8291 Z0.1400
G01 X39.2151 Y4.8229 Z0.1400
G01 X38.6794 Y4.8174 Z0.1400
G01 X38.1435 Y4.8125 Z0.1400
G01 X37.6077 Y4.8084 Z0.1400
G01 X37.0719 Y4.8049 Z0.1400
G01 X36.5361 Y4.8020 Z0.1400
G01 X36.0003 Y4.7998 Z0.1400
G01 X35.4644 Y4.7983 Z0.1400
G01 X34.9286 Y4.7974 Z0.1400
G01 X34.3928 Y4.7972 Z0.1400
G01 X33.8570 Y4.7977 Z0.1400
G01 X33.3212 Y4.7988 Z0.1400
G01 X32.7854 Y4.8005 Z0.1400
G01 X32.2496 Y4.8030 Z0.1400
G01 X31.7137 Y4.8061 Z0.1400
G01 X31.1778 Y4.8099 Z0.1400
G01 X31.1731 Y4.8099 Z0.1400
G01 X30.6437 Y4.8143 Z0.1400
G01 X30.6416 Y4.8143 Z0.1400
G01 X30.1063 Y4.8194 Z0.1400
G01 X29.5705 Y4.8251 Z0.1400
G01 X29.0347 Y4.8316 Z0.1400
G01 X28.4990 Y4.8387 Z0.1400
G01 X27.9631 Y4.8464 Z0.1400
G01 X27.4274 Y4.8548 Z0.1400
G01 X26.8915 Y4.8639 Z0.1400
G01 X26.8888 Y4.8639 Z0.1400
G01 X26.8880 Y4.8640 Z0.1400
G01 X26.3579 Y4.8736 Z0.1400
G01 X26.3552 Y4.8737 Z0.1400
G01 X26.3547 Y4.8737 Z0.1400
G01 X25.8201 Y4.8841 Z0.1400
G01 X25.2851 Y4.8951 Z0.1400
G01 X25.2823 Y4.8951 Z0.1400
G01 X25.2813 Y4.8952 Z0.1400
G01 X24.7509 Y4.9068 Z0.1400
G01 X24.7490 Y4.9068 Z0.1400
G01 X24.7469 Y4.9069 Z0.1400
G01 X24.2140 Y4.9192 Z0.1400
G01 X24.2113 Y4.9192 Z0.1400
G01 X24.2101 Y4.9193 Z0.1400
G01 X23.6796 Y4.9322 Z0.1400
G01 X23.6784 Y4.9323 Z0.1400
G01 X23.6772 Y4.9323 Z0.1400
G01 X23.1429 Y4.9460 Z0.1400
G01 X23.1403 Y4.9460 Z0.1400
G01 X23.1390 Y4.9461 Z0.1400
G01 X22.6088 Y4.9603 Z0.1400
G01 X22.6068 Y4.9603 Z0.1400
G01 X22.6057 Y4.9604 Z0.1400
G01 X22.0717 Y4.9754 Z0.1400
G01 X22.0694 Y4.9754 Z0.1400
G01 X22.0679 Y4.9755 Z0.1400
G01 X21.5353 Y4.9911 Z0.1400
G01 X21.5347 Y4.9911 Z0.1400
G01 X20.9993 Y5.0074 Z0.1400
G01 X20.4644 Y5.0245 Z0.1400
G01 X20.4636 Y5.0245 Z0.1400
G01 X19.9286 Y5.0422 Z0.1400
G01 X19.9277 Y5.0422 Z0.1400
G01 X19.9259 Y5.0422 Z0.1400
G01 X19.3963 Y5.0604 Z0.1400
G01 X19.3952 Y5.0604 Z0.1400
G01 X19.3921 Y5.0605 Z0.1400
G01 X18.8579 Y5.0796 Z0.1400
G01 X18.8570 Y5.0796 Z0.1400
G01 X18.3216 Y5.0992 Z0.1400
G01 X18.3197 Y5.0993 Z0.1400
G01 X17.7870 Y5.1195 Z0.1400
G01 X17.7861 Y5.1195 Z0.1400
G01 X17.2549 Y5.1404 Z0.1400
G01 X17.2538 Y5.1405 Z0.1400
G01 X17.2497 Y5.1407 Z0.1400
G01 X16.7172 Y5.1622 Z0.1400
G01 X16.7157 Y5.1622 Z0.1400
G01 X16.7135 Y5.1623 Z0.1400
G01 X16.1805 Y5.1845 Z0.1400
G01 X16.1799 Y5.1846 Z0.1400
G01 X15.6456 Y5.2075 Z0.1400
G01 X15.6447 Y5.2075 Z0.1400
G01 X15.1100 Y5.2312 Z0.1400
G01 X15.1093 Y5.2312 Z0.1400
G01 X14.5755 Y5.2554 Z0.1400
G01 X14.5741 Y5.2555 Z0.1400
G01 X14.0388 Y5.2805 Z0.1400
G01 X14.0373 Y5.2805 Z0.1400
G01 X13.5085 Y5.3059 Z0.1400
G01 X13.5076 Y5.3059 Z0.1400
G01 X13.5069 Y5.3059 Z0.1400
G01 X13.5037 Y5.3061 Z0.1400
G01 X12.9725 Y5.3322 Z0.1400
G01 X12.9718 Y5.3322 Z0.1400
G01 X12.9711 Y5.3323 Z0.1400
G01 X12.9687 Y5.3324 Z0.1400
G01 X12.4366 Y5.3592 Z0.1400
G01 X12.4338 Y5.3593 Z0.1400
G01 X12.4332 Y5.3594 Z0.1400
G01 X11.9027 Y5.3868 Z0.1400
G01 X11.9019 Y5.3868 Z0.1400
G01 X11.9012 Y5.3868 Z0.1400
G01 X11.8983 Y5.3870 Z0.1400
G01 X11.3648 Y5.4152 Z0.1400
G01 X11.3638 Y5.4153 Z0.1400
G01 X11.3630 Y5.4153 Z0.1400
G01 X10.8290 Y5.4442 Z0.1400
G01 X10.8282 Y5.4442 Z0.1400
G01 X10.2931 Y5.4738 Z0.1400
G01 X10.2924 Y5.4739 Z0.1400
G01 X9.7581 Y5.5041 Z0.1400
G01 X9.2237 Y5.5350 Z0.1400
G01 X9.2230 Y5.5351 Z0.1400
G01 X8.6881 Y5.5666 Z0.1400
G01 X8.6873 Y5.5667 Z0.1400
G01 X8.6854 Y5.5668 Z0.1400
G01 X8.1534 Y5.5989 Z0.1400
G01 X8.1529 Y5.5990 Z0.1400
G01 X8.1519 Y5.5990 Z0.1400
G01 X7.6186 Y5.6318 Z0.1400
G01 X3.7553 Y5.8743 Z0.1400
G01 X3.6901 Y4.8364 Z0.1400
G01 X3.6901 Y4.8364 Z0.0000
G01 X7.5533 Y4.5939 Z0.0000
G01 X7.5570 Y4.5937 Z0.0000
G01 X7.5577 Y4.5936 Z0.0000
G01 X7.5585 Y4.5936 Z0.0000
G01 X8.0894 Y4.5609 Z0.0000
G01 X8.0902 Y4.5609 Z0.0000
G01 X8.0908 Y4.5608 Z0.0000
G01 X8.0914 Y4.5608 Z0.0000
G01 X8.0919 Y4.5607 Z0.0000
G01 X8.6246 Y4.5286 Z0.0000
G01 X8.6257 Y4.5285 Z0.0000
G01 X8.6292 Y4.5283 Z0.0000
G01 X9.1618 Y4.4969 Z0.0000
G01 X9.1629 Y4.4968 Z0.0000
G01 X9.6979 Y4.4659 Z0.0000
G01 X9.6988 Y4.4658 Z0.0000
G01 X9.6998 Y4.4657 Z0.0000
G01 X10.2341 Y4.4355 Z0.0000
G01 X10.2351 Y4.4355 Z0.0000
G01 X10.7703 Y4.4058 Z0.0000
G01 X10.7711 Y4.4058 Z0.0000
G01 X10.7718 Y4.4057 Z0.0000
G01 X11.3054 Y4.3769 Z0.0000
G01 X11.3072 Y4.3768 Z0.0000
G01 X11.3082 Y4.3768 Z0.0000
G01 X11.8394 Y4.3487 Z0.0000
G01 X11.8401 Y4.3487 Z0.0000
G01 X11.8408 Y4.3486 Z0.0000
G01 X11.8445 Y4.3484 Z0.0000
G01 X12.3770 Y4.3209 Z0.0000
G01 X12.3775 Y4.3209 Z0.0000
G01 X12.3782 Y4.3208 Z0.0000
G01 X12.3805 Y4.3207 Z0.0000
G01 X12.9127 Y4.2939 Z0.0000
G01 X12.9133 Y4.2938 Z0.0000
G01 X12.9140 Y4.2938 Z0.0000
G01 X12.9172 Y4.2937 Z0.0000
G01 X13.4484 Y4.2675 Z0.0000
G01 X13.4492 Y4.2675 Z0.0000
G01 X13.4499 Y4.2675 Z0.0000
G01 X13.4538 Y4.2673 Z0.0000
G01 X13.9869 Y4.2418 Z0.0000
G01 X13.9878 Y4.2417 Z0.0000
G01 X13.9904 Y4.2416 Z0.0000
G01 X14.5213 Y4.2169 Z0.0000
G01 X14.5269 Y4.2166 Z0.0000
G01 X15.0616 Y4.1924 Z0.0000
G01 X15.0634 Y4.1922 Z0.0000
G01 X15.5977 Y4.1686 Z0.0000
G01 X15.6005 Y4.1685 Z0.0000
G01 X16.1343 Y4.1455 Z0.0000
G01 X16.1348 Y4.1455 Z0.0000
G01 X16.1373 Y4.1454 Z0.0000
G01 X16.6701 Y4.1232 Z0.0000
G01 X16.6715 Y4.1231 Z0.0000
G01 X16.6733 Y4.1231 Z0.0000
G01 X17.2053 Y4.1015 Z0.0000
G01 X17.2068 Y4.1015 Z0.0000
G01 X17.2100 Y4.1014 Z0.0000
G01 X17.7444 Y4.0804 Z0.0000
G01 X17.7453 Y4.0804 Z0.0000
G01 X17.7478 Y4.0803 Z0.0000
G01 X18.2818 Y4.0600 Z0.0000
G01 X18.2834 Y4.0600 Z0.0000
G01 X18.8177 Y4.0403 Z0.0000
G01 X18.8188 Y4.0403 Z0.0000
G01 X18.8214 Y4.0401 Z0.0000
G01 X19.3530 Y4.0212 Z0.0000
G01 X19.3542 Y4.0212 Z0.0000
G01 X19.3577 Y4.0211 Z0.0000
G01 X19.3592 Y4.0211 Z0.0000
G01 X19.8913 Y4.0028 Z0.0000
G01 X19.8929 Y4.0028 Z0.0000
G01 X19.8938 Y4.0027 Z0.0000
G01 X20.4281 Y3.9851 Z0.0000
G01 X20.4298 Y3.9851 Z0.0000
G01 X20.4324 Y3.9850 Z0.0000
G01 X20.9636 Y3.9680 Z0.0000
G01 X20.9669 Y3.9680 Z0.0000
G01 X20.9692 Y3.9679 Z0.0000
G01 X21.5021 Y3.9517 Z0.0000
G01 X21.5046 Y3.9516 Z0.0000
G01 X22.0398 Y3.9359 Z0.0000
G01 X22.0409 Y3.9358 Z0.0000
G01 X22.5748 Y3.9208 Z0.0000
G01 X22.5761 Y3.9208 Z0.0000
G01 X22.5796 Y3.9207 Z0.0000
G01 X23.1137 Y3.9064 Z0.0000
G01 X23.1151 Y3.9063 Z0.0000
G01 X23.6506 Y3.8926 Z0.0000
G01 X23.6523 Y3.8926 Z0.0000
G01 X24.1875 Y3.8795 Z0.0000
G01 X24.1891 Y3.8795 Z0.0000
G01 X24.7246 Y3.8671 Z0.0000
G01 X24.7252 Y3.8671 Z0.0000
G01 X24.7266 Y3.8671 Z0.0000
G01 X25.2597 Y3.8554 Z0.0000
G01 X25.2603 Y3.8554 Z0.0000
G01 X25.2639 Y3.8553 Z0.0000
G01 X25.2663 Y3.8552 Z0.0000
G01 X25.7978 Y3.8442 Z0.0000
G01 X25.8005 Y3.8442 Z0.0000
G01 X25.8012 Y3.8442 Z0.0000
G01 X26.3356 Y3.8338 Z0.0000
G01 X26.3366 Y3.8338 Z0.0000
G01 X26.3380 Y3.8338 Z0.0000
G01 X26.8703 Y3.8241 Z0.0000
G01 X26.8719 Y3.8241 Z0.0000
G01 X26.8754 Y3.8240 Z0.0000
G01 X26.8763 Y3.8240 Z0.0000
G01 X27.4097 Y3.8150 Z0.0000
G01 X27.4121 Y3.8150 Z0.0000
G01 X27.9466 Y3.8066 Z0.0000
G01 X27.9494 Y3.8065 Z0.0000
G01 X28.4825 Y3.7988 Z0.0000
G01 X28.4842 Y3.7988 Z0.0000
G01 X28.4860 Y3.7987 Z0.0000
G01 X29.0209 Y3.7917 Z0.0000
G01 X29.0229 Y3.7917 Z0.0000
G01 X29.5578 Y3.7852 Z0.0000
G01 X29.5607 Y3.7852 Z0.0000
G01 X30.0950 Y3.7795 Z0.0000
G01 X30.0988 Y3.7794 Z0.0000
G01 X30.6321 Y3.7744 Z0.0000
G01 X30.6344 Y3.7744 Z0.0000
G01 X31.1691 Y3.7699 Z0.0000
G01 X31.1696 Y3.7699 Z0.0000
G01 X31.1732 Y3.7699 Z0.0000
G01 X31.1737 Y3.7698 Z0.0000
G01 X31.7062 Y3.7661 Z0.0000
G01 X31.7076 Y3.7661 Z0.0000
G01 X32.2434 Y3.7630 Z0.0000
G01 X32.2448 Y3.7630 Z0.0000
G01 X32.7805 Y3.7605 Z0.0000
G01 X32.7818 Y3.7605 Z0.0000
G01 X33.3176 Y3.7588 Z0.0000
G01 X33.3189 Y3.7588 Z0.0000
G01 X33.8547 Y3.7577 Z0.0000
G01 X33.8561 Y3.7577 Z0.0000
G01 X34.3918 Y3.7572 Z0.0000
G01 X34.3931 Y3.7572 Z0.0000
G01 X34.9289 Y3.7574 Z0.0000
G01 X34.9303 Y3.7574 Z0.0000
G01 X35.4661 Y3.7583 Z0.0000
G01 X35.4674 Y3.7583 Z0.0000
G01 X36.0032 Y3.7598 Z0.0000
G01 X36.0045 Y3.7598 Z0.0000
G01 X36.5403 Y3.7620 Z0.0000
G01 X36.5417 Y3.7620 Z0.0000
G01 X37.0774 Y3.7649 Z0.0000
G01 X37.0787 Y3.7649 Z0.0000
G01 X37.6145 Y3.7684 Z0.0000
G01 X37.6159 Y3.7684 Z0.0000
G01 X38.1501 Y3.7725 Z0.0000
G01 X38.1520 Y3.7726 Z0.0000
G01 X38.1543 Y3.7726 Z0.0000
G01 X38.6859 Y3.7774 Z0.0000
G01 X38.6901 Y3.7775 Z0.0000
G01 X39.2242 Y3.7830 Z0.0000
G01 X39.2272 Y3.7830 Z0.0000
G01 X39.7619 Y3.7892 Z0.0000
G01 X39.7642 Y3.7892 Z0.0000
G01 X40.2972 Y3.7960 Z0.0000
G01 X40.2980 Y3.7960 Z0.0000
G01 X40.3012 Y3.7961 Z0.0000
G01 X40.8370 Y3.8035 Z0.0000
G01 X40.8383 Y3.8036 Z0.0000
G01 X41.3726 Y3.8117 Z0.0000
G01 X41.3754 Y3.8117 Z0.0000
G01 X41.9087 Y3.8205 Z0.0000
G01 X41.9096 Y3.8205 Z0.0000
G01 X41.9124 Y3.8206 Z0.0000
G01 X42.4481 Y3.8301 Z0.0000
G01 X42.4495 Y3.8301 Z0.0000
G01 X42.9838 Y3.8402 Z0.0000
G01 X42.9845 Y3.8402 Z0.0000
G01 X42.9874 Y3.8403 Z0.0000
G01 X43.5187 Y3.8510 Z0.0000
G01 X43.5212 Y3.8511 Z0.0000
G01 X43.5247 Y3.8511 Z0.0000
G01 X43.5254 Y3.8511 Z0.0000
G01 X44.0586 Y3.8625 Z0.0000
G01 X44.0601 Y3.8626 Z0.0000
G01 X44.5959 Y3.8747 Z0.0000
G01 X44.5975 Y3.8748 Z0.0000
G01 X45.1327 Y3.8876 Z0.0000
G01 X45.1342 Y3.8876 Z0.0000
G01 X45.6671 Y3.9010 Z0.0000
G01 X45.6696 Y3.9011 Z0.0000
G01 X45.6725 Y3.9012 Z0.0000
G01 X46.2052 Y3.9152 Z0.0000
G01 X46.2070 Y3.9152 Z0.0000
G01 X46.2094 Y3.9153 Z0.0000
G01 X46.7428 Y3.9300 Z0.0000
G01 X46.7444 Y3.9301 Z0.0000
G01 X46.7464 Y3.9301 Z0.0000
G01 X47.2808 Y3.9455 Z0.0000
G01 X47.2833 Y3.9456 Z0.0000
G01 X47.8177 Y3.9617 Z0.0000
G01 X47.8196 Y3.9618 Z0.0000
G01 X48.3535 Y3.9785 Z0.0000
G01 X48.3562 Y3.9786 Z0.0000
G01 X48.3573 Y3.9786 Z0.0000
G01 X48.8900 Y3.9960 Z0.0000
G01 X48.8922 Y3.9961 Z0.0000
G01 X48.8949 Y3.9961 Z0.0000
G01 X49.4277 Y4.0141 Z0.0000
G01 X49.4298 Y4.0142 Z0.0000
G01 X49.9650 Y4.0329 Z0.0000
G01 X49.9659 Y4.0330 Z0.0000
G01 X49.9673 Y4.0330 Z0.0000
G01 X50.5006 Y4.0524 Z0.0000
G01 X50.5014 Y4.0524 Z0.0000
G01 X50.5049 Y4.0525 Z0.0000
G01 X51.0385 Y4.0725 Z0.0000
G01 X51.0394 Y4.0725 Z0.0000
G01 X51.0401 Y4.0726 Z0.0000
G01 X51.5753 Y4.0934 Z0.0000
G01 X51.5763 Y4.0934 Z0.0000
G01 X51.5768 Y4.0934 Z0.0000
G01 X52.1118 Y4.1148 Z0.0000
G01 X52.1123 Y4.1148 Z0.0000
G01 X52.1132 Y4.1148 Z0.0000
G01 X52.6476 Y4.1369 Z0.0000
G01 X52.6509 Y4.1370 Z0.0000
G01 X52.6516 Y4.1371 Z0.0000
G01 X53.1852 Y4.1598 Z0.0000
G01 X53.1876 Y4.1599 Z0.0000
G01 X53.1883 Y4.1599 Z0.0000
G01 X53.7202 Y4.1831 Z0.0000
G01 X53.7224 Y4.1832 Z0.0000
G01 X53.7240 Y4.1833 Z0.0000
G01 X54.2574 Y4.2072 Z0.0000
G01 X54.2589 Y4.2073 Z0.0000
G01 X54.2597 Y4.2074 Z0.0000
G01 X54.7949 Y4.2321 Z0.0000
G01 X54.7958 Y4.2321 Z0.0000
G01 X54.7962 Y4.2321 Z0.0000
G01 X55.3314 Y4.2575 Z0.0000
G01 X55.3319 Y4.2575 Z0.0000
G01 X55.3337 Y4.2576 Z0.0000
G01 X55.8677 Y4.2836 Z0.0000
G01 X55.8692 Y4.2837 Z0.0000
G01 X56.4044 Y4.3104 Z0.0000
G01 X56.4053 Y4.3105 Z0.0000
G01 X56.9406 Y4.3379 Z0.0000
G01 X56.9421 Y4.3379 Z0.0000
G01 X57.4772 Y4.3660 Z0.0000
G01 X57.4788 Y4.3661 Z0.0000
G01 X58.0131 Y4.3947 Z0.0000
G01 X58.0138 Y4.3948 Z0.0000
G01 X58.0174 Y4.3950 Z0.0000
G01 X58.5498 Y4.4242 Z0.0000
G01 X58.5508 Y4.4243 Z0.0000
G01 X58.5518 Y4.4243 Z0.0000
G01 X58.5528 Y4.4244 Z0.0000
G01 X59.0857 Y4.4543 Z0.0000
G01 X59.0870 Y4.4544 Z0.0000
G01 X59.6220 Y4.4850 Z0.0000
G01 X59.6237 Y4.4851 Z0.0000
G01 X60.1585 Y4.5165 Z0.0000
G01 X60.1600 Y4.5166 Z0.0000
G01 X64.0254 Y4.7479 Z0.0000
G01 X63.9632 Y5.7861 Z0.0000
G01 X60.0977 Y5.5547 Z0.0000
G01 X59.5628 Y5.5233 Z0.0000
G01 X59.0295 Y5.4927 Z0.0000
G01 X59.0277 Y5.4926 Z0.0000
G01 X58.4929 Y5.4626 Z0.0000
G01 X58.4915 Y5.4625 Z0.0000
G01 X58.4903 Y5.4625 Z0.0000
G01 X57.9579 Y5.4333 Z0.0000
G01 X57.9544 Y5.4331 Z0.0000
G01 X57.4255 Y5.4048 Z0.0000
G01 X57.4221 Y5.4045 Z0.0000
G01 X56.8877 Y5.3765 Z0.0000
G01 X56.8869 Y5.3765 Z0.0000
G01 X56.3525 Y5.3492 Z0.0000
G01 X56.3514 Y5.3491 Z0.0000
G01 X55.8174 Y5.3224 Z0.0000
G01 X55.8166 Y5.3224 Z0.0000
G01 X55.2827 Y5.2964 Z0.0000
G01 X55.2815 Y5.2964 Z0.0000
G01 X54.7473 Y5.2710 Z0.0000
G01 X54.7465 Y5.2710 Z0.0000
G01 X54.7460 Y5.2709 Z0.0000
G01 X54.2117 Y5.2462 Z0.0000
G01 X54.2111 Y5.2462 Z0.0000
G01 X53.6764 Y5.2222 Z0.0000
G01 X53.1411 Y5.1988 Z0.0000
G01 X53.1404 Y5.1988 Z0.0000
G01 X52.6059 Y5.1761 Z0.0000
G01 X52.6050 Y5.1760 Z0.0000
G01 X52.0721 Y5.1540 Z0.0000
G01 X52.0696 Y5.1539 Z0.0000
G01 X51.5367 Y5.1326 Z0.0000
G01 X51.5350 Y5.1326 Z0.0000
G01 X50.9996 Y5.1118 Z0.0000
G01 X50.9988 Y5.1118 Z0.0000
G01 X50.4645 Y5.0917 Z0.0000
G01 X50.4619 Y5.0916 Z0.0000
G01 X50.4600 Y5.0915 Z0.0000
G01 X49.9306 Y5.0724 Z0.0000
G01 X49.9284 Y5.0723 Z0.0000
G01 X49.3931 Y5.0535 Z0.0000
G01 X49.3920 Y5.0535 Z0.0000
G01 X48.8576 Y5.0355 Z0.0000
G01 X48.3220 Y5.0180 Z0.0000
G01 X48.3210 Y5.0180 Z0.0000
G01 X47.7887 Y5.0013 Z0.0000
G01 X47.7871 Y5.0013 Z0.0000
G01 X47.7864 Y5.0013 Z0.0000
G01 X47.2509 Y4.9851 Z0.0000
G01 X47.2495 Y4.9851 Z0.0000
G01 X47.2479 Y4.9850 Z0.0000
G01 X46.7152 Y4.9696 Z0.0000
G01 X46.7148 Y4.9696 Z0.0000
G01 X46.1796 Y4.9548 Z0.0000
G01 X45.6466 Y4.9408 Z0.0000
G01 X45.6453 Y4.9408 Z0.0000
G01 X45.6427 Y4.9407 Z0.0000
G01 X45.1083 Y4.9273 Z0.0000
G01 X45.1072 Y4.9273 Z0.0000
G01 X45.1059 Y4.9272 Z0.0000
G01 X44.5755 Y4.9145 Z0.0000
G01 X44.5743 Y4.9145 Z0.0000
G01 X44.5715 Y4.9144 Z0.0000
G01 X44.0376 Y4.9024 Z0.0000
G01 X44.0360 Y4.9023 Z0.0000
G01 X44.0345 Y4.9023 Z0.0000
G01 X43.5044 Y4.8909 Z0.0000
G01 X43.5033 Y4.8909 Z0.0000
G01 X43.5003 Y4.8909 Z0.0000
G01 X42.9655 Y4.8801 Z0.0000
G01 X42.4319 Y4.8700 Z0.0000
G01 X42.4298 Y4.8699 Z0.0000
G01 X42.4274 Y4.8698 Z0.0000
G01 X41.8978 Y4.8604 Z0.0000
G01 X41.8970 Y4.8604 Z0.0000
G01 X41.8940 Y4.8604 Z0.0000
G01 X41.3583 Y4.8516 Z0.0000
G01 X40.8225 Y4.8434 Z0.0000
G01 X40.8204 Y4.8433 Z0.0000
G01 X40.2910 Y4.8360 Z0.0000
G01 X40.2904 Y4.8360 Z0.0000
G01 X40.2866 Y4.8359 Z0.0000
G01 X39.7509 Y4.8291 Z0.0000
G01 X39.2151 Y4.8229 Z0.0000
G01 X38.6794 Y4.8174 Z0.0000
G01 X38.1435 Y4.8125 Z0.0000
G01 X37.6077 Y4.8084 Z0.0000
G01 X37.0719 Y4.8049 Z0.0000
G01 X36.5361 Y4.8020 Z0.0000
G01 X36.0003 Y4.7998 Z0.0000
G01 X35.4644 Y4.7983 Z0.0000
G01 X34.9286 Y4.7974 Z0.0000
G01 X34.3928 Y4.7972 Z0.0000
G01 X33.8570 Y4.7977 Z0.0000
G01 X33.3212 Y4.7988 Z0.0000
G01 X32.7854 Y4.8005 Z0.0000
G01 X32.2496 Y4.8030 Z0.0000
G01 X31.7137 Y4.8061 Z0.0000
G01 X31.1778 Y4.8099 Z0.0000
G01 X31.1731 Y4.8099 Z0.0000
G01 X30.6437 Y4.8143 Z0.0000
G01 X30.6416 Y4.8143 Z0.0000
G01 X30.1063 Y4.8194 Z0.0000
G01 X29.5705 Y4.8251 Z0.0000
G01 X29.0347 Y4.8316 Z0.0000
G01 X28.4990 Y4.8387 Z0.0000
G01 X27.9631 Y4.8464 Z0.0000
G01 X27.4274 Y4.8548 Z0.0000
G01 X26.8915 Y4.8639 Z0.0000
G01 X26.8888 Y4.8639 Z0.0000
G01 X26.8880 Y4.8640 Z0.0000
G01 X26.3579 Y4.8736 Z0.0000
G01 X26.3552 Y4.8737 Z0.0000
G01 X26.3547 Y4.8737 Z0.0000
G01 X25.8201 Y4.8841 Z0.0000
G01 X25.2851 Y4.8951 Z0.0000
G01 X25.2823 Y4.8951 Z0.0000
G01 X25.2813 Y4.8952 Z0.0000
G01 X24.7509 Y4.9068 Z0.0000
G01 X24.7490 Y4.9068 Z0.0000
G01 X24.7469 Y4.9069 Z0.0000
G01 X24.2140 Y4.9192 Z0.0000
G01 X24.2113 Y4.9192 Z0.0000
G01 X24.2101 Y4.9193 Z0.0000
G01 X23.6796 Y4.9322 Z0.0000
G01 X23.6784 Y4.9323 Z0.0000
G01 X23.6772 Y4.9323 Z0.0000
G01 X23.1429 Y4.9460 Z0.0000
G01 X23.1403 Y4.9460 Z0.0000
G01 X23.1390 Y4.9461 Z0.0000
G01 X22.6088 Y4.9603 Z0.0000
G01 X22.6068 Y4.9603 Z0.0000
G01 X22.6057 Y4.9604 Z0.0000
G01 X22.0717 Y4.9754 Z0.0000
G01 X22.0694 Y4.9754 Z0.0000
G01 X22.0679 Y4.9755 Z0.0000
G01 X21.5353 Y4.9911 Z0.0000
G01 X21.5347 Y4.9911 Z0.0000
G01 X20.9993 Y5.0074 Z0.0000
G01 X20.4644 Y5.0245 Z0.0000
G01 X20.4636 Y5.0245 Z0.0000
G01 X19.9286 Y5.0422 Z0.0000
G01 X19.9277 Y5.0422 Z0.0000
G01 X19.9259 Y5.0422 Z0.0000
G01 X19.3963 Y5.0604 Z0.0000
G01 X19.3952 Y5.0604 Z0.0000
G01 X19.3921 Y5.0605 Z0.0000
G01 X18.8579 Y5.0796 Z0.0000
G01 X18.8570 Y5.0796 Z0.0000
G01 X18.3216 Y5.0992 Z0.0000
G01 X18.3197 Y5.0993 Z0.0000
G01 X17.7870 Y5.1195 Z0.0000
G01 X17.7861 Y5.1195 Z0.0000
G01 X17.2549 Y5.1404 Z0.0000
G01 X17.2538 Y5.1405 Z0.0000
G01 X17.2497 Y5.1407 Z0.0000
G01 X16.7172 Y5.1622 Z0.0000
G01 X16.7157 Y5.1622 Z0.0000
G01 X16.7135 Y5.1623 Z0.0000
G01 X16.1805 Y5.1845 Z0.0000
G01 X16.1799 Y5.1846 Z0.0000
G01 X15.6456 Y5.2075 Z0.0000
G01 X15.6447 Y5.2075 Z0.0000
G01 X15.1100 Y5.2312 Z0.0000
G01 X15.1093 Y5.2312 Z0.0000
G01 X14.5755 Y5.2554 Z0.0000
G01 X14.5741 Y5.2555 Z0.0000
G01 X14.0388 Y5.2805 Z0.0000
G01 X14.0373 Y5.2805 Z0.0000
G01 X13.5085 Y5.3059 Z0.0000
G01 X13.5076 Y5.3059 Z0.0000
G01 X13.5069 Y5.3059 Z0.0000
G01 X13.5037 Y5.3061 Z0.0000
G01 X12.9725 Y5.3322 Z0.0000
G01 X12.9718 Y5.3322 Z0.0000
G01 X12.9711 Y5.3323 Z0.0000
G01 X12.9687 Y5.3324 Z0.0000
G01 X12.4366 Y5.3592 Z0.0000
G01 X12.4338 Y5.3593 Z0.0000
G01 X12.4332 Y5.3594 Z0.0000
G01 X11.9027 Y5.3868 Z0.0000
G01 X11.9019 Y5.3868 Z0.0000
G01 X11.9012 Y5.3868 Z0.0000
G01 X11.8983 Y5.3870 Z0.0000
G01 X11.3648 Y5.4152 Z0.0000
G01 X11.3638 Y5.4153 Z0.0000
G01 X11.3630 Y5.4153 Z0.0000
G01 X10.8290 Y5.4442 Z0.0000
G01 X10.8282 Y5.4442 Z0.0000
G01 X10.2931 Y5.4738 Z0.0000
G01 X10.2924 Y5.4739 Z0.0000
G01 X9.7581 Y5.5041 Z0.0000
G01 X9.2237 Y5.5350 Z0.0000
G01 X9.2230 Y5.5351 Z0.0000
G01 X8.6881 Y5.5666 Z0.0000
G01 X8.6873 Y5.5667 Z0.0000
G01 X8.6854 Y5.5668 Z0.0000
G01 X8.1534 Y5.5989 Z0.0000
G01 X8.1529 Y5.5990 Z0.0000
G01 X8.1519 Y5.5990 Z0.0000
G01 X7.6186 Y5.6318 Z0.0000
G01 X3.7553 Y5.8743 Z0.0000
G01 X3.6901 Y4.8364 Z0.0000
G00 X3.6901 Y4.8364 Z0.6000
G00 X3.6901 Y-4.8364 Z0.6000
G01 X3.6901 Y-4.8364 Z0.2800
G01 X3.7553 Y-5.8743 Z0.2800
G01 X7.6185 Y-5.6318 Z0.2800
G01 X8.1515 Y-5.5990 Z0.2800
G01 X8.1525 Y-5.5990 Z0.2800
G01 X8.1534 Y-5.5989 Z0.2800
G01 X8.6854 Y-5.5668 Z0.2800
G01 X8.6873 Y-5.5667 Z0.2800
G01 X8.6882 Y-5.5666 Z0.2800
G01 X9.2230 Y-5.5351 Z0.2800
G01 X9.2237 Y-5.5350 Z0.2800
G01 X9.7579 Y-5.5041 Z0.2800
G01 X10.2923 Y-5.4739 Z0.2800
G01 X10.2931 Y-5.4738 Z0.2800
G01 X10.8279 Y-5.4442 Z0.2800
G01 X10.8288 Y-5.4442 Z0.2800
G01 X11.3630 Y-5.4153 Z0.2800
G01 X11.3638 Y-5.4153 Z0.2800
G01 X11.3645 Y-5.4152 Z0.2800
G01 X11.8981 Y-5.3870 Z0.2800
G01 X11.9012 Y-5.3868 Z0.2800
G01 X11.9019 Y-5.3868 Z0.2800
G01 X11.9027 Y-5.3868 Z0.2800
G01 X12.4332 Y-5.3594 Z0.2800
G01 X12.4338 Y-5.3593 Z0.2800
G01 X12.4363 Y-5.3592 Z0.2800
G01 X12.9684 Y-5.3324 Z0.2800
G01 X12.9711 Y-5.3323 Z0.2800
G01 X12.9718 Y-5.3322 Z0.2800
G01 X12.9725 Y-5.3322 Z0.2800
G01 X13.5035 Y-5.3061 Z0.2800
G01 X13.5060 Y-5.3060 Z0.2800
G01 X13.5066 Y-5.3059 Z0.2800
G01 X13.5085 Y-5.3059 Z0.2800
G01 X14.0373 Y-5.2805 Z0.2800
G01 X14.0388 Y-5.2805 Z0.2800
G01 X14.5740 Y-5.2555 Z0.2800
G01 X14.5755 Y-5.2554 Z0.2800
G01 X15.1093 Y-5.2312 Z0.2800
G01 X15.1100 Y-5.2312 Z0.2800
G01 X15.6446 Y-5.2075 Z0.2800
G01 X15.6456 Y-5.2075 Z0.2800
G01 X16.1799 Y-5.1846 Z0.2800
G01 X16.1805 Y-5.1845 Z0.2800
G01 X16.7135 Y-5.1623 Z0.2800
G01 X16.7157 Y-5.1622 Z0.2800
G01 X16.7172 Y-5.1622 Z0.2800
G01 X17.2497 Y-5.1407 Z0.2800
G01 X17.2538 Y-5.1405 Z0.2800
G01 X17.2549 Y-5.1404 Z0.2800
G01 X17.7861 Y-5.1195 Z0.2800
G01 X17.7870 Y-5.1195 Z0.2800
G01 X18.3197 Y-5.0993 Z0.2800
G01 X18.3216 Y-5.0992 Z0.2800
G01 X18.8570 Y-5.0796 Z0.2800
G01 X18.8579 Y-5.0796 Z0.2800
G01 X19.3921 Y-5.0605 Z0.2800
G01 X19.3952 Y-5.0604 Z0.2800
G01 X19.3963 Y-5.0604 Z0.2800
G01 X19.9259 Y-5.0422 Z0.2800
G01 X19.9277 Y-5.0422 Z0.2800
G01 X19.9286 Y-5.0422 Z0.2800
G01 X20.4636 Y-5.0245 Z0.2800
G01 X20.4644 Y-5.0245 Z0.2800
G01 X20.9991 Y-5.0075 Z0.2800
G01 X21.5347 Y-4.9911 Z0.2800
G01 X21.5353 Y-4.9911 Z0.2800
G01 X22.0679 Y-4.9755 Z0.2800
G01 X22.0694 Y-4.9754 Z0.2800
G01 X22.0717 Y-4.9754 Z0.2800
G01 X22.6057 Y-4.9604 Z0.2800
G01 X22.6068 Y-4.9603 Z0.2800
G01 X22.6088 Y-4.9603 Z0.2800
G01 X23.1390 Y-4.9461 Z0.2800
G01 X23.1403 Y-4.9460 Z0.2800
G01 X23.1429 Y-4.9460 Z0.2800
G01 X23.6772 Y-4.9323 Z0.2800
G01 X23.6784 Y-4.9323 Z0.2800
G01 X23.6796 Y-4.9322 Z0.2800
G01 X24.2101 Y-4.9193 Z0.2800
G01 X24.2113 Y-4.9192 Z0.2800
G01 X24.2140 Y-4.9192 Z0.2800
G01 X24.7469 Y-4.9069 Z0.2800
G01 X24.7490 Y-4.9068 Z0.2800
G01 X24.7509 Y-4.9068 Z0.2800
G01 X25.2813 Y-4.8952 Z0.2800
G01 X25.2823 Y-4.8951 Z0.2800
G01 X25.2851 Y-4.8951 Z0.2800
G01 X25.8200 Y-4.8841 Z0.2800
G01 X26.3547 Y-4.8737 Z0.2800
G01 X26.3552 Y-4.8737 Z0.2800
G01 X26.3579 Y-4.8736 Z0.2800
G01 X26.8880 Y-4.8640 Z0.2800
G01 X26.8888 Y-4.8639 Z0.2800
G01 X26.8915 Y-4.8639 Z0.2800
G01 X27.4272 Y-4.8548 Z0.2800
G01 X27.9630 Y-4.8464 Z0.2800
G01 X28.4988 Y-4.8387 Z0.2800
G01 X29.0346 Y-4.8316 Z0.2800
G01 X29.5703 Y-4.8251 Z0.2800
G01 X30.1061 Y-4.8194 Z0.2800
G01 X30.6414 Y-4.8143 Z0.2800
G01 X30.6437 Y-4.8143 Z0.2800
G01 X31.1731 Y-4.8099 Z0.2800
G01 X31.1778 Y-4.8099 Z0.2800
G01 X31.7136 Y-4.8061 Z0.2800
G01 X32.2494 Y-4.8030 Z0.2800
G01 X32.7852 Y-4.8005 Z0.2800
G01 X33.3211 Y-4.7988 Z0.2800
G01 X33.8569 Y-4.7977 Z0.2800
G01 X34.3926 Y-4.7972 Z0.2800
G01 X34.9285 Y-4.7974 Z0.2800
G01 X35.4643 Y-4.7983 Z0.2800
G01 X36.0001 Y-4.7998 Z0.2800
G01 X36.5359 Y-4.8020 Z0.2800
G01 X37.0718 Y-4.8049 Z0.2800
G01 X37.6076 Y-4.8084 Z0.2800
G01 X38.1433 Y-4.8125 Z0.2800
G01 X38.6792 Y-4.8174 Z0.2800
G01 X39.2150 Y-4.8229 Z0.2800
G01 X39.7508 Y-4.8291 Z0.2800
G01 X40.2866 Y-4.8359 Z0.2800
G01 X40.2904 Y-4.8360 Z0.2800
G01 X40.2910 Y-4.8360 Z0.2800
G01 X40.8204 Y-4.8433 Z0.2800
G01 X40.8225 Y-4.8434 Z0.2800
G01 X41.3581 Y-4.8516 Z0.2800
G01 X41.8940 Y-4.8604 Z0.2800
G01 X41.8970 Y-4.8604 Z0.2800
G01 X41.8978 Y-4.8604 Z0.2800
G01 X42.4274 Y-4.8698 Z0.2800
G01 X42.4298 Y-4.8699 Z0.2800
G01 X42.4319 Y-4.8700 Z0.2800
G01 X42.9654 Y-4.8801 Z0.2800
G01 X43.5003 Y-4.8909 Z0.2800
G01 X43.5033 Y-4.8909 Z0.2800
G01 X43.5044 Y-4.8909 Z0.2800
G01 X44.0345 Y-4.9023 Z0.2800
G01 X44.0360 Y-4.9023 Z0.2800
G01 X44.0376 Y-4.9024 Z0.2800
G01 X44.5715 Y-4.9144 Z0.2800
G01 X44.5743 Y-4.9145 Z0.2800
G01 X44.5755 Y-4.9145 Z0.2800
G01 X45.1059 Y-4.9272 Z0.2800
G01 X45.1072 Y-4.9273 Z0.2800
G01 X45.1083 Y-4.9273 Z0.2800
G01 X45.6427 Y-4.9407 Z0.2800
G01 X45.6453 Y-4.9408 Z0.2800
G01 X45.6466 Y-4.9408 Z0.2800
G01 X46.1794 Y-4.9548 Z0.2800
G01 X46.7148 Y-4.9696 Z0.2800
G01 X46.7152 Y-4.9696 Z0.2800
G01 X47.2479 Y-4.9850 Z0.2800
G01 X47.2495 Y-4.9851 Z0.2800
G01 X47.2509 Y-4.9851 Z0.2800
G01 X47.7864 Y-5.0012 Z0.2800
G01 X47.7871 Y-5.0013 Z0.2800
G01 X47.7887 Y-5.0013 Z0.2800
G01 X48.3210 Y-5.0180 Z0.2800
G01 X48.3220 Y-5.0180 Z0.2800
G01 X48.8574 Y-5.0355 Z0.2800
G01 X49.3920 Y-5.0535 Z0.2800
G01 X49.3931 Y-5.0535 Z0.2800
G01 X49.9284 Y-5.0723 Z0.2800
G01 X49.9306 Y-5.0724 Z0.2800
G01 X50.4600 Y-5.0915 Z0.2800
G01 X50.4619 Y-5.0916 Z0.2800
G01 X50.4645 Y-5.0917 Z0.2800
G01 X50.9988 Y-5.1118 Z0.2800
G01 X50.9996 Y-5.1118 Z0.2800
G01 X51.5350 Y-5.1326 Z0.2800
G01 X51.5367 Y-5.1326 Z0.2800
G01 X52.0696 Y-5.1539 Z0.2800
G01 X52.0721 Y-5.1540 Z0.2800
G01 X52.6050 Y-5.1760 Z0.2800
G01 X52.6059 Y-5.1761 Z0.2800
G01 X53.1404 Y-5.1988 Z0.2800
G01 X53.1411 Y-5.1988 Z0.2800
G01 X53.6762 Y-5.2222 Z0.2800
G01 X54.2111 Y-5.2462 Z0.2800
G01 X54.2117 Y-5.2462 Z0.2800
G01 X54.7460 Y-5.2709 Z0.2800
G01 X54.7465 Y-5.2710 Z0.2800
G01 X54.7473 Y-5.2710 Z0.2800
G01 X55.2815 Y-5.2964 Z0.2800
G01 X55.2827 Y-5.2964 Z0.2800
G01 X55.8166 Y-5.3224 Z0.2800
G01 X55.8174 Y-5.3224 Z0.2800
G01 X56.3514 Y-5.3491 Z0.2800
G01 X56.3525 Y-5.3492 Z0.2800
G01 X56.8869 Y-5.3765 Z0.2800
G01 X56.8877 Y-5.3765 Z0.2800
G01 X57.4221 Y-5.4045 Z0.2800
G01 X57.4251 Y-5.4047 Z0.2800
G01 X57.9540 Y-5.4331 Z0.2800
G01 X57.9579 Y-5.4333 Z0.2800
G01 X58.4903 Y-5.4625 Z0.2800
G01 X58.4915 Y-5.4625 Z0.2800
G01 X58.4929 Y-5.4626 Z0.2800
G01 X59.0277 Y-5.4926 Z0.2800
G01 X59.0291 Y-5.4927 Z0.2800
G01 X59.5626 Y-5.5233 Z0.2800
G01 X60.0975 Y-5.5547 Z0.2800
G01 X60.0982 Y-5.5547 Z0.2800
G01 X63.9632 Y-5.7861 Z0.2800
G01 X64.0254 Y-4.7479 Z0.2800
G01 X60.1600 Y-4.5165 Z0.2800
G01 X60.1588 Y-4.5165 Z0.2800
G01 X59.6237 Y-4.4851 Z0.2800
G01 X59.6220 Y-4.4850 Z0.2800
G01 X59.0874 Y-4.4544 Z0.2800
G01 X59.0857 Y-4.4543 Z0.2800
G01 X58.5528 Y-4.4244 Z0.2800
G01 X58.5518 Y-4.4243 Z0.2800
G01 X58.5508 Y-4.4243 Z0.2800
G01 X58.5498 Y-4.4242 Z0.2800
G01 X58.0174 Y-4.3950 Z0.2800
G01 X58.0138 Y-4.3948 Z0.2800
G01 X58.0131 Y-4.3947 Z0.2800
G01 X57.4788 Y-4.3660 Z0.2800
G01 X57.4773 Y-4.3660 Z0.2800
G01 X56.9421 Y-4.3379 Z0.2800
G01 X56.9406 Y-4.3379 Z0.2800
G01 X56.4057 Y-4.3105 Z0.2800
G01 X56.4044 Y-4.3104 Z0.2800
G01 X55.8693 Y-4.2837 Z0.2800
G01 X55.8677 Y-4.2836 Z0.2800
G01 X55.3337 Y-4.2576 Z0.2800
G01 X55.3319 Y-4.2575 Z0.2800
G01 X55.3314 Y-4.2575 Z0.2800
G01 X54.7962 Y-4.2321 Z0.2800
G01 X54.7958 Y-4.2321 Z0.2800
G01 X54.7949 Y-4.2321 Z0.2800
G01 X54.2597 Y-4.2074 Z0.2800
G01 X54.2589 Y-4.2073 Z0.2800
G01 X54.2574 Y-4.2072 Z0.2800
G01 X53.7240 Y-4.1833 Z0.2800
G01 X53.7224 Y-4.1832 Z0.2800
G01 X53.7202 Y-4.1831 Z0.2800
G01 X53.1883 Y-4.1599 Z0.2800
G01 X53.1876 Y-4.1599 Z0.2800
G01 X53.1852 Y-4.1598 Z0.2800
G01 X52.6516 Y-4.1371 Z0.2800
G01 X52.6509 Y-4.1370 Z0.2800
G01 X52.6477 Y-4.1369 Z0.2800
G01 X52.1132 Y-4.1148 Z0.2800
G01 X52.1123 Y-4.1148 Z0.2800
G01 X52.1118 Y-4.1148 Z0.2800
G01 X51.5768 Y-4.0934 Z0.2800
G01 X51.5763 Y-4.0934 Z0.2800
G01 X51.5753 Y-4.0934 Z0.2800
G01 X51.0401 Y-4.0726 Z0.2800
G01 X51.0394 Y-4.0725 Z0.2800
G01 X51.0385 Y-4.0725 Z0.2800
G01 X50.5053 Y-4.0525 Z0.2800
G01 X50.5014 Y-4.0524 Z0.2800
G01 X50.5006 Y-4.0524 Z0.2800
G01 X49.9673 Y-4.0330 Z0.2800
G01 X49.9659 Y-4.0330 Z0.2800
G01 X49.9650 Y-4.0329 Z0.2800
G01 X49.4301 Y-4.0142 Z0.2800
G01 X49.4277 Y-4.0141 Z0.2800
G01 X48.8949 Y-3.9961 Z0.2800
G01 X48.8922 Y-3.9961 Z0.2800
G01 X48.8900 Y-3.9960 Z0.2800
G01 X48.3573 Y-3.9786 Z0.2800
G01 X48.3562 Y-3.9786 Z0.2800
G01 X48.3535 Y-3.9785 Z0.2800
G01 X47.8196 Y-3.9617 Z0.2800
G01 X47.8181 Y-3.9617 Z0.2800
G01 X47.2837 Y-3.9456 Z0.2800
G01 X47.2808 Y-3.9455 Z0.2800
G01 X46.7464 Y-3.9301 Z0.2800
G01 X46.7444 Y-3.9301 Z0.2800
G01 X46.7428 Y-3.9300 Z0.2800
G01 X46.2094 Y-3.9153 Z0.2800
G01 X46.2070 Y-3.9152 Z0.2800
G01 X46.2052 Y-3.9152 Z0.2800
G01 X45.6725 Y-3.9012 Z0.2800
G01 X45.6696 Y-3.9011 Z0.2800
G01 X45.6671 Y-3.9010 Z0.2800
G01 X45.1345 Y-3.8876 Z0.2800
G01 X45.1327 Y-3.8876 Z0.2800
G01 X44.5976 Y-3.8748 Z0.2800
G01 X44.5959 Y-3.8747 Z0.2800
G01 X44.0605 Y-3.8626 Z0.2800
G01 X44.0586 Y-3.8625 Z0.2800
G01 X43.5254 Y-3.8511 Z0.2800
G01 X43.5247 Y-3.8511 Z0.2800
G01 X43.5212 Y-3.8511 Z0.2800
G01 X43.5187 Y-3.8510 Z0.2800
G01 X42.9874 Y-3.8402 Z0.2800
G01 X42.9845 Y-3.8402 Z0.2800
G01 X42.9838 Y-3.8402 Z0.2800
G01 X42.4495 Y-3.8301 Z0.2800
G01 X42.4481 Y-3.8301 Z0.2800
G01 X41.9124 Y-3.8206 Z0.2800
G01 X41.9096 Y-3.8205 Z0.2800
G01 X41.9087 Y-3.8205 Z0.2800
G01 X41.3754 Y-3.8117 Z0.2800
G01 X41.3729 Y-3.8117 Z0.2800
G01 X40.8383 Y-3.8036 Z0.2800
G01 X40.8371 Y-3.8035 Z0.2800
G01 X40.3012 Y-3.7961 Z0.2800
G01 X40.2980 Y-3.7960 Z0.2800
G01 X40.2972 Y-3.7960 Z0.2800
G01 X39.7642 Y-3.7892 Z0.2800
G01 X39.7619 Y-3.7892 Z0.2800
G01 X39.2272 Y-3.7830 Z0.2800
G01 X39.2242 Y-3.7830 Z0.2800
G01 X38.6901 Y-3.7775 Z0.2800
G01 X38.6859 Y-3.7774 Z0.2800
G01 X38.1543 Y-3.7726 Z0.2800
G01 X38.1520 Y-3.7726 Z0.2800
G01 X38.1501 Y-3.7725 Z0.2800
G01 X37.6159 Y-3.7684 Z0.2800
G01 X37.6145 Y-3.7684 Z0.2800
G01 X37.0787 Y-3.7649 Z0.2800
G01 X37.0774 Y-3.7649 Z0.2800
G01 X36.5417 Y-3.7620 Z0.2800
G01 X36.5403 Y-3.7620 Z0.2800
G01 X36.0045 Y-3.7598 Z0.2800
G01 X36.0032 Y-3.7598 Z0.2800
G01 X35.4674 Y-3.7583 Z0.2800
G01 X35.4661 Y-3.7583 Z0.2800
G01 X34.9303 Y-3.7574 Z0.2800
G01 X34.9289 Y-3.7574 Z0.2800
G01 X34.3931 Y-3.7572 Z0.2800
G01 X34.3918 Y-3.7572 Z0.2800
G01 X33.8561 Y-3.7577 Z0.2800
G01 X33.8547 Y-3.7577 Z0.2800
G01 X33.3189 Y-3.7588 Z0.2800
G01 X33.3176 Y-3.7588 Z0.2800
G01 X32.7818 Y-3.7605 Z0.2800
G01 X32.7805 Y-3.7605 Z0.2800
G01 X32.2448 Y-3.7630 Z0.2800
G01 X32.2434 Y-3.7630 Z0.2800
G01 X31.7076 Y-3.7661 Z0.2800
G01 X31.7062 Y-3.7661 Z0.2800
G01 X31.1737 Y-3.7698 Z0.2800
G01 X31.1732 Y-3.7699 Z0.2800
G01 X31.1696 Y-3.7699 Z0.2800
G01 X31.1691 Y-3.7699 Z0.2800
G01 X30.6348 Y-3.7744 Z0.2800
G01 X30.6321 Y-3.7744 Z0.2800
G01 X30.0988 Y-3.7794 Z0.2800
G01 X30.0950 Y-3.7795 Z0.2800
G01 X29.5607 Y-3.7852 Z0.2800
G01 X29.5578 Y-3.7852 Z0.2800
G01 X29.0229 Y-3.7917 Z0.2800
G01 X29.0209 Y-3.7917 Z0.2800
G01 X28.4860 Y-3.7987 Z0.2800
G01 X28.4842 Y-3.7988 Z0.2800
G01 X28.4825 Y-3.7988 Z0.2800
G01 X27.9497 Y-3.8065 Z0.2800
G01 X27.9466 Y-3.8066 Z0.2800
G01 X27.4121 Y-3.8150 Z0.2800
G01 X27.4097 Y-3.8150 Z0.2800
G01 X26.8763 Y-3.8240 Z0.2800
G01 X26.8754 Y-3.8240 Z0.2800
G01 X26.8719 Y-3.8241 Z0.2800
G01 X26.8703 Y-3.8241 Z0.2800
G01 X26.3380 Y-3.8338 Z0.2800
G01 X26.3366 Y-3.8338 Z0.2800
G01 X26.3356 Y-3.8338 Z0.2800
G01 X25.8012 Y-3.8442 Z0.2800
G01 X25.8005 Y-3.8442 Z0.2800
G01 X25.7978 Y-3.8443 Z0.2800
G01 X25.2663 Y-3.8552 Z0.2800
G01 X25.2639 Y-3.8553 Z0.2800
G01 X25.2603 Y-3.8554 Z0.2800
G01 X25.2597 Y-3.8554 Z0.2800
G01 X24.7266 Y-3.8671 Z0.2800
G01 X24.7252 Y-3.8671 Z0.2800
G01 X24.7246 Y-3.8671 Z0.2800
G01 X24.1891 Y-3.8795 Z0.2800
G01 X24.1875 Y-3.8795 Z0.2800
G01 X23.6523 Y-3.8926 Z0.2800
G01 X23.6509 Y-3.8926 Z0.2800
G01 X23.1151 Y-3.9063 Z0.2800
G01 X23.1137 Y-3.9064 Z0.2800
G01 X22.5796 Y-3.9207 Z0.2800
G01 X22.5761 Y-3.9208 Z0.2800
G01 X22.5748 Y-3.9208 Z0.2800
G01 X22.0412 Y-3.9358 Z0.2800
G01 X22.0398 Y-3.9359 Z0.2800
G01 X21.5050 Y-3.9515 Z0.2800
G01 X21.5021 Y-3.9517 Z0.2800
G01 X20.9692 Y-3.9679 Z0.2800
G01 X20.9669 Y-3.9680 Z0.2800
G01 X20.9636 Y-3.9680 Z0.2800
G01 X20.4324 Y-3.9850 Z0.2800
G01 X20.4298 Y-3.9851 Z0.2800
G01 X20.4281 Y-3.9851 Z0.2800
G01 X19.8938 Y-4.0027 Z0.2800
G01 X19.8929 Y-4.0028 Z0.2800
G01 X19.8913 Y-4.0028 Z0.2800
G01 X19.3592 Y-4.0211 Z0.2800
G01 X19.3577 Y-4.0211 Z0.2800
G01 X19.3542 Y-4.0212 Z0.2800
G01 X19.3530 Y-4.0212 Z0.2800
G01 X18.8214 Y-4.0401 Z0.2800
G01 X18.8188 Y-4.0403 Z0.2800
G01 X18.8177 Y-4.0403 Z0.2800
G01 X18.2834 Y-4.0600 Z0.2800
G01 X18.2822 Y-4.0600 Z0.2800
G01 X17.7478 Y-4.0803 Z0.2800
G01 X17.7453 Y-4.0804 Z0.2800
G01 X17.7444 Y-4.0804 Z0.2800
G01 X17.2100 Y-4.1014 Z0.2800
G01 X17.2068 Y-4.1015 Z0.2800
G01 X17.2053 Y-4.1015 Z0.2800
G01 X16.6733 Y-4.1231 Z0.2800
G01 X16.6715 Y-4.1231 Z0.2800
G01 X16.6701 Y-4.1232 Z0.2800
G01 X16.1373 Y-4.1454 Z0.2800
G01 X16.1348 Y-4.1455 Z0.2800
G01 X16.1343 Y-4.1455 Z0.2800
G01 X15.6005 Y-4.1685 Z0.2800
G01 X15.5980 Y-4.1686 Z0.2800
G01 X15.0634 Y-4.1922 Z0.2800
G01 X15.0616 Y-4.1924 Z0.2800
G01 X14.5269 Y-4.2166 Z0.2800
G01 X14.5214 Y-4.2168 Z0.2800
G01 X13.9904 Y-4.2416 Z0.2800
G01 X13.9878 Y-4.2417 Z0.2800
G01 X13.9869 Y-4.2418 Z0.2800
G01 X13.4538 Y-4.2673 Z0.2800
G01 X13.4499 Y-4.2675 Z0.2800
G01 X13.4492 Y-4.2675 Z0.2800
G01 X13.4484 Y-4.2675 Z0.2800
G01 X12.9174 Y-4.2937 Z0.2800
G01 X12.9140 Y-4.2938 Z0.2800
G01 X12.9133 Y-4.2938 Z0.2800
G01 X12.9127 Y-4.2939 Z0.2800
G01 X12.3809 Y-4.3207 Z0.2800
G01 X12.3782 Y-4.3208 Z0.2800
G01 X12.3775 Y-4.3209 Z0.2800
G01 X12.3770 Y-4.3209 Z0.2800
G01 X11.8445 Y-4.3484 Z0.2800
G01 X11.8408 Y-4.3486 Z0.2800
G01 X11.8401 Y-4.3487 Z0.2800
G01 X11.8394 Y-4.3487 Z0.2800
G01 X11.3082 Y-4.3768 Z0.2800
G01 X11.3072 Y-4.3768 Z0.2800
G01 X11.3054 Y-4.3769 Z0.2800
G01 X10.7718 Y-4.4057 Z0.2800
G01 X10.7711 Y-4.4058 Z0.2800
G01 X10.7703 Y-4.4058 Z0.2800
G01 X10.2355 Y-4.4354 Z0.2800
G01 X10.2344 Y-4.4355 Z0.2800
G01 X9.6999 Y-4.4657 Z0.2800
G01 X9.6990 Y-4.4658 Z0.2800
G01 X9.6979 Y-4.4658 Z0.2800
G01 X9.1630 Y-4.4968 Z0.2800
G01 X9.1618 Y-4.4969 Z0.2800
G01 X8.6296 Y-4.5283 Z0.2800
G01 X8.6257 Y-4.5285 Z0.2800
G01 X8.6246 Y-4.5286 Z0.2800
G01 X8.0919 Y-4.5607 Z0.2800
G01 X8.0914 Y-4.5608 Z0.2800
G01 X8.0908 Y-4.5608 Z0.2800
G01 X8.0902 Y-4.5609 Z0.2800
G01 X8.0894 Y-4.5609 Z0.2800
G01 X7.5585 Y-4.5936 Z0.2800
G01 X7.5577 Y-4.5936 Z0.2800
G01 X7.5570 Y-4.5937 Z0.2800
G01 X7.5533 Y-4.5938 Z0.2800
G01 X3.6901 Y-4.8364 Z0.2800
G01 X3.6901 Y-4.8364 Z0.1400
G01 X3.7553 Y-5.8743 Z0.1400
G01 X7.6185 Y-5.6318 Z0.1400
G01 X8.1515 Y-5.5990 Z0.1400
G01 X8.1525 Y-5.5990 Z0.1400
G01 X8.1534 Y-5.5989 Z0.1400
G01 X8.6854 Y-5.5668 Z0.1400
G01 X8.6873 Y-5.5667 Z0.1400
G01 X8.6882 Y-5.5666 Z0.1400
G01 X9.2230 Y-5.5351 Z0.1400
G01 X9.2237 Y-5.5350 Z0.1400
G01 X9.7579 Y-5.5041 Z0.1400
G01 X10.2923 Y-5.4739 Z0.1400
G01 X10.2931 Y-5.4738 Z0.1400
G01 X10.8279 Y-5.4442 Z0.1400
G01 X10.8288 Y-5.4442 Z0.1400
G01 X11.3630 Y-5.4153 Z0.1400
G01 X11.3638 Y-5.4153 Z0.1400
G01 X11.3645 Y-5.4152 Z0.1400
G01 X11.8981 Y-5.3870 Z0.1400
G01 X11.9012 Y-5.3868 Z0.1400
G01 X11.9019 Y-5.3868 Z0.1400
G01 X11.9027 Y-5.3868 Z0.1400
G01 X12.4332 Y-5.3594 Z0.1400
G01 X12.4338 Y-5.3593 Z0.1400
G01 X12.4363 Y-5.3592 Z0.1400
G01 X12.9684 Y-5.3324 Z0.1400
G01 X12.9711 Y-5.3323 Z0.1400
G01 X12.9718 Y-5.3322 Z0.1400
G01 X12.9725 Y-5.3322 Z0.1400
G01 X13.5035 Y-5.3061 Z0.1400
G01 X13.5060 Y-5.3060 Z0.1400
G01 X13.5066 Y-5.3059 Z0.1400
G01 X13.5085 Y-5.3059 Z0.1400
G01 X14.0373 Y-5.2805 Z0.1400
G01 X14.0388 Y-5.2805 Z0.1400
G01 X14.5740 Y-5.2555 Z0.1400
G01 X14.5755 Y-5.2554 Z0.1400
G01 X15.1093 Y-5.2312 Z0.1400
G01 X15.1100 Y-5.2312 Z0.1400
G01 X15.6446 Y-5.2075 Z0.1400
G01 X15.6456 Y-5.2075 Z0.1400
G01 X16.1799 Y-5.1846 Z0.1400
G01 X16.1805 Y-5.1845 Z0.1400
G01 X16.7135 Y-5.1623 Z0.1400
G01 X16.7157 Y-5.1622 Z0.1400
G01 X16.7172 Y-5.1622 Z0.1400
G01 X17.2497 Y-5.1407 Z0.1400
G01 X17.2538 Y-5.1405 Z0.1400
G01 X17.2549 Y-5.1404 Z0.1400
G01 X17.7861 Y-5.1195 Z0.1400
G01 X17.7870 Y-5.1195 Z0.1400
G01 X18.3197 Y-5.0993 Z0.1400
G01 X18.3216 Y-5.0992 Z0.1400
G01 X18.8570 Y-5.0796 Z0.1400
G01 X18.8579 Y-5.0796 Z0.1400
G01 X19.3921 Y-5.0605 Z0.1400
G01 X19.3952 Y-5.0604 Z0.1400
G01 X19.3963 Y-5.0604 Z0.1400
G01 X19.9259 Y-5.0422 Z0.1400
G01 X19.9277 Y-5.0422 Z0.1400
G01 X19.9286 Y-5.0422 Z0.1400
G01 X20.4636 Y-5.0245 Z0.1400
G01 X20.4644 Y-5.0245 Z0.1400
G01 X20.9991 Y-5.0075 Z0.1400
G01 X21.5347 Y-4.9911 Z0.1400
G01 X21.5353 Y-4.9911 Z0.1400
G01 X22.0679 Y-4.9755 Z0.1400
G01 X22.0694 Y-4.9754 Z0.1400
G01 X22.0717 Y-4.9754 Z0.1400
G01 X22.6057 Y-4.9604 Z0.1400
G01 X22.6068 Y-4.9603 Z0.1400
G01 X22.6088 Y-4.9603 Z0.1400
G01 X23.1390 Y-4.9461 Z0.1400
G01 X23.1403 Y-4.9460 Z0.1400
G01 X23.1429 Y-4.9460 Z0.1400
G01 X23.6772 Y-4.9323 Z0.1400
G01 X23.6784 Y-4.9323 Z0.1400
G01 X23.6796 Y-4.9322 Z0.1400
G01 X24.2101 Y-4.9193 Z0.1400
G01 X24.2113 Y-4.9192 Z0.1400
G01 X24.2140 Y-4.9192 Z0.1400
G01 X24.7469 Y-4.9069 Z0.1400
G01 X24.7490 Y-4.9068 Z0.1400
G01 X24.7509 Y-4.9068 Z0.1400
G01 X25.2813 Y-4.8952 Z0.1400
G01 X25.2823 Y-4.8951 Z0.1400
G01 X25.2851 Y-4.8951 Z0.1400
G01 X25.8200 Y-4.8841 Z0.1400
G01 X26.3547 Y-4.8737 Z0.1400
G01 X26.3552 Y-4.8737 Z0.1400
G01 X26.3579 Y-4.8736 Z0.1400
G01 X26.8880 Y-4.8640 Z0.1400
G01 X26.8888 Y-4.8639 Z0.1400
G01 X26.8915 Y-4.8639 Z0.1400
G01 X27.4272 Y-4.8548 Z0.1400
G01 X27.9630 Y-4.8464 Z0.1400
G01 X28.4988 Y-4.8387 Z0.1400
G01 X29.0346 Y-4.8316 Z0.1400
G01 X29.5703 Y-4.8251 Z0.1400
G01 X30.1061 Y-4.8194 Z0.1400
G01 X30.6414 Y-4.8143 Z0.1400
G01 X30.6437 Y-4.8143 Z0.1400
G01 X31.1731 Y-4.8099 Z0.1400
G01 X31.1778 Y-4.8099 Z0.1400
G01 X31.7136 Y-4.8061 Z0.1400
G01 X32.2494 Y-4.8030 Z0.1400
G01 X32.7852 Y-4.8005 Z0.1400
G01 X33.3211 Y-4.7988 Z0.1400
G01 X33.8569 Y-4.7977 Z0.1400
G01 X34.3926 Y-4.7972 Z0.1400
G01 X34.9285 Y-4.7974 Z0.1400
G01 X35.4643 Y-4.7983 Z0.1400
G01 X36.0001 Y-4.7998 Z0.1400
G01 X36.5359 Y-4.8020 Z0.1400
G01 X37.0718 Y-4.8049 Z0.1400
G01 X37.6076 Y-4.8084 Z0.1400
G01 X38.1433 Y-4.8125 Z0.1400
G01 X38.6792 Y-4.8174 Z0.1400
G01 X39.2150 Y-4.8229 Z0.1400
G01 X39.7508 Y-4.8291 Z0.1400
G01 X40.2866 Y-4.8359 Z0.1400
G01 X40.2904 Y-4.8360 Z0.1400
G01 X40.2910 Y-4.8360 Z0.1400
G01 X40.8204 Y-4.8433 Z0.1400
G01 X40.8225 Y-4.8434 Z0.1400
G01 X41.3581 Y-4.8516 Z0.1400
G01 X41.8940 Y-4.8604 Z0.1400
G01 X41.8970 Y-4.8604 Z0.1400
G01 X41.8978 Y-4.8604 Z0.1400
G01 X42.4274 Y-4.8698 Z0.1400
G01 X42.4298 Y-4.8699 Z0.1400
G01 X42.4319 Y-4.8700 Z0.1400
G01 X42.9654 Y-4.8801 Z0.1400
G01 X43.5003 Y-4.8909 Z0.1400
G01 X43.5033 Y-4.8909 Z0.1400
G01 X43.5044 Y-4.8909 Z0.1400
G01 X44.0345 Y-4.9023 Z0.1400
G01 X44.0360 Y-4.9023 Z0.1400
G01 X44.0376 Y-4.9024 Z0.1400
G01 X44.5715 Y-4.9144 Z0.1400
G01 X44.5743 Y-4.9145 Z0.1400
G01 X44.5755 Y-4.9145 Z0.1400
G01 X45.1059 Y-4.9272 Z0.1400
G01 X45.1072 Y-4.9273 Z0.1400
G01 X45.1083 Y-4.9273 Z0.1400
G01 X45.6427 Y-4.9407 Z0.1400
G01 X45.6453 Y-4.9408 Z0.1400
G01 X45.6466 Y-4.9408 Z0.1400
G01 X46.1794 Y-4.9548 Z0.1400
G01 X46.7148 Y-4.9696 Z0.1400
G01 X46.7152 Y-4.9696 Z0.1400
G01 X47.2479 Y-4.9850 Z0.1400
G01 X47.2495 Y-4.9851 Z0.1400
G01 X47.2509 Y-4.9851 Z0.1400
G01 X47.7864 Y-5.0012 Z0.1400
G01 X47.7871 Y-5.0013 Z0.1400
G01 X47.7887 Y-5.0013 Z0.1400
G01 X48.3210 Y-5.0180 Z0.1400
G01 X48.3220 Y-5.0180 Z0.1400
G01 X48.8574 Y-5.0355 Z0.1400
G01 X49.3920 Y-5.0535 Z0.1400
G01 X49.3931 Y-5.0535 Z0.1400
G01 X49.9284 Y-5.0723 Z0.1400
G01 X49.9306 Y-5.0724 Z0.1400
G01 X50.4600 Y-5.0915 Z0.1400
G01 X50.4619 Y-5.0916 Z0.1400
G01 X50.4645 Y-5.0917 Z0.1400
G01 X50.9988 Y-5.1118 Z0.1400
G01 X50.9996 Y-5.1118 Z0.1400
G01 X51.5350 Y-5.1326 Z0.1400
G01 X51.5367 Y-5.1326 Z0.1400
G01 X52.0696 Y-5.1539 Z0.1400
G01 X52.0721 Y-5.1540 Z0.1400
G01 X52.6050 Y-5.1760 Z0.1400
G01 X52.6059 Y-5.1761 Z0.1400
G01 X53.1404 Y-5.1988 Z0.1400
G01 X53.1411 Y-5.1988 Z0.1400
G01 X53.6762 Y-5.2222 Z0.1400
G01 X54.2111 Y-5.2462 Z0.1400
G01 X54.2117 Y-5.2462 Z0.1400
G01 X54.7460 Y-5.2709 Z0.1400
G01 X54.7465 Y-5.2710 Z0.1400
G01 X54.7473 Y-5.2710 Z0.1400
G01 X55.2815 Y-5.2964 Z0.1400
G01 X55.2827 Y-5.2964 Z0.1400
G01 X55.8166 Y-5.3224 Z0.1400
G01 X55.8174 Y-5.3224 Z0.1400
G01 X56.3514 Y-5.3491 Z0.1400
G01 X56.3525 Y-5.3492 Z0.1400
G01 X56.8869 Y-5.3765 Z0.1400
G01 X56.8877 Y-5.3765 Z0.1400
G01 X57.4221 Y-5.4045 Z0.1400
G01 X57.4251 Y-5.4047 Z0.1400
G01 X57.9540 Y-5.4331 Z0.1400
G01 X57.9579 Y-5.4333 Z0.1400
G01 X58.4903 Y-5.4625 Z0.1400
G01 X58.4915 Y-5.4625 Z0.1400
G01 X58.4929 Y-5.4626 Z0.1400
G01 X59.0277 Y-5.4926 Z0.1400
G01 X59.0291 Y-5.4927 Z0.1400
G01 X59.5626 Y-5.5233 Z0.1400
G01 X60.0975 Y-5.5547 Z0.1400
G01 X60.0982 Y-5.5547 Z0.1400
G01 X63.9632 Y-5.7861 Z0.1400
G01 X64.0254 Y-4.7479 Z0.1400
G01 X60.1600 Y-4.5165 Z0.1400
G01 X60.1588 Y-4.5165 Z0.1400
G01 X59.6237 Y-4.4851 Z0.1400
G01 X59.6220 Y-4.4850 Z0.1400
G01 X59.0874 Y-4.4544 Z0.1400
G01 X59.0857 Y-4.4543 Z0.1400
G01 X58.5528 Y-4.4244 Z0.1400
G01 X58.5518 Y-4.4243 Z0.1400
G01 X58.5508 Y-4.4243 Z0.1400
G01 X58.5498 Y-4.4242 Z0.1400
G01 X58.0174 Y-4.3950 Z0.1400
G01 X58.0138 Y-4.3948 Z0.1400
G01 X58.0131 Y-4.3947 Z0.1400
G01 X57.4788 Y-4.3660 Z0.1400
G01 X57.4773 Y-4.3660 Z0.1400
G01 X56.9421 Y-4.3379 Z0.1400
G01 X56.9406 Y-4.3379 Z0.1400
G01 X56.4057 Y-4.3105 Z0.1400
G01 X56.4044 Y-4.3104 Z0.1400
G01 X55.8693 Y-4.2837 Z0.1400
G01 X55.8677 Y-4.2836 Z0.1400
G01 X55.3337 Y-4.2576 Z0.1400
G01 X55.3319 Y-4.2575 Z0.1400
G01 X55.3314 Y-4.2575 Z0.1400
G01 X54.7962 Y-4.2321 Z0.1400
G01 X54.7958 Y-4.2321 Z0.1400
G01 X54.7949 Y-4.2321 Z0.1400
G01 X54.2597 Y-4.2074 Z0.1400
G01 X54.2589 Y-4.2073 Z0.1400
G01 X54.2574 Y-4.2072 Z0.1400
G01 X53.7240 Y-4.1833 Z0.1400
G01 X53.7224 Y-4.1832 Z0.1400
G01 X53.7202 Y-4.1831 Z0.1400
G01 X53.1883 Y-4.1599 Z0.1400
G01 X53.1876 Y-4.1599 Z0.1400
G01 X53.1852 Y-4.1598 Z0.1400
G01 X52.6516 Y-4.1371 Z0.1400
G01 X52.6509 Y-4.1370 Z0.1400
G01 X52.6477 Y-4.1369 Z0.1400
G01 X52.1132 Y-4.1148 Z0.1400
G01 X52.1123 Y-4.1148 Z0.1400
G01 X52.1118 Y-4.1148 Z0.1400
G01 X51.5768 Y-4.0934 Z0.1400
G01 X51.5763 Y-4.0934 Z0.1400
G01 X51.5753 Y-4.0934 Z0.1400
G01 X51.0401 Y-4.0726 Z0.1400
G01 X51.0394 Y-4.0725 Z0.1400
G01 X51.0385 Y-4.0725 Z0.1400
G01 X50.5053 Y-4.0525 Z0.1400
G01 X50.5014 Y-4.0524 Z0.1400
G01 X50.5006 Y-4.0524 Z0.1400
G01 X49.9673 Y-4.0330 Z0.1400
G01 X49.9659 Y-4.0330 Z0.1400
G01 X49.9650 Y-4.0329 Z0.1400
G01 X49.4301 Y-4.0142 Z0.1400
G01 X49.4277 Y-4.0141 Z0.1400
G01 X48.8949 Y-3.9961 Z0.1400
G01 X48.8922 Y-3.9961 Z0.1400
G01 X48.8900 Y-3.9960 Z0.1400
G01 X48.3573 Y-3.9786 Z0.1400
G01 X48.3562 Y-3.9786 Z0.1400
G01 X48.3535 Y-3.9785 Z0.1400
G01 X47.8196 Y-3.9617 Z0.1400
G01 X47.8181 Y-3.9617 Z0.1400
G01 X47.2837 Y-3.9456 Z0.1400
G01 X47.2808 Y-3.9455 Z0.1400
G01 X46.7464 Y-3.9301 Z0.1400
G01 X46.7444 Y-3.9301 Z0.1400
G01 X46.7428 Y-3.9300 Z0.1400
G01 X46.2094 Y-3.9153 Z0.1400
G01 X46.2070 Y-3.9152 Z0.1400
G01 X46.2052 Y-3.9152 Z0.1400
G01 X45.6725 Y-3.9012 Z0.1400
G01 X45.6696 Y-3.9011 Z0.1400
G01 X45.6671 Y-3.9010 Z0.1400
G01 X45.1345 Y-3.8876 Z0.1400
G01 X45.1327 Y-3.8876 Z0.1400
G01 X44.5976 Y-3.8748 Z0.1400
G01 X44.5959 Y-3.8747 Z0.1400
G01 X44.0605 Y-3.8626 Z0.1400
G01 X44.0586 Y-3.8625 Z0.1400
G01 X43.5254 Y-3.8511 Z0.1400
G01 X43.5247 Y-3.8511 Z0.1400
G01 X43.5212 Y-3.8511 Z0.1400
G01 X43.5187 Y-3.8510 Z0.1400
G01 X42.9874 Y-3.8402 Z0.1400
G01 X42.9845 Y-3.8402 Z0.1400
G01 X42.9838 Y-3.8402 Z0.1400
G01 X42.4495 Y-3.8301 Z0.1400
G01 X42.4481 Y-3.8301 Z0.1400
G01 X41.9124 Y-3.8206 Z0.1400
G01 X41.9096 Y-3.8205 Z0.1400
G01 X41.9087 Y-3.8205 Z0.1400
G01 X41.3754 Y-3.8117 Z0.1400
G01 X41.3729 Y-3.8117 Z0.1400
G01 X40.8383 Y-3.8036 Z0.1400
G01 X40.8371 Y-3.8035 Z0.1400
G01 X40.3012 Y-3.7961 Z0.1400
G01 X40.2980 Y-3.7960 Z0.1400
G01 X40.2972 Y-3.7960 Z0.1400
G01 X39.7642 Y-3.7892 Z0.1400
G01 X39.7619 Y-3.7892 Z0.1400
G01 X39.2272 Y-3.7830 Z0.1400
G01 X39.2242 Y-3.7830 Z0.1400
G01 X38.6901 Y-3.7775 Z0.1400
G01 X38.6859 Y-3.7774 Z0.1400
G01 X38.1543 Y-3.7726 Z0.1400
G01 X38.1520 Y-3.7726 Z0.1400
G01 X38.1501 Y-3.7725 Z0.1400
G01 X37.6159 Y-3.7684 Z0.1400
G01 X37.6145 Y-3.7684 Z0.1400
G01 X37.0787 Y-3.7649 Z0.1400
G01 X37.0774 Y-3.7649 Z0.1400
G01 X36.5417 Y-3.7620 Z0.1400
G01 X36.5403 Y-3.7620 Z0.1400
G01 X36.0045 Y-3.7598 Z0.1400
G01 X36.0032 Y-3.7598 Z0.1400
G01 X35.4674 Y-3.7583 Z0.1400
G01 X35.4661 Y-3.7583 Z0.1400
G01 X34.9303 Y-3.7574 Z0.1400
G01 X34.9289 Y-3.7574 Z0.1400
G01 X34.3931 Y-3.7572 Z0.1400
G01 X34.3918 Y-3.7572 Z0.1400
G01 X33.8561 Y-3.7577 Z0.1400
G01 X33.8547 Y-3.7577 Z0.1400
G01 X33.3189 Y-3.7588 Z0.1400
G01 X33.3176 Y-3.7588 Z0.1400
G01 X32.7818 Y-3.7605 Z0.1400
G01 X32.7805 Y-3.7605 Z0.1400
G01 X32.2448 Y-3.7630 Z0.1400
G01 X32.2434 Y-3.7630 Z0.1400
G01 X31.7076 Y-3.7661 Z0.1400
G01 X31.7062 Y-3.7661 Z0.1400
G01 X31.1737 Y-3.7698 Z0.1400
G01 X31.1732 Y-3.7699 Z0.1400
G01 X31.1696 Y-3.7699 Z0.1400
G01 X31.1691 Y-3.7699 Z0.1400
G01 X30.6348 Y-3.7744 Z0.1400
G01 X30.6321 Y-3.7744 Z0.1400
G01 X30.0988 Y-3.7794 Z0.1400
G01 X30.0950 Y-3.7795 Z0.1400
G01 X29.5607 Y-3.7852 Z0.1400
G01 X29.5578 Y-3.7852 Z0.1400
G01 X29.0229 Y-3.7917 Z0.1400
G01 X29.0209 Y-3.7917 Z0.1400
G01 X28.4860 Y-3.7987 Z0.1400
G01 X28.4842 Y-3.7988 Z0.1400
G01 X28.4825 Y-3.7988 Z0.1400
G01 X27.9497 Y-3.8065 Z0.1400
G01 X27.9466 Y-3.8066 Z0.1400
G01 X27.4121 Y-3.8150 Z0.1400
G01 X27.4097 Y-3.8150 Z0.1400
G01 X26.8763 Y-3.8240 Z0.1400
G01 X26.8754 Y-3.8240 Z0.1400
G01 X26.8719 Y-3.8241 Z0.1400
G01 X26.8703 Y-3.8241 Z0.1400
G01 X26.3380 Y-3.8338 Z0.1400
G01 X26.3366 Y-3.8338 Z0.1400
G01 X26.3356 Y-3.8338 Z0.1400
G01 X25.8012 Y-3.8442 Z0.1400
G01 X25.8005 Y-3.8442 Z0.1400
G01 X25.7978 Y-3.8443 Z0.1400
G01 X25.2663 Y-3.8552 Z0.1400
G01 X25.2639 Y-3.8553 Z0.1400
G01 X25.2603 Y-3.8554 Z0.1400
G01 X25.2597 Y-3.8554 Z0.1400
G01 X24.7266 Y-3.8671 Z0.1400
G01 X24.7252 Y-3.8671 Z0.1400
G01 X24.7246 Y-3.8671 Z0.1400
G01 X24.1891 Y-3.8795 Z0.1400
G01 X24.1875 Y-3.8795 Z0.1400
G01 X23.6523 Y-3.8926 Z0.1400
G01 X23.6509 Y-3.8926 Z0.1400
G01 X23.1151 Y-3.9063 Z0.1400
G01 X23.1137 Y-3.9064 Z0.1400
G01 X22.5796 Y-3.9207 Z0.1400
G01 X22.5761 Y-3.9208 Z0.1400
G01 X22.5748 Y-3.9208 Z0.1400
G01 X22.0412 Y-3.9358 Z0.1400
G01 X22.0398 Y-3.9359 Z0.1400
G01 X21.5050 Y-3.9515 Z0.1400
G01 X21.5021 Y-3.9517 Z0.1400
G01 X20.9692 Y-3.9679 Z0.1400
G01 X20.9669 Y-3.9680 Z0.1400
G01 X20.9636 Y-3.9680 Z0.1400
G01 X20.4324 Y-3.9850 Z0.1400
G01 X20.4298 Y-3.9851 Z0.1400
G01 X20.4281 Y-3.9851 Z0.1400
G01 X19.8938 Y-4.0027 Z0.1400
G01 X19.8929 Y-4.0028 Z0.1400
G01 X19.8913 Y-4.0028 Z0.1400
G01 X19.3592 Y-4.0211 Z0.1400
G01 X19.3577 Y-4.0211 Z0.1400
G01 X19.3542 Y-4.0212 Z0.1400
G01 X19.3530 Y-4.0212 Z0.1400
G01 X18.8214 Y-4.0401 Z0.1400
G01 X18.8188 Y-4.0403 Z0.1400
G01 X18.8177 Y-4.0403 Z0.1400
G01 X18.2834 Y-4.0600 Z0.1400
G01 X18.2822 Y-4.0600 Z0.1400
G01 X17.7478 Y-4.0803 Z0.1400
G01 X17.7453 Y-4.0804 Z0.1400
G01 X17.7444 Y-4.0804 Z0.1400
G01 X17.2100 Y-4.1014 Z0.1400
G01 X17.2068 Y-4.1015 Z0.1400
G01 X17.2053 Y-4.1015 Z0.1400
G01 X16.6733 Y-4.1231 Z0.1400
G01 X16.6715 Y-4.1231 Z0.1400
G01 X16.6701 Y-4.1232 Z0.1400
G01 X16.1373 Y-4.1454 Z0.1400
G01 X16.1348 Y-4.1455 Z0.1400
G01 X16.1343 Y-4.1455 Z0.1400
G01 X15.6005 Y-4.1685 Z0.1400
G01 X15.5980 Y-4.1686 Z0.1400
G01 X15.0634 Y-4.1922 Z0.1400
G01 X15.0616 Y-4.1924 Z0.1400
G01 X14.5269 Y-4.2166 Z0.1400
G01 X14.5214 Y-4.2168 Z0.1400
G01 X13.9904 Y-4.2416 Z0.1400
G01 X13.9878 Y-4.2417 Z0.1400
G01 X13.9869 Y-4.2418 Z0.1400
G01 X13.4538 Y-4.2673 Z0.1400
G01 X13.4499 Y-4.2675 Z0.1400
G01 X13.4492 Y-4.2675 Z0.1400
G01 X13.4484 Y-4.2675 Z0.1400
G01 X12.9174 Y-4.2937 Z0.1400
G01 X12.9140 Y-4.2938 Z0.1400
G01 X12.9133 Y-4.2938 Z0.1400
G01 X12.9127 Y-4.2939 Z0.1400
G01 X12.3809 Y-4.3207 Z0.1400
G01 X12.3782 Y-4.3208 Z0.1400
G01 X12.3775 Y-4.3209 Z0.1400
G01 X12.3770 Y-4.3209 Z0.1400
G01 X11.8445 Y-4.3484 Z0.1400
G01 X11.8408 Y-4.3486 Z0.1400
G01 X11.8401 Y-4.3487 Z0.1400
G01 X11.8394 Y-4.3487 Z0.1400
G01 X11.3082 Y-4.3768 Z0.1400
G01 X11.3072 Y-4.3768 Z0.1400
G01 X11.3054 Y-4.3769 Z0.1400
G01 X10.7718 Y-4.4057 Z0.1400
G01 X10.7711 Y-4.4058 Z0.1400
G01 X10.7703 Y-4.4058 Z0.1400
G01 X10.2355 Y-4.4354 Z0.1400
G01 X10.2344 Y-4.4355 Z0.1400
G01 X9.6999 Y-4.4657 Z0.1400
G01 X9.6990 Y-4.4658 Z0.1400
G01 X9.6979 Y-4.4658 Z0.1400
G01 X9.1630 Y-4.4968 Z0.1400
G01 X9.1618 Y-4.4969 Z0.1400
G01 X8.6296 Y-4.5283 Z0.1400
G01 X8.6257 Y-4.5285 Z0.1400
G01 X8.6246 Y-4.5286 Z0.1400
G01 X8.0919 Y-4.5607 Z0.1400
G01 X8.0914 Y-4.5608 Z0.1400
G01 X8.0908 Y-4.5608 Z0.1400
G01 X8.0902 Y-4.5609 Z0.1400
G01 X8.0894 Y-4.5609 Z0.1400
G01 X7.5585 Y-4.5936 Z0.1400
G01 X7.5577 Y-4.5936 Z0.1400
G01 X7.5570 Y-4.5937 Z0.1400
G01 X7.5533 Y-4.5938 Z0.1400
G01 X3.6901 Y-4.8364 Z0.1400
G01 X3.6901 Y-4.8364 Z0.0000
G01 X3.7553 Y-5.8743 Z0.0000
G01 X7.6185 Y-5.6318 Z0.0000
G01 X8.1515 Y-5.5990 Z0.0000
G01 X8.1525 Y-5.5990 Z0.0000
G01 X8.1534 Y-5.5989 Z0.0000
G01 X8.6854 Y-5.5668 Z0.0000
G01 X8.6873 Y-5.5667 Z0.0000
G01 X8.6882 Y-5.5666 Z0.0000
G01 X9.2230 Y-5.5351 Z0.0000
G01 X9.2237 Y-5.5350 Z0.0000
G01 X9.7579 Y-5.5041 Z0.0000
G01 X10.2923 Y-5.4739 Z0.0000
G01 X10.2931 Y-5.4738 Z0.0000
G01 X10.8279 Y-5.4442 Z0.0000
G01 X10.8288 Y-5.4442 Z0.0000
G01 X11.3630 Y-5.4153 Z0.0000
G01 X11.3638 Y-5.4153 Z0.0000
G01 X11.3645 Y-5.4152 Z0.0000
G01 X11.8981 Y-5.3870 Z0.0000
G01 X11.9012 Y-5.3868 Z0.0000
G01 X11.9019 Y-5.3868 Z0.0000
G01 X11.9027 Y-5.3868 Z0.0000
G01 X12.4332 Y-5.3594 Z0.0000
G01 X12.4338 Y-5.3593 Z0.0000
G01 X12.4363 Y-5.3592 Z0.0000
G01 X12.9684 Y-5.3324 Z0.0000
G01 X12.9711 Y-5.3323 Z0.0000
G01 X12.9718 Y-5.3322 Z0.0000
G01 X12.9725 Y-5.3322 Z0.0000
G01 X13.5035 Y-5.3061 Z0.0000
G01 X13.5060 Y-5.3060 Z0.0000
G01 X13.5066 Y-5.3059 Z0.0000
G01 X13.5085 Y-5.3059 Z0.0000
G01 X14.0373 Y-5.2805 Z0.0000
G01 X14.0388 Y-5.2805 Z0.0000
G01 X14.5740 Y-5.2555 Z0.0000
G01 X14.5755 Y-5.2554 Z0.0000
G01 X15.1093 Y-5.2312 Z0.0000
G01 X15.1100 Y-5.2312 Z0.0000
G01 X15.6446 Y-5.2075 Z0.0000
G01 X15.6456 Y-5.2075 Z0.0000
G01 X16.1799 Y-5.1846 Z0.0000
G01 X16.1805 Y-5.1845 Z0.0000
G01 X16.7135 Y-5.1623 Z0.0000
G01 X16.7157 Y-5.1622 Z0.0000
G01 X16.7172 Y-5.1622 Z0.0000
G01 X17.2497 Y-5.1407 Z0.0000
G01 X17.2538 Y-5.1405 Z0.0000
G01 X17.2549 Y-5.1404 Z0.0000
G01 X17.7861 Y-5.1195 Z0.0000
G01 X17.7870 Y-5.1195 Z0.0000
G01 X18.3197 Y-5.0993 Z0.0000
G01 X18.3216 Y-5.0992 Z0.0000
G01 X18.8570 Y-5.0796 Z0.0000
G01 X18.8579 Y-5.0796 Z0.0000
G01 X19.3921 Y-5.0605 Z0.0000
G01 X19.3952 Y-5.0604 Z0.0000
G01 X19.3963 Y-5.0604 Z0.0000
G01 X19.9259 Y-5.0422 Z0.0000
G01 X19.9277 Y-5.0422 Z0.0000
G01 X19.9286 Y-5.0422 Z0.0000
G01 X20.4636 Y-5.0245 Z0.0000
G01 X20.4644 Y-5.0245 Z0.0000
G01 X20.9991 Y-5.0075 Z0.0000
G01 X21.5347 Y-4.9911 Z0.0000
G01 X21.5353 Y-4.9911 Z0.0000
G01 X22.0679 Y-4.9755 Z0.0000
G01 X22.0694 Y-4.9754 Z0.0000
G01 X22.0717 Y-4.9754 Z0.0000
G01 X22.6057 Y-4.9604 Z0.0000
G01 X22.6068 Y-4.9603 Z0.0000
G01 X22.6088 Y-4.9603 Z0.0000
G01 X23.1390 Y-4.9461 Z0.0000
G01 X23.1403 Y-4.9460 Z0.0000
G01 X23.1429 Y-4.9460 Z0.0000
G01 X23.6772 Y-4.9323 Z0.0000
G01 X23.6784 Y-4.9323 Z0.0000
G01 X23.6796 Y-4.9322 Z0.0000
G01 X24.2101 Y-4.9193 Z0.0000
G01 X24.2113 Y-4.9192 Z0.0000
G01 X24.2140 Y-4.9192 Z0.0000
G01 X24.7469 Y-4.9069 Z0.0000
G01 X24.7490 Y-4.9068 Z0.0000
G01 X24.7509 Y-4.9068 Z0.0000
G01 X25.2813 Y-4.8952 Z0.0000
G01 X25.2823 Y-4.8951 Z0.0000
G01 X25.2851 Y-4.8951 Z0.0000
G01 X25.8200 Y-4.8841 Z0.0000
G01 X26.3547 Y-4.8737 Z0.0000
G01 X26.3552 Y-4.8737 Z0.0000
G01 X26.3579 Y-4.8736 Z0.0000
G01 X26.8880 Y-4.8640 Z0.0000
G01 X26.8888 Y-4.8639 Z0.0000
G01 X26.8915 Y-4.8639 Z0.0000
G01 X27.4272 Y-4.8548 Z0.0000
G01 X27.9630 Y-4.8464 Z0.0000
G01 X28.4988 Y-4.8387 Z0.0000
G01 X29.0346 Y-4.8316 Z0.0000
G01 X29.5703 Y-4.8251 Z0.0000
G01 X30.1061 Y-4.8194 Z0.0000
G01 X30.6414 Y-4.8143 Z0.0000
G01 X30.6437 Y-4.8143 Z0.0000
G01 X31.1731 Y-4.8099 Z0.0000
G01 X31.1778 Y-4.8099 Z0.0000
G01 X31.7136 Y-4.8061 Z0.0000
G01 X32.2494 Y-4.8030 Z0.0000
G01 X32.7852 Y-4.8005 Z0.0000
G01 X33.3211 Y-4.7988 Z0.0000
G01 X33.8569 Y-4.7977 Z0.0000
G01 X34.3926 Y-4.7972 Z0.0000
G01 X34.9285 Y-4.7974 Z0.0000
G01 X35.4643 Y-4.7983 Z0.0000
G01 X36.0001 Y-4.7998 Z0.0000
G01 X36.5359 Y-4.8020 Z0.0000
G01 X37.0718 Y-4.8049 Z0.0000
G01 X37.6076 Y-4.8084 Z0.0000
G01 X38.1433 Y-4.8125 Z0.0000
G01 X38.6792 Y-4.8174 Z0.0000
G01 X39.2150 Y-4.8229 Z0.0000
G01 X39.7508 Y-4.8291 Z0.0000
G01 X40.2866 Y-4.8359 Z0.0000
G01 X40.2904 Y-4.8360 Z0.0000
G01 X40.2910 Y-4.8360 Z0.0000
G01 X40.8204 Y-4.8433 Z0.0000
G01 X40.8225 Y-4.8434 Z0.0000
G01 X41.3581 Y-4.8516 Z0.0000
G01 X41.8940 Y-4.8604 Z0.0000
G01 X41.8970 Y-4.8604 Z0.0000
G01 X41.8978 Y-4.8604 Z0.0000
G01 X42.4274 Y-4.8698 Z0.0000
G01 X42.4298 Y-4.8699 Z0.0000
G01 X42.4319 Y-4.8700 Z0.0000
G01 X42.9654 Y-4.8801 Z0.0000
G01 X43.5003 Y-4.8909 Z0.0000
G01 X43.5033 Y-4.8909 Z0.0000
G01 X43.5044 Y-4.8909 Z0.0000
G01 X44.0345 Y-4.9023 Z0.0000
G01 X44.0360 Y-4.9023 Z0.0000
G01 X44.0376 Y-4.9024 Z0.0000
G01 X44.5715 Y-4.9144 Z0.0000
G01 X44.5743 Y-4.9145 Z0.0000
G01 X44.5755 Y-4.9145 Z0.0000
G01 X45.1059 Y-4.9272 Z0.0000
G01 X45.1072 Y-4.9273 Z0.0000
G01 X45.1083 Y-4.9273 Z0.0000
G01 X45.6427 Y-4.9407 Z0.0000
G01 X45.6453 Y-4.9408 Z0.0000
G01 X45.6466 Y-4.9408 Z0.0000
G01 X46.1794 Y-4.9548 Z0.0000
G01 X46.7148 Y-4.9696 Z0.0000
G01 X46.7152 Y-4.9696 Z0.0000
G01 X47.2479 Y-4.9850 Z0.0000
G01 X47.2495 Y-4.9851 Z0.0000
G01 X47.2509 Y-4.9851 Z0.0000
G01 X47.7864 Y-5.0012 Z0.0000
G01 X47.7871 Y-5.0013 Z0.0000
G01 X47.7887 Y-5.0013 Z0.0000
G01 X48.3210 Y-5.0180 Z0.0000
G01 X48.3220 Y-5.0180 Z0.0000
G01 X48.8574 Y-5.0355 Z0.0000
G01 X49.3920 Y-5.0535 Z0.0000
G01 X49.3931 Y-5.0535 Z0.0000
G01 X49.9284 Y-5.0723 Z0.0000
G01 X49.9306 Y-5.0724 Z0.0000
G01 X50.4600 Y-5.0915 Z0.0000
G01 X50.4619 Y-5.0916 Z0.0000
G01 X50.4645 Y-5.0917 Z0.0000
G01 X50.9988 Y-5.1118 Z0.0000
G01 X50.9996 Y-5.1118 Z0.0000
G01 X51.5350 Y-5.1326 Z0.0000
G01 X51.5367 Y-5.1326 Z0.0000
G01 X52.0696 Y-5.1539 Z0.0000
G01 X52.0721 Y-5.1540 Z0.0000
G01 X52.6050 Y-5.1760 Z0.0000
G01 X52.6059 Y-5.1761 Z0.0000
G01 X53.1404 Y-5.1988 Z0.0000
G01 X53.1411 Y-5.1988 Z0.0000
G01 X53.6762 Y-5.2222 Z0.0000
G01 X54.2111 Y-5.2462 Z0.0000
G01 X54.2117 Y-5.2462 Z0.0000
G01 X54.7460 Y-5.2709 Z0.0000
G01 X54.7465 Y-5.2710 Z0.0000
G01 X54.7473 Y-5.2710 Z0.0000
G01 X55.2815 Y-5.2964 Z0.0000
G01 X55.2827 Y-5.2964 Z0.0000
G01 X55.8166 Y-5.3224 Z0.0000
G01 X55.8174 Y-5.3224 Z0.0000
G01 X56.3514 Y-5.3491 Z0.0000
G01 X56.3525 Y-5.3492 Z0.0000
G01 X56.8869 Y-5.3765 Z0.0000
G01 X56.8877 Y-5.3765 Z0.0000
G01 X57.4221 Y-5.4045 Z0.0000
G01 X57.4251 Y-5.4047 Z0.0000
G01 X57.9540 Y-5.4331 Z0.0000
G01 X57.9579 Y-5.4333 Z0.0000
G01 X58.4903 Y-5.4625 Z0.0000
G01 X58.4915 Y-5.4625 Z0.0000
G01 X58.4929 Y-5.4626 Z0.0000
G01 X59.0277 Y-5.4926 Z0.0000
G01 X59.0291 Y-5.4927 Z0.0000
G01 X59.5626 Y-5.5233 Z0.0000
G01 X60.0975 Y-5.5547 Z0.0000
G01 X60.0982 Y-5.5547 Z0.0000
G01 X63.9632 Y-5.7861 Z0.0000
G01 X64.0254 Y-4.7479 Z0.0000
G01 X60.1600 Y-4.5165 Z0.0000
G01 X60.1588 Y-4.5165 Z0.0000
G01 X59.6237 Y-4.4851 Z0.0000
G01 X59.6220 Y-4.4850 Z0.0000
G01 X59.0874 Y-4.4544 Z0.0000
G01 X59.0857 Y-4.4543 Z0.0000
G01 X58.5528 Y-4.4244 Z0.0000
G01 X58.5518 Y-4.4243 Z0.0000
G01 X58.5508 Y-4.4243 Z0.0000
G01 X58.5498 Y-4.4242 Z0.0000
G01 X58.0174 Y-4.3950 Z0.0000
G01 X58.0138 Y-4.3948 Z0.0000
G01 X58.0131 Y-4.3947 Z0.0000
G01 X57.4788 Y-4.3660 Z0.0000
G01 X57.4773 Y-4.3660 Z0.0000
G01 X56.9421 Y-4.3379 Z0.0000
G01 X56.9406 Y-4.3379 Z0.0000
G01 X56.4057 Y-4.3105 Z0.0000
G01 X56.4044 Y-4.3104 Z0.0000
G01 X55.8693 Y-4.2837 Z0.0000
G01 X55.8677 Y-4.2836 Z0.0000
G01 X55.3337 Y-4.2576 Z0.0000
G01 X55.3319 Y-4.2575 Z0.0000
G01 X55.3314 Y-4.2575 Z0.0000
G01 X54.7962 Y-4.2321 Z0.0000
G01 X54.7958 Y-4.2321 Z0.0000
G01 X54.7949 Y-4.2321 Z0.0000
G01 X54.2597 Y-4.2074 Z0.0000
G01 X54.2589 Y-4.2073 Z0.0000
G01 X54.2574 Y-4.2072 Z0.0000
G01 X53.7240 Y-4.1833 Z0.0000
G01 X53.7224 Y-4.1832 Z0.0000
G01 X53.7202 Y-4.1831 Z0.0000
G01 X53.1883 Y-4.1599 Z0.0000
G01 X53.1876 Y-4.1599 Z0.0000
G01 X53.1852 Y-4.1598 Z0.0000
G01 X52.6516 Y-4.1371 Z0.0000
G01 X52.6509 Y-4.1370 Z0.0000
G01 X52.6477 Y-4.1369 Z0.0000
G01 X52.1132 Y-4.1148 Z0.0000
G01 X52.1123 Y-4.1148 Z0.0000
G01 X52.1118 Y-4.1148 Z0.0000
G01 X51.5768 Y-4.0934 Z0.0000
G01 X51.5763 Y-4.0934 Z0.0000
G01 X51.5753 Y-4.0934 Z0.0000
G01 X51.0401 Y-4.0726 Z0.0000
G01 X51.0394 Y-4.0725 Z0.0000
G01 X51.0385 Y-4.0725 Z0.0000
G01 X50.5053 Y-4.0525 Z0.0000
G01 X50.5014 Y-4.0524 Z0.0000
G01 X50.5006 Y-4.0524 Z0.0000
G01 X49.9673 Y-4.0330 Z0.0000
G01 X49.9659 Y-4.0330 Z0.0000
G01 X49.9650 Y-4.0329 Z0.0000
G01 X49.4301 Y-4.0142 Z0.0000
G01 X49.4277 Y-4.0141 Z0.0000
G01 X48.8949 Y-3.9961 Z0.0000
G01 X48.8922 Y-3.9961 Z0.0000
G01 X48.8900 Y-3.9960 Z0.0000
G01 X48.3573 Y-3.9786 Z0.0000
G01 X48.3562 Y-3.9786 Z0.0000
G01 X48.3535 Y-3.9785 Z0.0000
G01 X47.8196 Y-3.9617 Z0.0000
G01 X47.8181 Y-3.9617 Z0.0000
G01 X47.2837 Y-3.9456 Z0.0000
G01 X47.2808 Y-3.9455 Z0.0000
G01 X46.7464 Y-3.9301 Z0.0000
G01 X46.7444 Y-3.9301 Z0.0000
G01 X46.7428 Y-3.9300 Z0.0000
G01 X46.2094 Y-3.9153 Z0.0000
G01 X46.2070 Y-3.9152 Z0.0000
G01 X46.2052 Y-3.9152 Z0.0000
G01 X45.6725 Y-3.9012 Z0.0000
G01 X45.6696 Y-3.9011 Z0.0000
G01 X45.6671 Y-3.9010 Z0.0000
G01 X45.1345 Y-3.8876 Z0.0000
G01 X45.1327 Y-3.8876 Z0.0000
G01 X44.5976 Y-3.8748 Z0.0000
G01 X44.5959 Y-3.8747 Z0.0000
G01 X44.0605 Y-3.8626 Z0.0000
G01 X44.0586 Y-3.8625 Z0.0000
G01 X43.5254 Y-3.8511 Z0.0000
G01 X43.5247 Y-3.8511 Z0.0000
G01 X43.5212 Y-3.8511 Z0.0000
G01 X43.5187 Y-3.8510 Z0.0000
G01 X42.9874 Y-3.8402 Z0.0000
G01 X42.9845 Y-3.8402 Z0.0000
G01 X42.9838 Y-3.8402 Z0.0000
G01 X42.4495 Y-3.8301 Z0.0000
G01 X42.4481 Y-3.8301 Z0.0000
G01 X41.9124 Y-3.8206 Z0.0000
G01 X41.9096 Y-3.8205 Z0.0000
G01 X41.9087 Y-3.8205 Z0.0000
G01 X41.3754 Y-3.8117 Z0.0000
G01 X41.3729 Y-3.8117 Z0.0000
G01 X40.8383 Y-3.8036 Z0.0000
G01 X40.8371 Y-3.8035 Z0.0000
G01 X40.3012 Y-3.7961 Z0.0000
G01 X40.2980 Y-3.7960 Z0.0000
G01 X40.2972 Y-3.7960 Z0.0000
G01 X39.7642 Y-3.7892 Z0.0000
G01 X39.7619 Y-3.7892 Z0.0000
G01 X39.2272 Y-3.7830 Z0.0000
G01 X39.2242 Y-3.7830 Z0.0000
G01 X38.6901 Y-3.7775 Z0.0000
G01 X38.6859 Y-3.7774 Z0.0000
G01 X38.1543 Y-3.7726 Z0.0000
G01 X38.1520 Y-3.7726 Z0.0000
G01 X38.1501 Y-3.7725 Z0.0000
G01 X37.6159 Y-3.7684 Z0.0000
G01 X37.6145 Y-3.7684 Z0.0000
G01 X37.0787 Y-3.7649 Z0.0000
G01 X37.0774 Y-3.7649 Z0.0000
G01 X36.5417 Y-3.7620 Z0.0000
G01 X36.5403 Y-3.7620 Z0.0000
G01 X36.0045 Y-3.7598 Z0.0000
G01 X36.0032 Y-3.7598 Z0.0000
G01 X35.4674 Y-3.7583 Z0.0000
G01 X35.4661 Y-3.7583 Z0.0000
G01 X34.9303 Y-3.7574 Z0.0000
G01 X34.9289 Y-3.7574 Z0.0000
G01 X34.3931 Y-3.7572 Z0.0000
G01 X34.3918 Y-3.7572 Z0.0000
G01 X33.8561 Y-3.7577 Z0.0000
G01 X33.8547 Y-3.7577 Z0.0000
G01 X33.3189 Y-3.7588 Z0.0000
G01 X33.3176 Y-3.7588 Z0.0000
G01 X32.7818 Y-3.7605 Z0.0000
G01 X32.7805 Y-3.7605 Z0.0000
G01 X32.2448 Y-3.7630 Z0.0000
G01 X32.2434 Y-3.7630 Z0.0000
G01 X31.7076 Y-3.7661 Z0.0000
G01 X31.7062 Y-3.7661 Z0.0000
G01 X31.1737 Y-3.7698 Z0.0000
G01 X31.1732 Y-3.7699 Z0.0000
G01 X31.1696 Y-3.7699 Z0.0000
G01 X31.1691 Y-3.7699 Z0.0000
G01 X30.6348 Y-3.7744 Z0.0000
G01 X30.6321 Y-3.7744 Z0.0000
G01 X30.0988 Y-3.7794 Z0.0000
G01 X30.0950 Y-3.7795 Z0.0000
G01 X29.5607 Y-3.7852 Z0.0000
G01 X29.5578 Y-3.7852 Z0.0000
G01 X29.0229 Y-3.7917 Z0.0000
G01 X29.0209 Y-3.7917 Z0.0000
G01 X28.4860 Y-3.7987 Z0.0000
G01 X28.4842 Y-3.7988 Z0.0000
G01 X28.4825 Y-3.7988 Z0.0000
G01 X27.9497 Y-3.8065 Z0.0000
G01 X27.9466 Y-3.8066 Z0.0000
G01 X27.4121 Y-3.8150 Z0.0000
G01 X27.4097 Y-3.8150 Z0.0000
G01 X26.8763 Y-3.8240 Z0.0000
G01 X26.8754 Y-3.8240 Z0.0000
G01 X26.8719 Y-3.8241 Z0.0000
G01 X26.8703 Y-3.8241 Z0.0000
G01 X26.3380 Y-3.8338 Z0.0000
G01 X26.3366 Y-3.8338 Z0.0000
G01 X26.3356 Y-3.8338 Z0.0000
G01 X25.8012 Y-3.8442 Z0.0000
G01 X25.8005 Y-3.8442 Z0.0000
G01 X25.7978 Y-3.8443 Z0.0000
G01 X25.2663 Y-3.8552 Z0.0000
G01 X25.2639 Y-3.8553 Z0.0000
G01 X25.2603 Y-3.8554 Z0.0000
G01 X25.2597 Y-3.8554 Z0.0000
G01 X24.7266 Y-3.8671 Z0.0000
G01 X24.7252 Y-3.8671 Z0.0000
G01 X24.7246 Y-3.8671 Z0.0000
G01 X24.1891 Y-3.8795 Z0.0000
G01 X24.1875 Y-3.8795 Z0.0000
G01 X23.6523 Y-3.8926 Z0.0000
G01 X23.6509 Y-3.8926 Z0.0000
G01 X23.1151 Y-3.9063 Z0.0000
G01 X23.1137 Y-3.9064 Z0.0000
G01 X22.5796 Y-3.9207 Z0.0000
G01 X22.5761 Y-3.9208 Z0.0000
G01 X22.5748 Y-3.9208 Z0.0000
G01 X22.0412 Y-3.9358 Z0.0000
G01 X22.0398 Y-3.9359 Z0.0000
G01 X21.5050 Y-3.9515 Z0.0000
G01 X21.5021 Y-3.9517 Z0.0000
G01 X20.9692 Y-3.9679 Z0.0000
G01 X20.9669 Y-3.9680 Z0.0000
G01 X20.9636 Y-3.9680 Z0.0000
G01 X20.4324 Y-3.9850 Z0.0000
G01 X20.4298 Y-3.9851 Z0.0000
G01 X20.4281 Y-3.9851 Z0.0000
G01 X19.8938 Y-4.0027 Z0.0000
G01 X19.8929 Y-4.0028 Z0.0000
G01 X19.8913 Y-4.0028 Z0.0000
G01 X19.3592 Y-4.0211 Z0.0000
G01 X19.3577 Y-4.0211 Z0.0000
G01 X19.3542 Y-4.0212 Z0.0000
G01 X19.3530 Y-4.0212 Z0.0000
G01 X18.8214 Y-4.0401 Z0.0000
G01 X18.8188 Y-4.0403 Z0.0000
G01 X18.8177 Y-4.0403 Z0.0000
G01 X18.2834 Y-4.0600 Z0.0000
G01 X18.2822 Y-4.0600 Z0.0000
G01 X17.7478 Y-4.0803 Z0.0000
G01 X17.7453 Y-4.0804 Z0.0000
G01 X17.7444 Y-4.0804 Z0.0000
G01 X17.2100 Y-4.1014 Z0.0000
G01 X17.2068 Y-4.1015 Z0.0000
G01 X17.2053 Y-4.1015 Z0.0000
G01 X16.6733 Y-4.1231 Z0.0000
G01 X16.6715 Y-4.1231 Z0.0000
G01 X16.6701 Y-4.1232 Z0.0000
G01 X16.1373 Y-4.1454 Z0.0000
G01 X16.1348 Y-4.1455 Z0.0000
G01 X16.1343 Y-4.1455 Z0.0000
G01 X15.6005 Y-4.1685 Z0.0000
G01 X15.5980 Y-4.1686 Z0.0000
G01 X15.0634 Y-4.1922 Z0.0000
G01 X15.0616 Y-4.1924 Z0.0000
G01 X14.5269 Y-4.2166 Z0.0000
G01 X14.5214 Y-4.2168 Z0.0000
G01 X13.9904 Y-4.2416 Z0.0000
G01 X13.9878 Y-4.2417 Z0.0000
G01 X13.9869 Y-4.2418 Z0.0000
G01 X13.4538 Y-4.2673 Z0.0000
G01 X13.4499 Y-4.2675 Z0.0000
G01 X13.4492 Y-4.2675 Z0.0000
G01 X13.4484 Y-4.2675 Z0.0000
G01 X12.9174 Y-4.2937 Z0.0000
G01 X12.9140 Y-4.2938 Z0.0000
G01 X12.9133 Y-4.2938 Z0.0000
G01 X12.9127 Y-4.2939 Z0.0000
G01 X12.3809 Y-4.3207 Z0.0000
G01 X12.3782 Y-4.3208 Z0.0000
G01 X12.3775 Y-4.3209 Z0.0000
G01 X12.3770 Y-4.3209 Z0.0000
G01 X11.8445 Y-4.3484 Z0.0000
G01 X11.8408 Y-4.3486 Z0.0000
G01 X11.8401 Y-4.3487 Z0.0000
G01 X11.8394 Y-4.3487 Z0.0000
G01 X11.3082 Y-4.3768 Z0.0000
G01 X11.3072 Y-4.3768 Z0.0000
G01 X11.3054 Y-4.3769 Z0.0000
G01 X10.7718 Y-4.4057 Z0.0000
G01 X10.7711 Y-4.4058 Z0.0000
G01 X10.7703 Y-4.4058 Z0.0000
G01 X10.2355 Y-4.4354 Z0.0000
G01 X10.2344 Y-4.4355 Z0.0000
G01 X9.6999 Y-4.4657 Z0.0000
G01 X9.6990 Y-4.4658 Z0.0000
G01 X9.6979 Y-4.4658 Z0.0000
G01 X9.1630 Y-4.4968 Z0.0000
G01 X9.1618 Y-4.4969 Z0.0000
G01 X8.6296 Y-4.5283 Z0.0000
G01 X8.6257 Y-4.5285 Z0.0000
G01 X8.6246 Y-4.5286 Z0.0000
G01 X8.0919 Y-4.5607 Z0.0000
G01 X8.0914 Y-4.5608 Z0.0000
G01 X8.0908 Y-4.5608 Z0.0000
G01 X8.0902 Y-4.5609 Z0.0000
G01 X8.0894 Y-4.5609 Z0.0000
G01 X7.5585 Y-4.5936 Z0.0000
G01 X7.5577 Y-4.5936 Z0.0000
G01 X7.5570 Y-4.5937 Z0.0000
G01 X7.5533 Y-4.5938 Z0.0000
G01 X3.6901 Y-4.8364 Z0.0000
G00 X3.6901 Y-4.8364 Z0.6000
M05
G00 X0.0000 Y0.0000 Z0.6000
G49
G01 G55 Z0 F20
G00 G55 X0 Y0 Z0
M30
