( Sample-splitboard-edge-trench.nc                                             )
( Generated by MonkeyCAM v4.1.0 master@47785ff                                 )
(   at 2025-12-31 14:28:16 PST                                                 )
(                                                                              )
( This GCode program is provided on an "AS IS" BASIS WITHOUT WARRANTIES OR     )
( CONDITIONS OF ANY KIND, either express or implied. You should inspect this   )
( program very carefully to confirm you understand its operation. YOU ARE      )
( RESPONSIBLE FOR ENSURING THIS PROGRAM WILL NOT DAMAGE YOUR MACHINE OR        )
( MATERIALS.                                                                   )
(                                                                              )
( See http://www.github.com/mikemag/MonkeyCAM for License and documentation.   )
(                                                                              )
( * Rapid height: 0.6000"                                                      )
( * Tool: T1, Quarter Inch Upcut Spiral, diameter 0.2469"                      )
( * Height baseline [Z=0.0] is the top of the table.                           )
( * XY origin is the left side of the table, Y is center of the part.          )
( * Requires G54 to be the part work coordinate offsets [WCO]. [0, 0] is the   )
(   center of the nose, with the board extending to positive X. The cutter may )
(   move to negative values of X.                                              )
( * Requires G55 to be the machine WCO, with Z above the rapid height.         )
( * Units are inches                                                           )
( * Center of the board in G54:                                                )
(     X=33.8582 Y=0.0000 Z=0.0000                                              )
( * Cutter bounding box in G54:                                                )
(     X0.0000 Y-5.9408 Z0.0000 to X63.6557 Y5.9408 Z0.6000                     )

G90 G20 G17 G40 G49
G43 H1 T1
G00 G54 X0 Y0 Z0.6000

G00 X4.0598 Y4.9004 Z0.6000
M03
G04 P5
G01 X4.0598 Y4.9004 Z0.2800 F80
G01 X4.1252 Y5.9408 Z0.2800
G01 X7.6209 Y5.7211 Z0.2800
G01 X8.1551 Y5.6882 Z0.2800
G01 X8.1556 Y5.6882 Z0.2800
G01 X8.1561 Y5.6881 Z0.2800
G01 X8.1568 Y5.6881 Z0.2800
G01 X8.6874 Y5.6561 Z0.2800
G01 X8.6880 Y5.6561 Z0.2800
G01 X8.6887 Y5.6560 Z0.2800
G01 X8.6905 Y5.6559 Z0.2800
G01 X9.2253 Y5.6243 Z0.2800
G01 X9.2269 Y5.6242 Z0.2800
G01 X9.7602 Y5.5934 Z0.2800
G01 X9.7607 Y5.5933 Z0.2800
G01 X9.7614 Y5.5933 Z0.2800
G01 X10.2951 Y5.5631 Z0.2800
G01 X10.2963 Y5.5631 Z0.2800
G01 X10.2970 Y5.5630 Z0.2800
G01 X10.8289 Y5.5336 Z0.2800
G01 X10.8310 Y5.5335 Z0.2800
G01 X10.8320 Y5.5334 Z0.2800
G01 X11.3651 Y5.5046 Z0.2800
G01 X11.3676 Y5.5044 Z0.2800
G01 X11.3683 Y5.5044 Z0.2800
G01 X11.3690 Y5.5044 Z0.2800
G01 X11.9002 Y5.4763 Z0.2800
G01 X11.9014 Y5.4762 Z0.2800
G01 X12.4352 Y5.4487 Z0.2800
G01 X12.4399 Y5.4484 Z0.2800
G01 X12.4405 Y5.4484 Z0.2800
G01 X12.9682 Y5.4218 Z0.2800
G01 X12.9692 Y5.4217 Z0.2800
G01 X12.9716 Y5.4216 Z0.2800
G01 X13.5045 Y5.3954 Z0.2800
G01 X13.5072 Y5.3953 Z0.2800
G01 X13.5084 Y5.3952 Z0.2800
G01 X14.0391 Y5.3698 Z0.2800
G01 X14.0407 Y5.3698 Z0.2800
G01 X14.5759 Y5.3448 Z0.2800
G01 X14.5768 Y5.3448 Z0.2800
G01 X14.5779 Y5.3447 Z0.2800
G01 X15.1111 Y5.3205 Z0.2800
G01 X15.1118 Y5.3205 Z0.2800
G01 X15.6463 Y5.2968 Z0.2800
G01 X15.6472 Y5.2968 Z0.2800
G01 X16.1800 Y5.2739 Z0.2800
G01 X16.1820 Y5.2738 Z0.2800
G01 X16.1834 Y5.2738 Z0.2800
G01 X16.7165 Y5.2516 Z0.2800
G01 X16.7176 Y5.2515 Z0.2800
G01 X17.2512 Y5.2300 Z0.2800
G01 X17.2545 Y5.2298 Z0.2800
G01 X17.2557 Y5.2297 Z0.2800
G01 X17.7859 Y5.2089 Z0.2800
G01 X17.7877 Y5.2088 Z0.2800
G01 X18.3231 Y5.1885 Z0.2800
G01 X18.3236 Y5.1885 Z0.2800
G01 X18.8585 Y5.1688 Z0.2800
G01 X18.8591 Y5.1688 Z0.2800
G01 X19.3939 Y5.1498 Z0.2800
G01 X19.9294 Y5.1315 Z0.2800
G01 X19.9307 Y5.1314 Z0.2800
G01 X20.4628 Y5.1139 Z0.2800
G01 X20.4644 Y5.1138 Z0.2800
G01 X20.4658 Y5.1138 Z0.2800
G01 X20.9995 Y5.0968 Z0.2800
G01 X21.0017 Y5.0967 Z0.2800
G01 X21.0038 Y5.0966 Z0.2800
G01 X21.5335 Y5.0805 Z0.2800
G01 X21.5351 Y5.0804 Z0.2800
G01 X21.5371 Y5.0804 Z0.2800
G01 X22.0715 Y5.0647 Z0.2800
G01 X22.0721 Y5.0647 Z0.2800
G01 X22.6070 Y5.0497 Z0.2800
G01 X23.1426 Y5.0353 Z0.2800
G01 X23.1433 Y5.0353 Z0.2800
G01 X23.6783 Y5.0216 Z0.2800
G01 X24.2112 Y5.0086 Z0.2800
G01 X24.2123 Y5.0086 Z0.2800
G01 X24.2148 Y5.0085 Z0.2800
G01 X24.7489 Y4.9962 Z0.2800
G01 X24.7516 Y4.9961 Z0.2800
G01 X25.2822 Y4.9845 Z0.2800
G01 X25.2832 Y4.9845 Z0.2800
G01 X25.2859 Y4.9844 Z0.2800
G01 X25.8208 Y4.9734 Z0.2800
G01 X26.3547 Y4.9631 Z0.2800
G01 X26.3555 Y4.9630 Z0.2800
G01 X26.3585 Y4.9629 Z0.2800
G01 X26.8887 Y4.9533 Z0.2800
G01 X26.8895 Y4.9533 Z0.2800
G01 X26.8922 Y4.9532 Z0.2800
G01 X27.4279 Y4.9442 Z0.2800
G01 X27.9620 Y4.9358 Z0.2800
G01 X27.9655 Y4.9357 Z0.2800
G01 X28.4954 Y4.9280 Z0.2800
G01 X28.4993 Y4.9280 Z0.2800
G01 X29.0351 Y4.9209 Z0.2800
G01 X29.5708 Y4.9145 Z0.2800
G01 X30.1066 Y4.9087 Z0.2800
G01 X30.6412 Y4.9037 Z0.2800
G01 X30.6439 Y4.9036 Z0.2800
G01 X31.1734 Y4.8992 Z0.2800
G01 X31.1781 Y4.8992 Z0.2800
G01 X31.7139 Y4.8954 Z0.2800
G01 X32.2496 Y4.8923 Z0.2800
G01 X32.7854 Y4.8899 Z0.2800
G01 X33.3212 Y4.8881 Z0.2800
G01 X33.8570 Y4.8870 Z0.2800
G01 X34.3927 Y4.8865 Z0.2800
G01 X34.9284 Y4.8867 Z0.2800
G01 X35.4642 Y4.8876 Z0.2800
G01 X36.0000 Y4.8891 Z0.2800
G01 X36.5357 Y4.8913 Z0.2800
G01 X37.0715 Y4.8942 Z0.2800
G01 X37.6073 Y4.8977 Z0.2800
G01 X38.1430 Y4.9019 Z0.2800
G01 X38.6788 Y4.9067 Z0.2800
G01 X39.2145 Y4.9122 Z0.2800
G01 X39.7503 Y4.9184 Z0.2800
G01 X40.2862 Y4.9253 Z0.2800
G01 X40.2904 Y4.9253 Z0.2800
G01 X40.8201 Y4.9327 Z0.2800
G01 X40.8224 Y4.9327 Z0.2800
G01 X41.3575 Y4.9409 Z0.2800
G01 X41.8933 Y4.9497 Z0.2800
G01 X41.8962 Y4.9498 Z0.2800
G01 X41.8971 Y4.9498 Z0.2800
G01 X42.4289 Y4.9592 Z0.2800
G01 X42.9627 Y4.9693 Z0.2800
G01 X42.9656 Y4.9694 Z0.2800
G01 X42.9664 Y4.9694 Z0.2800
G01 X43.4995 Y4.9802 Z0.2800
G01 X43.5025 Y4.9802 Z0.2800
G01 X43.5035 Y4.9803 Z0.2800
G01 X44.0359 Y4.9916 Z0.2800
G01 X44.5708 Y5.0038 Z0.2800
G01 X44.5717 Y5.0038 Z0.2800
G01 X45.1072 Y5.0166 Z0.2800
G01 X45.6424 Y5.0301 Z0.2800
G01 X45.6429 Y5.0301 Z0.2800
G01 X46.1784 Y5.0442 Z0.2800
G01 X46.7134 Y5.0590 Z0.2800
G01 X46.7141 Y5.0590 Z0.2800
G01 X47.2495 Y5.0744 Z0.2800
G01 X47.7848 Y5.0905 Z0.2800
G01 X48.3199 Y5.1073 Z0.2800
G01 X48.3213 Y5.1074 Z0.2800
G01 X48.3230 Y5.1074 Z0.2800
G01 X48.8536 Y5.1247 Z0.2800
G01 X48.8553 Y5.1247 Z0.2800
G01 X48.8579 Y5.1248 Z0.2800
G01 X49.3912 Y5.1429 Z0.2800
G01 X49.3920 Y5.1429 Z0.2800
G01 X49.3937 Y5.1429 Z0.2800
G01 X49.9262 Y5.1616 Z0.2800
G01 X49.9272 Y5.1616 Z0.2800
G01 X50.4625 Y5.1810 Z0.2800
G01 X50.4645 Y5.1811 Z0.2800
G01 X50.9935 Y5.2009 Z0.2800
G01 X50.9945 Y5.2009 Z0.2800
G01 X50.9980 Y5.2011 Z0.2800
G01 X51.5327 Y5.2219 Z0.2800
G01 X51.5334 Y5.2219 Z0.2800
G01 X52.0687 Y5.2433 Z0.2800
G01 X52.0703 Y5.2433 Z0.2800
G01 X52.6030 Y5.2653 Z0.2800
G01 X52.6035 Y5.2653 Z0.2800
G01 X52.6044 Y5.2653 Z0.2800
G01 X53.1387 Y5.2881 Z0.2800
G01 X53.1396 Y5.2881 Z0.2800
G01 X53.6734 Y5.3114 Z0.2800
G01 X53.6740 Y5.3114 Z0.2800
G01 X53.6763 Y5.3115 Z0.2800
G01 X54.2056 Y5.3353 Z0.2800
G01 X54.2071 Y5.3354 Z0.2800
G01 X54.2099 Y5.3355 Z0.2800
G01 X54.7442 Y5.3602 Z0.2800
G01 X54.7454 Y5.3603 Z0.2800
G01 X54.7461 Y5.3603 Z0.2800
G01 X55.2796 Y5.3857 Z0.2800
G01 X55.2809 Y5.3857 Z0.2800
G01 X55.8138 Y5.4116 Z0.2800
G01 X55.8144 Y5.4117 Z0.2800
G01 X55.8154 Y5.4117 Z0.2800
G01 X56.3501 Y5.4385 Z0.2800
G01 X56.3519 Y5.4385 Z0.2800
G01 X56.8841 Y5.4657 Z0.2800
G01 X56.8851 Y5.4657 Z0.2800
G01 X56.8864 Y5.4658 Z0.2800
G01 X57.4197 Y5.4938 Z0.2800
G01 X57.4208 Y5.4938 Z0.2800
G01 X57.9523 Y5.5223 Z0.2800
G01 X57.9532 Y5.5224 Z0.2800
G01 X57.9564 Y5.5225 Z0.2800
G01 X58.4877 Y5.5517 Z0.2800
G01 X58.4900 Y5.5518 Z0.2800
G01 X58.4906 Y5.5519 Z0.2800
G01 X59.0238 Y5.5818 Z0.2800
G01 X59.0255 Y5.5819 Z0.2800
G01 X59.5604 Y5.6125 Z0.2800
G01 X59.5614 Y5.6126 Z0.2800
G01 X59.5622 Y5.6127 Z0.2800
G01 X60.0931 Y5.6438 Z0.2800
G01 X60.0950 Y5.6439 Z0.2800
G01 X63.5934 Y5.8533 Z0.2800
G01 X63.6557 Y4.8126 Z0.2800
G01 X60.1577 Y4.6033 Z0.2800
G01 X60.1564 Y4.6033 Z0.2800
G01 X59.6216 Y4.5719 Z0.2800
G01 X59.6196 Y4.5718 Z0.2800
G01 X59.6190 Y4.5718 Z0.2800
G01 X59.0862 Y4.5412 Z0.2800
G01 X59.0854 Y4.5412 Z0.2800
G01 X59.0839 Y4.5411 Z0.2800
G01 X58.5490 Y4.5111 Z0.2800
G01 X58.5475 Y4.5110 Z0.2800
G01 X58.0128 Y4.4816 Z0.2800
G01 X58.0115 Y4.4816 Z0.2800
G01 X57.4799 Y4.4531 Z0.2800
G01 X57.4773 Y4.4529 Z0.2800
G01 X57.4752 Y4.4528 Z0.2800
G01 X56.9402 Y4.4248 Z0.2800
G01 X56.9387 Y4.4247 Z0.2800
G01 X56.4055 Y4.3974 Z0.2800
G01 X56.4025 Y4.3973 Z0.2800
G01 X55.8674 Y4.3705 Z0.2800
G01 X55.8657 Y4.3705 Z0.2800
G01 X55.3309 Y4.3444 Z0.2800
G01 X55.3298 Y4.3444 Z0.2800
G01 X55.3285 Y4.3443 Z0.2800
G01 X54.7945 Y4.3190 Z0.2800
G01 X54.7937 Y4.3189 Z0.2800
G01 X54.7932 Y4.3189 Z0.2800
G01 X54.2597 Y4.2943 Z0.2800
G01 X54.2570 Y4.2942 Z0.2800
G01 X53.7225 Y4.2701 Z0.2800
G01 X53.7201 Y4.2701 Z0.2800
G01 X53.1857 Y4.2467 Z0.2800
G01 X53.1843 Y4.2466 Z0.2800
G01 X53.1834 Y4.2466 Z0.2800
G01 X52.6493 Y4.2239 Z0.2800
G01 X52.6485 Y4.2238 Z0.2800
G01 X52.6461 Y4.2237 Z0.2800
G01 X52.1136 Y4.2018 Z0.2800
G01 X52.1121 Y4.2017 Z0.2800
G01 X52.1103 Y4.2017 Z0.2800
G01 X51.5758 Y4.1803 Z0.2800
G01 X51.5737 Y4.1802 Z0.2800
G01 X51.0405 Y4.1595 Z0.2800
G01 X51.0369 Y4.1594 Z0.2800
G01 X50.5020 Y4.1393 Z0.2800
G01 X50.5015 Y4.1393 Z0.2800
G01 X50.5003 Y4.1393 Z0.2800
G01 X49.9657 Y4.1199 Z0.2800
G01 X49.9636 Y4.1198 Z0.2800
G01 X49.9614 Y4.1197 Z0.2800
G01 X49.4290 Y4.1011 Z0.2800
G01 X49.4268 Y4.1010 Z0.2800
G01 X48.8946 Y4.0830 Z0.2800
G01 X48.8918 Y4.0830 Z0.2800
G01 X48.8883 Y4.0828 Z0.2800
G01 X48.8875 Y4.0828 Z0.2800
G01 X48.3554 Y4.0655 Z0.2800
G01 X48.3539 Y4.0654 Z0.2800
G01 X48.3534 Y4.0654 Z0.2800
G01 X47.8186 Y4.0487 Z0.2800
G01 X47.8165 Y4.0486 Z0.2800
G01 X47.2818 Y4.0325 Z0.2800
G01 X47.2801 Y4.0324 Z0.2800
G01 X47.2782 Y4.0324 Z0.2800
G01 X46.7449 Y4.0170 Z0.2800
G01 X46.7418 Y4.0169 Z0.2800
G01 X46.2084 Y4.0022 Z0.2800
G01 X46.2061 Y4.0021 Z0.2800
G01 X46.2044 Y4.0021 Z0.2800
G01 X45.6714 Y3.9881 Z0.2800
G01 X45.6684 Y3.9879 Z0.2800
G01 X45.6677 Y3.9879 Z0.2800
G01 X45.1350 Y3.9745 Z0.2800
G01 X45.1321 Y3.9745 Z0.2800
G01 X45.1308 Y3.9744 Z0.2800
G01 X44.5977 Y3.9617 Z0.2800
G01 X44.5950 Y3.9616 Z0.2800
G01 X44.5929 Y3.9615 Z0.2800
G01 X44.0609 Y3.9495 Z0.2800
G01 X44.0578 Y3.9494 Z0.2800
G01 X44.0568 Y3.9494 Z0.2800
G01 X43.5246 Y3.9380 Z0.2800
G01 X43.5240 Y3.9380 Z0.2800
G01 X43.5204 Y3.9380 Z0.2800
G01 X43.5180 Y3.9379 Z0.2800
G01 X42.9892 Y3.9272 Z0.2800
G01 X42.9887 Y3.9272 Z0.2800
G01 X42.9851 Y3.9272 Z0.2800
G01 X42.9826 Y3.9270 Z0.2800
G01 X42.4496 Y3.9169 Z0.2800
G01 X42.4464 Y3.9169 Z0.2800
G01 X42.4457 Y3.9169 Z0.2800
G01 X41.9118 Y3.9075 Z0.2800
G01 X41.9090 Y3.9074 Z0.2800
G01 X41.9081 Y3.9074 Z0.2800
G01 X41.3748 Y3.8986 Z0.2800
G01 X41.3723 Y3.8986 Z0.2800
G01 X40.8377 Y3.8905 Z0.2800
G01 X40.8362 Y3.8904 Z0.2800
G01 X40.3007 Y3.8829 Z0.2800
G01 X40.2975 Y3.8829 Z0.2800
G01 X40.2967 Y3.8829 Z0.2800
G01 X39.7638 Y3.8761 Z0.2800
G01 X39.7614 Y3.8761 Z0.2800
G01 X39.2267 Y3.8699 Z0.2800
G01 X39.2239 Y3.8699 Z0.2800
G01 X38.6897 Y3.8644 Z0.2800
G01 X38.6855 Y3.8643 Z0.2800
G01 X38.1538 Y3.8595 Z0.2800
G01 X38.1513 Y3.8595 Z0.2800
G01 X38.1495 Y3.8594 Z0.2800
G01 X37.6156 Y3.8553 Z0.2800
G01 X37.6142 Y3.8553 Z0.2800
G01 X37.0784 Y3.8518 Z0.2800
G01 X37.0772 Y3.8518 Z0.2800
G01 X36.5415 Y3.8489 Z0.2800
G01 X36.5401 Y3.8489 Z0.2800
G01 X36.0044 Y3.8467 Z0.2800
G01 X36.0031 Y3.8467 Z0.2800
G01 X35.4673 Y3.8451 Z0.2800
G01 X35.4660 Y3.8451 Z0.2800
G01 X34.9302 Y3.8443 Z0.2800
G01 X34.9289 Y3.8443 Z0.2800
G01 X34.3931 Y3.8441 Z0.2800
G01 X34.3918 Y3.8441 Z0.2800
G01 X33.8561 Y3.8446 Z0.2800
G01 X33.8548 Y3.8446 Z0.2800
G01 X33.3190 Y3.8457 Z0.2800
G01 X33.3177 Y3.8457 Z0.2800
G01 X32.7820 Y3.8474 Z0.2800
G01 X32.7806 Y3.8474 Z0.2800
G01 X32.2449 Y3.8499 Z0.2800
G01 X32.2436 Y3.8499 Z0.2800
G01 X31.7078 Y3.8530 Z0.2800
G01 X31.7065 Y3.8530 Z0.2800
G01 X31.1739 Y3.8567 Z0.2800
G01 X31.1734 Y3.8568 Z0.2800
G01 X31.1699 Y3.8568 Z0.2800
G01 X30.6353 Y3.8612 Z0.2800
G01 X30.6348 Y3.8612 Z0.2800
G01 X30.6325 Y3.8613 Z0.2800
G01 X30.0991 Y3.8663 Z0.2800
G01 X30.0954 Y3.8664 Z0.2800
G01 X29.5610 Y3.8721 Z0.2800
G01 X29.5583 Y3.8721 Z0.2800
G01 X29.0234 Y3.8786 Z0.2800
G01 X29.0214 Y3.8786 Z0.2800
G01 X28.4883 Y3.8856 Z0.2800
G01 X28.4875 Y3.8856 Z0.2800
G01 X28.4842 Y3.8857 Z0.2800
G01 X27.9487 Y3.8934 Z0.2800
G01 X27.9472 Y3.8935 Z0.2800
G01 X27.4127 Y3.9019 Z0.2800
G01 X27.4103 Y3.9019 Z0.2800
G01 X26.8769 Y3.9109 Z0.2800
G01 X26.8760 Y3.9109 Z0.2800
G01 X26.8725 Y3.9110 Z0.2800
G01 X26.8710 Y3.9110 Z0.2800
G01 X26.3387 Y3.9207 Z0.2800
G01 X26.3373 Y3.9207 Z0.2800
G01 X26.3362 Y3.9207 Z0.2800
G01 X25.8018 Y3.9311 Z0.2800
G01 X25.8012 Y3.9311 Z0.2800
G01 X25.7987 Y3.9312 Z0.2800
G01 X25.2671 Y3.9421 Z0.2800
G01 X25.2646 Y3.9422 Z0.2800
G01 X25.2611 Y3.9423 Z0.2800
G01 X25.2605 Y3.9423 Z0.2800
G01 X24.7275 Y3.9540 Z0.2800
G01 X24.7261 Y3.9540 Z0.2800
G01 X24.7254 Y3.9540 Z0.2800
G01 X24.1931 Y3.9663 Z0.2800
G01 X24.1905 Y3.9664 Z0.2800
G01 X24.1870 Y3.9664 Z0.2800
G01 X23.6542 Y3.9794 Z0.2800
G01 X23.6529 Y3.9795 Z0.2800
G01 X23.6502 Y3.9795 Z0.2800
G01 X23.1179 Y3.9931 Z0.2800
G01 X23.1160 Y3.9932 Z0.2800
G01 X23.1136 Y3.9933 Z0.2800
G01 X22.5805 Y4.0076 Z0.2800
G01 X22.5788 Y4.0076 Z0.2800
G01 X22.5767 Y4.0077 Z0.2800
G01 X22.0429 Y4.0226 Z0.2800
G01 X22.0402 Y4.0228 Z0.2800
G01 X21.5054 Y4.0385 Z0.2800
G01 X21.5042 Y4.0385 Z0.2800
G01 X20.9686 Y4.0548 Z0.2800
G01 X20.9659 Y4.0549 Z0.2800
G01 X20.9641 Y4.0550 Z0.2800
G01 X20.4317 Y4.0719 Z0.2800
G01 X20.4301 Y4.0720 Z0.2800
G01 X19.8966 Y4.0896 Z0.2800
G01 X19.8941 Y4.0897 Z0.2800
G01 X19.8926 Y4.0897 Z0.2800
G01 X19.3597 Y4.1080 Z0.2800
G01 X19.3571 Y4.1081 Z0.2800
G01 X19.3550 Y4.1081 Z0.2800
G01 X18.8230 Y4.1270 Z0.2800
G01 X18.8212 Y4.1271 Z0.2800
G01 X18.8194 Y4.1272 Z0.2800
G01 X18.2857 Y4.1468 Z0.2800
G01 X18.2851 Y4.1468 Z0.2800
G01 X18.2828 Y4.1469 Z0.2800
G01 X17.7481 Y4.1672 Z0.2800
G01 X17.7467 Y4.1672 Z0.2800
G01 X17.2114 Y4.1883 Z0.2800
G01 X17.2087 Y4.1884 Z0.2800
G01 X17.2067 Y4.1884 Z0.2800
G01 X16.6754 Y4.2099 Z0.2800
G01 X16.6737 Y4.2100 Z0.2800
G01 X16.1382 Y4.2323 Z0.2800
G01 X16.1363 Y4.2324 Z0.2800
G01 X16.1355 Y4.2324 Z0.2800
G01 X15.6016 Y4.2553 Z0.2800
G01 X15.6000 Y4.2554 Z0.2800
G01 X15.5994 Y4.2555 Z0.2800
G01 X15.0651 Y4.2791 Z0.2800
G01 X15.0632 Y4.2792 Z0.2800
G01 X14.5286 Y4.3035 Z0.2800
G01 X14.5273 Y4.3035 Z0.2800
G01 X13.9921 Y4.3285 Z0.2800
G01 X13.9897 Y4.3286 Z0.2800
G01 X13.9884 Y4.3286 Z0.2800
G01 X13.4561 Y4.3541 Z0.2800
G01 X13.4514 Y4.3544 Z0.2800
G01 X12.9200 Y4.3805 Z0.2800
G01 X12.9185 Y4.3805 Z0.2800
G01 X12.9179 Y4.3806 Z0.2800
G01 X12.3828 Y4.4075 Z0.2800
G01 X12.3784 Y4.4078 Z0.2800
G01 X12.3777 Y4.4078 Z0.2800
G01 X12.3768 Y4.4079 Z0.2800
G01 X11.8464 Y4.4353 Z0.2800
G01 X11.8457 Y4.4353 Z0.2800
G01 X11.8451 Y4.4353 Z0.2800
G01 X11.3101 Y4.4636 Z0.2800
G01 X11.3070 Y4.4638 Z0.2800
G01 X11.3063 Y4.4638 Z0.2800
G01 X11.3057 Y4.4638 Z0.2800
G01 X10.7738 Y4.4926 Z0.2800
G01 X10.7704 Y4.4927 Z0.2800
G01 X10.2375 Y4.5222 Z0.2800
G01 X10.2357 Y4.5224 Z0.2800
G01 X10.2351 Y4.5224 Z0.2800
G01 X9.7013 Y4.5526 Z0.2800
G01 X9.7000 Y4.5526 Z0.2800
G01 X9.1652 Y4.5836 Z0.2800
G01 X9.1639 Y4.5837 Z0.2800
G01 X8.6291 Y4.6153 Z0.2800
G01 X8.6277 Y4.6153 Z0.2800
G01 X8.0929 Y4.6476 Z0.2800
G01 X8.0913 Y4.6477 Z0.2800
G01 X8.0907 Y4.6477 Z0.2800
G01 X7.5586 Y4.6805 Z0.2800
G01 X7.5576 Y4.6806 Z0.2800
G01 X7.5555 Y4.6807 Z0.2800
G01 X4.0598 Y4.9004 Z0.2800
G01 X4.0598 Y4.9004 Z0.1400
G01 X4.1252 Y5.9408 Z0.1400
G01 X7.6209 Y5.7211 Z0.1400
G01 X8.1551 Y5.6882 Z0.1400
G01 X8.1556 Y5.6882 Z0.1400
G01 X8.1561 Y5.6881 Z0.1400
G01 X8.1568 Y5.6881 Z0.1400
G01 X8.6874 Y5.6561 Z0.1400
G01 X8.6880 Y5.6561 Z0.1400
G01 X8.6887 Y5.6560 Z0.1400
G01 X8.6905 Y5.6559 Z0.1400
G01 X9.2253 Y5.6243 Z0.1400
G01 X9.2269 Y5.6242 Z0.1400
G01 X9.7602 Y5.5934 Z0.1400
G01 X9.7607 Y5.5933 Z0.1400
G01 X9.7614 Y5.5933 Z0.1400
G01 X10.2951 Y5.5631 Z0.1400
G01 X10.2963 Y5.5631 Z0.1400
G01 X10.2970 Y5.5630 Z0.1400
G01 X10.8289 Y5.5336 Z0.1400
G01 X10.8310 Y5.5335 Z0.1400
G01 X10.8320 Y5.5334 Z0.1400
G01 X11.3651 Y5.5046 Z0.1400
G01 X11.3676 Y5.5044 Z0.1400
G01 X11.3683 Y5.5044 Z0.1400
G01 X11.3690 Y5.5044 Z0.1400
G01 X11.9002 Y5.4763 Z0.1400
G01 X11.9014 Y5.4762 Z0.1400
G01 X12.4352 Y5.4487 Z0.1400
G01 X12.4399 Y5.4484 Z0.1400
G01 X12.4405 Y5.4484 Z0.1400
G01 X12.9682 Y5.4218 Z0.1400
G01 X12.9692 Y5.4217 Z0.1400
G01 X12.9716 Y5.4216 Z0.1400
G01 X13.5045 Y5.3954 Z0.1400
G01 X13.5072 Y5.3953 Z0.1400
G01 X13.5084 Y5.3952 Z0.1400
G01 X14.0391 Y5.3698 Z0.1400
G01 X14.0407 Y5.3698 Z0.1400
G01 X14.5759 Y5.3448 Z0.1400
G01 X14.5768 Y5.3448 Z0.1400
G01 X14.5779 Y5.3447 Z0.1400
G01 X15.1111 Y5.3205 Z0.1400
G01 X15.1118 Y5.3205 Z0.1400
G01 X15.6463 Y5.2968 Z0.1400
G01 X15.6472 Y5.2968 Z0.1400
G01 X16.1800 Y5.2739 Z0.1400
G01 X16.1820 Y5.2738 Z0.1400
G01 X16.1834 Y5.2738 Z0.1400
G01 X16.7165 Y5.2516 Z0.1400
G01 X16.7176 Y5.2515 Z0.1400
G01 X17.2512 Y5.2300 Z0.1400
G01 X17.2545 Y5.2298 Z0.1400
G01 X17.2557 Y5.2297 Z0.1400
G01 X17.7859 Y5.2089 Z0.1400
G01 X17.7877 Y5.2088 Z0.1400
G01 X18.3231 Y5.1885 Z0.1400
G01 X18.3236 Y5.1885 Z0.1400
G01 X18.8585 Y5.1688 Z0.1400
G01 X18.8591 Y5.1688 Z0.1400
G01 X19.3939 Y5.1498 Z0.1400
G01 X19.9294 Y5.1315 Z0.1400
G01 X19.9307 Y5.1314 Z0.1400
G01 X20.4628 Y5.1139 Z0.1400
G01 X20.4644 Y5.1138 Z0.1400
G01 X20.4658 Y5.1138 Z0.1400
G01 X20.9995 Y5.0968 Z0.1400
G01 X21.0017 Y5.0967 Z0.1400
G01 X21.0038 Y5.0966 Z0.1400
G01 X21.5335 Y5.0805 Z0.1400
G01 X21.5351 Y5.0804 Z0.1400
G01 X21.5371 Y5.0804 Z0.1400
G01 X22.0715 Y5.0647 Z0.1400
G01 X22.0721 Y5.0647 Z0.1400
G01 X22.6070 Y5.0497 Z0.1400
G01 X23.1426 Y5.0353 Z0.1400
G01 X23.1433 Y5.0353 Z0.1400
G01 X23.6783 Y5.0216 Z0.1400
G01 X24.2112 Y5.0086 Z0.1400
G01 X24.2123 Y5.0086 Z0.1400
G01 X24.2148 Y5.0085 Z0.1400
G01 X24.7489 Y4.9962 Z0.1400
G01 X24.7516 Y4.9961 Z0.1400
G01 X25.2822 Y4.9845 Z0.1400
G01 X25.2832 Y4.9845 Z0.1400
G01 X25.2859 Y4.9844 Z0.1400
G01 X25.8208 Y4.9734 Z0.1400
G01 X26.3547 Y4.9631 Z0.1400
G01 X26.3555 Y4.9630 Z0.1400
G01 X26.3585 Y4.9629 Z0.1400
G01 X26.8887 Y4.9533 Z0.1400
G01 X26.8895 Y4.9533 Z0.1400
G01 X26.8922 Y4.9532 Z0.1400
G01 X27.4279 Y4.9442 Z0.1400
G01 X27.9620 Y4.9358 Z0.1400
G01 X27.9655 Y4.9357 Z0.1400
G01 X28.4954 Y4.9280 Z0.1400
G01 X28.4993 Y4.9280 Z0.1400
G01 X29.0351 Y4.9209 Z0.1400
G01 X29.5708 Y4.9145 Z0.1400
G01 X30.1066 Y4.9087 Z0.1400
G01 X30.6412 Y4.9037 Z0.1400
G01 X30.6439 Y4.9036 Z0.1400
G01 X31.1734 Y4.8992 Z0.1400
G01 X31.1781 Y4.8992 Z0.1400
G01 X31.7139 Y4.8954 Z0.1400
G01 X32.2496 Y4.8923 Z0.1400
G01 X32.7854 Y4.8899 Z0.1400
G01 X33.3212 Y4.8881 Z0.1400
G01 X33.8570 Y4.8870 Z0.1400
G01 X34.3927 Y4.8865 Z0.1400
G01 X34.9284 Y4.8867 Z0.1400
G01 X35.4642 Y4.8876 Z0.1400
G01 X36.0000 Y4.8891 Z0.1400
G01 X36.5357 Y4.8913 Z0.1400
G01 X37.0715 Y4.8942 Z0.1400
G01 X37.6073 Y4.8977 Z0.1400
G01 X38.1430 Y4.9019 Z0.1400
G01 X38.6788 Y4.9067 Z0.1400
G01 X39.2145 Y4.9122 Z0.1400
G01 X39.7503 Y4.9184 Z0.1400
G01 X40.2862 Y4.9253 Z0.1400
G01 X40.2904 Y4.9253 Z0.1400
G01 X40.8201 Y4.9327 Z0.1400
G01 X40.8224 Y4.9327 Z0.1400
G01 X41.3575 Y4.9409 Z0.1400
G01 X41.8933 Y4.9497 Z0.1400
G01 X41.8962 Y4.9498 Z0.1400
G01 X41.8971 Y4.9498 Z0.1400
G01 X42.4289 Y4.9592 Z0.1400
G01 X42.9627 Y4.9693 Z0.1400
G01 X42.9656 Y4.9694 Z0.1400
G01 X42.9664 Y4.9694 Z0.1400
G01 X43.4995 Y4.9802 Z0.1400
G01 X43.5025 Y4.9802 Z0.1400
G01 X43.5035 Y4.9803 Z0.1400
G01 X44.0359 Y4.9916 Z0.1400
G01 X44.5708 Y5.0038 Z0.1400
G01 X44.5717 Y5.0038 Z0.1400
G01 X45.1072 Y5.0166 Z0.1400
G01 X45.6424 Y5.0301 Z0.1400
G01 X45.6429 Y5.0301 Z0.1400
G01 X46.1784 Y5.0442 Z0.1400
G01 X46.7134 Y5.0590 Z0.1400
G01 X46.7141 Y5.0590 Z0.1400
G01 X47.2495 Y5.0744 Z0.1400
G01 X47.7848 Y5.0905 Z0.1400
G01 X48.3199 Y5.1073 Z0.1400
G01 X48.3213 Y5.1074 Z0.1400
G01 X48.3230 Y5.1074 Z0.1400
G01 X48.8536 Y5.1247 Z0.1400
G01 X48.8553 Y5.1247 Z0.1400
G01 X48.8579 Y5.1248 Z0.1400
G01 X49.3912 Y5.1429 Z0.1400
G01 X49.3920 Y5.1429 Z0.1400
G01 X49.3937 Y5.1429 Z0.1400
G01 X49.9262 Y5.1616 Z0.1400
G01 X49.9272 Y5.1616 Z0.1400
G01 X50.4625 Y5.1810 Z0.1400
G01 X50.4645 Y5.1811 Z0.1400
G01 X50.9935 Y5.2009 Z0.1400
G01 X50.9945 Y5.2009 Z0.1400
G01 X50.9980 Y5.2011 Z0.1400
G01 X51.5327 Y5.2219 Z0.1400
G01 X51.5334 Y5.2219 Z0.1400
G01 X52.0687 Y5.2433 Z0.1400
G01 X52.0703 Y5.2433 Z0.1400
G01 X52.6030 Y5.2653 Z0.1400
G01 X52.6035 Y5.2653 Z0.1400
G01 X52.6044 Y5.2653 Z0.1400
G01 X53.1387 Y5.2881 Z0.1400
G01 X53.1396 Y5.2881 Z0.1400
G01 X53.6734 Y5.3114 Z0.1400
G01 X53.6740 Y5.3114 Z0.1400
G01 X53.6763 Y5.3115 Z0.1400
G01 X54.2056 Y5.3353 Z0.1400
G01 X54.2071 Y5.3354 Z0.1400
G01 X54.2099 Y5.3355 Z0.1400
G01 X54.7442 Y5.3602 Z0.1400
G01 X54.7454 Y5.3603 Z0.1400
G01 X54.7461 Y5.3603 Z0.1400
G01 X55.2796 Y5.3857 Z0.1400
G01 X55.2809 Y5.3857 Z0.1400
G01 X55.8138 Y5.4116 Z0.1400
G01 X55.8144 Y5.4117 Z0.1400
G01 X55.8154 Y5.4117 Z0.1400
G01 X56.3501 Y5.4385 Z0.1400
G01 X56.3519 Y5.4385 Z0.1400
G01 X56.8841 Y5.4657 Z0.1400
G01 X56.8851 Y5.4657 Z0.1400
G01 X56.8864 Y5.4658 Z0.1400
G01 X57.4197 Y5.4938 Z0.1400
G01 X57.4208 Y5.4938 Z0.1400
G01 X57.9523 Y5.5223 Z0.1400
G01 X57.9532 Y5.5224 Z0.1400
G01 X57.9564 Y5.5225 Z0.1400
G01 X58.4877 Y5.5517 Z0.1400
G01 X58.4900 Y5.5518 Z0.1400
G01 X58.4906 Y5.5519 Z0.1400
G01 X59.0238 Y5.5818 Z0.1400
G01 X59.0255 Y5.5819 Z0.1400
G01 X59.5604 Y5.6125 Z0.1400
G01 X59.5614 Y5.6126 Z0.1400
G01 X59.5622 Y5.6127 Z0.1400
G01 X60.0931 Y5.6438 Z0.1400
G01 X60.0950 Y5.6439 Z0.1400
G01 X63.5934 Y5.8533 Z0.1400
G01 X63.6557 Y4.8126 Z0.1400
G01 X60.1577 Y4.6033 Z0.1400
G01 X60.1564 Y4.6033 Z0.1400
G01 X59.6216 Y4.5719 Z0.1400
G01 X59.6196 Y4.5718 Z0.1400
G01 X59.6190 Y4.5718 Z0.1400
G01 X59.0862 Y4.5412 Z0.1400
G01 X59.0854 Y4.5412 Z0.1400
G01 X59.0839 Y4.5411 Z0.1400
G01 X58.5490 Y4.5111 Z0.1400
G01 X58.5475 Y4.5110 Z0.1400
G01 X58.0128 Y4.4816 Z0.1400
G01 X58.0115 Y4.4816 Z0.1400
G01 X57.4799 Y4.4531 Z0.1400
G01 X57.4773 Y4.4529 Z0.1400
G01 X57.4752 Y4.4528 Z0.1400
G01 X56.9402 Y4.4248 Z0.1400
G01 X56.9387 Y4.4247 Z0.1400
G01 X56.4055 Y4.3974 Z0.1400
G01 X56.4025 Y4.3973 Z0.1400
G01 X55.8674 Y4.3705 Z0.1400
G01 X55.8657 Y4.3705 Z0.1400
G01 X55.3309 Y4.3444 Z0.1400
G01 X55.3298 Y4.3444 Z0.1400
G01 X55.3285 Y4.3443 Z0.1400
G01 X54.7945 Y4.3190 Z0.1400
G01 X54.7937 Y4.3189 Z0.1400
G01 X54.7932 Y4.3189 Z0.1400
G01 X54.2597 Y4.2943 Z0.1400
G01 X54.2570 Y4.2942 Z0.1400
G01 X53.7225 Y4.2701 Z0.1400
G01 X53.7201 Y4.2701 Z0.1400
G01 X53.1857 Y4.2467 Z0.1400
G01 X53.1843 Y4.2466 Z0.1400
G01 X53.1834 Y4.2466 Z0.1400
G01 X52.6493 Y4.2239 Z0.1400
G01 X52.6485 Y4.2238 Z0.1400
G01 X52.6461 Y4.2237 Z0.1400
G01 X52.1136 Y4.2018 Z0.1400
G01 X52.1121 Y4.2017 Z0.1400
G01 X52.1103 Y4.2017 Z0.1400
G01 X51.5758 Y4.1803 Z0.1400
G01 X51.5737 Y4.1802 Z0.1400
G01 X51.0405 Y4.1595 Z0.1400
G01 X51.0369 Y4.1594 Z0.1400
G01 X50.5020 Y4.1393 Z0.1400
G01 X50.5015 Y4.1393 Z0.1400
G01 X50.5003 Y4.1393 Z0.1400
G01 X49.9657 Y4.1199 Z0.1400
G01 X49.9636 Y4.1198 Z0.1400
G01 X49.9614 Y4.1197 Z0.1400
G01 X49.4290 Y4.1011 Z0.1400
G01 X49.4268 Y4.1010 Z0.1400
G01 X48.8946 Y4.0830 Z0.1400
G01 X48.8918 Y4.0830 Z0.1400
G01 X48.8883 Y4.0828 Z0.1400
G01 X48.8875 Y4.0828 Z0.1400
G01 X48.3554 Y4.0655 Z0.1400
G01 X48.3539 Y4.0654 Z0.1400
G01 X48.3534 Y4.0654 Z0.1400
G01 X47.8186 Y4.0487 Z0.1400
G01 X47.8165 Y4.0486 Z0.1400
G01 X47.2818 Y4.0325 Z0.1400
G01 X47.2801 Y4.0324 Z0.1400
G01 X47.2782 Y4.0324 Z0.1400
G01 X46.7449 Y4.0170 Z0.1400
G01 X46.7418 Y4.0169 Z0.1400
G01 X46.2084 Y4.0022 Z0.1400
G01 X46.2061 Y4.0021 Z0.1400
G01 X46.2044 Y4.0021 Z0.1400
G01 X45.6714 Y3.9881 Z0.1400
G01 X45.6684 Y3.9879 Z0.1400
G01 X45.6677 Y3.9879 Z0.1400
G01 X45.1350 Y3.9745 Z0.1400
G01 X45.1321 Y3.9745 Z0.1400
G01 X45.1308 Y3.9744 Z0.1400
G01 X44.5977 Y3.9617 Z0.1400
G01 X44.5950 Y3.9616 Z0.1400
G01 X44.5929 Y3.9615 Z0.1400
G01 X44.0609 Y3.9495 Z0.1400
G01 X44.0578 Y3.9494 Z0.1400
G01 X44.0568 Y3.9494 Z0.1400
G01 X43.5246 Y3.9380 Z0.1400
G01 X43.5240 Y3.9380 Z0.1400
G01 X43.5204 Y3.9380 Z0.1400
G01 X43.5180 Y3.9379 Z0.1400
G01 X42.9892 Y3.9272 Z0.1400
G01 X42.9887 Y3.9272 Z0.1400
G01 X42.9851 Y3.9272 Z0.1400
G01 X42.9826 Y3.9270 Z0.1400
G01 X42.4496 Y3.9169 Z0.1400
G01 X42.4464 Y3.9169 Z0.1400
G01 X42.4457 Y3.9169 Z0.1400
G01 X41.9118 Y3.9075 Z0.1400
G01 X41.9090 Y3.9074 Z0.1400
G01 X41.9081 Y3.9074 Z0.1400
G01 X41.3748 Y3.8986 Z0.1400
G01 X41.3723 Y3.8986 Z0.1400
G01 X40.8377 Y3.8905 Z0.1400
G01 X40.8362 Y3.8904 Z0.1400
G01 X40.3007 Y3.8829 Z0.1400
G01 X40.2975 Y3.8829 Z0.1400
G01 X40.2967 Y3.8829 Z0.1400
G01 X39.7638 Y3.8761 Z0.1400
G01 X39.7614 Y3.8761 Z0.1400
G01 X39.2267 Y3.8699 Z0.1400
G01 X39.2239 Y3.8699 Z0.1400
G01 X38.6897 Y3.8644 Z0.1400
G01 X38.6855 Y3.8643 Z0.1400
G01 X38.1538 Y3.8595 Z0.1400
G01 X38.1513 Y3.8595 Z0.1400
G01 X38.1495 Y3.8594 Z0.1400
G01 X37.6156 Y3.8553 Z0.1400
G01 X37.6142 Y3.8553 Z0.1400
G01 X37.0784 Y3.8518 Z0.1400
G01 X37.0772 Y3.8518 Z0.1400
G01 X36.5415 Y3.8489 Z0.1400
G01 X36.5401 Y3.8489 Z0.1400
G01 X36.0044 Y3.8467 Z0.1400
G01 X36.0031 Y3.8467 Z0.1400
G01 X35.4673 Y3.8451 Z0.1400
G01 X35.4660 Y3.8451 Z0.1400
G01 X34.9302 Y3.8443 Z0.1400
G01 X34.9289 Y3.8443 Z0.1400
G01 X34.3931 Y3.8441 Z0.1400
G01 X34.3918 Y3.8441 Z0.1400
G01 X33.8561 Y3.8446 Z0.1400
G01 X33.8548 Y3.8446 Z0.1400
G01 X33.3190 Y3.8457 Z0.1400
G01 X33.3177 Y3.8457 Z0.1400
G01 X32.7820 Y3.8474 Z0.1400
G01 X32.7806 Y3.8474 Z0.1400
G01 X32.2449 Y3.8499 Z0.1400
G01 X32.2436 Y3.8499 Z0.1400
G01 X31.7078 Y3.8530 Z0.1400
G01 X31.7065 Y3.8530 Z0.1400
G01 X31.1739 Y3.8567 Z0.1400
G01 X31.1734 Y3.8568 Z0.1400
G01 X31.1699 Y3.8568 Z0.1400
G01 X30.6353 Y3.8612 Z0.1400
G01 X30.6348 Y3.8612 Z0.1400
G01 X30.6325 Y3.8613 Z0.1400
G01 X30.0991 Y3.8663 Z0.1400
G01 X30.0954 Y3.8664 Z0.1400
G01 X29.5610 Y3.8721 Z0.1400
G01 X29.5583 Y3.8721 Z0.1400
G01 X29.0234 Y3.8786 Z0.1400
G01 X29.0214 Y3.8786 Z0.1400
G01 X28.4883 Y3.8856 Z0.1400
G01 X28.4875 Y3.8856 Z0.1400
G01 X28.4842 Y3.8857 Z0.1400
G01 X27.9487 Y3.8934 Z0.1400
G01 X27.9472 Y3.8935 Z0.1400
G01 X27.4127 Y3.9019 Z0.1400
G01 X27.4103 Y3.9019 Z0.1400
G01 X26.8769 Y3.9109 Z0.1400
G01 X26.8760 Y3.9109 Z0.1400
G01 X26.8725 Y3.9110 Z0.1400
G01 X26.8710 Y3.9110 Z0.1400
G01 X26.3387 Y3.9207 Z0.1400
G01 X26.3373 Y3.9207 Z0.1400
G01 X26.3362 Y3.9207 Z0.1400
G01 X25.8018 Y3.9311 Z0.1400
G01 X25.8012 Y3.9311 Z0.1400
G01 X25.7987 Y3.9312 Z0.1400
G01 X25.2671 Y3.9421 Z0.1400
G01 X25.2646 Y3.9422 Z0.1400
G01 X25.2611 Y3.9423 Z0.1400
G01 X25.2605 Y3.9423 Z0.1400
G01 X24.7275 Y3.9540 Z0.1400
G01 X24.7261 Y3.9540 Z0.1400
G01 X24.7254 Y3.9540 Z0.1400
G01 X24.1931 Y3.9663 Z0.1400
G01 X24.1905 Y3.9664 Z0.1400
G01 X24.1870 Y3.9664 Z0.1400
G01 X23.6542 Y3.9794 Z0.1400
G01 X23.6529 Y3.9795 Z0.1400
G01 X23.6502 Y3.9795 Z0.1400
G01 X23.1179 Y3.9931 Z0.1400
G01 X23.1160 Y3.9932 Z0.1400
G01 X23.1136 Y3.9933 Z0.1400
G01 X22.5805 Y4.0076 Z0.1400
G01 X22.5788 Y4.0076 Z0.1400
G01 X22.5767 Y4.0077 Z0.1400
G01 X22.0429 Y4.0226 Z0.1400
G01 X22.0402 Y4.0228 Z0.1400
G01 X21.5054 Y4.0385 Z0.1400
G01 X21.5042 Y4.0385 Z0.1400
G01 X20.9686 Y4.0548 Z0.1400
G01 X20.9659 Y4.0549 Z0.1400
G01 X20.9641 Y4.0550 Z0.1400
G01 X20.4317 Y4.0719 Z0.1400
G01 X20.4301 Y4.0720 Z0.1400
G01 X19.8966 Y4.0896 Z0.1400
G01 X19.8941 Y4.0897 Z0.1400
G01 X19.8926 Y4.0897 Z0.1400
G01 X19.3597 Y4.1080 Z0.1400
G01 X19.3571 Y4.1081 Z0.1400
G01 X19.3550 Y4.1081 Z0.1400
G01 X18.8230 Y4.1270 Z0.1400
G01 X18.8212 Y4.1271 Z0.1400
G01 X18.8194 Y4.1272 Z0.1400
G01 X18.2857 Y4.1468 Z0.1400
G01 X18.2851 Y4.1468 Z0.1400
G01 X18.2828 Y4.1469 Z0.1400
G01 X17.7481 Y4.1672 Z0.1400
G01 X17.7467 Y4.1672 Z0.1400
G01 X17.2114 Y4.1883 Z0.1400
G01 X17.2087 Y4.1884 Z0.1400
G01 X17.2067 Y4.1884 Z0.1400
G01 X16.6754 Y4.2099 Z0.1400
G01 X16.6737 Y4.2100 Z0.1400
G01 X16.1382 Y4.2323 Z0.1400
G01 X16.1363 Y4.2324 Z0.1400
G01 X16.1355 Y4.2324 Z0.1400
G01 X15.6016 Y4.2553 Z0.1400
G01 X15.6000 Y4.2554 Z0.1400
G01 X15.5994 Y4.2555 Z0.1400
G01 X15.0651 Y4.2791 Z0.1400
G01 X15.0632 Y4.2792 Z0.1400
G01 X14.5286 Y4.3035 Z0.1400
G01 X14.5273 Y4.3035 Z0.1400
G01 X13.9921 Y4.3285 Z0.1400
G01 X13.9897 Y4.3286 Z0.1400
G01 X13.9884 Y4.3286 Z0.1400
G01 X13.4561 Y4.3541 Z0.1400
G01 X13.4514 Y4.3544 Z0.1400
G01 X12.9200 Y4.3805 Z0.1400
G01 X12.9185 Y4.3805 Z0.1400
G01 X12.9179 Y4.3806 Z0.1400
G01 X12.3828 Y4.4075 Z0.1400
G01 X12.3784 Y4.4078 Z0.1400
G01 X12.3777 Y4.4078 Z0.1400
G01 X12.3768 Y4.4079 Z0.1400
G01 X11.8464 Y4.4353 Z0.1400
G01 X11.8457 Y4.4353 Z0.1400
G01 X11.8451 Y4.4353 Z0.1400
G01 X11.3101 Y4.4636 Z0.1400
G01 X11.3070 Y4.4638 Z0.1400
G01 X11.3063 Y4.4638 Z0.1400
G01 X11.3057 Y4.4638 Z0.1400
G01 X10.7738 Y4.4926 Z0.1400
G01 X10.7704 Y4.4927 Z0.1400
G01 X10.2375 Y4.5222 Z0.1400
G01 X10.2357 Y4.5224 Z0.1400
G01 X10.2351 Y4.5224 Z0.1400
G01 X9.7013 Y4.5526 Z0.1400
G01 X9.7000 Y4.5526 Z0.1400
G01 X9.1652 Y4.5836 Z0.1400
G01 X9.1639 Y4.5837 Z0.1400
G01 X8.6291 Y4.6153 Z0.1400
G01 X8.6277 Y4.6153 Z0.1400
G01 X8.0929 Y4.6476 Z0.1400
G01 X8.0913 Y4.6477 Z0.1400
G01 X8.0907 Y4.6477 Z0.1400
G01 X7.5586 Y4.6805 Z0.1400
G01 X7.5576 Y4.6806 Z0.1400
G01 X7.5555 Y4.6807 Z0.1400
G01 X4.0598 Y4.9004 Z0.1400
G01 X4.0598 Y4.9004 Z0.0000
G01 X4.1252 Y5.9408 Z0.0000
G01 X7.6209 Y5.7211 Z0.0000
G01 X8.1551 Y5.6882 Z0.0000
G01 X8.1556 Y5.6882 Z0.0000
G01 X8.1561 Y5.6881 Z0.0000
G01 X8.1568 Y5.6881 Z0.0000
G01 X8.6874 Y5.6561 Z0.0000
G01 X8.6880 Y5.6561 Z0.0000
G01 X8.6887 Y5.6560 Z0.0000
G01 X8.6905 Y5.6559 Z0.0000
G01 X9.2253 Y5.6243 Z0.0000
G01 X9.2269 Y5.6242 Z0.0000
G01 X9.7602 Y5.5934 Z0.0000
G01 X9.7607 Y5.5933 Z0.0000
G01 X9.7614 Y5.5933 Z0.0000
G01 X10.2951 Y5.5631 Z0.0000
G01 X10.2963 Y5.5631 Z0.0000
G01 X10.2970 Y5.5630 Z0.0000
G01 X10.8289 Y5.5336 Z0.0000
G01 X10.8310 Y5.5335 Z0.0000
G01 X10.8320 Y5.5334 Z0.0000
G01 X11.3651 Y5.5046 Z0.0000
G01 X11.3676 Y5.5044 Z0.0000
G01 X11.3683 Y5.5044 Z0.0000
G01 X11.3690 Y5.5044 Z0.0000
G01 X11.9002 Y5.4763 Z0.0000
G01 X11.9014 Y5.4762 Z0.0000
G01 X12.4352 Y5.4487 Z0.0000
G01 X12.4399 Y5.4484 Z0.0000
G01 X12.4405 Y5.4484 Z0.0000
G01 X12.9682 Y5.4218 Z0.0000
G01 X12.9692 Y5.4217 Z0.0000
G01 X12.9716 Y5.4216 Z0.0000
G01 X13.5045 Y5.3954 Z0.0000
G01 X13.5072 Y5.3953 Z0.0000
G01 X13.5084 Y5.3952 Z0.0000
G01 X14.0391 Y5.3698 Z0.0000
G01 X14.0407 Y5.3698 Z0.0000
G01 X14.5759 Y5.3448 Z0.0000
G01 X14.5768 Y5.3448 Z0.0000
G01 X14.5779 Y5.3447 Z0.0000
G01 X15.1111 Y5.3205 Z0.0000
G01 X15.1118 Y5.3205 Z0.0000
G01 X15.6463 Y5.2968 Z0.0000
G01 X15.6472 Y5.2968 Z0.0000
G01 X16.1800 Y5.2739 Z0.0000
G01 X16.1820 Y5.2738 Z0.0000
G01 X16.1834 Y5.2738 Z0.0000
G01 X16.7165 Y5.2516 Z0.0000
G01 X16.7176 Y5.2515 Z0.0000
G01 X17.2512 Y5.2300 Z0.0000
G01 X17.2545 Y5.2298 Z0.0000
G01 X17.2557 Y5.2297 Z0.0000
G01 X17.7859 Y5.2089 Z0.0000
G01 X17.7877 Y5.2088 Z0.0000
G01 X18.3231 Y5.1885 Z0.0000
G01 X18.3236 Y5.1885 Z0.0000
G01 X18.8585 Y5.1688 Z0.0000
G01 X18.8591 Y5.1688 Z0.0000
G01 X19.3939 Y5.1498 Z0.0000
G01 X19.9294 Y5.1315 Z0.0000
G01 X19.9307 Y5.1314 Z0.0000
G01 X20.4628 Y5.1139 Z0.0000
G01 X20.4644 Y5.1138 Z0.0000
G01 X20.4658 Y5.1138 Z0.0000
G01 X20.9995 Y5.0968 Z0.0000
G01 X21.0017 Y5.0967 Z0.0000
G01 X21.0038 Y5.0966 Z0.0000
G01 X21.5335 Y5.0805 Z0.0000
G01 X21.5351 Y5.0804 Z0.0000
G01 X21.5371 Y5.0804 Z0.0000
G01 X22.0715 Y5.0647 Z0.0000
G01 X22.0721 Y5.0647 Z0.0000
G01 X22.6070 Y5.0497 Z0.0000
G01 X23.1426 Y5.0353 Z0.0000
G01 X23.1433 Y5.0353 Z0.0000
G01 X23.6783 Y5.0216 Z0.0000
G01 X24.2112 Y5.0086 Z0.0000
G01 X24.2123 Y5.0086 Z0.0000
G01 X24.2148 Y5.0085 Z0.0000
G01 X24.7489 Y4.9962 Z0.0000
G01 X24.7516 Y4.9961 Z0.0000
G01 X25.2822 Y4.9845 Z0.0000
G01 X25.2832 Y4.9845 Z0.0000
G01 X25.2859 Y4.9844 Z0.0000
G01 X25.8208 Y4.9734 Z0.0000
G01 X26.3547 Y4.9631 Z0.0000
G01 X26.3555 Y4.9630 Z0.0000
G01 X26.3585 Y4.9629 Z0.0000
G01 X26.8887 Y4.9533 Z0.0000
G01 X26.8895 Y4.9533 Z0.0000
G01 X26.8922 Y4.9532 Z0.0000
G01 X27.4279 Y4.9442 Z0.0000
G01 X27.9620 Y4.9358 Z0.0000
G01 X27.9655 Y4.9357 Z0.0000
G01 X28.4954 Y4.9280 Z0.0000
G01 X28.4993 Y4.9280 Z0.0000
G01 X29.0351 Y4.9209 Z0.0000
G01 X29.5708 Y4.9145 Z0.0000
G01 X30.1066 Y4.9087 Z0.0000
G01 X30.6412 Y4.9037 Z0.0000
G01 X30.6439 Y4.9036 Z0.0000
G01 X31.1734 Y4.8992 Z0.0000
G01 X31.1781 Y4.8992 Z0.0000
G01 X31.7139 Y4.8954 Z0.0000
G01 X32.2496 Y4.8923 Z0.0000
G01 X32.7854 Y4.8899 Z0.0000
G01 X33.3212 Y4.8881 Z0.0000
G01 X33.8570 Y4.8870 Z0.0000
G01 X34.3927 Y4.8865 Z0.0000
G01 X34.9284 Y4.8867 Z0.0000
G01 X35.4642 Y4.8876 Z0.0000
G01 X36.0000 Y4.8891 Z0.0000
G01 X36.5357 Y4.8913 Z0.0000
G01 X37.0715 Y4.8942 Z0.0000
G01 X37.6073 Y4.8977 Z0.0000
G01 X38.1430 Y4.9019 Z0.0000
G01 X38.6788 Y4.9067 Z0.0000
G01 X39.2145 Y4.9122 Z0.0000
G01 X39.7503 Y4.9184 Z0.0000
G01 X40.2862 Y4.9253 Z0.0000
G01 X40.2904 Y4.9253 Z0.0000
G01 X40.8201 Y4.9327 Z0.0000
G01 X40.8224 Y4.9327 Z0.0000
G01 X41.3575 Y4.9409 Z0.0000
G01 X41.8933 Y4.9497 Z0.0000
G01 X41.8962 Y4.9498 Z0.0000
G01 X41.8971 Y4.9498 Z0.0000
G01 X42.4289 Y4.9592 Z0.0000
G01 X42.9627 Y4.9693 Z0.0000
G01 X42.9656 Y4.9694 Z0.0000
G01 X42.9664 Y4.9694 Z0.0000
G01 X43.4995 Y4.9802 Z0.0000
G01 X43.5025 Y4.9802 Z0.0000
G01 X43.5035 Y4.9803 Z0.0000
G01 X44.0359 Y4.9916 Z0.0000
G01 X44.5708 Y5.0038 Z0.0000
G01 X44.5717 Y5.0038 Z0.0000
G01 X45.1072 Y5.0166 Z0.0000
G01 X45.6424 Y5.0301 Z0.0000
G01 X45.6429 Y5.0301 Z0.0000
G01 X46.1784 Y5.0442 Z0.0000
G01 X46.7134 Y5.0590 Z0.0000
G01 X46.7141 Y5.0590 Z0.0000
G01 X47.2495 Y5.0744 Z0.0000
G01 X47.7848 Y5.0905 Z0.0000
G01 X48.3199 Y5.1073 Z0.0000
G01 X48.3213 Y5.1074 Z0.0000
G01 X48.3230 Y5.1074 Z0.0000
G01 X48.8536 Y5.1247 Z0.0000
G01 X48.8553 Y5.1247 Z0.0000
G01 X48.8579 Y5.1248 Z0.0000
G01 X49.3912 Y5.1429 Z0.0000
G01 X49.3920 Y5.1429 Z0.0000
G01 X49.3937 Y5.1429 Z0.0000
G01 X49.9262 Y5.1616 Z0.0000
G01 X49.9272 Y5.1616 Z0.0000
G01 X50.4625 Y5.1810 Z0.0000
G01 X50.4645 Y5.1811 Z0.0000
G01 X50.9935 Y5.2009 Z0.0000
G01 X50.9945 Y5.2009 Z0.0000
G01 X50.9980 Y5.2011 Z0.0000
G01 X51.5327 Y5.2219 Z0.0000
G01 X51.5334 Y5.2219 Z0.0000
G01 X52.0687 Y5.2433 Z0.0000
G01 X52.0703 Y5.2433 Z0.0000
G01 X52.6030 Y5.2653 Z0.0000
G01 X52.6035 Y5.2653 Z0.0000
G01 X52.6044 Y5.2653 Z0.0000
G01 X53.1387 Y5.2881 Z0.0000
G01 X53.1396 Y5.2881 Z0.0000
G01 X53.6734 Y5.3114 Z0.0000
G01 X53.6740 Y5.3114 Z0.0000
G01 X53.6763 Y5.3115 Z0.0000
G01 X54.2056 Y5.3353 Z0.0000
G01 X54.2071 Y5.3354 Z0.0000
G01 X54.2099 Y5.3355 Z0.0000
G01 X54.7442 Y5.3602 Z0.0000
G01 X54.7454 Y5.3603 Z0.0000
G01 X54.7461 Y5.3603 Z0.0000
G01 X55.2796 Y5.3857 Z0.0000
G01 X55.2809 Y5.3857 Z0.0000
G01 X55.8138 Y5.4116 Z0.0000
G01 X55.8144 Y5.4117 Z0.0000
G01 X55.8154 Y5.4117 Z0.0000
G01 X56.3501 Y5.4385 Z0.0000
G01 X56.3519 Y5.4385 Z0.0000
G01 X56.8841 Y5.4657 Z0.0000
G01 X56.8851 Y5.4657 Z0.0000
G01 X56.8864 Y5.4658 Z0.0000
G01 X57.4197 Y5.4938 Z0.0000
G01 X57.4208 Y5.4938 Z0.0000
G01 X57.9523 Y5.5223 Z0.0000
G01 X57.9532 Y5.5224 Z0.0000
G01 X57.9564 Y5.5225 Z0.0000
G01 X58.4877 Y5.5517 Z0.0000
G01 X58.4900 Y5.5518 Z0.0000
G01 X58.4906 Y5.5519 Z0.0000
G01 X59.0238 Y5.5818 Z0.0000
G01 X59.0255 Y5.5819 Z0.0000
G01 X59.5604 Y5.6125 Z0.0000
G01 X59.5614 Y5.6126 Z0.0000
G01 X59.5622 Y5.6127 Z0.0000
G01 X60.0931 Y5.6438 Z0.0000
G01 X60.0950 Y5.6439 Z0.0000
G01 X63.5934 Y5.8533 Z0.0000
G01 X63.6557 Y4.8126 Z0.0000
G01 X60.1577 Y4.6033 Z0.0000
G01 X60.1564 Y4.6033 Z0.0000
G01 X59.6216 Y4.5719 Z0.0000
G01 X59.6196 Y4.5718 Z0.0000
G01 X59.6190 Y4.5718 Z0.0000
G01 X59.0862 Y4.5412 Z0.0000
G01 X59.0854 Y4.5412 Z0.0000
G01 X59.0839 Y4.5411 Z0.0000
G01 X58.5490 Y4.5111 Z0.0000
G01 X58.5475 Y4.5110 Z0.0000
G01 X58.0128 Y4.4816 Z0.0000
G01 X58.0115 Y4.4816 Z0.0000
G01 X57.4799 Y4.4531 Z0.0000
G01 X57.4773 Y4.4529 Z0.0000
G01 X57.4752 Y4.4528 Z0.0000
G01 X56.9402 Y4.4248 Z0.0000
G01 X56.9387 Y4.4247 Z0.0000
G01 X56.4055 Y4.3974 Z0.0000
G01 X56.4025 Y4.3973 Z0.0000
G01 X55.8674 Y4.3705 Z0.0000
G01 X55.8657 Y4.3705 Z0.0000
G01 X55.3309 Y4.3444 Z0.0000
G01 X55.3298 Y4.3444 Z0.0000
G01 X55.3285 Y4.3443 Z0.0000
G01 X54.7945 Y4.3190 Z0.0000
G01 X54.7937 Y4.3189 Z0.0000
G01 X54.7932 Y4.3189 Z0.0000
G01 X54.2597 Y4.2943 Z0.0000
G01 X54.2570 Y4.2942 Z0.0000
G01 X53.7225 Y4.2701 Z0.0000
G01 X53.7201 Y4.2701 Z0.0000
G01 X53.1857 Y4.2467 Z0.0000
G01 X53.1843 Y4.2466 Z0.0000
G01 X53.1834 Y4.2466 Z0.0000
G01 X52.6493 Y4.2239 Z0.0000
G01 X52.6485 Y4.2238 Z0.0000
G01 X52.6461 Y4.2237 Z0.0000
G01 X52.1136 Y4.2018 Z0.0000
G01 X52.1121 Y4.2017 Z0.0000
G01 X52.1103 Y4.2017 Z0.0000
G01 X51.5758 Y4.1803 Z0.0000
G01 X51.5737 Y4.1802 Z0.0000
G01 X51.0405 Y4.1595 Z0.0000
G01 X51.0369 Y4.1594 Z0.0000
G01 X50.5020 Y4.1393 Z0.0000
G01 X50.5015 Y4.1393 Z0.0000
G01 X50.5003 Y4.1393 Z0.0000
G01 X49.9657 Y4.1199 Z0.0000
G01 X49.9636 Y4.1198 Z0.0000
G01 X49.9614 Y4.1197 Z0.0000
G01 X49.4290 Y4.1011 Z0.0000
G01 X49.4268 Y4.1010 Z0.0000
G01 X48.8946 Y4.0830 Z0.0000
G01 X48.8918 Y4.0830 Z0.0000
G01 X48.8883 Y4.0828 Z0.0000
G01 X48.8875 Y4.0828 Z0.0000
G01 X48.3554 Y4.0655 Z0.0000
G01 X48.3539 Y4.0654 Z0.0000
G01 X48.3534 Y4.0654 Z0.0000
G01 X47.8186 Y4.0487 Z0.0000
G01 X47.8165 Y4.0486 Z0.0000
G01 X47.2818 Y4.0325 Z0.0000
G01 X47.2801 Y4.0324 Z0.0000
G01 X47.2782 Y4.0324 Z0.0000
G01 X46.7449 Y4.0170 Z0.0000
G01 X46.7418 Y4.0169 Z0.0000
G01 X46.2084 Y4.0022 Z0.0000
G01 X46.2061 Y4.0021 Z0.0000
G01 X46.2044 Y4.0021 Z0.0000
G01 X45.6714 Y3.9881 Z0.0000
G01 X45.6684 Y3.9879 Z0.0000
G01 X45.6677 Y3.9879 Z0.0000
G01 X45.1350 Y3.9745 Z0.0000
G01 X45.1321 Y3.9745 Z0.0000
G01 X45.1308 Y3.9744 Z0.0000
G01 X44.5977 Y3.9617 Z0.0000
G01 X44.5950 Y3.9616 Z0.0000
G01 X44.5929 Y3.9615 Z0.0000
G01 X44.0609 Y3.9495 Z0.0000
G01 X44.0578 Y3.9494 Z0.0000
G01 X44.0568 Y3.9494 Z0.0000
G01 X43.5246 Y3.9380 Z0.0000
G01 X43.5240 Y3.9380 Z0.0000
G01 X43.5204 Y3.9380 Z0.0000
G01 X43.5180 Y3.9379 Z0.0000
G01 X42.9892 Y3.9272 Z0.0000
G01 X42.9887 Y3.9272 Z0.0000
G01 X42.9851 Y3.9272 Z0.0000
G01 X42.9826 Y3.9270 Z0.0000
G01 X42.4496 Y3.9169 Z0.0000
G01 X42.4464 Y3.9169 Z0.0000
G01 X42.4457 Y3.9169 Z0.0000
G01 X41.9118 Y3.9075 Z0.0000
G01 X41.9090 Y3.9074 Z0.0000
G01 X41.9081 Y3.9074 Z0.0000
G01 X41.3748 Y3.8986 Z0.0000
G01 X41.3723 Y3.8986 Z0.0000
G01 X40.8377 Y3.8905 Z0.0000
G01 X40.8362 Y3.8904 Z0.0000
G01 X40.3007 Y3.8829 Z0.0000
G01 X40.2975 Y3.8829 Z0.0000
G01 X40.2967 Y3.8829 Z0.0000
G01 X39.7638 Y3.8761 Z0.0000
G01 X39.7614 Y3.8761 Z0.0000
G01 X39.2267 Y3.8699 Z0.0000
G01 X39.2239 Y3.8699 Z0.0000
G01 X38.6897 Y3.8644 Z0.0000
G01 X38.6855 Y3.8643 Z0.0000
G01 X38.1538 Y3.8595 Z0.0000
G01 X38.1513 Y3.8595 Z0.0000
G01 X38.1495 Y3.8594 Z0.0000
G01 X37.6156 Y3.8553 Z0.0000
G01 X37.6142 Y3.8553 Z0.0000
G01 X37.0784 Y3.8518 Z0.0000
G01 X37.0772 Y3.8518 Z0.0000
G01 X36.5415 Y3.8489 Z0.0000
G01 X36.5401 Y3.8489 Z0.0000
G01 X36.0044 Y3.8467 Z0.0000
G01 X36.0031 Y3.8467 Z0.0000
G01 X35.4673 Y3.8451 Z0.0000
G01 X35.4660 Y3.8451 Z0.0000
G01 X34.9302 Y3.8443 Z0.0000
G01 X34.9289 Y3.8443 Z0.0000
G01 X34.3931 Y3.8441 Z0.0000
G01 X34.3918 Y3.8441 Z0.0000
G01 X33.8561 Y3.8446 Z0.0000
G01 X33.8548 Y3.8446 Z0.0000
G01 X33.3190 Y3.8457 Z0.0000
G01 X33.3177 Y3.8457 Z0.0000
G01 X32.7820 Y3.8474 Z0.0000
G01 X32.7806 Y3.8474 Z0.0000
G01 X32.2449 Y3.8499 Z0.0000
G01 X32.2436 Y3.8499 Z0.0000
G01 X31.7078 Y3.8530 Z0.0000
G01 X31.7065 Y3.8530 Z0.0000
G01 X31.1739 Y3.8567 Z0.0000
G01 X31.1734 Y3.8568 Z0.0000
G01 X31.1699 Y3.8568 Z0.0000
G01 X30.6353 Y3.8612 Z0.0000
G01 X30.6348 Y3.8612 Z0.0000
G01 X30.6325 Y3.8613 Z0.0000
G01 X30.0991 Y3.8663 Z0.0000
G01 X30.0954 Y3.8664 Z0.0000
G01 X29.5610 Y3.8721 Z0.0000
G01 X29.5583 Y3.8721 Z0.0000
G01 X29.0234 Y3.8786 Z0.0000
G01 X29.0214 Y3.8786 Z0.0000
G01 X28.4883 Y3.8856 Z0.0000
G01 X28.4875 Y3.8856 Z0.0000
G01 X28.4842 Y3.8857 Z0.0000
G01 X27.9487 Y3.8934 Z0.0000
G01 X27.9472 Y3.8935 Z0.0000
G01 X27.4127 Y3.9019 Z0.0000
G01 X27.4103 Y3.9019 Z0.0000
G01 X26.8769 Y3.9109 Z0.0000
G01 X26.8760 Y3.9109 Z0.0000
G01 X26.8725 Y3.9110 Z0.0000
G01 X26.8710 Y3.9110 Z0.0000
G01 X26.3387 Y3.9207 Z0.0000
G01 X26.3373 Y3.9207 Z0.0000
G01 X26.3362 Y3.9207 Z0.0000
G01 X25.8018 Y3.9311 Z0.0000
G01 X25.8012 Y3.9311 Z0.0000
G01 X25.7987 Y3.9312 Z0.0000
G01 X25.2671 Y3.9421 Z0.0000
G01 X25.2646 Y3.9422 Z0.0000
G01 X25.2611 Y3.9423 Z0.0000
G01 X25.2605 Y3.9423 Z0.0000
G01 X24.7275 Y3.9540 Z0.0000
G01 X24.7261 Y3.9540 Z0.0000
G01 X24.7254 Y3.9540 Z0.0000
G01 X24.1931 Y3.9663 Z0.0000
G01 X24.1905 Y3.9664 Z0.0000
G01 X24.1870 Y3.9664 Z0.0000
G01 X23.6542 Y3.9794 Z0.0000
G01 X23.6529 Y3.9795 Z0.0000
G01 X23.6502 Y3.9795 Z0.0000
G01 X23.1179 Y3.9931 Z0.0000
G01 X23.1160 Y3.9932 Z0.0000
G01 X23.1136 Y3.9933 Z0.0000
G01 X22.5805 Y4.0076 Z0.0000
G01 X22.5788 Y4.0076 Z0.0000
G01 X22.5767 Y4.0077 Z0.0000
G01 X22.0429 Y4.0226 Z0.0000
G01 X22.0402 Y4.0228 Z0.0000
G01 X21.5054 Y4.0385 Z0.0000
G01 X21.5042 Y4.0385 Z0.0000
G01 X20.9686 Y4.0548 Z0.0000
G01 X20.9659 Y4.0549 Z0.0000
G01 X20.9641 Y4.0550 Z0.0000
G01 X20.4317 Y4.0719 Z0.0000
G01 X20.4301 Y4.0720 Z0.0000
G01 X19.8966 Y4.0896 Z0.0000
G01 X19.8941 Y4.0897 Z0.0000
G01 X19.8926 Y4.0897 Z0.0000
G01 X19.3597 Y4.1080 Z0.0000
G01 X19.3571 Y4.1081 Z0.0000
G01 X19.3550 Y4.1081 Z0.0000
G01 X18.8230 Y4.1270 Z0.0000
G01 X18.8212 Y4.1271 Z0.0000
G01 X18.8194 Y4.1272 Z0.0000
G01 X18.2857 Y4.1468 Z0.0000
G01 X18.2851 Y4.1468 Z0.0000
G01 X18.2828 Y4.1469 Z0.0000
G01 X17.7481 Y4.1672 Z0.0000
G01 X17.7467 Y4.1672 Z0.0000
G01 X17.2114 Y4.1883 Z0.0000
G01 X17.2087 Y4.1884 Z0.0000
G01 X17.2067 Y4.1884 Z0.0000
G01 X16.6754 Y4.2099 Z0.0000
G01 X16.6737 Y4.2100 Z0.0000
G01 X16.1382 Y4.2323 Z0.0000
G01 X16.1363 Y4.2324 Z0.0000
G01 X16.1355 Y4.2324 Z0.0000
G01 X15.6016 Y4.2553 Z0.0000
G01 X15.6000 Y4.2554 Z0.0000
G01 X15.5994 Y4.2555 Z0.0000
G01 X15.0651 Y4.2791 Z0.0000
G01 X15.0632 Y4.2792 Z0.0000
G01 X14.5286 Y4.3035 Z0.0000
G01 X14.5273 Y4.3035 Z0.0000
G01 X13.9921 Y4.3285 Z0.0000
G01 X13.9897 Y4.3286 Z0.0000
G01 X13.9884 Y4.3286 Z0.0000
G01 X13.4561 Y4.3541 Z0.0000
G01 X13.4514 Y4.3544 Z0.0000
G01 X12.9200 Y4.3805 Z0.0000
G01 X12.9185 Y4.3805 Z0.0000
G01 X12.9179 Y4.3806 Z0.0000
G01 X12.3828 Y4.4075 Z0.0000
G01 X12.3784 Y4.4078 Z0.0000
G01 X12.3777 Y4.4078 Z0.0000
G01 X12.3768 Y4.4079 Z0.0000
G01 X11.8464 Y4.4353 Z0.0000
G01 X11.8457 Y4.4353 Z0.0000
G01 X11.8451 Y4.4353 Z0.0000
G01 X11.3101 Y4.4636 Z0.0000
G01 X11.3070 Y4.4638 Z0.0000
G01 X11.3063 Y4.4638 Z0.0000
G01 X11.3057 Y4.4638 Z0.0000
G01 X10.7738 Y4.4926 Z0.0000
G01 X10.7704 Y4.4927 Z0.0000
G01 X10.2375 Y4.5222 Z0.0000
G01 X10.2357 Y4.5224 Z0.0000
G01 X10.2351 Y4.5224 Z0.0000
G01 X9.7013 Y4.5526 Z0.0000
G01 X9.7000 Y4.5526 Z0.0000
G01 X9.1652 Y4.5836 Z0.0000
G01 X9.1639 Y4.5837 Z0.0000
G01 X8.6291 Y4.6153 Z0.0000
G01 X8.6277 Y4.6153 Z0.0000
G01 X8.0929 Y4.6476 Z0.0000
G01 X8.0913 Y4.6477 Z0.0000
G01 X8.0907 Y4.6477 Z0.0000
G01 X7.5586 Y4.6805 Z0.0000
G01 X7.5576 Y4.6806 Z0.0000
G01 X7.5555 Y4.6807 Z0.0000
G01 X4.0598 Y4.9004 Z0.0000
G00 X4.0598 Y4.9004 Z0.6000
G00 X4.0598 Y-4.9004 Z0.6000
G01 X4.0598 Y-4.9004 Z0.2800
G01 X7.5555 Y-4.6807 Z0.2800
G01 X7.5576 Y-4.6806 Z0.2800
G01 X7.5583 Y-4.6805 Z0.2800
G01 X8.0907 Y-4.6477 Z0.2800
G01 X8.0913 Y-4.6477 Z0.2800
G01 X8.0927 Y-4.6477 Z0.2800
G01 X8.6277 Y-4.6153 Z0.2800
G01 X8.6291 Y-4.6153 Z0.2800
G01 X9.1639 Y-4.5837 Z0.2800
G01 X9.1652 Y-4.5836 Z0.2800
G01 X9.7000 Y-4.5527 Z0.2800
G01 X9.7010 Y-4.5526 Z0.2800
G01 X10.2348 Y-4.5224 Z0.2800
G01 X10.2357 Y-4.5224 Z0.2800
G01 X10.2372 Y-4.5223 Z0.2800
G01 X10.7703 Y-4.4927 Z0.2800
G01 X10.7738 Y-4.4926 Z0.2800
G01 X11.3057 Y-4.4638 Z0.2800
G01 X11.3063 Y-4.4638 Z0.2800
G01 X11.3070 Y-4.4638 Z0.2800
G01 X11.3099 Y-4.4636 Z0.2800
G01 X11.8451 Y-4.4353 Z0.2800
G01 X11.8457 Y-4.4353 Z0.2800
G01 X11.8464 Y-4.4353 Z0.2800
G01 X12.3768 Y-4.4079 Z0.2800
G01 X12.3777 Y-4.4078 Z0.2800
G01 X12.3784 Y-4.4078 Z0.2800
G01 X12.3828 Y-4.4075 Z0.2800
G01 X12.9179 Y-4.3806 Z0.2800
G01 X12.9185 Y-4.3805 Z0.2800
G01 X12.9198 Y-4.3805 Z0.2800
G01 X13.4512 Y-4.3544 Z0.2800
G01 X13.4561 Y-4.3541 Z0.2800
G01 X13.9884 Y-4.3286 Z0.2800
G01 X13.9897 Y-4.3286 Z0.2800
G01 X13.9921 Y-4.3285 Z0.2800
G01 X14.5273 Y-4.3035 Z0.2800
G01 X14.5282 Y-4.3035 Z0.2800
G01 X15.0632 Y-4.2792 Z0.2800
G01 X15.0650 Y-4.2791 Z0.2800
G01 X15.5994 Y-4.2555 Z0.2800
G01 X15.6000 Y-4.2554 Z0.2800
G01 X15.6016 Y-4.2553 Z0.2800
G01 X16.1355 Y-4.2324 Z0.2800
G01 X16.1363 Y-4.2324 Z0.2800
G01 X16.1382 Y-4.2323 Z0.2800
G01 X16.6732 Y-4.2100 Z0.2800
G01 X16.6754 Y-4.2099 Z0.2800
G01 X17.2067 Y-4.1884 Z0.2800
G01 X17.2087 Y-4.1884 Z0.2800
G01 X17.2114 Y-4.1883 Z0.2800
G01 X17.7467 Y-4.1672 Z0.2800
G01 X17.7481 Y-4.1672 Z0.2800
G01 X18.2828 Y-4.1469 Z0.2800
G01 X18.2851 Y-4.1468 Z0.2800
G01 X18.2857 Y-4.1468 Z0.2800
G01 X18.8194 Y-4.1272 Z0.2800
G01 X18.8212 Y-4.1271 Z0.2800
G01 X18.8230 Y-4.1270 Z0.2800
G01 X19.3550 Y-4.1081 Z0.2800
G01 X19.3571 Y-4.1081 Z0.2800
G01 X19.3597 Y-4.1080 Z0.2800
G01 X19.8926 Y-4.0897 Z0.2800
G01 X19.8941 Y-4.0897 Z0.2800
G01 X19.8966 Y-4.0896 Z0.2800
G01 X20.4301 Y-4.0719 Z0.2800
G01 X20.4314 Y-4.0719 Z0.2800
G01 X20.9641 Y-4.0550 Z0.2800
G01 X20.9659 Y-4.0549 Z0.2800
G01 X20.9686 Y-4.0548 Z0.2800
G01 X21.5042 Y-4.0385 Z0.2800
G01 X21.5053 Y-4.0385 Z0.2800
G01 X22.0402 Y-4.0228 Z0.2800
G01 X22.0429 Y-4.0226 Z0.2800
G01 X22.5767 Y-4.0077 Z0.2800
G01 X22.5788 Y-4.0076 Z0.2800
G01 X22.5805 Y-4.0076 Z0.2800
G01 X23.1136 Y-3.9933 Z0.2800
G01 X23.1160 Y-3.9932 Z0.2800
G01 X23.1179 Y-3.9931 Z0.2800
G01 X23.6502 Y-3.9795 Z0.2800
G01 X23.6529 Y-3.9795 Z0.2800
G01 X23.6542 Y-3.9794 Z0.2800
G01 X24.1868 Y-3.9664 Z0.2800
G01 X24.1905 Y-3.9664 Z0.2800
G01 X24.1931 Y-3.9663 Z0.2800
G01 X24.7254 Y-3.9540 Z0.2800
G01 X24.7261 Y-3.9540 Z0.2800
G01 X24.7275 Y-3.9540 Z0.2800
G01 X25.2605 Y-3.9423 Z0.2800
G01 X25.2611 Y-3.9423 Z0.2800
G01 X25.2646 Y-3.9422 Z0.2800
G01 X25.2671 Y-3.9421 Z0.2800
G01 X25.7987 Y-3.9311 Z0.2800
G01 X25.8012 Y-3.9311 Z0.2800
G01 X25.8018 Y-3.9311 Z0.2800
G01 X26.3362 Y-3.9207 Z0.2800
G01 X26.3373 Y-3.9207 Z0.2800
G01 X26.3387 Y-3.9207 Z0.2800
G01 X26.8710 Y-3.9110 Z0.2800
G01 X26.8725 Y-3.9110 Z0.2800
G01 X26.8760 Y-3.9109 Z0.2800
G01 X26.8769 Y-3.9109 Z0.2800
G01 X27.4103 Y-3.9019 Z0.2800
G01 X27.4127 Y-3.9019 Z0.2800
G01 X27.9472 Y-3.8935 Z0.2800
G01 X27.9486 Y-3.8934 Z0.2800
G01 X28.4842 Y-3.8857 Z0.2800
G01 X28.4875 Y-3.8856 Z0.2800
G01 X28.4883 Y-3.8856 Z0.2800
G01 X29.0214 Y-3.8786 Z0.2800
G01 X29.0234 Y-3.8786 Z0.2800
G01 X29.5583 Y-3.8721 Z0.2800
G01 X29.5610 Y-3.8721 Z0.2800
G01 X30.0954 Y-3.8664 Z0.2800
G01 X30.0991 Y-3.8663 Z0.2800
G01 X30.6325 Y-3.8613 Z0.2800
G01 X30.6348 Y-3.8612 Z0.2800
G01 X30.6353 Y-3.8612 Z0.2800
G01 X31.1694 Y-3.8568 Z0.2800
G01 X31.1734 Y-3.8568 Z0.2800
G01 X31.1739 Y-3.8567 Z0.2800
G01 X31.7065 Y-3.8530 Z0.2800
G01 X31.7078 Y-3.8530 Z0.2800
G01 X32.2436 Y-3.8499 Z0.2800
G01 X32.2449 Y-3.8499 Z0.2800
G01 X32.7806 Y-3.8474 Z0.2800
G01 X32.7820 Y-3.8474 Z0.2800
G01 X33.3177 Y-3.8457 Z0.2800
G01 X33.3190 Y-3.8457 Z0.2800
G01 X33.8548 Y-3.8446 Z0.2800
G01 X33.8561 Y-3.8446 Z0.2800
G01 X34.3918 Y-3.8441 Z0.2800
G01 X34.3931 Y-3.8441 Z0.2800
G01 X34.9289 Y-3.8443 Z0.2800
G01 X34.9302 Y-3.8443 Z0.2800
G01 X35.4660 Y-3.8451 Z0.2800
G01 X35.4673 Y-3.8451 Z0.2800
G01 X36.0031 Y-3.8467 Z0.2800
G01 X36.0044 Y-3.8467 Z0.2800
G01 X36.5401 Y-3.8489 Z0.2800
G01 X36.5415 Y-3.8489 Z0.2800
G01 X37.0772 Y-3.8518 Z0.2800
G01 X37.0784 Y-3.8518 Z0.2800
G01 X37.6142 Y-3.8553 Z0.2800
G01 X37.6156 Y-3.8553 Z0.2800
G01 X38.1495 Y-3.8594 Z0.2800
G01 X38.1513 Y-3.8595 Z0.2800
G01 X38.1538 Y-3.8595 Z0.2800
G01 X38.6855 Y-3.8643 Z0.2800
G01 X38.6897 Y-3.8644 Z0.2800
G01 X39.2239 Y-3.8699 Z0.2800
G01 X39.2267 Y-3.8699 Z0.2800
G01 X39.7614 Y-3.8761 Z0.2800
G01 X39.7638 Y-3.8761 Z0.2800
G01 X40.2967 Y-3.8829 Z0.2800
G01 X40.2975 Y-3.8829 Z0.2800
G01 X40.3007 Y-3.8829 Z0.2800
G01 X40.8359 Y-3.8904 Z0.2800
G01 X40.8377 Y-3.8905 Z0.2800
G01 X41.3720 Y-3.8986 Z0.2800
G01 X41.3748 Y-3.8986 Z0.2800
G01 X41.9081 Y-3.9074 Z0.2800
G01 X41.9090 Y-3.9074 Z0.2800
G01 X41.9118 Y-3.9075 Z0.2800
G01 X42.4457 Y-3.9169 Z0.2800
G01 X42.4464 Y-3.9169 Z0.2800
G01 X42.4496 Y-3.9170 Z0.2800
G01 X42.9826 Y-3.9270 Z0.2800
G01 X42.9851 Y-3.9272 Z0.2800
G01 X42.9887 Y-3.9272 Z0.2800
G01 X42.9892 Y-3.9272 Z0.2800
G01 X43.5180 Y-3.9379 Z0.2800
G01 X43.5204 Y-3.9380 Z0.2800
G01 X43.5240 Y-3.9380 Z0.2800
G01 X43.5246 Y-3.9380 Z0.2800
G01 X44.0568 Y-3.9494 Z0.2800
G01 X44.0578 Y-3.9494 Z0.2800
G01 X44.0609 Y-3.9495 Z0.2800
G01 X44.5929 Y-3.9615 Z0.2800
G01 X44.5950 Y-3.9616 Z0.2800
G01 X44.5977 Y-3.9617 Z0.2800
G01 X45.1308 Y-3.9744 Z0.2800
G01 X45.1321 Y-3.9745 Z0.2800
G01 X45.1350 Y-3.9745 Z0.2800
G01 X45.6677 Y-3.9879 Z0.2800
G01 X45.6684 Y-3.9879 Z0.2800
G01 X45.6714 Y-3.9881 Z0.2800
G01 X46.2044 Y-4.0021 Z0.2800
G01 X46.2061 Y-4.0021 Z0.2800
G01 X46.2084 Y-4.0022 Z0.2800
G01 X46.7418 Y-4.0169 Z0.2800
G01 X46.7449 Y-4.0170 Z0.2800
G01 X47.2782 Y-4.0324 Z0.2800
G01 X47.2801 Y-4.0324 Z0.2800
G01 X47.2818 Y-4.0325 Z0.2800
G01 X47.8165 Y-4.0486 Z0.2800
G01 X47.8186 Y-4.0487 Z0.2800
G01 X48.3534 Y-4.0654 Z0.2800
G01 X48.3539 Y-4.0654 Z0.2800
G01 X48.3554 Y-4.0655 Z0.2800
G01 X48.8875 Y-4.0828 Z0.2800
G01 X48.8883 Y-4.0828 Z0.2800
G01 X48.8918 Y-4.0830 Z0.2800
G01 X48.8946 Y-4.0830 Z0.2800
G01 X49.4268 Y-4.1010 Z0.2800
G01 X49.4290 Y-4.1011 Z0.2800
G01 X49.9614 Y-4.1197 Z0.2800
G01 X49.9636 Y-4.1198 Z0.2800
G01 X49.9657 Y-4.1199 Z0.2800
G01 X50.5003 Y-4.1393 Z0.2800
G01 X50.5015 Y-4.1393 Z0.2800
G01 X50.5020 Y-4.1393 Z0.2800
G01 X51.0364 Y-4.1594 Z0.2800
G01 X51.0404 Y-4.1595 Z0.2800
G01 X51.5736 Y-4.1802 Z0.2800
G01 X51.5758 Y-4.1803 Z0.2800
G01 X52.1103 Y-4.2017 Z0.2800
G01 X52.1121 Y-4.2017 Z0.2800
G01 X52.1136 Y-4.2018 Z0.2800
G01 X52.6461 Y-4.2237 Z0.2800
G01 X52.6485 Y-4.2238 Z0.2800
G01 X52.6493 Y-4.2239 Z0.2800
G01 X53.1834 Y-4.2466 Z0.2800
G01 X53.1843 Y-4.2466 Z0.2800
G01 X53.1857 Y-4.2467 Z0.2800
G01 X53.7201 Y-4.2701 Z0.2800
G01 X53.7222 Y-4.2701 Z0.2800
G01 X54.2567 Y-4.2942 Z0.2800
G01 X54.2605 Y-4.2943 Z0.2800
G01 X54.7932 Y-4.3189 Z0.2800
G01 X54.7937 Y-4.3189 Z0.2800
G01 X54.7945 Y-4.3190 Z0.2800
G01 X55.3285 Y-4.3443 Z0.2800
G01 X55.3298 Y-4.3444 Z0.2800
G01 X55.3309 Y-4.3444 Z0.2800
G01 X55.8657 Y-4.3705 Z0.2800
G01 X55.8672 Y-4.3705 Z0.2800
G01 X56.4025 Y-4.3973 Z0.2800
G01 X56.4051 Y-4.3974 Z0.2800
G01 X56.9387 Y-4.4247 Z0.2800
G01 X56.9401 Y-4.4248 Z0.2800
G01 X57.4752 Y-4.4528 Z0.2800
G01 X57.4773 Y-4.4529 Z0.2800
G01 X57.4799 Y-4.4531 Z0.2800
G01 X58.0115 Y-4.4816 Z0.2800
G01 X58.0128 Y-4.4816 Z0.2800
G01 X58.5475 Y-4.5110 Z0.2800
G01 X58.5489 Y-4.5111 Z0.2800
G01 X59.0839 Y-4.5411 Z0.2800
G01 X59.0854 Y-4.5412 Z0.2800
G01 X59.0861 Y-4.5412 Z0.2800
G01 X59.6190 Y-4.5718 Z0.2800
G01 X59.6196 Y-4.5718 Z0.2800
G01 X59.6216 Y-4.5719 Z0.2800
G01 X60.1564 Y-4.6033 Z0.2800
G01 X60.1577 Y-4.6034 Z0.2800
G01 X63.6557 Y-4.8126 Z0.2800
G01 X63.5934 Y-5.8533 Z0.2800
G01 X60.0953 Y-5.6440 Z0.2800
G01 X60.0931 Y-5.6438 Z0.2800
G01 X59.5625 Y-5.6127 Z0.2800
G01 X59.5614 Y-5.6126 Z0.2800
G01 X59.5604 Y-5.6125 Z0.2800
G01 X59.0256 Y-5.5819 Z0.2800
G01 X59.0238 Y-5.5818 Z0.2800
G01 X58.4906 Y-5.5519 Z0.2800
G01 X58.4900 Y-5.5518 Z0.2800
G01 X58.4877 Y-5.5517 Z0.2800
G01 X57.9564 Y-5.5225 Z0.2800
G01 X57.9532 Y-5.5224 Z0.2800
G01 X57.9523 Y-5.5223 Z0.2800
G01 X57.4208 Y-5.4938 Z0.2800
G01 X57.4197 Y-5.4938 Z0.2800
G01 X56.8864 Y-5.4658 Z0.2800
G01 X56.8851 Y-5.4657 Z0.2800
G01 X56.8841 Y-5.4657 Z0.2800
G01 X56.3519 Y-5.4385 Z0.2800
G01 X56.3501 Y-5.4385 Z0.2800
G01 X55.8154 Y-5.4117 Z0.2800
G01 X55.8144 Y-5.4117 Z0.2800
G01 X55.8138 Y-5.4116 Z0.2800
G01 X55.2809 Y-5.3857 Z0.2800
G01 X55.2796 Y-5.3857 Z0.2800
G01 X54.7461 Y-5.3603 Z0.2800
G01 X54.7454 Y-5.3603 Z0.2800
G01 X54.7442 Y-5.3602 Z0.2800
G01 X54.2099 Y-5.3355 Z0.2800
G01 X54.2071 Y-5.3354 Z0.2800
G01 X54.2056 Y-5.3353 Z0.2800
G01 X53.6763 Y-5.3115 Z0.2800
G01 X53.6740 Y-5.3114 Z0.2800
G01 X53.6734 Y-5.3114 Z0.2800
G01 X53.1396 Y-5.2881 Z0.2800
G01 X53.1387 Y-5.2881 Z0.2800
G01 X52.6044 Y-5.2653 Z0.2800
G01 X52.6035 Y-5.2653 Z0.2800
G01 X52.6030 Y-5.2653 Z0.2800
G01 X52.0703 Y-5.2433 Z0.2800
G01 X52.0687 Y-5.2433 Z0.2800
G01 X51.5334 Y-5.2219 Z0.2800
G01 X51.5327 Y-5.2219 Z0.2800
G01 X50.9980 Y-5.2011 Z0.2800
G01 X50.9945 Y-5.2009 Z0.2800
G01 X50.9935 Y-5.2009 Z0.2800
G01 X50.4645 Y-5.1811 Z0.2800
G01 X50.4627 Y-5.1810 Z0.2800
G01 X49.9272 Y-5.1616 Z0.2800
G01 X49.9262 Y-5.1616 Z0.2800
G01 X49.3937 Y-5.1429 Z0.2800
G01 X49.3920 Y-5.1429 Z0.2800
G01 X49.3912 Y-5.1429 Z0.2800
G01 X48.8579 Y-5.1248 Z0.2800
G01 X48.8553 Y-5.1247 Z0.2800
G01 X48.8536 Y-5.1247 Z0.2800
G01 X48.3230 Y-5.1074 Z0.2800
G01 X48.3213 Y-5.1074 Z0.2800
G01 X48.3199 Y-5.1073 Z0.2800
G01 X47.7852 Y-5.0906 Z0.2800
G01 X47.2497 Y-5.0744 Z0.2800
G01 X46.7141 Y-5.0590 Z0.2800
G01 X46.7134 Y-5.0590 Z0.2800
G01 X46.1786 Y-5.0442 Z0.2800
G01 X45.6429 Y-5.0301 Z0.2800
G01 X45.6424 Y-5.0301 Z0.2800
G01 X45.1073 Y-5.0166 Z0.2800
G01 X44.5717 Y-5.0038 Z0.2800
G01 X44.5708 Y-5.0038 Z0.2800
G01 X44.0361 Y-4.9916 Z0.2800
G01 X43.5035 Y-4.9803 Z0.2800
G01 X43.5025 Y-4.9802 Z0.2800
G01 X43.4995 Y-4.9802 Z0.2800
G01 X42.9664 Y-4.9694 Z0.2800
G01 X42.9656 Y-4.9694 Z0.2800
G01 X42.9627 Y-4.9693 Z0.2800
G01 X42.4290 Y-4.9592 Z0.2800
G01 X41.8971 Y-4.9498 Z0.2800
G01 X41.8962 Y-4.9498 Z0.2800
G01 X41.8933 Y-4.9497 Z0.2800
G01 X41.3576 Y-4.9409 Z0.2800
G01 X40.8224 Y-4.9327 Z0.2800
G01 X40.8201 Y-4.9327 Z0.2800
G01 X40.2904 Y-4.9253 Z0.2800
G01 X40.2862 Y-4.9253 Z0.2800
G01 X39.7505 Y-4.9184 Z0.2800
G01 X39.2147 Y-4.9122 Z0.2800
G01 X38.6790 Y-4.9067 Z0.2800
G01 X38.1432 Y-4.9019 Z0.2800
G01 X37.6074 Y-4.8977 Z0.2800
G01 X37.0716 Y-4.8942 Z0.2800
G01 X36.5359 Y-4.8913 Z0.2800
G01 X36.0001 Y-4.8891 Z0.2800
G01 X35.4643 Y-4.8876 Z0.2800
G01 X34.9286 Y-4.8867 Z0.2800
G01 X34.3928 Y-4.8865 Z0.2800
G01 X33.8571 Y-4.8870 Z0.2800
G01 X33.3214 Y-4.8881 Z0.2800
G01 X32.7856 Y-4.8899 Z0.2800
G01 X32.2498 Y-4.8923 Z0.2800
G01 X31.7140 Y-4.8954 Z0.2800
G01 X31.1781 Y-4.8992 Z0.2800
G01 X31.1734 Y-4.8992 Z0.2800
G01 X30.6439 Y-4.9036 Z0.2800
G01 X30.6416 Y-4.9037 Z0.2800
G01 X30.1067 Y-4.9087 Z0.2800
G01 X29.5710 Y-4.9145 Z0.2800
G01 X29.0352 Y-4.9209 Z0.2800
G01 X28.4993 Y-4.9280 Z0.2800
G01 X28.4954 Y-4.9280 Z0.2800
G01 X27.9655 Y-4.9357 Z0.2800
G01 X27.9620 Y-4.9358 Z0.2800
G01 X27.4281 Y-4.9442 Z0.2800
G01 X26.8922 Y-4.9532 Z0.2800
G01 X26.8895 Y-4.9533 Z0.2800
G01 X26.8887 Y-4.9533 Z0.2800
G01 X26.3585 Y-4.9629 Z0.2800
G01 X26.3555 Y-4.9630 Z0.2800
G01 X26.3547 Y-4.9631 Z0.2800
G01 X25.8210 Y-4.9734 Z0.2800
G01 X25.2859 Y-4.9845 Z0.2800
G01 X25.2832 Y-4.9845 Z0.2800
G01 X25.2822 Y-4.9845 Z0.2800
G01 X24.7516 Y-4.9961 Z0.2800
G01 X24.7492 Y-4.9962 Z0.2800
G01 X24.2148 Y-5.0085 Z0.2800
G01 X24.2123 Y-5.0086 Z0.2800
G01 X24.2112 Y-5.0086 Z0.2800
G01 X23.6784 Y-5.0216 Z0.2800
G01 X23.1433 Y-5.0353 Z0.2800
G01 X23.1426 Y-5.0353 Z0.2800
G01 X22.6072 Y-5.0497 Z0.2800
G01 X22.0721 Y-5.0647 Z0.2800
G01 X22.0715 Y-5.0647 Z0.2800
G01 X21.5371 Y-5.0804 Z0.2800
G01 X21.5351 Y-5.0804 Z0.2800
G01 X21.5335 Y-5.0805 Z0.2800
G01 X21.0038 Y-5.0966 Z0.2800
G01 X21.0017 Y-5.0967 Z0.2800
G01 X20.9995 Y-5.0968 Z0.2800
G01 X20.4658 Y-5.1138 Z0.2800
G01 X20.4644 Y-5.1138 Z0.2800
G01 X20.4628 Y-5.1139 Z0.2800
G01 X19.9307 Y-5.1314 Z0.2800
G01 X19.9294 Y-5.1315 Z0.2800
G01 X19.3941 Y-5.1498 Z0.2800
G01 X18.8591 Y-5.1688 Z0.2800
G01 X18.8585 Y-5.1688 Z0.2800
G01 X18.3236 Y-5.1885 Z0.2800
G01 X18.3231 Y-5.1885 Z0.2800
G01 X17.7877 Y-5.2088 Z0.2800
G01 X17.7859 Y-5.2089 Z0.2800
G01 X17.2557 Y-5.2297 Z0.2800
G01 X17.2545 Y-5.2298 Z0.2800
G01 X17.2512 Y-5.2300 Z0.2800
G01 X16.7176 Y-5.2515 Z0.2800
G01 X16.7165 Y-5.2516 Z0.2800
G01 X16.1834 Y-5.2738 Z0.2800
G01 X16.1820 Y-5.2738 Z0.2800
G01 X16.1800 Y-5.2739 Z0.2800
G01 X15.6472 Y-5.2968 Z0.2800
G01 X15.6463 Y-5.2968 Z0.2800
G01 X15.1118 Y-5.3205 Z0.2800
G01 X15.1111 Y-5.3205 Z0.2800
G01 X14.5779 Y-5.3447 Z0.2800
G01 X14.5768 Y-5.3448 Z0.2800
G01 X14.5759 Y-5.3448 Z0.2800
G01 X14.0407 Y-5.3698 Z0.2800
G01 X14.0391 Y-5.3698 Z0.2800
G01 X13.5084 Y-5.3952 Z0.2800
G01 X13.5072 Y-5.3953 Z0.2800
G01 X13.5045 Y-5.3954 Z0.2800
G01 X12.9716 Y-5.4216 Z0.2800
G01 X12.9692 Y-5.4217 Z0.2800
G01 X12.9682 Y-5.4218 Z0.2800
G01 X12.4405 Y-5.4484 Z0.2800
G01 X12.4399 Y-5.4484 Z0.2800
G01 X12.4353 Y-5.4487 Z0.2800
G01 X11.9014 Y-5.4762 Z0.2800
G01 X11.9002 Y-5.4763 Z0.2800
G01 X11.3690 Y-5.5044 Z0.2800
G01 X11.3683 Y-5.5044 Z0.2800
G01 X11.3676 Y-5.5044 Z0.2800
G01 X11.3654 Y-5.5046 Z0.2800
G01 X10.8320 Y-5.5334 Z0.2800
G01 X10.8310 Y-5.5335 Z0.2800
G01 X10.8289 Y-5.5336 Z0.2800
G01 X10.2974 Y-5.5630 Z0.2800
G01 X10.2963 Y-5.5630 Z0.2800
G01 X10.2955 Y-5.5631 Z0.2800
G01 X9.7617 Y-5.5933 Z0.2800
G01 X9.7607 Y-5.5933 Z0.2800
G01 X9.7603 Y-5.5934 Z0.2800
G01 X9.2269 Y-5.6242 Z0.2800
G01 X9.2256 Y-5.6243 Z0.2800
G01 X8.6905 Y-5.6559 Z0.2800
G01 X8.6890 Y-5.6560 Z0.2800
G01 X8.6880 Y-5.6561 Z0.2800
G01 X8.6874 Y-5.6561 Z0.2800
G01 X8.1570 Y-5.6881 Z0.2800
G01 X8.1561 Y-5.6881 Z0.2800
G01 X8.1556 Y-5.6882 Z0.2800
G01 X8.1550 Y-5.6882 Z0.2800
G01 X7.6211 Y-5.7211 Z0.2800
G01 X4.1252 Y-5.9408 Z0.2800
G01 X4.0598 Y-4.9004 Z0.2800
G01 X4.0598 Y-4.9004 Z0.1400
G01 X7.5555 Y-4.6807 Z0.1400
G01 X7.5576 Y-4.6806 Z0.1400
G01 X7.5583 Y-4.6805 Z0.1400
G01 X8.0907 Y-4.6477 Z0.1400
G01 X8.0913 Y-4.6477 Z0.1400
G01 X8.0927 Y-4.6477 Z0.1400
G01 X8.6277 Y-4.6153 Z0.1400
G01 X8.6291 Y-4.6153 Z0.1400
G01 X9.1639 Y-4.5837 Z0.1400
G01 X9.1652 Y-4.5836 Z0.1400
G01 X9.7000 Y-4.5527 Z0.1400
G01 X9.7010 Y-4.5526 Z0.1400
G01 X10.2348 Y-4.5224 Z0.1400
G01 X10.2357 Y-4.5224 Z0.1400
G01 X10.2372 Y-4.5223 Z0.1400
G01 X10.7703 Y-4.4927 Z0.1400
G01 X10.7738 Y-4.4926 Z0.1400
G01 X11.3057 Y-4.4638 Z0.1400
G01 X11.3063 Y-4.4638 Z0.1400
G01 X11.3070 Y-4.4638 Z0.1400
G01 X11.3099 Y-4.4636 Z0.1400
G01 X11.8451 Y-4.4353 Z0.1400
G01 X11.8457 Y-4.4353 Z0.1400
G01 X11.8464 Y-4.4353 Z0.1400
G01 X12.3768 Y-4.4079 Z0.1400
G01 X12.3777 Y-4.4078 Z0.1400
G01 X12.3784 Y-4.4078 Z0.1400
G01 X12.3828 Y-4.4075 Z0.1400
G01 X12.9179 Y-4.3806 Z0.1400
G01 X12.9185 Y-4.3805 Z0.1400
G01 X12.9198 Y-4.3805 Z0.1400
G01 X13.4512 Y-4.3544 Z0.1400
G01 X13.4561 Y-4.3541 Z0.1400
G01 X13.9884 Y-4.3286 Z0.1400
G01 X13.9897 Y-4.3286 Z0.1400
G01 X13.9921 Y-4.3285 Z0.1400
G01 X14.5273 Y-4.3035 Z0.1400
G01 X14.5282 Y-4.3035 Z0.1400
G01 X15.0632 Y-4.2792 Z0.1400
G01 X15.0650 Y-4.2791 Z0.1400
G01 X15.5994 Y-4.2555 Z0.1400
G01 X15.6000 Y-4.2554 Z0.1400
G01 X15.6016 Y-4.2553 Z0.1400
G01 X16.1355 Y-4.2324 Z0.1400
G01 X16.1363 Y-4.2324 Z0.1400
G01 X16.1382 Y-4.2323 Z0.1400
G01 X16.6732 Y-4.2100 Z0.1400
G01 X16.6754 Y-4.2099 Z0.1400
G01 X17.2067 Y-4.1884 Z0.1400
G01 X17.2087 Y-4.1884 Z0.1400
G01 X17.2114 Y-4.1883 Z0.1400
G01 X17.7467 Y-4.1672 Z0.1400
G01 X17.7481 Y-4.1672 Z0.1400
G01 X18.2828 Y-4.1469 Z0.1400
G01 X18.2851 Y-4.1468 Z0.1400
G01 X18.2857 Y-4.1468 Z0.1400
G01 X18.8194 Y-4.1272 Z0.1400
G01 X18.8212 Y-4.1271 Z0.1400
G01 X18.8230 Y-4.1270 Z0.1400
G01 X19.3550 Y-4.1081 Z0.1400
G01 X19.3571 Y-4.1081 Z0.1400
G01 X19.3597 Y-4.1080 Z0.1400
G01 X19.8926 Y-4.0897 Z0.1400
G01 X19.8941 Y-4.0897 Z0.1400
G01 X19.8966 Y-4.0896 Z0.1400
G01 X20.4301 Y-4.0719 Z0.1400
G01 X20.4314 Y-4.0719 Z0.1400
G01 X20.9641 Y-4.0550 Z0.1400
G01 X20.9659 Y-4.0549 Z0.1400
G01 X20.9686 Y-4.0548 Z0.1400
G01 X21.5042 Y-4.0385 Z0.1400
G01 X21.5053 Y-4.0385 Z0.1400
G01 X22.0402 Y-4.0228 Z0.1400
G01 X22.0429 Y-4.0226 Z0.1400
G01 X22.5767 Y-4.0077 Z0.1400
G01 X22.5788 Y-4.0076 Z0.1400
G01 X22.5805 Y-4.0076 Z0.1400
G01 X23.1136 Y-3.9933 Z0.1400
G01 X23.1160 Y-3.9932 Z0.1400
G01 X23.1179 Y-3.9931 Z0.1400
G01 X23.6502 Y-3.9795 Z0.1400
G01 X23.6529 Y-3.9795 Z0.1400
G01 X23.6542 Y-3.9794 Z0.1400
G01 X24.1868 Y-3.9664 Z0.1400
G01 X24.1905 Y-3.9664 Z0.1400
G01 X24.1931 Y-3.9663 Z0.1400
G01 X24.7254 Y-3.9540 Z0.1400
G01 X24.7261 Y-3.9540 Z0.1400
G01 X24.7275 Y-3.9540 Z0.1400
G01 X25.2605 Y-3.9423 Z0.1400
G01 X25.2611 Y-3.9423 Z0.1400
G01 X25.2646 Y-3.9422 Z0.1400
G01 X25.2671 Y-3.9421 Z0.1400
G01 X25.7987 Y-3.9311 Z0.1400
G01 X25.8012 Y-3.9311 Z0.1400
G01 X25.8018 Y-3.9311 Z0.1400
G01 X26.3362 Y-3.9207 Z0.1400
G01 X26.3373 Y-3.9207 Z0.1400
G01 X26.3387 Y-3.9207 Z0.1400
G01 X26.8710 Y-3.9110 Z0.1400
G01 X26.8725 Y-3.9110 Z0.1400
G01 X26.8760 Y-3.9109 Z0.1400
G01 X26.8769 Y-3.9109 Z0.1400
G01 X27.4103 Y-3.9019 Z0.1400
G01 X27.4127 Y-3.9019 Z0.1400
G01 X27.9472 Y-3.8935 Z0.1400
G01 X27.9486 Y-3.8934 Z0.1400
G01 X28.4842 Y-3.8857 Z0.1400
G01 X28.4875 Y-3.8856 Z0.1400
G01 X28.4883 Y-3.8856 Z0.1400
G01 X29.0214 Y-3.8786 Z0.1400
G01 X29.0234 Y-3.8786 Z0.1400
G01 X29.5583 Y-3.8721 Z0.1400
G01 X29.5610 Y-3.8721 Z0.1400
G01 X30.0954 Y-3.8664 Z0.1400
G01 X30.0991 Y-3.8663 Z0.1400
G01 X30.6325 Y-3.8613 Z0.1400
G01 X30.6348 Y-3.8612 Z0.1400
G01 X30.6353 Y-3.8612 Z0.1400
G01 X31.1694 Y-3.8568 Z0.1400
G01 X31.1734 Y-3.8568 Z0.1400
G01 X31.1739 Y-3.8567 Z0.1400
G01 X31.7065 Y-3.8530 Z0.1400
G01 X31.7078 Y-3.8530 Z0.1400
G01 X32.2436 Y-3.8499 Z0.1400
G01 X32.2449 Y-3.8499 Z0.1400
G01 X32.7806 Y-3.8474 Z0.1400
G01 X32.7820 Y-3.8474 Z0.1400
G01 X33.3177 Y-3.8457 Z0.1400
G01 X33.3190 Y-3.8457 Z0.1400
G01 X33.8548 Y-3.8446 Z0.1400
G01 X33.8561 Y-3.8446 Z0.1400
G01 X34.3918 Y-3.8441 Z0.1400
G01 X34.3931 Y-3.8441 Z0.1400
G01 X34.9289 Y-3.8443 Z0.1400
G01 X34.9302 Y-3.8443 Z0.1400
G01 X35.4660 Y-3.8451 Z0.1400
G01 X35.4673 Y-3.8451 Z0.1400
G01 X36.0031 Y-3.8467 Z0.1400
G01 X36.0044 Y-3.8467 Z0.1400
G01 X36.5401 Y-3.8489 Z0.1400
G01 X36.5415 Y-3.8489 Z0.1400
G01 X37.0772 Y-3.8518 Z0.1400
G01 X37.0784 Y-3.8518 Z0.1400
G01 X37.6142 Y-3.8553 Z0.1400
G01 X37.6156 Y-3.8553 Z0.1400
G01 X38.1495 Y-3.8594 Z0.1400
G01 X38.1513 Y-3.8595 Z0.1400
G01 X38.1538 Y-3.8595 Z0.1400
G01 X38.6855 Y-3.8643 Z0.1400
G01 X38.6897 Y-3.8644 Z0.1400
G01 X39.2239 Y-3.8699 Z0.1400
G01 X39.2267 Y-3.8699 Z0.1400
G01 X39.7614 Y-3.8761 Z0.1400
G01 X39.7638 Y-3.8761 Z0.1400
G01 X40.2967 Y-3.8829 Z0.1400
G01 X40.2975 Y-3.8829 Z0.1400
G01 X40.3007 Y-3.8829 Z0.1400
G01 X40.8359 Y-3.8904 Z0.1400
G01 X40.8377 Y-3.8905 Z0.1400
G01 X41.3720 Y-3.8986 Z0.1400
G01 X41.3748 Y-3.8986 Z0.1400
G01 X41.9081 Y-3.9074 Z0.1400
G01 X41.9090 Y-3.9074 Z0.1400
G01 X41.9118 Y-3.9075 Z0.1400
G01 X42.4457 Y-3.9169 Z0.1400
G01 X42.4464 Y-3.9169 Z0.1400
G01 X42.4496 Y-3.9170 Z0.1400
G01 X42.9826 Y-3.9270 Z0.1400
G01 X42.9851 Y-3.9272 Z0.1400
G01 X42.9887 Y-3.9272 Z0.1400
G01 X42.9892 Y-3.9272 Z0.1400
G01 X43.5180 Y-3.9379 Z0.1400
G01 X43.5204 Y-3.9380 Z0.1400
G01 X43.5240 Y-3.9380 Z0.1400
G01 X43.5246 Y-3.9380 Z0.1400
G01 X44.0568 Y-3.9494 Z0.1400
G01 X44.0578 Y-3.9494 Z0.1400
G01 X44.0609 Y-3.9495 Z0.1400
G01 X44.5929 Y-3.9615 Z0.1400
G01 X44.5950 Y-3.9616 Z0.1400
G01 X44.5977 Y-3.9617 Z0.1400
G01 X45.1308 Y-3.9744 Z0.1400
G01 X45.1321 Y-3.9745 Z0.1400
G01 X45.1350 Y-3.9745 Z0.1400
G01 X45.6677 Y-3.9879 Z0.1400
G01 X45.6684 Y-3.9879 Z0.1400
G01 X45.6714 Y-3.9881 Z0.1400
G01 X46.2044 Y-4.0021 Z0.1400
G01 X46.2061 Y-4.0021 Z0.1400
G01 X46.2084 Y-4.0022 Z0.1400
G01 X46.7418 Y-4.0169 Z0.1400
G01 X46.7449 Y-4.0170 Z0.1400
G01 X47.2782 Y-4.0324 Z0.1400
G01 X47.2801 Y-4.0324 Z0.1400
G01 X47.2818 Y-4.0325 Z0.1400
G01 X47.8165 Y-4.0486 Z0.1400
G01 X47.8186 Y-4.0487 Z0.1400
G01 X48.3534 Y-4.0654 Z0.1400
G01 X48.3539 Y-4.0654 Z0.1400
G01 X48.3554 Y-4.0655 Z0.1400
G01 X48.8875 Y-4.0828 Z0.1400
G01 X48.8883 Y-4.0828 Z0.1400
G01 X48.8918 Y-4.0830 Z0.1400
G01 X48.8946 Y-4.0830 Z0.1400
G01 X49.4268 Y-4.1010 Z0.1400
G01 X49.4290 Y-4.1011 Z0.1400
G01 X49.9614 Y-4.1197 Z0.1400
G01 X49.9636 Y-4.1198 Z0.1400
G01 X49.9657 Y-4.1199 Z0.1400
G01 X50.5003 Y-4.1393 Z0.1400
G01 X50.5015 Y-4.1393 Z0.1400
G01 X50.5020 Y-4.1393 Z0.1400
G01 X51.0364 Y-4.1594 Z0.1400
G01 X51.0404 Y-4.1595 Z0.1400
G01 X51.5736 Y-4.1802 Z0.1400
G01 X51.5758 Y-4.1803 Z0.1400
G01 X52.1103 Y-4.2017 Z0.1400
G01 X52.1121 Y-4.2017 Z0.1400
G01 X52.1136 Y-4.2018 Z0.1400
G01 X52.6461 Y-4.2237 Z0.1400
G01 X52.6485 Y-4.2238 Z0.1400
G01 X52.6493 Y-4.2239 Z0.1400
G01 X53.1834 Y-4.2466 Z0.1400
G01 X53.1843 Y-4.2466 Z0.1400
G01 X53.1857 Y-4.2467 Z0.1400
G01 X53.7201 Y-4.2701 Z0.1400
G01 X53.7222 Y-4.2701 Z0.1400
G01 X54.2567 Y-4.2942 Z0.1400
G01 X54.2605 Y-4.2943 Z0.1400
G01 X54.7932 Y-4.3189 Z0.1400
G01 X54.7937 Y-4.3189 Z0.1400
G01 X54.7945 Y-4.3190 Z0.1400
G01 X55.3285 Y-4.3443 Z0.1400
G01 X55.3298 Y-4.3444 Z0.1400
G01 X55.3309 Y-4.3444 Z0.1400
G01 X55.8657 Y-4.3705 Z0.1400
G01 X55.8672 Y-4.3705 Z0.1400
G01 X56.4025 Y-4.3973 Z0.1400
G01 X56.4051 Y-4.3974 Z0.1400
G01 X56.9387 Y-4.4247 Z0.1400
G01 X56.9401 Y-4.4248 Z0.1400
G01 X57.4752 Y-4.4528 Z0.1400
G01 X57.4773 Y-4.4529 Z0.1400
G01 X57.4799 Y-4.4531 Z0.1400
G01 X58.0115 Y-4.4816 Z0.1400
G01 X58.0128 Y-4.4816 Z0.1400
G01 X58.5475 Y-4.5110 Z0.1400
G01 X58.5489 Y-4.5111 Z0.1400
G01 X59.0839 Y-4.5411 Z0.1400
G01 X59.0854 Y-4.5412 Z0.1400
G01 X59.0861 Y-4.5412 Z0.1400
G01 X59.6190 Y-4.5718 Z0.1400
G01 X59.6196 Y-4.5718 Z0.1400
G01 X59.6216 Y-4.5719 Z0.1400
G01 X60.1564 Y-4.6033 Z0.1400
G01 X60.1577 Y-4.6034 Z0.1400
G01 X63.6557 Y-4.8126 Z0.1400
G01 X63.5934 Y-5.8533 Z0.1400
G01 X60.0953 Y-5.6440 Z0.1400
G01 X60.0931 Y-5.6438 Z0.1400
G01 X59.5625 Y-5.6127 Z0.1400
G01 X59.5614 Y-5.6126 Z0.1400
G01 X59.5604 Y-5.6125 Z0.1400
G01 X59.0256 Y-5.5819 Z0.1400
G01 X59.0238 Y-5.5818 Z0.1400
G01 X58.4906 Y-5.5519 Z0.1400
G01 X58.4900 Y-5.5518 Z0.1400
G01 X58.4877 Y-5.5517 Z0.1400
G01 X57.9564 Y-5.5225 Z0.1400
G01 X57.9532 Y-5.5224 Z0.1400
G01 X57.9523 Y-5.5223 Z0.1400
G01 X57.4208 Y-5.4938 Z0.1400
G01 X57.4197 Y-5.4938 Z0.1400
G01 X56.8864 Y-5.4658 Z0.1400
G01 X56.8851 Y-5.4657 Z0.1400
G01 X56.8841 Y-5.4657 Z0.1400
G01 X56.3519 Y-5.4385 Z0.1400
G01 X56.3501 Y-5.4385 Z0.1400
G01 X55.8154 Y-5.4117 Z0.1400
G01 X55.8144 Y-5.4117 Z0.1400
G01 X55.8138 Y-5.4116 Z0.1400
G01 X55.2809 Y-5.3857 Z0.1400
G01 X55.2796 Y-5.3857 Z0.1400
G01 X54.7461 Y-5.3603 Z0.1400
G01 X54.7454 Y-5.3603 Z0.1400
G01 X54.7442 Y-5.3602 Z0.1400
G01 X54.2099 Y-5.3355 Z0.1400
G01 X54.2071 Y-5.3354 Z0.1400
G01 X54.2056 Y-5.3353 Z0.1400
G01 X53.6763 Y-5.3115 Z0.1400
G01 X53.6740 Y-5.3114 Z0.1400
G01 X53.6734 Y-5.3114 Z0.1400
G01 X53.1396 Y-5.2881 Z0.1400
G01 X53.1387 Y-5.2881 Z0.1400
G01 X52.6044 Y-5.2653 Z0.1400
G01 X52.6035 Y-5.2653 Z0.1400
G01 X52.6030 Y-5.2653 Z0.1400
G01 X52.0703 Y-5.2433 Z0.1400
G01 X52.0687 Y-5.2433 Z0.1400
G01 X51.5334 Y-5.2219 Z0.1400
G01 X51.5327 Y-5.2219 Z0.1400
G01 X50.9980 Y-5.2011 Z0.1400
G01 X50.9945 Y-5.2009 Z0.1400
G01 X50.9935 Y-5.2009 Z0.1400
G01 X50.4645 Y-5.1811 Z0.1400
G01 X50.4627 Y-5.1810 Z0.1400
G01 X49.9272 Y-5.1616 Z0.1400
G01 X49.9262 Y-5.1616 Z0.1400
G01 X49.3937 Y-5.1429 Z0.1400
G01 X49.3920 Y-5.1429 Z0.1400
G01 X49.3912 Y-5.1429 Z0.1400
G01 X48.8579 Y-5.1248 Z0.1400
G01 X48.8553 Y-5.1247 Z0.1400
G01 X48.8536 Y-5.1247 Z0.1400
G01 X48.3230 Y-5.1074 Z0.1400
G01 X48.3213 Y-5.1074 Z0.1400
G01 X48.3199 Y-5.1073 Z0.1400
G01 X47.7852 Y-5.0906 Z0.1400
G01 X47.2497 Y-5.0744 Z0.1400
G01 X46.7141 Y-5.0590 Z0.1400
G01 X46.7134 Y-5.0590 Z0.1400
G01 X46.1786 Y-5.0442 Z0.1400
G01 X45.6429 Y-5.0301 Z0.1400
G01 X45.6424 Y-5.0301 Z0.1400
G01 X45.1073 Y-5.0166 Z0.1400
G01 X44.5717 Y-5.0038 Z0.1400
G01 X44.5708 Y-5.0038 Z0.1400
G01 X44.0361 Y-4.9916 Z0.1400
G01 X43.5035 Y-4.9803 Z0.1400
G01 X43.5025 Y-4.9802 Z0.1400
G01 X43.4995 Y-4.9802 Z0.1400
G01 X42.9664 Y-4.9694 Z0.1400
G01 X42.9656 Y-4.9694 Z0.1400
G01 X42.9627 Y-4.9693 Z0.1400
G01 X42.4290 Y-4.9592 Z0.1400
G01 X41.8971 Y-4.9498 Z0.1400
G01 X41.8962 Y-4.9498 Z0.1400
G01 X41.8933 Y-4.9497 Z0.1400
G01 X41.3576 Y-4.9409 Z0.1400
G01 X40.8224 Y-4.9327 Z0.1400
G01 X40.8201 Y-4.9327 Z0.1400
G01 X40.2904 Y-4.9253 Z0.1400
G01 X40.2862 Y-4.9253 Z0.1400
G01 X39.7505 Y-4.9184 Z0.1400
G01 X39.2147 Y-4.9122 Z0.1400
G01 X38.6790 Y-4.9067 Z0.1400
G01 X38.1432 Y-4.9019 Z0.1400
G01 X37.6074 Y-4.8977 Z0.1400
G01 X37.0716 Y-4.8942 Z0.1400
G01 X36.5359 Y-4.8913 Z0.1400
G01 X36.0001 Y-4.8891 Z0.1400
G01 X35.4643 Y-4.8876 Z0.1400
G01 X34.9286 Y-4.8867 Z0.1400
G01 X34.3928 Y-4.8865 Z0.1400
G01 X33.8571 Y-4.8870 Z0.1400
G01 X33.3214 Y-4.8881 Z0.1400
G01 X32.7856 Y-4.8899 Z0.1400
G01 X32.2498 Y-4.8923 Z0.1400
G01 X31.7140 Y-4.8954 Z0.1400
G01 X31.1781 Y-4.8992 Z0.1400
G01 X31.1734 Y-4.8992 Z0.1400
G01 X30.6439 Y-4.9036 Z0.1400
G01 X30.6416 Y-4.9037 Z0.1400
G01 X30.1067 Y-4.9087 Z0.1400
G01 X29.5710 Y-4.9145 Z0.1400
G01 X29.0352 Y-4.9209 Z0.1400
G01 X28.4993 Y-4.9280 Z0.1400
G01 X28.4954 Y-4.9280 Z0.1400
G01 X27.9655 Y-4.9357 Z0.1400
G01 X27.9620 Y-4.9358 Z0.1400
G01 X27.4281 Y-4.9442 Z0.1400
G01 X26.8922 Y-4.9532 Z0.1400
G01 X26.8895 Y-4.9533 Z0.1400
G01 X26.8887 Y-4.9533 Z0.1400
G01 X26.3585 Y-4.9629 Z0.1400
G01 X26.3555 Y-4.9630 Z0.1400
G01 X26.3547 Y-4.9631 Z0.1400
G01 X25.8210 Y-4.9734 Z0.1400
G01 X25.2859 Y-4.9845 Z0.1400
G01 X25.2832 Y-4.9845 Z0.1400
G01 X25.2822 Y-4.9845 Z0.1400
G01 X24.7516 Y-4.9961 Z0.1400
G01 X24.7492 Y-4.9962 Z0.1400
G01 X24.2148 Y-5.0085 Z0.1400
G01 X24.2123 Y-5.0086 Z0.1400
G01 X24.2112 Y-5.0086 Z0.1400
G01 X23.6784 Y-5.0216 Z0.1400
G01 X23.1433 Y-5.0353 Z0.1400
G01 X23.1426 Y-5.0353 Z0.1400
G01 X22.6072 Y-5.0497 Z0.1400
G01 X22.0721 Y-5.0647 Z0.1400
G01 X22.0715 Y-5.0647 Z0.1400
G01 X21.5371 Y-5.0804 Z0.1400
G01 X21.5351 Y-5.0804 Z0.1400
G01 X21.5335 Y-5.0805 Z0.1400
G01 X21.0038 Y-5.0966 Z0.1400
G01 X21.0017 Y-5.0967 Z0.1400
G01 X20.9995 Y-5.0968 Z0.1400
G01 X20.4658 Y-5.1138 Z0.1400
G01 X20.4644 Y-5.1138 Z0.1400
G01 X20.4628 Y-5.1139 Z0.1400
G01 X19.9307 Y-5.1314 Z0.1400
G01 X19.9294 Y-5.1315 Z0.1400
G01 X19.3941 Y-5.1498 Z0.1400
G01 X18.8591 Y-5.1688 Z0.1400
G01 X18.8585 Y-5.1688 Z0.1400
G01 X18.3236 Y-5.1885 Z0.1400
G01 X18.3231 Y-5.1885 Z0.1400
G01 X17.7877 Y-5.2088 Z0.1400
G01 X17.7859 Y-5.2089 Z0.1400
G01 X17.2557 Y-5.2297 Z0.1400
G01 X17.2545 Y-5.2298 Z0.1400
G01 X17.2512 Y-5.2300 Z0.1400
G01 X16.7176 Y-5.2515 Z0.1400
G01 X16.7165 Y-5.2516 Z0.1400
G01 X16.1834 Y-5.2738 Z0.1400
G01 X16.1820 Y-5.2738 Z0.1400
G01 X16.1800 Y-5.2739 Z0.1400
G01 X15.6472 Y-5.2968 Z0.1400
G01 X15.6463 Y-5.2968 Z0.1400
G01 X15.1118 Y-5.3205 Z0.1400
G01 X15.1111 Y-5.3205 Z0.1400
G01 X14.5779 Y-5.3447 Z0.1400
G01 X14.5768 Y-5.3448 Z0.1400
G01 X14.5759 Y-5.3448 Z0.1400
G01 X14.0407 Y-5.3698 Z0.1400
G01 X14.0391 Y-5.3698 Z0.1400
G01 X13.5084 Y-5.3952 Z0.1400
G01 X13.5072 Y-5.3953 Z0.1400
G01 X13.5045 Y-5.3954 Z0.1400
G01 X12.9716 Y-5.4216 Z0.1400
G01 X12.9692 Y-5.4217 Z0.1400
G01 X12.9682 Y-5.4218 Z0.1400
G01 X12.4405 Y-5.4484 Z0.1400
G01 X12.4399 Y-5.4484 Z0.1400
G01 X12.4353 Y-5.4487 Z0.1400
G01 X11.9014 Y-5.4762 Z0.1400
G01 X11.9002 Y-5.4763 Z0.1400
G01 X11.3690 Y-5.5044 Z0.1400
G01 X11.3683 Y-5.5044 Z0.1400
G01 X11.3676 Y-5.5044 Z0.1400
G01 X11.3654 Y-5.5046 Z0.1400
G01 X10.8320 Y-5.5334 Z0.1400
G01 X10.8310 Y-5.5335 Z0.1400
G01 X10.8289 Y-5.5336 Z0.1400
G01 X10.2974 Y-5.5630 Z0.1400
G01 X10.2963 Y-5.5630 Z0.1400
G01 X10.2955 Y-5.5631 Z0.1400
G01 X9.7617 Y-5.5933 Z0.1400
G01 X9.7607 Y-5.5933 Z0.1400
G01 X9.7603 Y-5.5934 Z0.1400
G01 X9.2269 Y-5.6242 Z0.1400
G01 X9.2256 Y-5.6243 Z0.1400
G01 X8.6905 Y-5.6559 Z0.1400
G01 X8.6890 Y-5.6560 Z0.1400
G01 X8.6880 Y-5.6561 Z0.1400
G01 X8.6874 Y-5.6561 Z0.1400
G01 X8.1570 Y-5.6881 Z0.1400
G01 X8.1561 Y-5.6881 Z0.1400
G01 X8.1556 Y-5.6882 Z0.1400
G01 X8.1550 Y-5.6882 Z0.1400
G01 X7.6211 Y-5.7211 Z0.1400
G01 X4.1252 Y-5.9408 Z0.1400
G01 X4.0598 Y-4.9004 Z0.1400
G01 X4.0598 Y-4.9004 Z0.0000
G01 X7.5555 Y-4.6807 Z0.0000
G01 X7.5576 Y-4.6806 Z0.0000
G01 X7.5583 Y-4.6805 Z0.0000
G01 X8.0907 Y-4.6477 Z0.0000
G01 X8.0913 Y-4.6477 Z0.0000
G01 X8.0927 Y-4.6477 Z0.0000
G01 X8.6277 Y-4.6153 Z0.0000
G01 X8.6291 Y-4.6153 Z0.0000
G01 X9.1639 Y-4.5837 Z0.0000
G01 X9.1652 Y-4.5836 Z0.0000
G01 X9.7000 Y-4.5527 Z0.0000
G01 X9.7010 Y-4.5526 Z0.0000
G01 X10.2348 Y-4.5224 Z0.0000
G01 X10.2357 Y-4.5224 Z0.0000
G01 X10.2372 Y-4.5223 Z0.0000
G01 X10.7703 Y-4.4927 Z0.0000
G01 X10.7738 Y-4.4926 Z0.0000
G01 X11.3057 Y-4.4638 Z0.0000
G01 X11.3063 Y-4.4638 Z0.0000
G01 X11.3070 Y-4.4638 Z0.0000
G01 X11.3099 Y-4.4636 Z0.0000
G01 X11.8451 Y-4.4353 Z0.0000
G01 X11.8457 Y-4.4353 Z0.0000
G01 X11.8464 Y-4.4353 Z0.0000
G01 X12.3768 Y-4.4079 Z0.0000
G01 X12.3777 Y-4.4078 Z0.0000
G01 X12.3784 Y-4.4078 Z0.0000
G01 X12.3828 Y-4.4075 Z0.0000
G01 X12.9179 Y-4.3806 Z0.0000
G01 X12.9185 Y-4.3805 Z0.0000
G01 X12.9198 Y-4.3805 Z0.0000
G01 X13.4512 Y-4.3544 Z0.0000
G01 X13.4561 Y-4.3541 Z0.0000
G01 X13.9884 Y-4.3286 Z0.0000
G01 X13.9897 Y-4.3286 Z0.0000
G01 X13.9921 Y-4.3285 Z0.0000
G01 X14.5273 Y-4.3035 Z0.0000
G01 X14.5282 Y-4.3035 Z0.0000
G01 X15.0632 Y-4.2792 Z0.0000
G01 X15.0650 Y-4.2791 Z0.0000
G01 X15.5994 Y-4.2555 Z0.0000
G01 X15.6000 Y-4.2554 Z0.0000
G01 X15.6016 Y-4.2553 Z0.0000
G01 X16.1355 Y-4.2324 Z0.0000
G01 X16.1363 Y-4.2324 Z0.0000
G01 X16.1382 Y-4.2323 Z0.0000
G01 X16.6732 Y-4.2100 Z0.0000
G01 X16.6754 Y-4.2099 Z0.0000
G01 X17.2067 Y-4.1884 Z0.0000
G01 X17.2087 Y-4.1884 Z0.0000
G01 X17.2114 Y-4.1883 Z0.0000
G01 X17.7467 Y-4.1672 Z0.0000
G01 X17.7481 Y-4.1672 Z0.0000
G01 X18.2828 Y-4.1469 Z0.0000
G01 X18.2851 Y-4.1468 Z0.0000
G01 X18.2857 Y-4.1468 Z0.0000
G01 X18.8194 Y-4.1272 Z0.0000
G01 X18.8212 Y-4.1271 Z0.0000
G01 X18.8230 Y-4.1270 Z0.0000
G01 X19.3550 Y-4.1081 Z0.0000
G01 X19.3571 Y-4.1081 Z0.0000
G01 X19.3597 Y-4.1080 Z0.0000
G01 X19.8926 Y-4.0897 Z0.0000
G01 X19.8941 Y-4.0897 Z0.0000
G01 X19.8966 Y-4.0896 Z0.0000
G01 X20.4301 Y-4.0719 Z0.0000
G01 X20.4314 Y-4.0719 Z0.0000
G01 X20.9641 Y-4.0550 Z0.0000
G01 X20.9659 Y-4.0549 Z0.0000
G01 X20.9686 Y-4.0548 Z0.0000
G01 X21.5042 Y-4.0385 Z0.0000
G01 X21.5053 Y-4.0385 Z0.0000
G01 X22.0402 Y-4.0228 Z0.0000
G01 X22.0429 Y-4.0226 Z0.0000
G01 X22.5767 Y-4.0077 Z0.0000
G01 X22.5788 Y-4.0076 Z0.0000
G01 X22.5805 Y-4.0076 Z0.0000
G01 X23.1136 Y-3.9933 Z0.0000
G01 X23.1160 Y-3.9932 Z0.0000
G01 X23.1179 Y-3.9931 Z0.0000
G01 X23.6502 Y-3.9795 Z0.0000
G01 X23.6529 Y-3.9795 Z0.0000
G01 X23.6542 Y-3.9794 Z0.0000
G01 X24.1868 Y-3.9664 Z0.0000
G01 X24.1905 Y-3.9664 Z0.0000
G01 X24.1931 Y-3.9663 Z0.0000
G01 X24.7254 Y-3.9540 Z0.0000
G01 X24.7261 Y-3.9540 Z0.0000
G01 X24.7275 Y-3.9540 Z0.0000
G01 X25.2605 Y-3.9423 Z0.0000
G01 X25.2611 Y-3.9423 Z0.0000
G01 X25.2646 Y-3.9422 Z0.0000
G01 X25.2671 Y-3.9421 Z0.0000
G01 X25.7987 Y-3.9311 Z0.0000
G01 X25.8012 Y-3.9311 Z0.0000
G01 X25.8018 Y-3.9311 Z0.0000
G01 X26.3362 Y-3.9207 Z0.0000
G01 X26.3373 Y-3.9207 Z0.0000
G01 X26.3387 Y-3.9207 Z0.0000
G01 X26.8710 Y-3.9110 Z0.0000
G01 X26.8725 Y-3.9110 Z0.0000
G01 X26.8760 Y-3.9109 Z0.0000
G01 X26.8769 Y-3.9109 Z0.0000
G01 X27.4103 Y-3.9019 Z0.0000
G01 X27.4127 Y-3.9019 Z0.0000
G01 X27.9472 Y-3.8935 Z0.0000
G01 X27.9486 Y-3.8934 Z0.0000
G01 X28.4842 Y-3.8857 Z0.0000
G01 X28.4875 Y-3.8856 Z0.0000
G01 X28.4883 Y-3.8856 Z0.0000
G01 X29.0214 Y-3.8786 Z0.0000
G01 X29.0234 Y-3.8786 Z0.0000
G01 X29.5583 Y-3.8721 Z0.0000
G01 X29.5610 Y-3.8721 Z0.0000
G01 X30.0954 Y-3.8664 Z0.0000
G01 X30.0991 Y-3.8663 Z0.0000
G01 X30.6325 Y-3.8613 Z0.0000
G01 X30.6348 Y-3.8612 Z0.0000
G01 X30.6353 Y-3.8612 Z0.0000
G01 X31.1694 Y-3.8568 Z0.0000
G01 X31.1734 Y-3.8568 Z0.0000
G01 X31.1739 Y-3.8567 Z0.0000
G01 X31.7065 Y-3.8530 Z0.0000
G01 X31.7078 Y-3.8530 Z0.0000
G01 X32.2436 Y-3.8499 Z0.0000
G01 X32.2449 Y-3.8499 Z0.0000
G01 X32.7806 Y-3.8474 Z0.0000
G01 X32.7820 Y-3.8474 Z0.0000
G01 X33.3177 Y-3.8457 Z0.0000
G01 X33.3190 Y-3.8457 Z0.0000
G01 X33.8548 Y-3.8446 Z0.0000
G01 X33.8561 Y-3.8446 Z0.0000
G01 X34.3918 Y-3.8441 Z0.0000
G01 X34.3931 Y-3.8441 Z0.0000
G01 X34.9289 Y-3.8443 Z0.0000
G01 X34.9302 Y-3.8443 Z0.0000
G01 X35.4660 Y-3.8451 Z0.0000
G01 X35.4673 Y-3.8451 Z0.0000
G01 X36.0031 Y-3.8467 Z0.0000
G01 X36.0044 Y-3.8467 Z0.0000
G01 X36.5401 Y-3.8489 Z0.0000
G01 X36.5415 Y-3.8489 Z0.0000
G01 X37.0772 Y-3.8518 Z0.0000
G01 X37.0784 Y-3.8518 Z0.0000
G01 X37.6142 Y-3.8553 Z0.0000
G01 X37.6156 Y-3.8553 Z0.0000
G01 X38.1495 Y-3.8594 Z0.0000
G01 X38.1513 Y-3.8595 Z0.0000
G01 X38.1538 Y-3.8595 Z0.0000
G01 X38.6855 Y-3.8643 Z0.0000
G01 X38.6897 Y-3.8644 Z0.0000
G01 X39.2239 Y-3.8699 Z0.0000
G01 X39.2267 Y-3.8699 Z0.0000
G01 X39.7614 Y-3.8761 Z0.0000
G01 X39.7638 Y-3.8761 Z0.0000
G01 X40.2967 Y-3.8829 Z0.0000
G01 X40.2975 Y-3.8829 Z0.0000
G01 X40.3007 Y-3.8829 Z0.0000
G01 X40.8359 Y-3.8904 Z0.0000
G01 X40.8377 Y-3.8905 Z0.0000
G01 X41.3720 Y-3.8986 Z0.0000
G01 X41.3748 Y-3.8986 Z0.0000
G01 X41.9081 Y-3.9074 Z0.0000
G01 X41.9090 Y-3.9074 Z0.0000
G01 X41.9118 Y-3.9075 Z0.0000
G01 X42.4457 Y-3.9169 Z0.0000
G01 X42.4464 Y-3.9169 Z0.0000
G01 X42.4496 Y-3.9170 Z0.0000
G01 X42.9826 Y-3.9270 Z0.0000
G01 X42.9851 Y-3.9272 Z0.0000
G01 X42.9887 Y-3.9272 Z0.0000
G01 X42.9892 Y-3.9272 Z0.0000
G01 X43.5180 Y-3.9379 Z0.0000
G01 X43.5204 Y-3.9380 Z0.0000
G01 X43.5240 Y-3.9380 Z0.0000
G01 X43.5246 Y-3.9380 Z0.0000
G01 X44.0568 Y-3.9494 Z0.0000
G01 X44.0578 Y-3.9494 Z0.0000
G01 X44.0609 Y-3.9495 Z0.0000
G01 X44.5929 Y-3.9615 Z0.0000
G01 X44.5950 Y-3.9616 Z0.0000
G01 X44.5977 Y-3.9617 Z0.0000
G01 X45.1308 Y-3.9744 Z0.0000
G01 X45.1321 Y-3.9745 Z0.0000
G01 X45.1350 Y-3.9745 Z0.0000
G01 X45.6677 Y-3.9879 Z0.0000
G01 X45.6684 Y-3.9879 Z0.0000
G01 X45.6714 Y-3.9881 Z0.0000
G01 X46.2044 Y-4.0021 Z0.0000
G01 X46.2061 Y-4.0021 Z0.0000
G01 X46.2084 Y-4.0022 Z0.0000
G01 X46.7418 Y-4.0169 Z0.0000
G01 X46.7449 Y-4.0170 Z0.0000
G01 X47.2782 Y-4.0324 Z0.0000
G01 X47.2801 Y-4.0324 Z0.0000
G01 X47.2818 Y-4.0325 Z0.0000
G01 X47.8165 Y-4.0486 Z0.0000
G01 X47.8186 Y-4.0487 Z0.0000
G01 X48.3534 Y-4.0654 Z0.0000
G01 X48.3539 Y-4.0654 Z0.0000
G01 X48.3554 Y-4.0655 Z0.0000
G01 X48.8875 Y-4.0828 Z0.0000
G01 X48.8883 Y-4.0828 Z0.0000
G01 X48.8918 Y-4.0830 Z0.0000
G01 X48.8946 Y-4.0830 Z0.0000
G01 X49.4268 Y-4.1010 Z0.0000
G01 X49.4290 Y-4.1011 Z0.0000
G01 X49.9614 Y-4.1197 Z0.0000
G01 X49.9636 Y-4.1198 Z0.0000
G01 X49.9657 Y-4.1199 Z0.0000
G01 X50.5003 Y-4.1393 Z0.0000
G01 X50.5015 Y-4.1393 Z0.0000
G01 X50.5020 Y-4.1393 Z0.0000
G01 X51.0364 Y-4.1594 Z0.0000
G01 X51.0404 Y-4.1595 Z0.0000
G01 X51.5736 Y-4.1802 Z0.0000
G01 X51.5758 Y-4.1803 Z0.0000
G01 X52.1103 Y-4.2017 Z0.0000
G01 X52.1121 Y-4.2017 Z0.0000
G01 X52.1136 Y-4.2018 Z0.0000
G01 X52.6461 Y-4.2237 Z0.0000
G01 X52.6485 Y-4.2238 Z0.0000
G01 X52.6493 Y-4.2239 Z0.0000
G01 X53.1834 Y-4.2466 Z0.0000
G01 X53.1843 Y-4.2466 Z0.0000
G01 X53.1857 Y-4.2467 Z0.0000
G01 X53.7201 Y-4.2701 Z0.0000
G01 X53.7222 Y-4.2701 Z0.0000
G01 X54.2567 Y-4.2942 Z0.0000
G01 X54.2605 Y-4.2943 Z0.0000
G01 X54.7932 Y-4.3189 Z0.0000
G01 X54.7937 Y-4.3189 Z0.0000
G01 X54.7945 Y-4.3190 Z0.0000
G01 X55.3285 Y-4.3443 Z0.0000
G01 X55.3298 Y-4.3444 Z0.0000
G01 X55.3309 Y-4.3444 Z0.0000
G01 X55.8657 Y-4.3705 Z0.0000
G01 X55.8672 Y-4.3705 Z0.0000
G01 X56.4025 Y-4.3973 Z0.0000
G01 X56.4051 Y-4.3974 Z0.0000
G01 X56.9387 Y-4.4247 Z0.0000
G01 X56.9401 Y-4.4248 Z0.0000
G01 X57.4752 Y-4.4528 Z0.0000
G01 X57.4773 Y-4.4529 Z0.0000
G01 X57.4799 Y-4.4531 Z0.0000
G01 X58.0115 Y-4.4816 Z0.0000
G01 X58.0128 Y-4.4816 Z0.0000
G01 X58.5475 Y-4.5110 Z0.0000
G01 X58.5489 Y-4.5111 Z0.0000
G01 X59.0839 Y-4.5411 Z0.0000
G01 X59.0854 Y-4.5412 Z0.0000
G01 X59.0861 Y-4.5412 Z0.0000
G01 X59.6190 Y-4.5718 Z0.0000
G01 X59.6196 Y-4.5718 Z0.0000
G01 X59.6216 Y-4.5719 Z0.0000
G01 X60.1564 Y-4.6033 Z0.0000
G01 X60.1577 Y-4.6034 Z0.0000
G01 X63.6557 Y-4.8126 Z0.0000
G01 X63.5934 Y-5.8533 Z0.0000
G01 X60.0953 Y-5.6440 Z0.0000
G01 X60.0931 Y-5.6438 Z0.0000
G01 X59.5625 Y-5.6127 Z0.0000
G01 X59.5614 Y-5.6126 Z0.0000
G01 X59.5604 Y-5.6125 Z0.0000
G01 X59.0256 Y-5.5819 Z0.0000
G01 X59.0238 Y-5.5818 Z0.0000
G01 X58.4906 Y-5.5519 Z0.0000
G01 X58.4900 Y-5.5518 Z0.0000
G01 X58.4877 Y-5.5517 Z0.0000
G01 X57.9564 Y-5.5225 Z0.0000
G01 X57.9532 Y-5.5224 Z0.0000
G01 X57.9523 Y-5.5223 Z0.0000
G01 X57.4208 Y-5.4938 Z0.0000
G01 X57.4197 Y-5.4938 Z0.0000
G01 X56.8864 Y-5.4658 Z0.0000
G01 X56.8851 Y-5.4657 Z0.0000
G01 X56.8841 Y-5.4657 Z0.0000
G01 X56.3519 Y-5.4385 Z0.0000
G01 X56.3501 Y-5.4385 Z0.0000
G01 X55.8154 Y-5.4117 Z0.0000
G01 X55.8144 Y-5.4117 Z0.0000
G01 X55.8138 Y-5.4116 Z0.0000
G01 X55.2809 Y-5.3857 Z0.0000
G01 X55.2796 Y-5.3857 Z0.0000
G01 X54.7461 Y-5.3603 Z0.0000
G01 X54.7454 Y-5.3603 Z0.0000
G01 X54.7442 Y-5.3602 Z0.0000
G01 X54.2099 Y-5.3355 Z0.0000
G01 X54.2071 Y-5.3354 Z0.0000
G01 X54.2056 Y-5.3353 Z0.0000
G01 X53.6763 Y-5.3115 Z0.0000
G01 X53.6740 Y-5.3114 Z0.0000
G01 X53.6734 Y-5.3114 Z0.0000
G01 X53.1396 Y-5.2881 Z0.0000
G01 X53.1387 Y-5.2881 Z0.0000
G01 X52.6044 Y-5.2653 Z0.0000
G01 X52.6035 Y-5.2653 Z0.0000
G01 X52.6030 Y-5.2653 Z0.0000
G01 X52.0703 Y-5.2433 Z0.0000
G01 X52.0687 Y-5.2433 Z0.0000
G01 X51.5334 Y-5.2219 Z0.0000
G01 X51.5327 Y-5.2219 Z0.0000
G01 X50.9980 Y-5.2011 Z0.0000
G01 X50.9945 Y-5.2009 Z0.0000
G01 X50.9935 Y-5.2009 Z0.0000
G01 X50.4645 Y-5.1811 Z0.0000
G01 X50.4627 Y-5.1810 Z0.0000
G01 X49.9272 Y-5.1616 Z0.0000
G01 X49.9262 Y-5.1616 Z0.0000
G01 X49.3937 Y-5.1429 Z0.0000
G01 X49.3920 Y-5.1429 Z0.0000
G01 X49.3912 Y-5.1429 Z0.0000
G01 X48.8579 Y-5.1248 Z0.0000
G01 X48.8553 Y-5.1247 Z0.0000
G01 X48.8536 Y-5.1247 Z0.0000
G01 X48.3230 Y-5.1074 Z0.0000
G01 X48.3213 Y-5.1074 Z0.0000
G01 X48.3199 Y-5.1073 Z0.0000
G01 X47.7852 Y-5.0906 Z0.0000
G01 X47.2497 Y-5.0744 Z0.0000
G01 X46.7141 Y-5.0590 Z0.0000
G01 X46.7134 Y-5.0590 Z0.0000
G01 X46.1786 Y-5.0442 Z0.0000
G01 X45.6429 Y-5.0301 Z0.0000
G01 X45.6424 Y-5.0301 Z0.0000
G01 X45.1073 Y-5.0166 Z0.0000
G01 X44.5717 Y-5.0038 Z0.0000
G01 X44.5708 Y-5.0038 Z0.0000
G01 X44.0361 Y-4.9916 Z0.0000
G01 X43.5035 Y-4.9803 Z0.0000
G01 X43.5025 Y-4.9802 Z0.0000
G01 X43.4995 Y-4.9802 Z0.0000
G01 X42.9664 Y-4.9694 Z0.0000
G01 X42.9656 Y-4.9694 Z0.0000
G01 X42.9627 Y-4.9693 Z0.0000
G01 X42.4290 Y-4.9592 Z0.0000
G01 X41.8971 Y-4.9498 Z0.0000
G01 X41.8962 Y-4.9498 Z0.0000
G01 X41.8933 Y-4.9497 Z0.0000
G01 X41.3576 Y-4.9409 Z0.0000
G01 X40.8224 Y-4.9327 Z0.0000
G01 X40.8201 Y-4.9327 Z0.0000
G01 X40.2904 Y-4.9253 Z0.0000
G01 X40.2862 Y-4.9253 Z0.0000
G01 X39.7505 Y-4.9184 Z0.0000
G01 X39.2147 Y-4.9122 Z0.0000
G01 X38.6790 Y-4.9067 Z0.0000
G01 X38.1432 Y-4.9019 Z0.0000
G01 X37.6074 Y-4.8977 Z0.0000
G01 X37.0716 Y-4.8942 Z0.0000
G01 X36.5359 Y-4.8913 Z0.0000
G01 X36.0001 Y-4.8891 Z0.0000
G01 X35.4643 Y-4.8876 Z0.0000
G01 X34.9286 Y-4.8867 Z0.0000
G01 X34.3928 Y-4.8865 Z0.0000
G01 X33.8571 Y-4.8870 Z0.0000
G01 X33.3214 Y-4.8881 Z0.0000
G01 X32.7856 Y-4.8899 Z0.0000
G01 X32.2498 Y-4.8923 Z0.0000
G01 X31.7140 Y-4.8954 Z0.0000
G01 X31.1781 Y-4.8992 Z0.0000
G01 X31.1734 Y-4.8992 Z0.0000
G01 X30.6439 Y-4.9036 Z0.0000
G01 X30.6416 Y-4.9037 Z0.0000
G01 X30.1067 Y-4.9087 Z0.0000
G01 X29.5710 Y-4.9145 Z0.0000
G01 X29.0352 Y-4.9209 Z0.0000
G01 X28.4993 Y-4.9280 Z0.0000
G01 X28.4954 Y-4.9280 Z0.0000
G01 X27.9655 Y-4.9357 Z0.0000
G01 X27.9620 Y-4.9358 Z0.0000
G01 X27.4281 Y-4.9442 Z0.0000
G01 X26.8922 Y-4.9532 Z0.0000
G01 X26.8895 Y-4.9533 Z0.0000
G01 X26.8887 Y-4.9533 Z0.0000
G01 X26.3585 Y-4.9629 Z0.0000
G01 X26.3555 Y-4.9630 Z0.0000
G01 X26.3547 Y-4.9631 Z0.0000
G01 X25.8210 Y-4.9734 Z0.0000
G01 X25.2859 Y-4.9845 Z0.0000
G01 X25.2832 Y-4.9845 Z0.0000
G01 X25.2822 Y-4.9845 Z0.0000
G01 X24.7516 Y-4.9961 Z0.0000
G01 X24.7492 Y-4.9962 Z0.0000
G01 X24.2148 Y-5.0085 Z0.0000
G01 X24.2123 Y-5.0086 Z0.0000
G01 X24.2112 Y-5.0086 Z0.0000
G01 X23.6784 Y-5.0216 Z0.0000
G01 X23.1433 Y-5.0353 Z0.0000
G01 X23.1426 Y-5.0353 Z0.0000
G01 X22.6072 Y-5.0497 Z0.0000
G01 X22.0721 Y-5.0647 Z0.0000
G01 X22.0715 Y-5.0647 Z0.0000
G01 X21.5371 Y-5.0804 Z0.0000
G01 X21.5351 Y-5.0804 Z0.0000
G01 X21.5335 Y-5.0805 Z0.0000
G01 X21.0038 Y-5.0966 Z0.0000
G01 X21.0017 Y-5.0967 Z0.0000
G01 X20.9995 Y-5.0968 Z0.0000
G01 X20.4658 Y-5.1138 Z0.0000
G01 X20.4644 Y-5.1138 Z0.0000
G01 X20.4628 Y-5.1139 Z0.0000
G01 X19.9307 Y-5.1314 Z0.0000
G01 X19.9294 Y-5.1315 Z0.0000
G01 X19.3941 Y-5.1498 Z0.0000
G01 X18.8591 Y-5.1688 Z0.0000
G01 X18.8585 Y-5.1688 Z0.0000
G01 X18.3236 Y-5.1885 Z0.0000
G01 X18.3231 Y-5.1885 Z0.0000
G01 X17.7877 Y-5.2088 Z0.0000
G01 X17.7859 Y-5.2089 Z0.0000
G01 X17.2557 Y-5.2297 Z0.0000
G01 X17.2545 Y-5.2298 Z0.0000
G01 X17.2512 Y-5.2300 Z0.0000
G01 X16.7176 Y-5.2515 Z0.0000
G01 X16.7165 Y-5.2516 Z0.0000
G01 X16.1834 Y-5.2738 Z0.0000
G01 X16.1820 Y-5.2738 Z0.0000
G01 X16.1800 Y-5.2739 Z0.0000
G01 X15.6472 Y-5.2968 Z0.0000
G01 X15.6463 Y-5.2968 Z0.0000
G01 X15.1118 Y-5.3205 Z0.0000
G01 X15.1111 Y-5.3205 Z0.0000
G01 X14.5779 Y-5.3447 Z0.0000
G01 X14.5768 Y-5.3448 Z0.0000
G01 X14.5759 Y-5.3448 Z0.0000
G01 X14.0407 Y-5.3698 Z0.0000
G01 X14.0391 Y-5.3698 Z0.0000
G01 X13.5084 Y-5.3952 Z0.0000
G01 X13.5072 Y-5.3953 Z0.0000
G01 X13.5045 Y-5.3954 Z0.0000
G01 X12.9716 Y-5.4216 Z0.0000
G01 X12.9692 Y-5.4217 Z0.0000
G01 X12.9682 Y-5.4218 Z0.0000
G01 X12.4405 Y-5.4484 Z0.0000
G01 X12.4399 Y-5.4484 Z0.0000
G01 X12.4353 Y-5.4487 Z0.0000
G01 X11.9014 Y-5.4762 Z0.0000
G01 X11.9002 Y-5.4763 Z0.0000
G01 X11.3690 Y-5.5044 Z0.0000
G01 X11.3683 Y-5.5044 Z0.0000
G01 X11.3676 Y-5.5044 Z0.0000
G01 X11.3654 Y-5.5046 Z0.0000
G01 X10.8320 Y-5.5334 Z0.0000
G01 X10.8310 Y-5.5335 Z0.0000
G01 X10.8289 Y-5.5336 Z0.0000
G01 X10.2974 Y-5.5630 Z0.0000
G01 X10.2963 Y-5.5630 Z0.0000
G01 X10.2955 Y-5.5631 Z0.0000
G01 X9.7617 Y-5.5933 Z0.0000
G01 X9.7607 Y-5.5933 Z0.0000
G01 X9.7603 Y-5.5934 Z0.0000
G01 X9.2269 Y-5.6242 Z0.0000
G01 X9.2256 Y-5.6243 Z0.0000
G01 X8.6905 Y-5.6559 Z0.0000
G01 X8.6890 Y-5.6560 Z0.0000
G01 X8.6880 Y-5.6561 Z0.0000
G01 X8.6874 Y-5.6561 Z0.0000
G01 X8.1570 Y-5.6881 Z0.0000
G01 X8.1561 Y-5.6881 Z0.0000
G01 X8.1556 Y-5.6882 Z0.0000
G01 X8.1550 Y-5.6882 Z0.0000
G01 X7.6211 Y-5.7211 Z0.0000
G01 X4.1252 Y-5.9408 Z0.0000
G01 X4.0598 Y-4.9004 Z0.0000
G00 X4.0598 Y-4.9004 Z0.6000
M05
G00 X0.0000 Y0.0000 Z0.6000
G49
G01 G55 Z0 F20
G00 G55 X0 Y0 Z0
M30
