( Sample-ski-base-cutout.nc                                                    )
( Generated by MonkeyCAM v4.0.4 at 2016-07-26 21:19:31 New Zealand Standard Time
(                                                                              )
( This GCode program is provided on an "AS IS" BASIS WITHOUT WARRANTIES OR     )
( CONDITIONS OF ANY KIND, either express or implied. You should inspect this   )
( program very carefully to confirm you understand its operation. YOU ARE      )
( RESPONSIBLE FOR ENSURING THIS PROGRAM WILL NOT DAMAGE YOUR MACHINE OR        )
( MATERIALS.                                                                   )
(                                                                              )
( See http://www.github.com/mikemag/MonkeyCAM for License and documentation.   )
(                                                                              )
( * Rapid height: 0.2500" [0.6350cm]                                           )
( * Tool: T1, Quarter Inch Straight, diameter 0.2500" [0.6350cm]               )
( * Height baseline [Z=0.0] is the top of the table.                           )
( * XY origin is the left side of the table, Y is center of the part.          )
( * Requires G54 to be the part work coordinate offsets [WCO]. [0, 0] is the   )
(   center of the nose, with the board extending to positive X. The cutter may )
(   move to negative values of X.                                              )
( * Requires G55 to be the machine WCO, with Z above the rapid height.         )
( * Units are inches                                                           )
( * Center of the board in G54:                                                )
(     X=36.0236 Y=0.0000 Z=0.0000                                              )
( * Cutter bounding box in G54:                                                )
(     X-0.0279 Y-2.5818 Z-0.0100 to X70.3089 Y2.5818 Z0.2500                   )

G90 G20 G17 G40 G49
G43 H1 T1
G00 G54 X0 Y0 Z0.2500

G00 X-0.0279 Y0.0000 Z0.2500
M03
G04 P5
G01 X-0.0279 Y0.0000 Z-0.0100 F80
G01 X-0.0279 Y-0.0037 Z-0.0100
G01 X-0.0277 Y-0.0075 Z-0.0100
G01 X-0.0274 Y-0.0112 Z-0.0100
G01 X-0.0248 Y-0.0403 Z-0.0100
G01 X-0.0244 Y-0.0437 Z-0.0100
G01 X-0.0125 Y-0.1440 Z-0.0100
G01 X-0.0120 Y-0.1478 Z-0.0100
G01 X0.0026 Y-0.2460 Z-0.0100
G01 X0.0032 Y-0.2500 Z-0.0100
G01 X0.0209 Y-0.3470 Z-0.0100
G01 X0.0217 Y-0.3510 Z-0.0100
G01 X0.0422 Y-0.4456 Z-0.0100
G01 X0.0431 Y-0.4499 Z-0.0100
G01 X0.0664 Y-0.5418 Z-0.0100
G01 X0.0675 Y-0.5461 Z-0.0100
G01 X0.0935 Y-0.6352 Z-0.0100
G01 X0.0948 Y-0.6396 Z-0.0100
G01 X0.1244 Y-0.7287 Z-0.0100
G01 X0.1260 Y-0.7333 Z-0.0100
G01 X0.1583 Y-0.8196 Z-0.0100
G01 X0.1601 Y-0.8241 Z-0.0100
G01 X0.1953 Y-0.9076 Z-0.0100
G01 X0.1974 Y-0.9123 Z-0.0100
G01 X0.2357 Y-0.9939 Z-0.0100
G01 X0.2380 Y-0.9986 Z-0.0100
G01 X0.2796 Y-1.0783 Z-0.0100
G01 X0.2822 Y-1.0829 Z-0.0100
G01 X0.3272 Y-1.1609 Z-0.0100
G01 X0.3300 Y-1.1654 Z-0.0100
G01 X0.3781 Y-1.2411 Z-0.0100
G01 X0.3811 Y-1.2457 Z-0.0100
G01 X0.4324 Y-1.3188 Z-0.0100
G01 X0.4356 Y-1.3232 Z-0.0100
G01 X0.4905 Y-1.3947 Z-0.0100
G01 X0.4940 Y-1.3991 Z-0.0100
G01 X0.5528 Y-1.4691 Z-0.0100
G01 X0.5564 Y-1.4731 Z-0.0100
G01 X0.6172 Y-1.5394 Z-0.0100
G01 X0.6211 Y-1.5434 Z-0.0100
G01 X0.6877 Y-1.6099 Z-0.0100
G01 X0.6916 Y-1.6136 Z-0.0100
G01 X0.7597 Y-1.6759 Z-0.0100
G01 X0.7637 Y-1.6794 Z-0.0100
G01 X0.8368 Y-1.7408 Z-0.0100
G01 X0.8408 Y-1.7440 Z-0.0100
G01 X0.9183 Y-1.8038 Z-0.0100
G01 X0.9224 Y-1.8068 Z-0.0100
G01 X1.0026 Y-1.8636 Z-0.0100
G01 X1.0067 Y-1.8664 Z-0.0100
G01 X1.0914 Y-1.9215 Z-0.0100
G01 X1.0955 Y-1.9240 Z-0.0100
G01 X1.1838 Y-1.9768 Z-0.0100
G01 X1.1879 Y-1.9791 Z-0.0100
G01 X1.2800 Y-2.0295 Z-0.0100
G01 X1.2838 Y-2.0315 Z-0.0100
G01 X1.3813 Y-2.0805 Z-0.0100
G01 X1.3853 Y-2.0824 Z-0.0100
G01 X1.4854 Y-2.1284 Z-0.0100
G01 X1.4891 Y-2.1300 Z-0.0100
G01 X1.5958 Y-2.1749 Z-0.0100
G01 X1.5995 Y-2.1764 Z-0.0100
G01 X1.7082 Y-2.2181 Z-0.0100
G01 X1.7118 Y-2.2194 Z-0.0100
G01 X1.8251 Y-2.2589 Z-0.0100
G01 X1.8285 Y-2.2600 Z-0.0100
G01 X1.9478 Y-2.2978 Z-0.0100
G01 X1.9511 Y-2.2988 Z-0.0100
G01 X2.0751 Y-2.3343 Z-0.0100
G01 X2.0782 Y-2.3352 Z-0.0100
G01 X2.2048 Y-2.3679 Z-0.0100
G01 X2.2078 Y-2.3687 Z-0.0100
G01 X2.3390 Y-2.3990 Z-0.0100
G01 X2.3419 Y-2.3997 Z-0.0100
G01 X2.4805 Y-2.4283 Z-0.0100
G01 X2.4832 Y-2.4289 Z-0.0100
G01 X2.6230 Y-2.4545 Z-0.0100
G01 X2.6257 Y-2.4550 Z-0.0100
G01 X2.7731 Y-2.4787 Z-0.0100
G01 X2.7755 Y-2.4790 Z-0.0100
G01 X2.9264 Y-2.5002 Z-0.0100
G01 X2.9288 Y-2.5005 Z-0.0100
G01 X3.0848 Y-2.5192 Z-0.0100
G01 X3.0870 Y-2.5195 Z-0.0100
G01 X3.2481 Y-2.5358 Z-0.0100
G01 X3.2504 Y-2.5360 Z-0.0100
G01 X3.4150 Y-2.5497 Z-0.0100
G01 X3.4170 Y-2.5499 Z-0.0100
G01 X3.5863 Y-2.5611 Z-0.0100
G01 X3.5875 Y-2.5612 Z-0.0100
G01 X3.5911 Y-2.5614 Z-0.0100
G01 X3.7657 Y-2.5702 Z-0.0100
G01 X3.7675 Y-2.5703 Z-0.0100
G01 X3.9485 Y-2.5766 Z-0.0100
G01 X3.9503 Y-2.5766 Z-0.0100
G01 X4.1374 Y-2.5805 Z-0.0100
G01 X4.1391 Y-2.5805 Z-0.0100
G01 X4.3289 Y-2.5818 Z-0.0100
G01 X4.3347 Y-2.5817 Z-0.0100
G01 X4.9643 Y-2.5566 Z-0.0100
G01 X4.9659 Y-2.5566 Z-0.0100
G01 X5.5995 Y-2.5318 Z-0.0100
G01 X5.6020 Y-2.5317 Z-0.0100
G01 X6.2329 Y-2.5075 Z-0.0100
G01 X6.8665 Y-2.4837 Z-0.0100
G01 X7.5000 Y-2.4603 Z-0.0100
G01 X8.1336 Y-2.4373 Z-0.0100
G01 X8.7672 Y-2.4148 Z-0.0100
G01 X9.4007 Y-2.3928 Z-0.0100
G01 X10.0343 Y-2.3712 Z-0.0100
G01 X10.6679 Y-2.3501 Z-0.0100
G01 X11.3016 Y-2.3294 Z-0.0100
G01 X11.9352 Y-2.3092 Z-0.0100
G01 X12.5670 Y-2.2894 Z-0.0100
G01 X12.5688 Y-2.2894 Z-0.0100
G01 X13.2025 Y-2.2701 Z-0.0100
G01 X13.8362 Y-2.2513 Z-0.0100
G01 X14.4699 Y-2.2329 Z-0.0100
G01 X15.1036 Y-2.2149 Z-0.0100
G01 X15.7374 Y-2.1974 Z-0.0100
G01 X16.3711 Y-2.1803 Z-0.0100
G01 X17.0048 Y-2.1638 Z-0.0100
G01 X17.6386 Y-2.1476 Z-0.0100
G01 X18.2724 Y-2.1320 Z-0.0100
G01 X18.9061 Y-2.1167 Z-0.0100
G01 X19.5400 Y-2.1019 Z-0.0100
G01 X20.1738 Y-2.0876 Z-0.0100
G01 X20.1774 Y-2.0875 Z-0.0100
G01 X20.8075 Y-2.0737 Z-0.0100
G01 X21.4414 Y-2.0603 Z-0.0100
G01 X22.0752 Y-2.0473 Z-0.0100
G01 X22.7091 Y-2.0348 Z-0.0100
G01 X23.3429 Y-2.0227 Z-0.0100
G01 X23.9746 Y-2.0112 Z-0.0100
G01 X23.9768 Y-2.0112 Z-0.0100
G01 X24.6107 Y-2.0000 Z-0.0100
G01 X25.2445 Y-1.9893 Z-0.0100
G01 X25.8784 Y-1.9791 Z-0.0100
G01 X26.5123 Y-1.9693 Z-0.0100
G01 X27.1462 Y-1.9600 Z-0.0100
G01 X27.7801 Y-1.9511 Z-0.0100
G01 X28.4140 Y-1.9427 Z-0.0100
G01 X29.0479 Y-1.9347 Z-0.0100
G01 X29.6818 Y-1.9272 Z-0.0100
G01 X30.3158 Y-1.9201 Z-0.0100
G01 X30.9497 Y-1.9135 Z-0.0100
G01 X31.5837 Y-1.9073 Z-0.0100
G01 X32.2176 Y-1.9016 Z-0.0100
G01 X32.8515 Y-1.8964 Z-0.0100
G01 X33.4855 Y-1.8916 Z-0.0100
G01 X34.1194 Y-1.8872 Z-0.0100
G01 X34.7534 Y-1.8833 Z-0.0100
G01 X35.3873 Y-1.8799 Z-0.0100
G01 X36.0213 Y-1.8769 Z-0.0100
G01 X36.6553 Y-1.8744 Z-0.0100
G01 X37.2892 Y-1.8723 Z-0.0100
G01 X37.9232 Y-1.8707 Z-0.0100
G01 X38.5572 Y-1.8695 Z-0.0100
G01 X39.1912 Y-1.8688 Z-0.0100
G01 X39.8251 Y-1.8685 Z-0.0100
G01 X40.4590 Y-1.8687 Z-0.0100
G01 X41.0929 Y-1.8694 Z-0.0100
G01 X41.7270 Y-1.8705 Z-0.0100
G01 X42.3609 Y-1.8720 Z-0.0100
G01 X42.9949 Y-1.8740 Z-0.0100
G01 X43.6288 Y-1.8765 Z-0.0100
G01 X44.2628 Y-1.8794 Z-0.0100
G01 X44.8968 Y-1.8828 Z-0.0100
G01 X45.5307 Y-1.8866 Z-0.0100
G01 X46.1647 Y-1.8909 Z-0.0100
G01 X46.7986 Y-1.8956 Z-0.0100
G01 X47.4326 Y-1.9008 Z-0.0100
G01 X48.0665 Y-1.9064 Z-0.0100
G01 X48.7005 Y-1.9125 Z-0.0100
G01 X49.3344 Y-1.9191 Z-0.0100
G01 X49.9683 Y-1.9261 Z-0.0100
G01 X50.6022 Y-1.9335 Z-0.0100
G01 X51.2361 Y-1.9414 Z-0.0100
G01 X51.8701 Y-1.9498 Z-0.0100
G01 X52.5039 Y-1.9586 Z-0.0100
G01 X53.1379 Y-1.9679 Z-0.0100
G01 X53.7718 Y-1.9776 Z-0.0100
G01 X54.4057 Y-1.9878 Z-0.0100
G01 X55.0395 Y-1.9984 Z-0.0100
G01 X55.6734 Y-2.0095 Z-0.0100
G01 X55.6755 Y-2.0095 Z-0.0100
G01 X56.3072 Y-2.0210 Z-0.0100
G01 X56.9411 Y-2.0330 Z-0.0100
G01 X57.5750 Y-2.0454 Z-0.0100
G01 X58.2088 Y-2.0583 Z-0.0100
G01 X58.8426 Y-2.0717 Z-0.0100
G01 X59.4727 Y-2.0854 Z-0.0100
G01 X59.4764 Y-2.0855 Z-0.0100
G01 X60.1102 Y-2.0998 Z-0.0100
G01 X60.7440 Y-2.1145 Z-0.0100
G01 X61.3778 Y-2.1297 Z-0.0100
G01 X62.0116 Y-2.1453 Z-0.0100
G01 X62.6453 Y-2.1614 Z-0.0100
G01 X63.2791 Y-2.1779 Z-0.0100
G01 X63.9128 Y-2.1949 Z-0.0100
G01 X64.5465 Y-2.2123 Z-0.0100
G01 X65.1803 Y-2.2302 Z-0.0100
G01 X65.8140 Y-2.2485 Z-0.0100
G01 X66.4477 Y-2.2673 Z-0.0100
G01 X67.0814 Y-2.2866 Z-0.0100
G01 X67.0832 Y-2.2866 Z-0.0100
G01 X67.7133 Y-2.3062 Z-0.0100
G01 X67.7185 Y-2.3063 Z-0.0100
G01 X67.8302 Y-2.3051 Z-0.0100
G01 X67.8327 Y-2.3051 Z-0.0100
G01 X67.9416 Y-2.3018 Z-0.0100
G01 X67.9443 Y-2.3017 Z-0.0100
G01 X68.0500 Y-2.2962 Z-0.0100
G01 X68.0528 Y-2.2960 Z-0.0100
G01 X68.1553 Y-2.2884 Z-0.0100
G01 X68.1582 Y-2.2881 Z-0.0100
G01 X68.2574 Y-2.2784 Z-0.0100
G01 X68.2605 Y-2.2780 Z-0.0100
G01 X68.3577 Y-2.2660 Z-0.0100
G01 X68.3610 Y-2.2656 Z-0.0100
G01 X68.4549 Y-2.2514 Z-0.0100
G01 X68.4582 Y-2.2509 Z-0.0100
G01 X68.5493 Y-2.2346 Z-0.0100
G01 X68.5529 Y-2.2339 Z-0.0100
G01 X68.6405 Y-2.2157 Z-0.0100
G01 X68.6441 Y-2.2149 Z-0.0100
G01 X68.7293 Y-2.1945 Z-0.0100
G01 X68.7332 Y-2.1935 Z-0.0100
G01 X68.8151 Y-2.1710 Z-0.0100
G01 X68.8190 Y-2.1699 Z-0.0100
G01 X68.8982 Y-2.1455 Z-0.0100
G01 X68.9022 Y-2.1441 Z-0.0100
G01 X68.9795 Y-2.1174 Z-0.0100
G01 X68.9837 Y-2.1158 Z-0.0100
G01 X69.0568 Y-2.0875 Z-0.0100
G01 X69.0610 Y-2.0858 Z-0.0100
G01 X69.1328 Y-2.0550 Z-0.0100
G01 X69.1372 Y-2.0530 Z-0.0100
G01 X69.2058 Y-2.0203 Z-0.0100
G01 X69.2101 Y-2.0181 Z-0.0100
G01 X69.2753 Y-1.9840 Z-0.0100
G01 X69.2796 Y-1.9816 Z-0.0100
G01 X69.3434 Y-1.9449 Z-0.0100
G01 X69.3479 Y-1.9422 Z-0.0100
G01 X69.4084 Y-1.9038 Z-0.0100
G01 X69.4127 Y-1.9011 Z-0.0100
G01 X69.4711 Y-1.8606 Z-0.0100
G01 X69.4755 Y-1.8574 Z-0.0100
G01 X69.5316 Y-1.8149 Z-0.0100
G01 X69.5358 Y-1.8116 Z-0.0100
G01 X69.5894 Y-1.7672 Z-0.0100
G01 X69.5935 Y-1.7637 Z-0.0100
G01 X69.6446 Y-1.7175 Z-0.0100
G01 X69.6485 Y-1.7138 Z-0.0100
G01 X69.6979 Y-1.6652 Z-0.0100
G01 X69.7018 Y-1.6612 Z-0.0100
G01 X69.7489 Y-1.6106 Z-0.0100
G01 X69.7525 Y-1.6066 Z-0.0100
G01 X69.7968 Y-1.5547 Z-0.0100
G01 X69.8001 Y-1.5506 Z-0.0100
G01 X69.8419 Y-1.4973 Z-0.0100
G01 X69.8450 Y-1.4931 Z-0.0100
G01 X69.8864 Y-1.4355 Z-0.0100
G01 X69.8893 Y-1.4312 Z-0.0100
G01 X69.9272 Y-1.3736 Z-0.0100
G01 X69.9300 Y-1.3693 Z-0.0100
G01 X69.9666 Y-1.3083 Z-0.0100
G01 X69.9690 Y-1.3042 Z-0.0100
G01 X70.0027 Y-1.2428 Z-0.0100
G01 X70.0049 Y-1.2387 Z-0.0100
G01 X70.0379 Y-1.1731 Z-0.0100
G01 X70.0399 Y-1.1688 Z-0.0100
G01 X70.0700 Y-1.1029 Z-0.0100
G01 X70.0717 Y-1.0990 Z-0.0100
G01 X70.1002 Y-1.0304 Z-0.0100
G01 X70.1018 Y-1.0264 Z-0.0100
G01 X70.1283 Y-0.9559 Z-0.0100
G01 X70.1296 Y-0.9521 Z-0.0100
G01 X70.1545 Y-0.8788 Z-0.0100
G01 X70.1557 Y-0.8751 Z-0.0100
G01 X70.1785 Y-0.8004 Z-0.0100
G01 X70.1795 Y-0.7969 Z-0.0100
G01 X70.2005 Y-0.7200 Z-0.0100
G01 X70.2014 Y-0.7166 Z-0.0100
G01 X70.2205 Y-0.6380 Z-0.0100
G01 X70.2212 Y-0.6348 Z-0.0100
G01 X70.2385 Y-0.5547 Z-0.0100
G01 X70.2391 Y-0.5515 Z-0.0100
G01 X70.2551 Y-0.4665 Z-0.0100
G01 X70.2556 Y-0.4636 Z-0.0100
G01 X70.2693 Y-0.3795 Z-0.0100
G01 X70.2697 Y-0.3766 Z-0.0100
G01 X70.2820 Y-0.2885 Z-0.0100
G01 X70.2823 Y-0.2859 Z-0.0100
G01 X70.2925 Y-0.1983 Z-0.0100
G01 X70.2928 Y-0.1958 Z-0.0100
G01 X70.3017 Y-0.1031 Z-0.0100
G01 X70.3020 Y-0.1006 Z-0.0100
G01 X70.3089 Y-0.0094 Z-0.0100
G01 X70.3089 Y0.0094 Z-0.0100
G01 X70.3020 Y0.1006 Z-0.0100
G01 X70.3017 Y0.1031 Z-0.0100
G01 X70.2928 Y0.1958 Z-0.0100
G01 X70.2925 Y0.1983 Z-0.0100
G01 X70.2823 Y0.2859 Z-0.0100
G01 X70.2820 Y0.2885 Z-0.0100
G01 X70.2697 Y0.3766 Z-0.0100
G01 X70.2693 Y0.3795 Z-0.0100
G01 X70.2556 Y0.4636 Z-0.0100
G01 X70.2551 Y0.4665 Z-0.0100
G01 X70.2391 Y0.5515 Z-0.0100
G01 X70.2385 Y0.5547 Z-0.0100
G01 X70.2212 Y0.6348 Z-0.0100
G01 X70.2205 Y0.6380 Z-0.0100
G01 X70.2014 Y0.7166 Z-0.0100
G01 X70.2005 Y0.7200 Z-0.0100
G01 X70.1795 Y0.7969 Z-0.0100
G01 X70.1785 Y0.8004 Z-0.0100
G01 X70.1557 Y0.8751 Z-0.0100
G01 X70.1545 Y0.8788 Z-0.0100
G01 X70.1296 Y0.9521 Z-0.0100
G01 X70.1283 Y0.9559 Z-0.0100
G01 X70.1018 Y1.0264 Z-0.0100
G01 X70.1002 Y1.0304 Z-0.0100
G01 X70.0717 Y1.0990 Z-0.0100
G01 X70.0700 Y1.1029 Z-0.0100
G01 X70.0399 Y1.1688 Z-0.0100
G01 X70.0379 Y1.1731 Z-0.0100
G01 X70.0049 Y1.2387 Z-0.0100
G01 X70.0027 Y1.2428 Z-0.0100
G01 X69.9690 Y1.3042 Z-0.0100
G01 X69.9666 Y1.3083 Z-0.0100
G01 X69.9300 Y1.3693 Z-0.0100
G01 X69.9272 Y1.3736 Z-0.0100
G01 X69.8893 Y1.4312 Z-0.0100
G01 X69.8864 Y1.4355 Z-0.0100
G01 X69.8450 Y1.4931 Z-0.0100
G01 X69.8419 Y1.4973 Z-0.0100
G01 X69.8001 Y1.5506 Z-0.0100
G01 X69.7968 Y1.5547 Z-0.0100
G01 X69.7525 Y1.6066 Z-0.0100
G01 X69.7489 Y1.6106 Z-0.0100
G01 X69.7018 Y1.6612 Z-0.0100
G01 X69.6979 Y1.6652 Z-0.0100
G01 X69.6485 Y1.7138 Z-0.0100
G01 X69.6446 Y1.7175 Z-0.0100
G01 X69.5935 Y1.7637 Z-0.0100
G01 X69.5894 Y1.7672 Z-0.0100
G01 X69.5358 Y1.8116 Z-0.0100
G01 X69.5316 Y1.8149 Z-0.0100
G01 X69.4757 Y1.8573 Z-0.0100
G01 X69.4713 Y1.8605 Z-0.0100
G01 X69.4127 Y1.9011 Z-0.0100
G01 X69.4084 Y1.9038 Z-0.0100
G01 X69.3479 Y1.9422 Z-0.0100
G01 X69.3434 Y1.9449 Z-0.0100
G01 X69.2796 Y1.9816 Z-0.0100
G01 X69.2753 Y1.9840 Z-0.0100
G01 X69.2101 Y2.0181 Z-0.0100
G01 X69.2058 Y2.0203 Z-0.0100
G01 X69.1372 Y2.0530 Z-0.0100
G01 X69.1328 Y2.0550 Z-0.0100
G01 X69.0610 Y2.0858 Z-0.0100
G01 X69.0568 Y2.0875 Z-0.0100
G01 X68.9837 Y2.1158 Z-0.0100
G01 X68.9795 Y2.1174 Z-0.0100
G01 X68.9022 Y2.1441 Z-0.0100
G01 X68.8982 Y2.1455 Z-0.0100
G01 X68.8190 Y2.1699 Z-0.0100
G01 X68.8151 Y2.1710 Z-0.0100
G01 X68.7332 Y2.1935 Z-0.0100
G01 X68.7293 Y2.1945 Z-0.0100
G01 X68.6441 Y2.2149 Z-0.0100
G01 X68.6405 Y2.2157 Z-0.0100
G01 X68.5529 Y2.2339 Z-0.0100
G01 X68.5493 Y2.2346 Z-0.0100
G01 X68.4582 Y2.2509 Z-0.0100
G01 X68.4549 Y2.2514 Z-0.0100
G01 X68.3610 Y2.2656 Z-0.0100
G01 X68.3577 Y2.2660 Z-0.0100
G01 X68.2605 Y2.2780 Z-0.0100
G01 X68.2574 Y2.2784 Z-0.0100
G01 X68.1582 Y2.2881 Z-0.0100
G01 X68.1553 Y2.2884 Z-0.0100
G01 X68.0528 Y2.2960 Z-0.0100
G01 X68.0500 Y2.2962 Z-0.0100
G01 X67.9443 Y2.3017 Z-0.0100
G01 X67.9416 Y2.3018 Z-0.0100
G01 X67.8327 Y2.3051 Z-0.0100
G01 X67.8302 Y2.3051 Z-0.0100
G01 X67.7185 Y2.3063 Z-0.0100
G01 X67.7133 Y2.3062 Z-0.0100
G01 X67.0832 Y2.2866 Z-0.0100
G01 X67.0814 Y2.2866 Z-0.0100
G01 X66.4477 Y2.2673 Z-0.0100
G01 X65.8140 Y2.2485 Z-0.0100
G01 X65.1803 Y2.2302 Z-0.0100
G01 X64.5465 Y2.2123 Z-0.0100
G01 X63.9128 Y2.1949 Z-0.0100
G01 X63.2791 Y2.1779 Z-0.0100
G01 X62.6453 Y2.1614 Z-0.0100
G01 X62.0116 Y2.1453 Z-0.0100
G01 X61.3778 Y2.1297 Z-0.0100
G01 X60.7440 Y2.1145 Z-0.0100
G01 X60.1102 Y2.0998 Z-0.0100
G01 X59.4764 Y2.0855 Z-0.0100
G01 X59.4728 Y2.0854 Z-0.0100
G01 X58.8426 Y2.0717 Z-0.0100
G01 X58.2088 Y2.0583 Z-0.0100
G01 X57.5750 Y2.0454 Z-0.0100
G01 X56.9411 Y2.0330 Z-0.0100
G01 X56.3072 Y2.0210 Z-0.0100
G01 X55.6755 Y2.0095 Z-0.0100
G01 X55.6734 Y2.0095 Z-0.0100
G01 X55.0395 Y1.9984 Z-0.0100
G01 X54.4057 Y1.9878 Z-0.0100
G01 X53.7718 Y1.9776 Z-0.0100
G01 X53.1379 Y1.9679 Z-0.0100
G01 X52.5039 Y1.9586 Z-0.0100
G01 X51.8701 Y1.9498 Z-0.0100
G01 X51.2361 Y1.9414 Z-0.0100
G01 X50.6022 Y1.9335 Z-0.0100
G01 X49.9683 Y1.9261 Z-0.0100
G01 X49.3344 Y1.9191 Z-0.0100
G01 X48.7005 Y1.9125 Z-0.0100
G01 X48.0665 Y1.9064 Z-0.0100
G01 X47.4326 Y1.9008 Z-0.0100
G01 X46.7986 Y1.8956 Z-0.0100
G01 X46.1647 Y1.8909 Z-0.0100
G01 X45.5307 Y1.8866 Z-0.0100
G01 X44.8968 Y1.8828 Z-0.0100
G01 X44.2628 Y1.8794 Z-0.0100
G01 X43.6288 Y1.8765 Z-0.0100
G01 X42.9949 Y1.8740 Z-0.0100
G01 X42.3609 Y1.8720 Z-0.0100
G01 X41.7270 Y1.8705 Z-0.0100
G01 X41.0929 Y1.8694 Z-0.0100
G01 X40.4590 Y1.8687 Z-0.0100
G01 X39.8251 Y1.8685 Z-0.0100
G01 X39.1912 Y1.8688 Z-0.0100
G01 X38.5572 Y1.8695 Z-0.0100
G01 X37.9232 Y1.8707 Z-0.0100
G01 X37.2892 Y1.8723 Z-0.0100
G01 X36.6553 Y1.8744 Z-0.0100
G01 X36.0213 Y1.8769 Z-0.0100
G01 X35.3873 Y1.8799 Z-0.0100
G01 X34.7534 Y1.8833 Z-0.0100
G01 X34.1194 Y1.8872 Z-0.0100
G01 X33.4855 Y1.8916 Z-0.0100
G01 X32.8515 Y1.8964 Z-0.0100
G01 X32.2176 Y1.9016 Z-0.0100
G01 X31.5837 Y1.9073 Z-0.0100
G01 X30.9497 Y1.9135 Z-0.0100
G01 X30.3158 Y1.9201 Z-0.0100
G01 X29.6818 Y1.9272 Z-0.0100
G01 X29.0479 Y1.9347 Z-0.0100
G01 X28.4140 Y1.9427 Z-0.0100
G01 X27.7801 Y1.9511 Z-0.0100
G01 X27.1462 Y1.9600 Z-0.0100
G01 X26.5123 Y1.9693 Z-0.0100
G01 X25.8784 Y1.9791 Z-0.0100
G01 X25.2445 Y1.9893 Z-0.0100
G01 X24.6107 Y2.0000 Z-0.0100
G01 X23.9768 Y2.0112 Z-0.0100
G01 X23.9746 Y2.0112 Z-0.0100
G01 X23.3429 Y2.0227 Z-0.0100
G01 X22.7091 Y2.0348 Z-0.0100
G01 X22.0752 Y2.0473 Z-0.0100
G01 X21.4414 Y2.0603 Z-0.0100
G01 X20.8075 Y2.0737 Z-0.0100
G01 X20.1775 Y2.0875 Z-0.0100
G01 X20.1738 Y2.0876 Z-0.0100
G01 X19.5400 Y2.1019 Z-0.0100
G01 X18.9061 Y2.1167 Z-0.0100
G01 X18.2724 Y2.1320 Z-0.0100
G01 X17.6386 Y2.1476 Z-0.0100
G01 X17.0048 Y2.1638 Z-0.0100
G01 X16.3711 Y2.1803 Z-0.0100
G01 X15.7374 Y2.1974 Z-0.0100
G01 X15.1036 Y2.2149 Z-0.0100
G01 X14.4699 Y2.2329 Z-0.0100
G01 X13.8362 Y2.2513 Z-0.0100
G01 X13.2025 Y2.2701 Z-0.0100
G01 X12.5688 Y2.2894 Z-0.0100
G01 X12.5670 Y2.2894 Z-0.0100
G01 X11.9352 Y2.3092 Z-0.0100
G01 X11.3016 Y2.3294 Z-0.0100
G01 X10.6679 Y2.3501 Z-0.0100
G01 X10.0343 Y2.3712 Z-0.0100
G01 X9.4007 Y2.3928 Z-0.0100
G01 X8.7672 Y2.4148 Z-0.0100
G01 X8.1336 Y2.4373 Z-0.0100
G01 X7.5000 Y2.4603 Z-0.0100
G01 X6.8665 Y2.4837 Z-0.0100
G01 X6.2329 Y2.5075 Z-0.0100
G01 X5.6020 Y2.5317 Z-0.0100
G01 X5.5995 Y2.5318 Z-0.0100
G01 X4.9659 Y2.5566 Z-0.0100
G01 X4.9643 Y2.5566 Z-0.0100
G01 X4.3347 Y2.5817 Z-0.0100
G01 X4.3289 Y2.5818 Z-0.0100
G01 X4.1391 Y2.5805 Z-0.0100
G01 X4.1374 Y2.5805 Z-0.0100
G01 X3.9503 Y2.5766 Z-0.0100
G01 X3.9485 Y2.5766 Z-0.0100
G01 X3.7675 Y2.5703 Z-0.0100
G01 X3.7657 Y2.5702 Z-0.0100
G01 X3.5911 Y2.5614 Z-0.0100
G01 X3.5875 Y2.5612 Z-0.0100
G01 X3.5863 Y2.5611 Z-0.0100
G01 X3.4170 Y2.5499 Z-0.0100
G01 X3.4150 Y2.5497 Z-0.0100
G01 X3.2504 Y2.5360 Z-0.0100
G01 X3.2481 Y2.5358 Z-0.0100
G01 X3.0870 Y2.5195 Z-0.0100
G01 X3.0848 Y2.5192 Z-0.0100
G01 X2.9288 Y2.5005 Z-0.0100
G01 X2.9264 Y2.5002 Z-0.0100
G01 X2.7755 Y2.4790 Z-0.0100
G01 X2.7731 Y2.4787 Z-0.0100
G01 X2.6257 Y2.4550 Z-0.0100
G01 X2.6230 Y2.4545 Z-0.0100
G01 X2.4832 Y2.4289 Z-0.0100
G01 X2.4805 Y2.4283 Z-0.0100
G01 X2.3419 Y2.3997 Z-0.0100
G01 X2.3390 Y2.3990 Z-0.0100
G01 X2.2078 Y2.3687 Z-0.0100
G01 X2.2048 Y2.3679 Z-0.0100
G01 X2.0781 Y2.3351 Z-0.0100
G01 X2.0750 Y2.3343 Z-0.0100
G01 X1.9511 Y2.2988 Z-0.0100
G01 X1.9478 Y2.2978 Z-0.0100
G01 X1.8285 Y2.2600 Z-0.0100
G01 X1.8251 Y2.2589 Z-0.0100
G01 X1.7118 Y2.2194 Z-0.0100
G01 X1.7082 Y2.2181 Z-0.0100
G01 X1.5995 Y2.1764 Z-0.0100
G01 X1.5958 Y2.1749 Z-0.0100
G01 X1.4891 Y2.1300 Z-0.0100
G01 X1.4854 Y2.1284 Z-0.0100
G01 X1.3853 Y2.0824 Z-0.0100
G01 X1.3813 Y2.0805 Z-0.0100
G01 X1.2838 Y2.0315 Z-0.0100
G01 X1.2800 Y2.0295 Z-0.0100
G01 X1.1879 Y1.9791 Z-0.0100
G01 X1.1838 Y1.9768 Z-0.0100
G01 X1.0955 Y1.9240 Z-0.0100
G01 X1.0914 Y1.9215 Z-0.0100
G01 X1.0063 Y1.8661 Z-0.0100
G01 X1.0023 Y1.8634 Z-0.0100
G01 X0.9224 Y1.8068 Z-0.0100
G01 X0.9183 Y1.8038 Z-0.0100
G01 X0.8408 Y1.7440 Z-0.0100
G01 X0.8368 Y1.7408 Z-0.0100
G01 X0.7637 Y1.6794 Z-0.0100
G01 X0.7597 Y1.6759 Z-0.0100
G01 X0.6916 Y1.6136 Z-0.0100
G01 X0.6877 Y1.6099 Z-0.0100
G01 X0.6211 Y1.5434 Z-0.0100
G01 X0.6172 Y1.5394 Z-0.0100
G01 X0.5564 Y1.4731 Z-0.0100
G01 X0.5528 Y1.4691 Z-0.0100
G01 X0.4940 Y1.3991 Z-0.0100
G01 X0.4905 Y1.3947 Z-0.0100
G01 X0.4356 Y1.3232 Z-0.0100
G01 X0.4324 Y1.3188 Z-0.0100
G01 X0.3811 Y1.2457 Z-0.0100
G01 X0.3781 Y1.2411 Z-0.0100
G01 X0.3300 Y1.1654 Z-0.0100
G01 X0.3272 Y1.1609 Z-0.0100
G01 X0.2822 Y1.0829 Z-0.0100
G01 X0.2796 Y1.0783 Z-0.0100
G01 X0.2380 Y0.9986 Z-0.0100
G01 X0.2357 Y0.9939 Z-0.0100
G01 X0.1974 Y0.9123 Z-0.0100
G01 X0.1953 Y0.9076 Z-0.0100
G01 X0.1601 Y0.8241 Z-0.0100
G01 X0.1583 Y0.8196 Z-0.0100
G01 X0.1260 Y0.7333 Z-0.0100
G01 X0.1244 Y0.7287 Z-0.0100
G01 X0.0948 Y0.6396 Z-0.0100
G01 X0.0935 Y0.6352 Z-0.0100
G01 X0.0675 Y0.5461 Z-0.0100
G01 X0.0663 Y0.5418 Z-0.0100
G01 X0.0429 Y0.4488 Z-0.0100
G01 X0.0419 Y0.4446 Z-0.0100
G01 X0.0217 Y0.3510 Z-0.0100
G01 X0.0209 Y0.3470 Z-0.0100
G01 X0.0032 Y0.2500 Z-0.0100
G01 X0.0026 Y0.2460 Z-0.0100
G01 X-0.0120 Y0.1478 Z-0.0100
G01 X-0.0125 Y0.1440 Z-0.0100
G01 X-0.0244 Y0.0437 Z-0.0100
G01 X-0.0248 Y0.0403 Z-0.0100
G01 X-0.0274 Y0.0112 Z-0.0100
G01 X-0.0277 Y0.0075 Z-0.0100
G01 X-0.0279 Y0.0037 Z-0.0100
G01 X-0.0279 Y0.0000 Z-0.0100
G00 X-0.0279 Y0.0000 Z0.2500
M05
G00 X0.0000 Y0.0000 Z0.2500
G49
G01 G55 Z0 F20
G00 G55 X0 Y0 Z0
M30
