( Sample-splitboard-core-insert-holes.nc                                       )
( Generated by MonkeyCAM v4.0.6 master@6e00d93                                 )
(   at 2018-03-07 15:09:35 PST                                                 )
(                                                                              )
( This GCode program is provided on an "AS IS" BASIS WITHOUT WARRANTIES OR     )
( CONDITIONS OF ANY KIND, either express or implied. You should inspect this   )
( program very carefully to confirm you understand its operation. YOU ARE      )
( RESPONSIBLE FOR ENSURING THIS PROGRAM WILL NOT DAMAGE YOUR MACHINE OR        )
( MATERIALS.                                                                   )
(                                                                              )
( See http://www.github.com/mikemag/MonkeyCAM for License and documentation.   )
(                                                                              )
( * Rapid height: 0.2000" [0.5080cm]                                           )
( * Tool: T1, Quarter Inch Upcut Spiral, diameter 0.2469" [0.6273cm]           )
( * Height baseline [Z=0.0] is the top of the material.                        )
( * XY origin is the left side of the table, Y is center of the part.          )
( * Requires G54 to be the part work coordinate offsets [WCO]. [0, 0] is the   )
(   center of the nose, with the board extending to positive X. The cutter may )
(   move to negative values of X.                                              )
( * Requires G55 to be the machine WCO, with Z above the rapid height.         )
( * Units are inches                                                           )
( * Center of the board in G54:                                                )
(     X=33.8582 Y=0.0000 Z=0.0000                                              )
( * Cutter bounding box in G54:                                                )
(     X0.0000 Y-4.1602 Z-0.4200 to X47.6333 Y4.1602 Z0.2000                    )

G90 G20 G17 G40 G49
G43 H1 T1
G00 G54 X0 Y0 Z0.2000

M03
G04 P5
G00 X21.9094 Y-1.7374 Z0.2000
( A single insert                                                              )
(   Outer rim diameter = 0.7500"                                               )
(   Outer rim depth    = -0.0450"                                              )
(   Shaft diameter      = 0.3729"                                              )
(   Shaft depth         = -0.4200"                                             )
G01 X21.9094 Y-1.7374 Z0.0000 F80
G91
G01 X0.0000 Y0.2514 Z-0.0450
G02 X0.2514 Y-0.2514 Z0.0000 R0.2514
G02 X-0.2514 Y-0.2514 Z0.0000 R0.2514
G02 X-0.2514 Y0.2514 Z0.0000 R0.2514
G02 X0.2514 Y0.2514 Z0.0000 R0.2514
G01 X0.0000 Y-0.0285 Z-0.0069
G02 X0.2229 Y-0.2229 Z0.0000 R0.2229
G02 X-0.2229 Y-0.2229 Z0.0000 R0.2229
G02 X-0.2229 Y0.2229 Z0.0000 R0.2229
G02 X0.2229 Y0.2229 Z0.0000 R0.2229
G01 X0.0000 Y-0.0261 Z-0.0064
G02 X0.1966 Y-0.1966 Z0.0000 R0.1966
G02 X-0.1966 Y-0.1966 Z0.0000 R0.1966
G02 X-0.1966 Y0.1966 Z0.0000 R0.1966
G02 X0.1966 Y0.1966 Z0.0000 R0.1966
G01 X0.0000 Y-0.0262 Z-0.0058
G02 X0.1703 Y-0.1703 Z0.0000 R0.1703
G02 X-0.1703 Y-0.1703 Z0.0000 R0.1703
G02 X-0.1703 Y0.1703 Z0.0000 R0.1703
G02 X0.1703 Y0.1703 Z0.0000 R0.1703
G01 X0.0000 Y-0.0264 Z-0.0053
G02 X0.1438 Y-0.1438 Z0.0000 R0.1438
G02 X-0.1438 Y-0.1438 Z0.0000 R0.1438
G02 X-0.1438 Y0.1438 Z0.0000 R0.1438
G02 X0.1438 Y0.1438 Z0.0000 R0.1438
G01 X0.0000 Y-0.0264 Z-0.0048
G02 X0.1174 Y-0.1174 Z0.0000 R0.1174
G02 X-0.1174 Y-0.1174 Z0.0000 R0.1174
G02 X-0.1174 Y0.1174 Z0.0000 R0.1174
G02 X0.1174 Y0.1174 Z0.0000 R0.1174
G01 X0.0000 Y-0.0266 Z-0.0043
G02 X0.0907 Y-0.0907 Z0.0000 R0.0907
G02 X-0.0907 Y-0.0907 Z0.0000 R0.0907
G02 X-0.0907 Y0.0907 Z0.0000 R0.0907
G02 X0.0907 Y0.0907 Z0.0000 R0.0907
G01 X0.0000 Y-0.0266 Z-0.0038
G02 X0.0640 Y-0.0640 Z0.0000 R0.0640
G02 X-0.0640 Y-0.0640 Z0.0000 R0.0640
G02 X-0.0640 Y0.0640 Z0.0000 R0.0640
G02 X0.0640 Y0.0640 Z0.0000 R0.0640
G90
G01 X21.9094 Y-1.7374 Z0.0000
( Incremental hole: depth = -0.4200, diameter = 0.3729                         )
G91
G01 X0.0000 Y0.0629 Z0.0000
G01 X0.0000 Y0.0000 Z-0.1400
G02 X0.0629 Y-0.0629 Z0.0000 R0.0629
G02 X-0.0629 Y-0.0629 Z0.0000 R0.0629
G02 X-0.0629 Y0.0629 Z0.0000 R0.0629
G02 X0.0629 Y0.0629 Z0.0000 R0.0629
G01 X0.0000 Y0.0000 Z-0.1400
G02 X0.0629 Y-0.0629 Z0.0000 R0.0629
G02 X-0.0629 Y-0.0629 Z0.0000 R0.0629
G02 X-0.0629 Y0.0629 Z0.0000 R0.0629
G02 X0.0629 Y0.0629 Z0.0000 R0.0629
G01 X0.0000 Y0.0000 Z-0.1400
G02 X0.0629 Y-0.0629 Z0.0000 R0.0629
G02 X-0.0629 Y-0.0629 Z0.0000 R0.0629
G02 X-0.0629 Y0.0629 Z0.0000 R0.0629
G02 X0.0629 Y0.0629 Z0.0000 R0.0629
G02 X0.0629 Y-0.0629 Z0.0000 R0.0629
G02 X-0.0629 Y-0.0629 Z0.0000 R0.0629
G02 X-0.0629 Y0.0629 Z0.0000 R0.0629
G02 X0.0629 Y0.0629 Z0.0000 R0.0629
G02 X0.0629 Y-0.0629 Z0.0000 R0.0629
G02 X-0.0629 Y-0.0629 Z0.0000 R0.0629
G02 X-0.0629 Y0.0629 Z0.0000 R0.0629
G02 X0.0629 Y0.0629 Z0.0000 R0.0629
G02 X0.0629 Y-0.0629 Z0.0000 R0.0629
G02 X-0.0629 Y-0.0629 Z0.0000 R0.0629
G02 X-0.0629 Y0.0629 Z0.0000 R0.0629
G02 X0.0629 Y0.0629 Z0.0000 R0.0629
G01 X0.0000 Y-0.0629 Z0.0000
G90
G01 X21.9094 Y-1.7374 Z0.0000
G91
G01 X0.0000 Y0.2514 Z-0.0450
G02 X0.2514 Y-0.2514 Z0.0000 R0.2514
G02 X-0.2514 Y-0.2514 Z0.0000 R0.2514
G02 X-0.2514 Y0.2514 Z0.0000 R0.2514
G02 X0.2514 Y0.2514 Z0.0000 R0.2514
G01 X0.0000 Y-0.0285 Z-0.0069
G02 X0.2229 Y-0.2229 Z0.0000 R0.2229
G02 X-0.2229 Y-0.2229 Z0.0000 R0.2229
G02 X-0.2229 Y0.2229 Z0.0000 R0.2229
G02 X0.2229 Y0.2229 Z0.0000 R0.2229
G01 X0.0000 Y-0.0261 Z-0.0064
G02 X0.1966 Y-0.1966 Z0.0000 R0.1966
G02 X-0.1966 Y-0.1966 Z0.0000 R0.1966
G02 X-0.1966 Y0.1966 Z0.0000 R0.1966
G02 X0.1966 Y0.1966 Z0.0000 R0.1966
G01 X0.0000 Y-0.0262 Z-0.0058
G02 X0.1703 Y-0.1703 Z0.0000 R0.1703
G02 X-0.1703 Y-0.1703 Z0.0000 R0.1703
G02 X-0.1703 Y0.1703 Z0.0000 R0.1703
G02 X0.1703 Y0.1703 Z0.0000 R0.1703
G01 X0.0000 Y-0.0264 Z-0.0053
G02 X0.1438 Y-0.1438 Z0.0000 R0.1438
G02 X-0.1438 Y-0.1438 Z0.0000 R0.1438
G02 X-0.1438 Y0.1438 Z0.0000 R0.1438
G02 X0.1438 Y0.1438 Z0.0000 R0.1438
G01 X0.0000 Y-0.0264 Z-0.0048
G02 X0.1174 Y-0.1174 Z0.0000 R0.1174
G02 X-0.1174 Y-0.1174 Z0.0000 R0.1174
G02 X-0.1174 Y0.1174 Z0.0000 R0.1174
G02 X0.1174 Y0.1174 Z0.0000 R0.1174
G01 X0.0000 Y-0.0266 Z-0.0043
G02 X0.0907 Y-0.0907 Z0.0000 R0.0907
G02 X-0.0907 Y-0.0907 Z0.0000 R0.0907
G02 X-0.0907 Y0.0907 Z0.0000 R0.0907
G02 X0.0907 Y0.0907 Z0.0000 R0.0907
G01 X0.0000 Y-0.0266 Z-0.0038
G02 X0.0640 Y-0.0640 Z0.0000 R0.0640
G02 X-0.0640 Y-0.0640 Z0.0000 R0.0640
G02 X-0.0640 Y0.0640 Z0.0000 R0.0640
G02 X0.0640 Y0.0640 Z0.0000 R0.0640
G90
G00 X21.9094 Y-1.6734 Z0.2000
G00 X21.9094 Y-1.7374 Z0.2000
G00 X21.9094 Y1.7374 Z0.2000
( A single insert                                                              )
(   Outer rim diameter = 0.7500"                                               )
(   Outer rim depth    = -0.0450"                                              )
(   Shaft diameter      = 0.3729"                                              )
(   Shaft depth         = -0.4200"                                             )
G01 X21.9094 Y1.7374 Z0.0000
G91
G01 X0.0000 Y0.2514 Z-0.0450
G02 X0.2514 Y-0.2514 Z0.0000 R0.2514
G02 X-0.2514 Y-0.2514 Z0.0000 R0.2514
G02 X-0.2514 Y0.2514 Z0.0000 R0.2514
G02 X0.2514 Y0.2514 Z0.0000 R0.2514
G01 X0.0000 Y-0.0285 Z-0.0069
G02 X0.2229 Y-0.2229 Z0.0000 R0.2229
G02 X-0.2229 Y-0.2229 Z0.0000 R0.2229
G02 X-0.2229 Y0.2229 Z0.0000 R0.2229
G02 X0.2229 Y0.2229 Z0.0000 R0.2229
G01 X0.0000 Y-0.0261 Z-0.0064
G02 X0.1966 Y-0.1966 Z0.0000 R0.1966
G02 X-0.1966 Y-0.1966 Z0.0000 R0.1966
G02 X-0.1966 Y0.1966 Z0.0000 R0.1966
G02 X0.1966 Y0.1966 Z0.0000 R0.1966
G01 X0.0000 Y-0.0262 Z-0.0058
G02 X0.1703 Y-0.1703 Z0.0000 R0.1703
G02 X-0.1703 Y-0.1703 Z0.0000 R0.1703
G02 X-0.1703 Y0.1703 Z0.0000 R0.1703
G02 X0.1703 Y0.1703 Z0.0000 R0.1703
G01 X0.0000 Y-0.0264 Z-0.0053
G02 X0.1438 Y-0.1438 Z0.0000 R0.1438
G02 X-0.1438 Y-0.1438 Z0.0000 R0.1438
G02 X-0.1438 Y0.1438 Z0.0000 R0.1438
G02 X0.1438 Y0.1438 Z0.0000 R0.1438
G01 X0.0000 Y-0.0264 Z-0.0048
G02 X0.1174 Y-0.1174 Z0.0000 R0.1174
G02 X-0.1174 Y-0.1174 Z0.0000 R0.1174
G02 X-0.1174 Y0.1174 Z0.0000 R0.1174
G02 X0.1174 Y0.1174 Z0.0000 R0.1174
G01 X0.0000 Y-0.0266 Z-0.0043
G02 X0.0907 Y-0.0907 Z0.0000 R0.0907
G02 X-0.0907 Y-0.0907 Z0.0000 R0.0907
G02 X-0.0907 Y0.0907 Z0.0000 R0.0907
G02 X0.0907 Y0.0907 Z0.0000 R0.0907
G01 X0.0000 Y-0.0266 Z-0.0038
G02 X0.0640 Y-0.0640 Z0.0000 R0.0640
G02 X-0.0640 Y-0.0640 Z0.0000 R0.0640
G02 X-0.0640 Y0.0640 Z0.0000 R0.0640
G02 X0.0640 Y0.0640 Z0.0000 R0.0640
G90
G01 X21.9094 Y1.7374 Z0.0000
( Incremental hole: depth = -0.4200, diameter = 0.3729                         )
G91
G01 X0.0000 Y0.0629 Z0.0000
G01 X0.0000 Y0.0000 Z-0.1400
G02 X0.0629 Y-0.0629 Z0.0000 R0.0629
G02 X-0.0629 Y-0.0629 Z0.0000 R0.0629
G02 X-0.0629 Y0.0629 Z0.0000 R0.0629
G02 X0.0629 Y0.0629 Z0.0000 R0.0629
G01 X0.0000 Y0.0000 Z-0.1400
G02 X0.0629 Y-0.0629 Z0.0000 R0.0629
G02 X-0.0629 Y-0.0629 Z0.0000 R0.0629
G02 X-0.0629 Y0.0629 Z0.0000 R0.0629
G02 X0.0629 Y0.0629 Z0.0000 R0.0629
G01 X0.0000 Y0.0000 Z-0.1400
G02 X0.0629 Y-0.0629 Z0.0000 R0.0629
G02 X-0.0629 Y-0.0629 Z0.0000 R0.0629
G02 X-0.0629 Y0.0629 Z0.0000 R0.0629
G02 X0.0629 Y0.0629 Z0.0000 R0.0629
G02 X0.0629 Y-0.0629 Z0.0000 R0.0629
G02 X-0.0629 Y-0.0629 Z0.0000 R0.0629
G02 X-0.0629 Y0.0629 Z0.0000 R0.0629
G02 X0.0629 Y0.0629 Z0.0000 R0.0629
G02 X0.0629 Y-0.0629 Z0.0000 R0.0629
G02 X-0.0629 Y-0.0629 Z0.0000 R0.0629
G02 X-0.0629 Y0.0629 Z0.0000 R0.0629
G02 X0.0629 Y0.0629 Z0.0000 R0.0629
G02 X0.0629 Y-0.0629 Z0.0000 R0.0629
G02 X-0.0629 Y-0.0629 Z0.0000 R0.0629
G02 X-0.0629 Y0.0629 Z0.0000 R0.0629
G02 X0.0629 Y0.0629 Z0.0000 R0.0629
G01 X0.0000 Y-0.0629 Z0.0000
G90
G01 X21.9094 Y1.7374 Z0.0000
G91
G01 X0.0000 Y0.2514 Z-0.0450
G02 X0.2514 Y-0.2514 Z0.0000 R0.2514
G02 X-0.2514 Y-0.2514 Z0.0000 R0.2514
G02 X-0.2514 Y0.2514 Z0.0000 R0.2514
G02 X0.2514 Y0.2514 Z0.0000 R0.2514
G01 X0.0000 Y-0.0285 Z-0.0069
G02 X0.2229 Y-0.2229 Z0.0000 R0.2229
G02 X-0.2229 Y-0.2229 Z0.0000 R0.2229
G02 X-0.2229 Y0.2229 Z0.0000 R0.2229
G02 X0.2229 Y0.2229 Z0.0000 R0.2229
G01 X0.0000 Y-0.0261 Z-0.0064
G02 X0.1966 Y-0.1966 Z0.0000 R0.1966
G02 X-0.1966 Y-0.1966 Z0.0000 R0.1966
G02 X-0.1966 Y0.1966 Z0.0000 R0.1966
G02 X0.1966 Y0.1966 Z0.0000 R0.1966
G01 X0.0000 Y-0.0262 Z-0.0058
G02 X0.1703 Y-0.1703 Z0.0000 R0.1703
G02 X-0.1703 Y-0.1703 Z0.0000 R0.1703
G02 X-0.1703 Y0.1703 Z0.0000 R0.1703
G02 X0.1703 Y0.1703 Z0.0000 R0.1703
G01 X0.0000 Y-0.0264 Z-0.0053
G02 X0.1438 Y-0.1438 Z0.0000 R0.1438
G02 X-0.1438 Y-0.1438 Z0.0000 R0.1438
G02 X-0.1438 Y0.1438 Z0.0000 R0.1438
G02 X0.1438 Y0.1438 Z0.0000 R0.1438
G01 X0.0000 Y-0.0264 Z-0.0048
G02 X0.1174 Y-0.1174 Z0.0000 R0.1174
G02 X-0.1174 Y-0.1174 Z0.0000 R0.1174
G02 X-0.1174 Y0.1174 Z0.0000 R0.1174
G02 X0.1174 Y0.1174 Z0.0000 R0.1174
G01 X0.0000 Y-0.0266 Z-0.0043
G02 X0.0907 Y-0.0907 Z0.0000 R0.0907
G02 X-0.0907 Y-0.0907 Z0.0000 R0.0907
G02 X-0.0907 Y0.0907 Z0.0000 R0.0907
G02 X0.0907 Y0.0907 Z0.0000 R0.0907
G01 X0.0000 Y-0.0266 Z-0.0038
G02 X0.0640 Y-0.0640 Z0.0000 R0.0640
G02 X-0.0640 Y-0.0640 Z0.0000 R0.0640
G02 X-0.0640 Y0.0640 Z0.0000 R0.0640
G02 X0.0640 Y0.0640 Z0.0000 R0.0640
G90
G00 X21.9094 Y1.8015 Z0.2000
G00 X21.9094 Y1.7374 Z0.2000
G00 X22.9094 Y-1.7374 Z0.2000
( A single insert                                                              )
(   Outer rim diameter = 0.7500"                                               )
(   Outer rim depth    = -0.0450"                                              )
(   Shaft diameter      = 0.3729"                                              )
(   Shaft depth         = -0.4200"                                             )
G01 X22.9094 Y-1.7374 Z0.0000
G91
G01 X0.0000 Y0.2514 Z-0.0450
G02 X0.2514 Y-0.2514 Z0.0000 R0.2514
G02 X-0.2514 Y-0.2514 Z0.0000 R0.2514
G02 X-0.2514 Y0.2514 Z0.0000 R0.2514
G02 X0.2514 Y0.2514 Z0.0000 R0.2514
G01 X0.0000 Y-0.0285 Z-0.0069
G02 X0.2229 Y-0.2229 Z0.0000 R0.2229
G02 X-0.2229 Y-0.2229 Z0.0000 R0.2229
G02 X-0.2229 Y0.2229 Z0.0000 R0.2229
G02 X0.2229 Y0.2229 Z0.0000 R0.2229
G01 X0.0000 Y-0.0261 Z-0.0064
G02 X0.1966 Y-0.1966 Z0.0000 R0.1966
G02 X-0.1966 Y-0.1966 Z0.0000 R0.1966
G02 X-0.1966 Y0.1966 Z0.0000 R0.1966
G02 X0.1966 Y0.1966 Z0.0000 R0.1966
G01 X0.0000 Y-0.0262 Z-0.0058
G02 X0.1703 Y-0.1703 Z0.0000 R0.1703
G02 X-0.1703 Y-0.1703 Z0.0000 R0.1703
G02 X-0.1703 Y0.1703 Z0.0000 R0.1703
G02 X0.1703 Y0.1703 Z0.0000 R0.1703
G01 X0.0000 Y-0.0264 Z-0.0053
G02 X0.1438 Y-0.1438 Z0.0000 R0.1438
G02 X-0.1438 Y-0.1438 Z0.0000 R0.1438
G02 X-0.1438 Y0.1438 Z0.0000 R0.1438
G02 X0.1438 Y0.1438 Z0.0000 R0.1438
G01 X0.0000 Y-0.0264 Z-0.0048
G02 X0.1174 Y-0.1174 Z0.0000 R0.1174
G02 X-0.1174 Y-0.1174 Z0.0000 R0.1174
G02 X-0.1174 Y0.1174 Z0.0000 R0.1174
G02 X0.1174 Y0.1174 Z0.0000 R0.1174
G01 X0.0000 Y-0.0266 Z-0.0043
G02 X0.0907 Y-0.0907 Z0.0000 R0.0907
G02 X-0.0907 Y-0.0907 Z0.0000 R0.0907
G02 X-0.0907 Y0.0907 Z0.0000 R0.0907
G02 X0.0907 Y0.0907 Z0.0000 R0.0907
G01 X0.0000 Y-0.0266 Z-0.0038
G02 X0.0640 Y-0.0640 Z0.0000 R0.0640
G02 X-0.0640 Y-0.0640 Z0.0000 R0.0640
G02 X-0.0640 Y0.0640 Z0.0000 R0.0640
G02 X0.0640 Y0.0640 Z0.0000 R0.0640
G90
G01 X22.9094 Y-1.7374 Z0.0000
( Incremental hole: depth = -0.4200, diameter = 0.3729                         )
G91
G01 X0.0000 Y0.0629 Z0.0000
G01 X0.0000 Y0.0000 Z-0.1400
G02 X0.0629 Y-0.0629 Z0.0000 R0.0629
G02 X-0.0629 Y-0.0629 Z0.0000 R0.0629
G02 X-0.0629 Y0.0629 Z0.0000 R0.0629
G02 X0.0629 Y0.0629 Z0.0000 R0.0629
G01 X0.0000 Y0.0000 Z-0.1400
G02 X0.0629 Y-0.0629 Z0.0000 R0.0629
G02 X-0.0629 Y-0.0629 Z0.0000 R0.0629
G02 X-0.0629 Y0.0629 Z0.0000 R0.0629
G02 X0.0629 Y0.0629 Z0.0000 R0.0629
G01 X0.0000 Y0.0000 Z-0.1400
G02 X0.0629 Y-0.0629 Z0.0000 R0.0629
G02 X-0.0629 Y-0.0629 Z0.0000 R0.0629
G02 X-0.0629 Y0.0629 Z0.0000 R0.0629
G02 X0.0629 Y0.0629 Z0.0000 R0.0629
G02 X0.0629 Y-0.0629 Z0.0000 R0.0629
G02 X-0.0629 Y-0.0629 Z0.0000 R0.0629
G02 X-0.0629 Y0.0629 Z0.0000 R0.0629
G02 X0.0629 Y0.0629 Z0.0000 R0.0629
G02 X0.0629 Y-0.0629 Z0.0000 R0.0629
G02 X-0.0629 Y-0.0629 Z0.0000 R0.0629
G02 X-0.0629 Y0.0629 Z0.0000 R0.0629
G02 X0.0629 Y0.0629 Z0.0000 R0.0629
G02 X0.0629 Y-0.0629 Z0.0000 R0.0629
G02 X-0.0629 Y-0.0629 Z0.0000 R0.0629
G02 X-0.0629 Y0.0629 Z0.0000 R0.0629
G02 X0.0629 Y0.0629 Z0.0000 R0.0629
G01 X0.0000 Y-0.0629 Z0.0000
G90
G01 X22.9094 Y-1.7374 Z0.0000
G91
G01 X0.0000 Y0.2514 Z-0.0450
G02 X0.2514 Y-0.2514 Z0.0000 R0.2514
G02 X-0.2514 Y-0.2514 Z0.0000 R0.2514
G02 X-0.2514 Y0.2514 Z0.0000 R0.2514
G02 X0.2514 Y0.2514 Z0.0000 R0.2514
G01 X0.0000 Y-0.0285 Z-0.0069
G02 X0.2229 Y-0.2229 Z0.0000 R0.2229
G02 X-0.2229 Y-0.2229 Z0.0000 R0.2229
G02 X-0.2229 Y0.2229 Z0.0000 R0.2229
G02 X0.2229 Y0.2229 Z0.0000 R0.2229
G01 X0.0000 Y-0.0261 Z-0.0064
G02 X0.1966 Y-0.1966 Z0.0000 R0.1966
G02 X-0.1966 Y-0.1966 Z0.0000 R0.1966
G02 X-0.1966 Y0.1966 Z0.0000 R0.1966
G02 X0.1966 Y0.1966 Z0.0000 R0.1966
G01 X0.0000 Y-0.0262 Z-0.0058
G02 X0.1703 Y-0.1703 Z0.0000 R0.1703
G02 X-0.1703 Y-0.1703 Z0.0000 R0.1703
G02 X-0.1703 Y0.1703 Z0.0000 R0.1703
G02 X0.1703 Y0.1703 Z0.0000 R0.1703
G01 X0.0000 Y-0.0264 Z-0.0053
G02 X0.1438 Y-0.1438 Z0.0000 R0.1438
G02 X-0.1438 Y-0.1438 Z0.0000 R0.1438
G02 X-0.1438 Y0.1438 Z0.0000 R0.1438
G02 X0.1438 Y0.1438 Z0.0000 R0.1438
G01 X0.0000 Y-0.0264 Z-0.0048
G02 X0.1174 Y-0.1174 Z0.0000 R0.1174
G02 X-0.1174 Y-0.1174 Z0.0000 R0.1174
G02 X-0.1174 Y0.1174 Z0.0000 R0.1174
G02 X0.1174 Y0.1174 Z0.0000 R0.1174
G01 X0.0000 Y-0.0266 Z-0.0043
G02 X0.0907 Y-0.0907 Z0.0000 R0.0907
G02 X-0.0907 Y-0.0907 Z0.0000 R0.0907
G02 X-0.0907 Y0.0907 Z0.0000 R0.0907
G02 X0.0907 Y0.0907 Z0.0000 R0.0907
G01 X0.0000 Y-0.0266 Z-0.0038
G02 X0.0640 Y-0.0640 Z0.0000 R0.0640
G02 X-0.0640 Y-0.0640 Z0.0000 R0.0640
G02 X-0.0640 Y0.0640 Z0.0000 R0.0640
G02 X0.0640 Y0.0640 Z0.0000 R0.0640
G90
G00 X22.9094 Y-1.6734 Z0.2000
G00 X22.9094 Y-1.7374 Z0.2000
G00 X22.9094 Y1.7374 Z0.2000
( A single insert                                                              )
(   Outer rim diameter = 0.7500"                                               )
(   Outer rim depth    = -0.0450"                                              )
(   Shaft diameter      = 0.3729"                                              )
(   Shaft depth         = -0.4200"                                             )
G01 X22.9094 Y1.7374 Z0.0000
G91
G01 X0.0000 Y0.2514 Z-0.0450
G02 X0.2514 Y-0.2514 Z0.0000 R0.2514
G02 X-0.2514 Y-0.2514 Z0.0000 R0.2514
G02 X-0.2514 Y0.2514 Z0.0000 R0.2514
G02 X0.2514 Y0.2514 Z0.0000 R0.2514
G01 X0.0000 Y-0.0285 Z-0.0069
G02 X0.2229 Y-0.2229 Z0.0000 R0.2229
G02 X-0.2229 Y-0.2229 Z0.0000 R0.2229
G02 X-0.2229 Y0.2229 Z0.0000 R0.2229
G02 X0.2229 Y0.2229 Z0.0000 R0.2229
G01 X0.0000 Y-0.0261 Z-0.0064
G02 X0.1966 Y-0.1966 Z0.0000 R0.1966
G02 X-0.1966 Y-0.1966 Z0.0000 R0.1966
G02 X-0.1966 Y0.1966 Z0.0000 R0.1966
G02 X0.1966 Y0.1966 Z0.0000 R0.1966
G01 X0.0000 Y-0.0262 Z-0.0058
G02 X0.1703 Y-0.1703 Z0.0000 R0.1703
G02 X-0.1703 Y-0.1703 Z0.0000 R0.1703
G02 X-0.1703 Y0.1703 Z0.0000 R0.1703
G02 X0.1703 Y0.1703 Z0.0000 R0.1703
G01 X0.0000 Y-0.0264 Z-0.0053
G02 X0.1438 Y-0.1438 Z0.0000 R0.1438
G02 X-0.1438 Y-0.1438 Z0.0000 R0.1438
G02 X-0.1438 Y0.1438 Z0.0000 R0.1438
G02 X0.1438 Y0.1438 Z0.0000 R0.1438
G01 X0.0000 Y-0.0264 Z-0.0048
G02 X0.1174 Y-0.1174 Z0.0000 R0.1174
G02 X-0.1174 Y-0.1174 Z0.0000 R0.1174
G02 X-0.1174 Y0.1174 Z0.0000 R0.1174
G02 X0.1174 Y0.1174 Z0.0000 R0.1174
G01 X0.0000 Y-0.0266 Z-0.0043
G02 X0.0907 Y-0.0907 Z0.0000 R0.0907
G02 X-0.0907 Y-0.0907 Z0.0000 R0.0907
G02 X-0.0907 Y0.0907 Z0.0000 R0.0907
G02 X0.0907 Y0.0907 Z0.0000 R0.0907
G01 X0.0000 Y-0.0266 Z-0.0038
G02 X0.0640 Y-0.0640 Z0.0000 R0.0640
G02 X-0.0640 Y-0.0640 Z0.0000 R0.0640
G02 X-0.0640 Y0.0640 Z0.0000 R0.0640
G02 X0.0640 Y0.0640 Z0.0000 R0.0640
G90
G01 X22.9094 Y1.7374 Z0.0000
( Incremental hole: depth = -0.4200, diameter = 0.3729                         )
G91
G01 X0.0000 Y0.0629 Z0.0000
G01 X0.0000 Y0.0000 Z-0.1400
G02 X0.0629 Y-0.0629 Z0.0000 R0.0629
G02 X-0.0629 Y-0.0629 Z0.0000 R0.0629
G02 X-0.0629 Y0.0629 Z0.0000 R0.0629
G02 X0.0629 Y0.0629 Z0.0000 R0.0629
G01 X0.0000 Y0.0000 Z-0.1400
G02 X0.0629 Y-0.0629 Z0.0000 R0.0629
G02 X-0.0629 Y-0.0629 Z0.0000 R0.0629
G02 X-0.0629 Y0.0629 Z0.0000 R0.0629
G02 X0.0629 Y0.0629 Z0.0000 R0.0629
G01 X0.0000 Y0.0000 Z-0.1400
G02 X0.0629 Y-0.0629 Z0.0000 R0.0629
G02 X-0.0629 Y-0.0629 Z0.0000 R0.0629
G02 X-0.0629 Y0.0629 Z0.0000 R0.0629
G02 X0.0629 Y0.0629 Z0.0000 R0.0629
G02 X0.0629 Y-0.0629 Z0.0000 R0.0629
G02 X-0.0629 Y-0.0629 Z0.0000 R0.0629
G02 X-0.0629 Y0.0629 Z0.0000 R0.0629
G02 X0.0629 Y0.0629 Z0.0000 R0.0629
G02 X0.0629 Y-0.0629 Z0.0000 R0.0629
G02 X-0.0629 Y-0.0629 Z0.0000 R0.0629
G02 X-0.0629 Y0.0629 Z0.0000 R0.0629
G02 X0.0629 Y0.0629 Z0.0000 R0.0629
G02 X0.0629 Y-0.0629 Z0.0000 R0.0629
G02 X-0.0629 Y-0.0629 Z0.0000 R0.0629
G02 X-0.0629 Y0.0629 Z0.0000 R0.0629
G02 X0.0629 Y0.0629 Z0.0000 R0.0629
G01 X0.0000 Y-0.0629 Z0.0000
G90
G01 X22.9094 Y1.7374 Z0.0000
G91
G01 X0.0000 Y0.2514 Z-0.0450
G02 X0.2514 Y-0.2514 Z0.0000 R0.2514
G02 X-0.2514 Y-0.2514 Z0.0000 R0.2514
G02 X-0.2514 Y0.2514 Z0.0000 R0.2514
G02 X0.2514 Y0.2514 Z0.0000 R0.2514
G01 X0.0000 Y-0.0285 Z-0.0069
G02 X0.2229 Y-0.2229 Z0.0000 R0.2229
G02 X-0.2229 Y-0.2229 Z0.0000 R0.2229
G02 X-0.2229 Y0.2229 Z0.0000 R0.2229
G02 X0.2229 Y0.2229 Z0.0000 R0.2229
G01 X0.0000 Y-0.0261 Z-0.0064
G02 X0.1966 Y-0.1966 Z0.0000 R0.1966
G02 X-0.1966 Y-0.1966 Z0.0000 R0.1966
G02 X-0.1966 Y0.1966 Z0.0000 R0.1966
G02 X0.1966 Y0.1966 Z0.0000 R0.1966
G01 X0.0000 Y-0.0262 Z-0.0058
G02 X0.1703 Y-0.1703 Z0.0000 R0.1703
G02 X-0.1703 Y-0.1703 Z0.0000 R0.1703
G02 X-0.1703 Y0.1703 Z0.0000 R0.1703
G02 X0.1703 Y0.1703 Z0.0000 R0.1703
G01 X0.0000 Y-0.0264 Z-0.0053
G02 X0.1438 Y-0.1438 Z0.0000 R0.1438
G02 X-0.1438 Y-0.1438 Z0.0000 R0.1438
G02 X-0.1438 Y0.1438 Z0.0000 R0.1438
G02 X0.1438 Y0.1438 Z0.0000 R0.1438
G01 X0.0000 Y-0.0264 Z-0.0048
G02 X0.1174 Y-0.1174 Z0.0000 R0.1174
G02 X-0.1174 Y-0.1174 Z0.0000 R0.1174
G02 X-0.1174 Y0.1174 Z0.0000 R0.1174
G02 X0.1174 Y0.1174 Z0.0000 R0.1174
G01 X0.0000 Y-0.0266 Z-0.0043
G02 X0.0907 Y-0.0907 Z0.0000 R0.0907
G02 X-0.0907 Y-0.0907 Z0.0000 R0.0907
G02 X-0.0907 Y0.0907 Z0.0000 R0.0907
G02 X0.0907 Y0.0907 Z0.0000 R0.0907
G01 X0.0000 Y-0.0266 Z-0.0038
G02 X0.0640 Y-0.0640 Z0.0000 R0.0640
G02 X-0.0640 Y-0.0640 Z0.0000 R0.0640
G02 X-0.0640 Y0.0640 Z0.0000 R0.0640
G02 X0.0640 Y0.0640 Z0.0000 R0.0640
G90
G00 X22.9094 Y1.8015 Z0.2000
G00 X22.9094 Y1.7374 Z0.2000
G00 X23.9094 Y-1.7374 Z0.2000
( A single insert                                                              )
(   Outer rim diameter = 0.7500"                                               )
(   Outer rim depth    = -0.0450"                                              )
(   Shaft diameter      = 0.3729"                                              )
(   Shaft depth         = -0.4200"                                             )
G01 X23.9094 Y-1.7374 Z0.0000
G91
G01 X0.0000 Y0.2514 Z-0.0450
G02 X0.2514 Y-0.2514 Z0.0000 R0.2514
G02 X-0.2514 Y-0.2514 Z0.0000 R0.2514
G02 X-0.2514 Y0.2514 Z0.0000 R0.2514
G02 X0.2514 Y0.2514 Z0.0000 R0.2514
G01 X0.0000 Y-0.0285 Z-0.0069
G02 X0.2229 Y-0.2229 Z0.0000 R0.2229
G02 X-0.2229 Y-0.2229 Z0.0000 R0.2229
G02 X-0.2229 Y0.2229 Z0.0000 R0.2229
G02 X0.2229 Y0.2229 Z0.0000 R0.2229
G01 X0.0000 Y-0.0261 Z-0.0064
G02 X0.1966 Y-0.1966 Z0.0000 R0.1966
G02 X-0.1966 Y-0.1966 Z0.0000 R0.1966
G02 X-0.1966 Y0.1966 Z0.0000 R0.1966
G02 X0.1966 Y0.1966 Z0.0000 R0.1966
G01 X0.0000 Y-0.0262 Z-0.0058
G02 X0.1703 Y-0.1703 Z0.0000 R0.1703
G02 X-0.1703 Y-0.1703 Z0.0000 R0.1703
G02 X-0.1703 Y0.1703 Z0.0000 R0.1703
G02 X0.1703 Y0.1703 Z0.0000 R0.1703
G01 X0.0000 Y-0.0264 Z-0.0053
G02 X0.1438 Y-0.1438 Z0.0000 R0.1438
G02 X-0.1438 Y-0.1438 Z0.0000 R0.1438
G02 X-0.1438 Y0.1438 Z0.0000 R0.1438
G02 X0.1438 Y0.1438 Z0.0000 R0.1438
G01 X0.0000 Y-0.0264 Z-0.0048
G02 X0.1174 Y-0.1174 Z0.0000 R0.1174
G02 X-0.1174 Y-0.1174 Z0.0000 R0.1174
G02 X-0.1174 Y0.1174 Z0.0000 R0.1174
G02 X0.1174 Y0.1174 Z0.0000 R0.1174
G01 X0.0000 Y-0.0266 Z-0.0043
G02 X0.0907 Y-0.0907 Z0.0000 R0.0907
G02 X-0.0907 Y-0.0907 Z0.0000 R0.0907
G02 X-0.0907 Y0.0907 Z0.0000 R0.0907
G02 X0.0907 Y0.0907 Z0.0000 R0.0907
G01 X0.0000 Y-0.0266 Z-0.0038
G02 X0.0640 Y-0.0640 Z0.0000 R0.0640
G02 X-0.0640 Y-0.0640 Z0.0000 R0.0640
G02 X-0.0640 Y0.0640 Z0.0000 R0.0640
G02 X0.0640 Y0.0640 Z0.0000 R0.0640
G90
G01 X23.9094 Y-1.7374 Z0.0000
( Incremental hole: depth = -0.4200, diameter = 0.3729                         )
G91
G01 X0.0000 Y0.0629 Z0.0000
G01 X0.0000 Y0.0000 Z-0.1400
G02 X0.0629 Y-0.0629 Z0.0000 R0.0629
G02 X-0.0629 Y-0.0629 Z0.0000 R0.0629
G02 X-0.0629 Y0.0629 Z0.0000 R0.0629
G02 X0.0629 Y0.0629 Z0.0000 R0.0629
G01 X0.0000 Y0.0000 Z-0.1400
G02 X0.0629 Y-0.0629 Z0.0000 R0.0629
G02 X-0.0629 Y-0.0629 Z0.0000 R0.0629
G02 X-0.0629 Y0.0629 Z0.0000 R0.0629
G02 X0.0629 Y0.0629 Z0.0000 R0.0629
G01 X0.0000 Y0.0000 Z-0.1400
G02 X0.0629 Y-0.0629 Z0.0000 R0.0629
G02 X-0.0629 Y-0.0629 Z0.0000 R0.0629
G02 X-0.0629 Y0.0629 Z0.0000 R0.0629
G02 X0.0629 Y0.0629 Z0.0000 R0.0629
G02 X0.0629 Y-0.0629 Z0.0000 R0.0629
G02 X-0.0629 Y-0.0629 Z0.0000 R0.0629
G02 X-0.0629 Y0.0629 Z0.0000 R0.0629
G02 X0.0629 Y0.0629 Z0.0000 R0.0629
G02 X0.0629 Y-0.0629 Z0.0000 R0.0629
G02 X-0.0629 Y-0.0629 Z0.0000 R0.0629
G02 X-0.0629 Y0.0629 Z0.0000 R0.0629
G02 X0.0629 Y0.0629 Z0.0000 R0.0629
G02 X0.0629 Y-0.0629 Z0.0000 R0.0629
G02 X-0.0629 Y-0.0629 Z0.0000 R0.0629
G02 X-0.0629 Y0.0629 Z0.0000 R0.0629
G02 X0.0629 Y0.0629 Z0.0000 R0.0629
G01 X0.0000 Y-0.0629 Z0.0000
G90
G01 X23.9094 Y-1.7374 Z0.0000
G91
G01 X0.0000 Y0.2514 Z-0.0450
G02 X0.2514 Y-0.2514 Z0.0000 R0.2514
G02 X-0.2514 Y-0.2514 Z0.0000 R0.2514
G02 X-0.2514 Y0.2514 Z0.0000 R0.2514
G02 X0.2514 Y0.2514 Z0.0000 R0.2514
G01 X0.0000 Y-0.0285 Z-0.0069
G02 X0.2229 Y-0.2229 Z0.0000 R0.2229
G02 X-0.2229 Y-0.2229 Z0.0000 R0.2229
G02 X-0.2229 Y0.2229 Z0.0000 R0.2229
G02 X0.2229 Y0.2229 Z0.0000 R0.2229
G01 X0.0000 Y-0.0261 Z-0.0064
G02 X0.1966 Y-0.1966 Z0.0000 R0.1966
G02 X-0.1966 Y-0.1966 Z0.0000 R0.1966
G02 X-0.1966 Y0.1966 Z0.0000 R0.1966
G02 X0.1966 Y0.1966 Z0.0000 R0.1966
G01 X0.0000 Y-0.0262 Z-0.0058
G02 X0.1703 Y-0.1703 Z0.0000 R0.1703
G02 X-0.1703 Y-0.1703 Z0.0000 R0.1703
G02 X-0.1703 Y0.1703 Z0.0000 R0.1703
G02 X0.1703 Y0.1703 Z0.0000 R0.1703
G01 X0.0000 Y-0.0264 Z-0.0053
G02 X0.1438 Y-0.1438 Z0.0000 R0.1438
G02 X-0.1438 Y-0.1438 Z0.0000 R0.1438
G02 X-0.1438 Y0.1438 Z0.0000 R0.1438
G02 X0.1438 Y0.1438 Z0.0000 R0.1438
G01 X0.0000 Y-0.0264 Z-0.0048
G02 X0.1174 Y-0.1174 Z0.0000 R0.1174
G02 X-0.1174 Y-0.1174 Z0.0000 R0.1174
G02 X-0.1174 Y0.1174 Z0.0000 R0.1174
G02 X0.1174 Y0.1174 Z0.0000 R0.1174
G01 X0.0000 Y-0.0266 Z-0.0043
G02 X0.0907 Y-0.0907 Z0.0000 R0.0907
G02 X-0.0907 Y-0.0907 Z0.0000 R0.0907
G02 X-0.0907 Y0.0907 Z0.0000 R0.0907
G02 X0.0907 Y0.0907 Z0.0000 R0.0907
G01 X0.0000 Y-0.0266 Z-0.0038
G02 X0.0640 Y-0.0640 Z0.0000 R0.0640
G02 X-0.0640 Y-0.0640 Z0.0000 R0.0640
G02 X-0.0640 Y0.0640 Z0.0000 R0.0640
G02 X0.0640 Y0.0640 Z0.0000 R0.0640
G90
G00 X23.9094 Y-1.6734 Z0.2000
G00 X23.9094 Y-1.7374 Z0.2000
G00 X23.9094 Y1.7374 Z0.2000
( A single insert                                                              )
(   Outer rim diameter = 0.7500"                                               )
(   Outer rim depth    = -0.0450"                                              )
(   Shaft diameter      = 0.3729"                                              )
(   Shaft depth         = -0.4200"                                             )
G01 X23.9094 Y1.7374 Z0.0000
G91
G01 X0.0000 Y0.2514 Z-0.0450
G02 X0.2514 Y-0.2514 Z0.0000 R0.2514
G02 X-0.2514 Y-0.2514 Z0.0000 R0.2514
G02 X-0.2514 Y0.2514 Z0.0000 R0.2514
G02 X0.2514 Y0.2514 Z0.0000 R0.2514
G01 X0.0000 Y-0.0285 Z-0.0069
G02 X0.2229 Y-0.2229 Z0.0000 R0.2229
G02 X-0.2229 Y-0.2229 Z0.0000 R0.2229
G02 X-0.2229 Y0.2229 Z0.0000 R0.2229
G02 X0.2229 Y0.2229 Z0.0000 R0.2229
G01 X0.0000 Y-0.0261 Z-0.0064
G02 X0.1966 Y-0.1966 Z0.0000 R0.1966
G02 X-0.1966 Y-0.1966 Z0.0000 R0.1966
G02 X-0.1966 Y0.1966 Z0.0000 R0.1966
G02 X0.1966 Y0.1966 Z0.0000 R0.1966
G01 X0.0000 Y-0.0262 Z-0.0058
G02 X0.1703 Y-0.1703 Z0.0000 R0.1703
G02 X-0.1703 Y-0.1703 Z0.0000 R0.1703
G02 X-0.1703 Y0.1703 Z0.0000 R0.1703
G02 X0.1703 Y0.1703 Z0.0000 R0.1703
G01 X0.0000 Y-0.0264 Z-0.0053
G02 X0.1438 Y-0.1438 Z0.0000 R0.1438
G02 X-0.1438 Y-0.1438 Z0.0000 R0.1438
G02 X-0.1438 Y0.1438 Z0.0000 R0.1438
G02 X0.1438 Y0.1438 Z0.0000 R0.1438
G01 X0.0000 Y-0.0264 Z-0.0048
G02 X0.1174 Y-0.1174 Z0.0000 R0.1174
G02 X-0.1174 Y-0.1174 Z0.0000 R0.1174
G02 X-0.1174 Y0.1174 Z0.0000 R0.1174
G02 X0.1174 Y0.1174 Z0.0000 R0.1174
G01 X0.0000 Y-0.0266 Z-0.0043
G02 X0.0907 Y-0.0907 Z0.0000 R0.0907
G02 X-0.0907 Y-0.0907 Z0.0000 R0.0907
G02 X-0.0907 Y0.0907 Z0.0000 R0.0907
G02 X0.0907 Y0.0907 Z0.0000 R0.0907
G01 X0.0000 Y-0.0266 Z-0.0038
G02 X0.0640 Y-0.0640 Z0.0000 R0.0640
G02 X-0.0640 Y-0.0640 Z0.0000 R0.0640
G02 X-0.0640 Y0.0640 Z0.0000 R0.0640
G02 X0.0640 Y0.0640 Z0.0000 R0.0640
G90
G01 X23.9094 Y1.7374 Z0.0000
( Incremental hole: depth = -0.4200, diameter = 0.3729                         )
G91
G01 X0.0000 Y0.0629 Z0.0000
G01 X0.0000 Y0.0000 Z-0.1400
G02 X0.0629 Y-0.0629 Z0.0000 R0.0629
G02 X-0.0629 Y-0.0629 Z0.0000 R0.0629
G02 X-0.0629 Y0.0629 Z0.0000 R0.0629
G02 X0.0629 Y0.0629 Z0.0000 R0.0629
G01 X0.0000 Y0.0000 Z-0.1400
G02 X0.0629 Y-0.0629 Z0.0000 R0.0629
G02 X-0.0629 Y-0.0629 Z0.0000 R0.0629
G02 X-0.0629 Y0.0629 Z0.0000 R0.0629
G02 X0.0629 Y0.0629 Z0.0000 R0.0629
G01 X0.0000 Y0.0000 Z-0.1400
G02 X0.0629 Y-0.0629 Z0.0000 R0.0629
G02 X-0.0629 Y-0.0629 Z0.0000 R0.0629
G02 X-0.0629 Y0.0629 Z0.0000 R0.0629
G02 X0.0629 Y0.0629 Z0.0000 R0.0629
G02 X0.0629 Y-0.0629 Z0.0000 R0.0629
G02 X-0.0629 Y-0.0629 Z0.0000 R0.0629
G02 X-0.0629 Y0.0629 Z0.0000 R0.0629
G02 X0.0629 Y0.0629 Z0.0000 R0.0629
G02 X0.0629 Y-0.0629 Z0.0000 R0.0629
G02 X-0.0629 Y-0.0629 Z0.0000 R0.0629
G02 X-0.0629 Y0.0629 Z0.0000 R0.0629
G02 X0.0629 Y0.0629 Z0.0000 R0.0629
G02 X0.0629 Y-0.0629 Z0.0000 R0.0629
G02 X-0.0629 Y-0.0629 Z0.0000 R0.0629
G02 X-0.0629 Y0.0629 Z0.0000 R0.0629
G02 X0.0629 Y0.0629 Z0.0000 R0.0629
G01 X0.0000 Y-0.0629 Z0.0000
G90
G01 X23.9094 Y1.7374 Z0.0000
G91
G01 X0.0000 Y0.2514 Z-0.0450
G02 X0.2514 Y-0.2514 Z0.0000 R0.2514
G02 X-0.2514 Y-0.2514 Z0.0000 R0.2514
G02 X-0.2514 Y0.2514 Z0.0000 R0.2514
G02 X0.2514 Y0.2514 Z0.0000 R0.2514
G01 X0.0000 Y-0.0285 Z-0.0069
G02 X0.2229 Y-0.2229 Z0.0000 R0.2229
G02 X-0.2229 Y-0.2229 Z0.0000 R0.2229
G02 X-0.2229 Y0.2229 Z0.0000 R0.2229
G02 X0.2229 Y0.2229 Z0.0000 R0.2229
G01 X0.0000 Y-0.0261 Z-0.0064
G02 X0.1966 Y-0.1966 Z0.0000 R0.1966
G02 X-0.1966 Y-0.1966 Z0.0000 R0.1966
G02 X-0.1966 Y0.1966 Z0.0000 R0.1966
G02 X0.1966 Y0.1966 Z0.0000 R0.1966
G01 X0.0000 Y-0.0262 Z-0.0058
G02 X0.1703 Y-0.1703 Z0.0000 R0.1703
G02 X-0.1703 Y-0.1703 Z0.0000 R0.1703
G02 X-0.1703 Y0.1703 Z0.0000 R0.1703
G02 X0.1703 Y0.1703 Z0.0000 R0.1703
G01 X0.0000 Y-0.0264 Z-0.0053
G02 X0.1438 Y-0.1438 Z0.0000 R0.1438
G02 X-0.1438 Y-0.1438 Z0.0000 R0.1438
G02 X-0.1438 Y0.1438 Z0.0000 R0.1438
G02 X0.1438 Y0.1438 Z0.0000 R0.1438
G01 X0.0000 Y-0.0264 Z-0.0048
G02 X0.1174 Y-0.1174 Z0.0000 R0.1174
G02 X-0.1174 Y-0.1174 Z0.0000 R0.1174
G02 X-0.1174 Y0.1174 Z0.0000 R0.1174
G02 X0.1174 Y0.1174 Z0.0000 R0.1174
G01 X0.0000 Y-0.0266 Z-0.0043
G02 X0.0907 Y-0.0907 Z0.0000 R0.0907
G02 X-0.0907 Y-0.0907 Z0.0000 R0.0907
G02 X-0.0907 Y0.0907 Z0.0000 R0.0907
G02 X0.0907 Y0.0907 Z0.0000 R0.0907
G01 X0.0000 Y-0.0266 Z-0.0038
G02 X0.0640 Y-0.0640 Z0.0000 R0.0640
G02 X-0.0640 Y-0.0640 Z0.0000 R0.0640
G02 X-0.0640 Y0.0640 Z0.0000 R0.0640
G02 X0.0640 Y0.0640 Z0.0000 R0.0640
G90
G00 X23.9094 Y1.8015 Z0.2000
G00 X23.9094 Y1.7374 Z0.2000
G00 X24.9094 Y-1.7374 Z0.2000
( A single insert                                                              )
(   Outer rim diameter = 0.7500"                                               )
(   Outer rim depth    = -0.0450"                                              )
(   Shaft diameter      = 0.3729"                                              )
(   Shaft depth         = -0.4200"                                             )
G01 X24.9094 Y-1.7374 Z0.0000
G91
G01 X0.0000 Y0.2514 Z-0.0450
G02 X0.2514 Y-0.2514 Z0.0000 R0.2514
G02 X-0.2514 Y-0.2514 Z0.0000 R0.2514
G02 X-0.2514 Y0.2514 Z0.0000 R0.2514
G02 X0.2514 Y0.2514 Z0.0000 R0.2514
G01 X0.0000 Y-0.0285 Z-0.0069
G02 X0.2229 Y-0.2229 Z0.0000 R0.2229
G02 X-0.2229 Y-0.2229 Z0.0000 R0.2229
G02 X-0.2229 Y0.2229 Z0.0000 R0.2229
G02 X0.2229 Y0.2229 Z0.0000 R0.2229
G01 X0.0000 Y-0.0261 Z-0.0064
G02 X0.1966 Y-0.1966 Z0.0000 R0.1966
G02 X-0.1966 Y-0.1966 Z0.0000 R0.1966
G02 X-0.1966 Y0.1966 Z0.0000 R0.1966
G02 X0.1966 Y0.1966 Z0.0000 R0.1966
G01 X0.0000 Y-0.0262 Z-0.0058
G02 X0.1703 Y-0.1703 Z0.0000 R0.1703
G02 X-0.1703 Y-0.1703 Z0.0000 R0.1703
G02 X-0.1703 Y0.1703 Z0.0000 R0.1703
G02 X0.1703 Y0.1703 Z0.0000 R0.1703
G01 X0.0000 Y-0.0264 Z-0.0053
G02 X0.1438 Y-0.1438 Z0.0000 R0.1438
G02 X-0.1438 Y-0.1438 Z0.0000 R0.1438
G02 X-0.1438 Y0.1438 Z0.0000 R0.1438
G02 X0.1438 Y0.1438 Z0.0000 R0.1438
G01 X0.0000 Y-0.0264 Z-0.0048
G02 X0.1174 Y-0.1174 Z0.0000 R0.1174
G02 X-0.1174 Y-0.1174 Z0.0000 R0.1174
G02 X-0.1174 Y0.1174 Z0.0000 R0.1174
G02 X0.1174 Y0.1174 Z0.0000 R0.1174
G01 X0.0000 Y-0.0266 Z-0.0043
G02 X0.0907 Y-0.0907 Z0.0000 R0.0907
G02 X-0.0907 Y-0.0907 Z0.0000 R0.0907
G02 X-0.0907 Y0.0907 Z0.0000 R0.0907
G02 X0.0907 Y0.0907 Z0.0000 R0.0907
G01 X0.0000 Y-0.0266 Z-0.0038
G02 X0.0640 Y-0.0640 Z0.0000 R0.0640
G02 X-0.0640 Y-0.0640 Z0.0000 R0.0640
G02 X-0.0640 Y0.0640 Z0.0000 R0.0640
G02 X0.0640 Y0.0640 Z0.0000 R0.0640
G90
G01 X24.9094 Y-1.7374 Z0.0000
( Incremental hole: depth = -0.4200, diameter = 0.3729                         )
G91
G01 X0.0000 Y0.0629 Z0.0000
G01 X0.0000 Y0.0000 Z-0.1400
G02 X0.0629 Y-0.0629 Z0.0000 R0.0629
G02 X-0.0629 Y-0.0629 Z0.0000 R0.0629
G02 X-0.0629 Y0.0629 Z0.0000 R0.0629
G02 X0.0629 Y0.0629 Z0.0000 R0.0629
G01 X0.0000 Y0.0000 Z-0.1400
G02 X0.0629 Y-0.0629 Z0.0000 R0.0629
G02 X-0.0629 Y-0.0629 Z0.0000 R0.0629
G02 X-0.0629 Y0.0629 Z0.0000 R0.0629
G02 X0.0629 Y0.0629 Z0.0000 R0.0629
G01 X0.0000 Y0.0000 Z-0.1400
G02 X0.0629 Y-0.0629 Z0.0000 R0.0629
G02 X-0.0629 Y-0.0629 Z0.0000 R0.0629
G02 X-0.0629 Y0.0629 Z0.0000 R0.0629
G02 X0.0629 Y0.0629 Z0.0000 R0.0629
G02 X0.0629 Y-0.0629 Z0.0000 R0.0629
G02 X-0.0629 Y-0.0629 Z0.0000 R0.0629
G02 X-0.0629 Y0.0629 Z0.0000 R0.0629
G02 X0.0629 Y0.0629 Z0.0000 R0.0629
G02 X0.0629 Y-0.0629 Z0.0000 R0.0629
G02 X-0.0629 Y-0.0629 Z0.0000 R0.0629
G02 X-0.0629 Y0.0629 Z0.0000 R0.0629
G02 X0.0629 Y0.0629 Z0.0000 R0.0629
G02 X0.0629 Y-0.0629 Z0.0000 R0.0629
G02 X-0.0629 Y-0.0629 Z0.0000 R0.0629
G02 X-0.0629 Y0.0629 Z0.0000 R0.0629
G02 X0.0629 Y0.0629 Z0.0000 R0.0629
G01 X0.0000 Y-0.0629 Z0.0000
G90
G01 X24.9094 Y-1.7374 Z0.0000
G91
G01 X0.0000 Y0.2514 Z-0.0450
G02 X0.2514 Y-0.2514 Z0.0000 R0.2514
G02 X-0.2514 Y-0.2514 Z0.0000 R0.2514
G02 X-0.2514 Y0.2514 Z0.0000 R0.2514
G02 X0.2514 Y0.2514 Z0.0000 R0.2514
G01 X0.0000 Y-0.0285 Z-0.0069
G02 X0.2229 Y-0.2229 Z0.0000 R0.2229
G02 X-0.2229 Y-0.2229 Z0.0000 R0.2229
G02 X-0.2229 Y0.2229 Z0.0000 R0.2229
G02 X0.2229 Y0.2229 Z0.0000 R0.2229
G01 X0.0000 Y-0.0261 Z-0.0064
G02 X0.1966 Y-0.1966 Z0.0000 R0.1966
G02 X-0.1966 Y-0.1966 Z0.0000 R0.1966
G02 X-0.1966 Y0.1966 Z0.0000 R0.1966
G02 X0.1966 Y0.1966 Z0.0000 R0.1966
G01 X0.0000 Y-0.0262 Z-0.0058
G02 X0.1703 Y-0.1703 Z0.0000 R0.1703
G02 X-0.1703 Y-0.1703 Z0.0000 R0.1703
G02 X-0.1703 Y0.1703 Z0.0000 R0.1703
G02 X0.1703 Y0.1703 Z0.0000 R0.1703
G01 X0.0000 Y-0.0264 Z-0.0053
G02 X0.1438 Y-0.1438 Z0.0000 R0.1438
G02 X-0.1438 Y-0.1438 Z0.0000 R0.1438
G02 X-0.1438 Y0.1438 Z0.0000 R0.1438
G02 X0.1438 Y0.1438 Z0.0000 R0.1438
G01 X0.0000 Y-0.0264 Z-0.0048
G02 X0.1174 Y-0.1174 Z0.0000 R0.1174
G02 X-0.1174 Y-0.1174 Z0.0000 R0.1174
G02 X-0.1174 Y0.1174 Z0.0000 R0.1174
G02 X0.1174 Y0.1174 Z0.0000 R0.1174
G01 X0.0000 Y-0.0266 Z-0.0043
G02 X0.0907 Y-0.0907 Z0.0000 R0.0907
G02 X-0.0907 Y-0.0907 Z0.0000 R0.0907
G02 X-0.0907 Y0.0907 Z0.0000 R0.0907
G02 X0.0907 Y0.0907 Z0.0000 R0.0907
G01 X0.0000 Y-0.0266 Z-0.0038
G02 X0.0640 Y-0.0640 Z0.0000 R0.0640
G02 X-0.0640 Y-0.0640 Z0.0000 R0.0640
G02 X-0.0640 Y0.0640 Z0.0000 R0.0640
G02 X0.0640 Y0.0640 Z0.0000 R0.0640
G90
G00 X24.9094 Y-1.6734 Z0.2000
G00 X24.9094 Y-1.7374 Z0.2000
G00 X24.9094 Y1.7374 Z0.2000
( A single insert                                                              )
(   Outer rim diameter = 0.7500"                                               )
(   Outer rim depth    = -0.0450"                                              )
(   Shaft diameter      = 0.3729"                                              )
(   Shaft depth         = -0.4200"                                             )
G01 X24.9094 Y1.7374 Z0.0000
G91
G01 X0.0000 Y0.2514 Z-0.0450
G02 X0.2514 Y-0.2514 Z0.0000 R0.2514
G02 X-0.2514 Y-0.2514 Z0.0000 R0.2514
G02 X-0.2514 Y0.2514 Z0.0000 R0.2514
G02 X0.2514 Y0.2514 Z0.0000 R0.2514
G01 X0.0000 Y-0.0285 Z-0.0069
G02 X0.2229 Y-0.2229 Z0.0000 R0.2229
G02 X-0.2229 Y-0.2229 Z0.0000 R0.2229
G02 X-0.2229 Y0.2229 Z0.0000 R0.2229
G02 X0.2229 Y0.2229 Z0.0000 R0.2229
G01 X0.0000 Y-0.0261 Z-0.0064
G02 X0.1966 Y-0.1966 Z0.0000 R0.1966
G02 X-0.1966 Y-0.1966 Z0.0000 R0.1966
G02 X-0.1966 Y0.1966 Z0.0000 R0.1966
G02 X0.1966 Y0.1966 Z0.0000 R0.1966
G01 X0.0000 Y-0.0262 Z-0.0058
G02 X0.1703 Y-0.1703 Z0.0000 R0.1703
G02 X-0.1703 Y-0.1703 Z0.0000 R0.1703
G02 X-0.1703 Y0.1703 Z0.0000 R0.1703
G02 X0.1703 Y0.1703 Z0.0000 R0.1703
G01 X0.0000 Y-0.0264 Z-0.0053
G02 X0.1438 Y-0.1438 Z0.0000 R0.1438
G02 X-0.1438 Y-0.1438 Z0.0000 R0.1438
G02 X-0.1438 Y0.1438 Z0.0000 R0.1438
G02 X0.1438 Y0.1438 Z0.0000 R0.1438
G01 X0.0000 Y-0.0264 Z-0.0048
G02 X0.1174 Y-0.1174 Z0.0000 R0.1174
G02 X-0.1174 Y-0.1174 Z0.0000 R0.1174
G02 X-0.1174 Y0.1174 Z0.0000 R0.1174
G02 X0.1174 Y0.1174 Z0.0000 R0.1174
G01 X0.0000 Y-0.0266 Z-0.0043
G02 X0.0907 Y-0.0907 Z0.0000 R0.0907
G02 X-0.0907 Y-0.0907 Z0.0000 R0.0907
G02 X-0.0907 Y0.0907 Z0.0000 R0.0907
G02 X0.0907 Y0.0907 Z0.0000 R0.0907
G01 X0.0000 Y-0.0266 Z-0.0038
G02 X0.0640 Y-0.0640 Z0.0000 R0.0640
G02 X-0.0640 Y-0.0640 Z0.0000 R0.0640
G02 X-0.0640 Y0.0640 Z0.0000 R0.0640
G02 X0.0640 Y0.0640 Z0.0000 R0.0640
G90
G01 X24.9094 Y1.7374 Z0.0000
( Incremental hole: depth = -0.4200, diameter = 0.3729                         )
G91
G01 X0.0000 Y0.0629 Z0.0000
G01 X0.0000 Y0.0000 Z-0.1400
G02 X0.0629 Y-0.0629 Z0.0000 R0.0629
G02 X-0.0629 Y-0.0629 Z0.0000 R0.0629
G02 X-0.0629 Y0.0629 Z0.0000 R0.0629
G02 X0.0629 Y0.0629 Z0.0000 R0.0629
G01 X0.0000 Y0.0000 Z-0.1400
G02 X0.0629 Y-0.0629 Z0.0000 R0.0629
G02 X-0.0629 Y-0.0629 Z0.0000 R0.0629
G02 X-0.0629 Y0.0629 Z0.0000 R0.0629
G02 X0.0629 Y0.0629 Z0.0000 R0.0629
G01 X0.0000 Y0.0000 Z-0.1400
G02 X0.0629 Y-0.0629 Z0.0000 R0.0629
G02 X-0.0629 Y-0.0629 Z0.0000 R0.0629
G02 X-0.0629 Y0.0629 Z0.0000 R0.0629
G02 X0.0629 Y0.0629 Z0.0000 R0.0629
G02 X0.0629 Y-0.0629 Z0.0000 R0.0629
G02 X-0.0629 Y-0.0629 Z0.0000 R0.0629
G02 X-0.0629 Y0.0629 Z0.0000 R0.0629
G02 X0.0629 Y0.0629 Z0.0000 R0.0629
G02 X0.0629 Y-0.0629 Z0.0000 R0.0629
G02 X-0.0629 Y-0.0629 Z0.0000 R0.0629
G02 X-0.0629 Y0.0629 Z0.0000 R0.0629
G02 X0.0629 Y0.0629 Z0.0000 R0.0629
G02 X0.0629 Y-0.0629 Z0.0000 R0.0629
G02 X-0.0629 Y-0.0629 Z0.0000 R0.0629
G02 X-0.0629 Y0.0629 Z0.0000 R0.0629
G02 X0.0629 Y0.0629 Z0.0000 R0.0629
G01 X0.0000 Y-0.0629 Z0.0000
G90
G01 X24.9094 Y1.7374 Z0.0000
G91
G01 X0.0000 Y0.2514 Z-0.0450
G02 X0.2514 Y-0.2514 Z0.0000 R0.2514
G02 X-0.2514 Y-0.2514 Z0.0000 R0.2514
G02 X-0.2514 Y0.2514 Z0.0000 R0.2514
G02 X0.2514 Y0.2514 Z0.0000 R0.2514
G01 X0.0000 Y-0.0285 Z-0.0069
G02 X0.2229 Y-0.2229 Z0.0000 R0.2229
G02 X-0.2229 Y-0.2229 Z0.0000 R0.2229
G02 X-0.2229 Y0.2229 Z0.0000 R0.2229
G02 X0.2229 Y0.2229 Z0.0000 R0.2229
G01 X0.0000 Y-0.0261 Z-0.0064
G02 X0.1966 Y-0.1966 Z0.0000 R0.1966
G02 X-0.1966 Y-0.1966 Z0.0000 R0.1966
G02 X-0.1966 Y0.1966 Z0.0000 R0.1966
G02 X0.1966 Y0.1966 Z0.0000 R0.1966
G01 X0.0000 Y-0.0262 Z-0.0058
G02 X0.1703 Y-0.1703 Z0.0000 R0.1703
G02 X-0.1703 Y-0.1703 Z0.0000 R0.1703
G02 X-0.1703 Y0.1703 Z0.0000 R0.1703
G02 X0.1703 Y0.1703 Z0.0000 R0.1703
G01 X0.0000 Y-0.0264 Z-0.0053
G02 X0.1438 Y-0.1438 Z0.0000 R0.1438
G02 X-0.1438 Y-0.1438 Z0.0000 R0.1438
G02 X-0.1438 Y0.1438 Z0.0000 R0.1438
G02 X0.1438 Y0.1438 Z0.0000 R0.1438
G01 X0.0000 Y-0.0264 Z-0.0048
G02 X0.1174 Y-0.1174 Z0.0000 R0.1174
G02 X-0.1174 Y-0.1174 Z0.0000 R0.1174
G02 X-0.1174 Y0.1174 Z0.0000 R0.1174
G02 X0.1174 Y0.1174 Z0.0000 R0.1174
G01 X0.0000 Y-0.0266 Z-0.0043
G02 X0.0907 Y-0.0907 Z0.0000 R0.0907
G02 X-0.0907 Y-0.0907 Z0.0000 R0.0907
G02 X-0.0907 Y0.0907 Z0.0000 R0.0907
G02 X0.0907 Y0.0907 Z0.0000 R0.0907
G01 X0.0000 Y-0.0266 Z-0.0038
G02 X0.0640 Y-0.0640 Z0.0000 R0.0640
G02 X-0.0640 Y-0.0640 Z0.0000 R0.0640
G02 X-0.0640 Y0.0640 Z0.0000 R0.0640
G02 X0.0640 Y0.0640 Z0.0000 R0.0640
G90
G00 X24.9094 Y1.8015 Z0.2000
G00 X24.9094 Y1.7374 Z0.2000
G00 X25.9094 Y-1.7374 Z0.2000
( A single insert                                                              )
(   Outer rim diameter = 0.7500"                                               )
(   Outer rim depth    = -0.0450"                                              )
(   Shaft diameter      = 0.3729"                                              )
(   Shaft depth         = -0.4200"                                             )
G01 X25.9094 Y-1.7374 Z0.0000
G91
G01 X0.0000 Y0.2514 Z-0.0450
G02 X0.2514 Y-0.2514 Z0.0000 R0.2514
G02 X-0.2514 Y-0.2514 Z0.0000 R0.2514
G02 X-0.2514 Y0.2514 Z0.0000 R0.2514
G02 X0.2514 Y0.2514 Z0.0000 R0.2514
G01 X0.0000 Y-0.0285 Z-0.0069
G02 X0.2229 Y-0.2229 Z0.0000 R0.2229
G02 X-0.2229 Y-0.2229 Z0.0000 R0.2229
G02 X-0.2229 Y0.2229 Z0.0000 R0.2229
G02 X0.2229 Y0.2229 Z0.0000 R0.2229
G01 X0.0000 Y-0.0261 Z-0.0064
G02 X0.1966 Y-0.1966 Z0.0000 R0.1966
G02 X-0.1966 Y-0.1966 Z0.0000 R0.1966
G02 X-0.1966 Y0.1966 Z0.0000 R0.1966
G02 X0.1966 Y0.1966 Z0.0000 R0.1966
G01 X0.0000 Y-0.0262 Z-0.0058
G02 X0.1703 Y-0.1703 Z0.0000 R0.1703
G02 X-0.1703 Y-0.1703 Z0.0000 R0.1703
G02 X-0.1703 Y0.1703 Z0.0000 R0.1703
G02 X0.1703 Y0.1703 Z0.0000 R0.1703
G01 X0.0000 Y-0.0264 Z-0.0053
G02 X0.1438 Y-0.1438 Z0.0000 R0.1438
G02 X-0.1438 Y-0.1438 Z0.0000 R0.1438
G02 X-0.1438 Y0.1438 Z0.0000 R0.1438
G02 X0.1438 Y0.1438 Z0.0000 R0.1438
G01 X0.0000 Y-0.0264 Z-0.0048
G02 X0.1174 Y-0.1174 Z0.0000 R0.1174
G02 X-0.1174 Y-0.1174 Z0.0000 R0.1174
G02 X-0.1174 Y0.1174 Z0.0000 R0.1174
G02 X0.1174 Y0.1174 Z0.0000 R0.1174
G01 X0.0000 Y-0.0266 Z-0.0043
G02 X0.0907 Y-0.0907 Z0.0000 R0.0907
G02 X-0.0907 Y-0.0907 Z0.0000 R0.0907
G02 X-0.0907 Y0.0907 Z0.0000 R0.0907
G02 X0.0907 Y0.0907 Z0.0000 R0.0907
G01 X0.0000 Y-0.0266 Z-0.0038
G02 X0.0640 Y-0.0640 Z0.0000 R0.0640
G02 X-0.0640 Y-0.0640 Z0.0000 R0.0640
G02 X-0.0640 Y0.0640 Z0.0000 R0.0640
G02 X0.0640 Y0.0640 Z0.0000 R0.0640
G90
G01 X25.9094 Y-1.7374 Z0.0000
( Incremental hole: depth = -0.4200, diameter = 0.3729                         )
G91
G01 X0.0000 Y0.0629 Z0.0000
G01 X0.0000 Y0.0000 Z-0.1400
G02 X0.0629 Y-0.0629 Z0.0000 R0.0629
G02 X-0.0629 Y-0.0629 Z0.0000 R0.0629
G02 X-0.0629 Y0.0629 Z0.0000 R0.0629
G02 X0.0629 Y0.0629 Z0.0000 R0.0629
G01 X0.0000 Y0.0000 Z-0.1400
G02 X0.0629 Y-0.0629 Z0.0000 R0.0629
G02 X-0.0629 Y-0.0629 Z0.0000 R0.0629
G02 X-0.0629 Y0.0629 Z0.0000 R0.0629
G02 X0.0629 Y0.0629 Z0.0000 R0.0629
G01 X0.0000 Y0.0000 Z-0.1400
G02 X0.0629 Y-0.0629 Z0.0000 R0.0629
G02 X-0.0629 Y-0.0629 Z0.0000 R0.0629
G02 X-0.0629 Y0.0629 Z0.0000 R0.0629
G02 X0.0629 Y0.0629 Z0.0000 R0.0629
G02 X0.0629 Y-0.0629 Z0.0000 R0.0629
G02 X-0.0629 Y-0.0629 Z0.0000 R0.0629
G02 X-0.0629 Y0.0629 Z0.0000 R0.0629
G02 X0.0629 Y0.0629 Z0.0000 R0.0629
G02 X0.0629 Y-0.0629 Z0.0000 R0.0629
G02 X-0.0629 Y-0.0629 Z0.0000 R0.0629
G02 X-0.0629 Y0.0629 Z0.0000 R0.0629
G02 X0.0629 Y0.0629 Z0.0000 R0.0629
G02 X0.0629 Y-0.0629 Z0.0000 R0.0629
G02 X-0.0629 Y-0.0629 Z0.0000 R0.0629
G02 X-0.0629 Y0.0629 Z0.0000 R0.0629
G02 X0.0629 Y0.0629 Z0.0000 R0.0629
G01 X0.0000 Y-0.0629 Z0.0000
G90
G01 X25.9094 Y-1.7374 Z0.0000
G91
G01 X0.0000 Y0.2514 Z-0.0450
G02 X0.2514 Y-0.2514 Z0.0000 R0.2514
G02 X-0.2514 Y-0.2514 Z0.0000 R0.2514
G02 X-0.2514 Y0.2514 Z0.0000 R0.2514
G02 X0.2514 Y0.2514 Z0.0000 R0.2514
G01 X0.0000 Y-0.0285 Z-0.0069
G02 X0.2229 Y-0.2229 Z0.0000 R0.2229
G02 X-0.2229 Y-0.2229 Z0.0000 R0.2229
G02 X-0.2229 Y0.2229 Z0.0000 R0.2229
G02 X0.2229 Y0.2229 Z0.0000 R0.2229
G01 X0.0000 Y-0.0261 Z-0.0064
G02 X0.1966 Y-0.1966 Z0.0000 R0.1966
G02 X-0.1966 Y-0.1966 Z0.0000 R0.1966
G02 X-0.1966 Y0.1966 Z0.0000 R0.1966
G02 X0.1966 Y0.1966 Z0.0000 R0.1966
G01 X0.0000 Y-0.0262 Z-0.0058
G02 X0.1703 Y-0.1703 Z0.0000 R0.1703
G02 X-0.1703 Y-0.1703 Z0.0000 R0.1703
G02 X-0.1703 Y0.1703 Z0.0000 R0.1703
G02 X0.1703 Y0.1703 Z0.0000 R0.1703
G01 X0.0000 Y-0.0264 Z-0.0053
G02 X0.1438 Y-0.1438 Z0.0000 R0.1438
G02 X-0.1438 Y-0.1438 Z0.0000 R0.1438
G02 X-0.1438 Y0.1438 Z0.0000 R0.1438
G02 X0.1438 Y0.1438 Z0.0000 R0.1438
G01 X0.0000 Y-0.0264 Z-0.0048
G02 X0.1174 Y-0.1174 Z0.0000 R0.1174
G02 X-0.1174 Y-0.1174 Z0.0000 R0.1174
G02 X-0.1174 Y0.1174 Z0.0000 R0.1174
G02 X0.1174 Y0.1174 Z0.0000 R0.1174
G01 X0.0000 Y-0.0266 Z-0.0043
G02 X0.0907 Y-0.0907 Z0.0000 R0.0907
G02 X-0.0907 Y-0.0907 Z0.0000 R0.0907
G02 X-0.0907 Y0.0907 Z0.0000 R0.0907
G02 X0.0907 Y0.0907 Z0.0000 R0.0907
G01 X0.0000 Y-0.0266 Z-0.0038
G02 X0.0640 Y-0.0640 Z0.0000 R0.0640
G02 X-0.0640 Y-0.0640 Z0.0000 R0.0640
G02 X-0.0640 Y0.0640 Z0.0000 R0.0640
G02 X0.0640 Y0.0640 Z0.0000 R0.0640
G90
G00 X25.9094 Y-1.6734 Z0.2000
G00 X25.9094 Y-1.7374 Z0.2000
G00 X25.9094 Y1.7374 Z0.2000
( A single insert                                                              )
(   Outer rim diameter = 0.7500"                                               )
(   Outer rim depth    = -0.0450"                                              )
(   Shaft diameter      = 0.3729"                                              )
(   Shaft depth         = -0.4200"                                             )
G01 X25.9094 Y1.7374 Z0.0000
G91
G01 X0.0000 Y0.2514 Z-0.0450
G02 X0.2514 Y-0.2514 Z0.0000 R0.2514
G02 X-0.2514 Y-0.2514 Z0.0000 R0.2514
G02 X-0.2514 Y0.2514 Z0.0000 R0.2514
G02 X0.2514 Y0.2514 Z0.0000 R0.2514
G01 X0.0000 Y-0.0285 Z-0.0069
G02 X0.2229 Y-0.2229 Z0.0000 R0.2229
G02 X-0.2229 Y-0.2229 Z0.0000 R0.2229
G02 X-0.2229 Y0.2229 Z0.0000 R0.2229
G02 X0.2229 Y0.2229 Z0.0000 R0.2229
G01 X0.0000 Y-0.0261 Z-0.0064
G02 X0.1966 Y-0.1966 Z0.0000 R0.1966
G02 X-0.1966 Y-0.1966 Z0.0000 R0.1966
G02 X-0.1966 Y0.1966 Z0.0000 R0.1966
G02 X0.1966 Y0.1966 Z0.0000 R0.1966
G01 X0.0000 Y-0.0262 Z-0.0058
G02 X0.1703 Y-0.1703 Z0.0000 R0.1703
G02 X-0.1703 Y-0.1703 Z0.0000 R0.1703
G02 X-0.1703 Y0.1703 Z0.0000 R0.1703
G02 X0.1703 Y0.1703 Z0.0000 R0.1703
G01 X0.0000 Y-0.0264 Z-0.0053
G02 X0.1438 Y-0.1438 Z0.0000 R0.1438
G02 X-0.1438 Y-0.1438 Z0.0000 R0.1438
G02 X-0.1438 Y0.1438 Z0.0000 R0.1438
G02 X0.1438 Y0.1438 Z0.0000 R0.1438
G01 X0.0000 Y-0.0264 Z-0.0048
G02 X0.1174 Y-0.1174 Z0.0000 R0.1174
G02 X-0.1174 Y-0.1174 Z0.0000 R0.1174
G02 X-0.1174 Y0.1174 Z0.0000 R0.1174
G02 X0.1174 Y0.1174 Z0.0000 R0.1174
G01 X0.0000 Y-0.0266 Z-0.0043
G02 X0.0907 Y-0.0907 Z0.0000 R0.0907
G02 X-0.0907 Y-0.0907 Z0.0000 R0.0907
G02 X-0.0907 Y0.0907 Z0.0000 R0.0907
G02 X0.0907 Y0.0907 Z0.0000 R0.0907
G01 X0.0000 Y-0.0266 Z-0.0038
G02 X0.0640 Y-0.0640 Z0.0000 R0.0640
G02 X-0.0640 Y-0.0640 Z0.0000 R0.0640
G02 X-0.0640 Y0.0640 Z0.0000 R0.0640
G02 X0.0640 Y0.0640 Z0.0000 R0.0640
G90
G01 X25.9094 Y1.7374 Z0.0000
( Incremental hole: depth = -0.4200, diameter = 0.3729                         )
G91
G01 X0.0000 Y0.0629 Z0.0000
G01 X0.0000 Y0.0000 Z-0.1400
G02 X0.0629 Y-0.0629 Z0.0000 R0.0629
G02 X-0.0629 Y-0.0629 Z0.0000 R0.0629
G02 X-0.0629 Y0.0629 Z0.0000 R0.0629
G02 X0.0629 Y0.0629 Z0.0000 R0.0629
G01 X0.0000 Y0.0000 Z-0.1400
G02 X0.0629 Y-0.0629 Z0.0000 R0.0629
G02 X-0.0629 Y-0.0629 Z0.0000 R0.0629
G02 X-0.0629 Y0.0629 Z0.0000 R0.0629
G02 X0.0629 Y0.0629 Z0.0000 R0.0629
G01 X0.0000 Y0.0000 Z-0.1400
G02 X0.0629 Y-0.0629 Z0.0000 R0.0629
G02 X-0.0629 Y-0.0629 Z0.0000 R0.0629
G02 X-0.0629 Y0.0629 Z0.0000 R0.0629
G02 X0.0629 Y0.0629 Z0.0000 R0.0629
G02 X0.0629 Y-0.0629 Z0.0000 R0.0629
G02 X-0.0629 Y-0.0629 Z0.0000 R0.0629
G02 X-0.0629 Y0.0629 Z0.0000 R0.0629
G02 X0.0629 Y0.0629 Z0.0000 R0.0629
G02 X0.0629 Y-0.0629 Z0.0000 R0.0629
G02 X-0.0629 Y-0.0629 Z0.0000 R0.0629
G02 X-0.0629 Y0.0629 Z0.0000 R0.0629
G02 X0.0629 Y0.0629 Z0.0000 R0.0629
G02 X0.0629 Y-0.0629 Z0.0000 R0.0629
G02 X-0.0629 Y-0.0629 Z0.0000 R0.0629
G02 X-0.0629 Y0.0629 Z0.0000 R0.0629
G02 X0.0629 Y0.0629 Z0.0000 R0.0629
G01 X0.0000 Y-0.0629 Z0.0000
G90
G01 X25.9094 Y1.7374 Z0.0000
G91
G01 X0.0000 Y0.2514 Z-0.0450
G02 X0.2514 Y-0.2514 Z0.0000 R0.2514
G02 X-0.2514 Y-0.2514 Z0.0000 R0.2514
G02 X-0.2514 Y0.2514 Z0.0000 R0.2514
G02 X0.2514 Y0.2514 Z0.0000 R0.2514
G01 X0.0000 Y-0.0285 Z-0.0069
G02 X0.2229 Y-0.2229 Z0.0000 R0.2229
G02 X-0.2229 Y-0.2229 Z0.0000 R0.2229
G02 X-0.2229 Y0.2229 Z0.0000 R0.2229
G02 X0.2229 Y0.2229 Z0.0000 R0.2229
G01 X0.0000 Y-0.0261 Z-0.0064
G02 X0.1966 Y-0.1966 Z0.0000 R0.1966
G02 X-0.1966 Y-0.1966 Z0.0000 R0.1966
G02 X-0.1966 Y0.1966 Z0.0000 R0.1966
G02 X0.1966 Y0.1966 Z0.0000 R0.1966
G01 X0.0000 Y-0.0262 Z-0.0058
G02 X0.1703 Y-0.1703 Z0.0000 R0.1703
G02 X-0.1703 Y-0.1703 Z0.0000 R0.1703
G02 X-0.1703 Y0.1703 Z0.0000 R0.1703
G02 X0.1703 Y0.1703 Z0.0000 R0.1703
G01 X0.0000 Y-0.0264 Z-0.0053
G02 X0.1438 Y-0.1438 Z0.0000 R0.1438
G02 X-0.1438 Y-0.1438 Z0.0000 R0.1438
G02 X-0.1438 Y0.1438 Z0.0000 R0.1438
G02 X0.1438 Y0.1438 Z0.0000 R0.1438
G01 X0.0000 Y-0.0264 Z-0.0048
G02 X0.1174 Y-0.1174 Z0.0000 R0.1174
G02 X-0.1174 Y-0.1174 Z0.0000 R0.1174
G02 X-0.1174 Y0.1174 Z0.0000 R0.1174
G02 X0.1174 Y0.1174 Z0.0000 R0.1174
G01 X0.0000 Y-0.0266 Z-0.0043
G02 X0.0907 Y-0.0907 Z0.0000 R0.0907
G02 X-0.0907 Y-0.0907 Z0.0000 R0.0907
G02 X-0.0907 Y0.0907 Z0.0000 R0.0907
G02 X0.0907 Y0.0907 Z0.0000 R0.0907
G01 X0.0000 Y-0.0266 Z-0.0038
G02 X0.0640 Y-0.0640 Z0.0000 R0.0640
G02 X-0.0640 Y-0.0640 Z0.0000 R0.0640
G02 X-0.0640 Y0.0640 Z0.0000 R0.0640
G02 X0.0640 Y0.0640 Z0.0000 R0.0640
G90
G00 X25.9094 Y1.8015 Z0.2000
G00 X25.9094 Y1.7374 Z0.2000
G00 X26.9094 Y-1.7374 Z0.2000
( A single insert                                                              )
(   Outer rim diameter = 0.7500"                                               )
(   Outer rim depth    = -0.0450"                                              )
(   Shaft diameter      = 0.3729"                                              )
(   Shaft depth         = -0.4200"                                             )
G01 X26.9094 Y-1.7374 Z0.0000
G91
G01 X0.0000 Y0.2514 Z-0.0450
G02 X0.2514 Y-0.2514 Z0.0000 R0.2514
G02 X-0.2514 Y-0.2514 Z0.0000 R0.2514
G02 X-0.2514 Y0.2514 Z0.0000 R0.2514
G02 X0.2514 Y0.2514 Z0.0000 R0.2514
G01 X0.0000 Y-0.0285 Z-0.0069
G02 X0.2229 Y-0.2229 Z0.0000 R0.2229
G02 X-0.2229 Y-0.2229 Z0.0000 R0.2229
G02 X-0.2229 Y0.2229 Z0.0000 R0.2229
G02 X0.2229 Y0.2229 Z0.0000 R0.2229
G01 X0.0000 Y-0.0261 Z-0.0064
G02 X0.1966 Y-0.1966 Z0.0000 R0.1966
G02 X-0.1966 Y-0.1966 Z0.0000 R0.1966
G02 X-0.1966 Y0.1966 Z0.0000 R0.1966
G02 X0.1966 Y0.1966 Z0.0000 R0.1966
G01 X0.0000 Y-0.0262 Z-0.0058
G02 X0.1703 Y-0.1703 Z0.0000 R0.1703
G02 X-0.1703 Y-0.1703 Z0.0000 R0.1703
G02 X-0.1703 Y0.1703 Z0.0000 R0.1703
G02 X0.1703 Y0.1703 Z0.0000 R0.1703
G01 X0.0000 Y-0.0264 Z-0.0053
G02 X0.1438 Y-0.1438 Z0.0000 R0.1438
G02 X-0.1438 Y-0.1438 Z0.0000 R0.1438
G02 X-0.1438 Y0.1438 Z0.0000 R0.1438
G02 X0.1438 Y0.1438 Z0.0000 R0.1438
G01 X0.0000 Y-0.0264 Z-0.0048
G02 X0.1174 Y-0.1174 Z0.0000 R0.1174
G02 X-0.1174 Y-0.1174 Z0.0000 R0.1174
G02 X-0.1174 Y0.1174 Z0.0000 R0.1174
G02 X0.1174 Y0.1174 Z0.0000 R0.1174
G01 X0.0000 Y-0.0266 Z-0.0043
G02 X0.0907 Y-0.0907 Z0.0000 R0.0907
G02 X-0.0907 Y-0.0907 Z0.0000 R0.0907
G02 X-0.0907 Y0.0907 Z0.0000 R0.0907
G02 X0.0907 Y0.0907 Z0.0000 R0.0907
G01 X0.0000 Y-0.0266 Z-0.0038
G02 X0.0640 Y-0.0640 Z0.0000 R0.0640
G02 X-0.0640 Y-0.0640 Z0.0000 R0.0640
G02 X-0.0640 Y0.0640 Z0.0000 R0.0640
G02 X0.0640 Y0.0640 Z0.0000 R0.0640
G90
G01 X26.9094 Y-1.7374 Z0.0000
( Incremental hole: depth = -0.4200, diameter = 0.3729                         )
G91
G01 X0.0000 Y0.0629 Z0.0000
G01 X0.0000 Y0.0000 Z-0.1400
G02 X0.0629 Y-0.0629 Z0.0000 R0.0629
G02 X-0.0629 Y-0.0629 Z0.0000 R0.0629
G02 X-0.0629 Y0.0629 Z0.0000 R0.0629
G02 X0.0629 Y0.0629 Z0.0000 R0.0629
G01 X0.0000 Y0.0000 Z-0.1400
G02 X0.0629 Y-0.0629 Z0.0000 R0.0629
G02 X-0.0629 Y-0.0629 Z0.0000 R0.0629
G02 X-0.0629 Y0.0629 Z0.0000 R0.0629
G02 X0.0629 Y0.0629 Z0.0000 R0.0629
G01 X0.0000 Y0.0000 Z-0.1400
G02 X0.0629 Y-0.0629 Z0.0000 R0.0629
G02 X-0.0629 Y-0.0629 Z0.0000 R0.0629
G02 X-0.0629 Y0.0629 Z0.0000 R0.0629
G02 X0.0629 Y0.0629 Z0.0000 R0.0629
G02 X0.0629 Y-0.0629 Z0.0000 R0.0629
G02 X-0.0629 Y-0.0629 Z0.0000 R0.0629
G02 X-0.0629 Y0.0629 Z0.0000 R0.0629
G02 X0.0629 Y0.0629 Z0.0000 R0.0629
G02 X0.0629 Y-0.0629 Z0.0000 R0.0629
G02 X-0.0629 Y-0.0629 Z0.0000 R0.0629
G02 X-0.0629 Y0.0629 Z0.0000 R0.0629
G02 X0.0629 Y0.0629 Z0.0000 R0.0629
G02 X0.0629 Y-0.0629 Z0.0000 R0.0629
G02 X-0.0629 Y-0.0629 Z0.0000 R0.0629
G02 X-0.0629 Y0.0629 Z0.0000 R0.0629
G02 X0.0629 Y0.0629 Z0.0000 R0.0629
G01 X0.0000 Y-0.0629 Z0.0000
G90
G01 X26.9094 Y-1.7374 Z0.0000
G91
G01 X0.0000 Y0.2514 Z-0.0450
G02 X0.2514 Y-0.2514 Z0.0000 R0.2514
G02 X-0.2514 Y-0.2514 Z0.0000 R0.2514
G02 X-0.2514 Y0.2514 Z0.0000 R0.2514
G02 X0.2514 Y0.2514 Z0.0000 R0.2514
G01 X0.0000 Y-0.0285 Z-0.0069
G02 X0.2229 Y-0.2229 Z0.0000 R0.2229
G02 X-0.2229 Y-0.2229 Z0.0000 R0.2229
G02 X-0.2229 Y0.2229 Z0.0000 R0.2229
G02 X0.2229 Y0.2229 Z0.0000 R0.2229
G01 X0.0000 Y-0.0261 Z-0.0064
G02 X0.1966 Y-0.1966 Z0.0000 R0.1966
G02 X-0.1966 Y-0.1966 Z0.0000 R0.1966
G02 X-0.1966 Y0.1966 Z0.0000 R0.1966
G02 X0.1966 Y0.1966 Z0.0000 R0.1966
G01 X0.0000 Y-0.0262 Z-0.0058
G02 X0.1703 Y-0.1703 Z0.0000 R0.1703
G02 X-0.1703 Y-0.1703 Z0.0000 R0.1703
G02 X-0.1703 Y0.1703 Z0.0000 R0.1703
G02 X0.1703 Y0.1703 Z0.0000 R0.1703
G01 X0.0000 Y-0.0264 Z-0.0053
G02 X0.1438 Y-0.1438 Z0.0000 R0.1438
G02 X-0.1438 Y-0.1438 Z0.0000 R0.1438
G02 X-0.1438 Y0.1438 Z0.0000 R0.1438
G02 X0.1438 Y0.1438 Z0.0000 R0.1438
G01 X0.0000 Y-0.0264 Z-0.0048
G02 X0.1174 Y-0.1174 Z0.0000 R0.1174
G02 X-0.1174 Y-0.1174 Z0.0000 R0.1174
G02 X-0.1174 Y0.1174 Z0.0000 R0.1174
G02 X0.1174 Y0.1174 Z0.0000 R0.1174
G01 X0.0000 Y-0.0266 Z-0.0043
G02 X0.0907 Y-0.0907 Z0.0000 R0.0907
G02 X-0.0907 Y-0.0907 Z0.0000 R0.0907
G02 X-0.0907 Y0.0907 Z0.0000 R0.0907
G02 X0.0907 Y0.0907 Z0.0000 R0.0907
G01 X0.0000 Y-0.0266 Z-0.0038
G02 X0.0640 Y-0.0640 Z0.0000 R0.0640
G02 X-0.0640 Y-0.0640 Z0.0000 R0.0640
G02 X-0.0640 Y0.0640 Z0.0000 R0.0640
G02 X0.0640 Y0.0640 Z0.0000 R0.0640
G90
G00 X26.9094 Y-1.6734 Z0.2000
G00 X26.9094 Y-1.7374 Z0.2000
G00 X26.9094 Y1.7374 Z0.2000
( A single insert                                                              )
(   Outer rim diameter = 0.7500"                                               )
(   Outer rim depth    = -0.0450"                                              )
(   Shaft diameter      = 0.3729"                                              )
(   Shaft depth         = -0.4200"                                             )
G01 X26.9094 Y1.7374 Z0.0000
G91
G01 X0.0000 Y0.2514 Z-0.0450
G02 X0.2514 Y-0.2514 Z0.0000 R0.2514
G02 X-0.2514 Y-0.2514 Z0.0000 R0.2514
G02 X-0.2514 Y0.2514 Z0.0000 R0.2514
G02 X0.2514 Y0.2514 Z0.0000 R0.2514
G01 X0.0000 Y-0.0285 Z-0.0069
G02 X0.2229 Y-0.2229 Z0.0000 R0.2229
G02 X-0.2229 Y-0.2229 Z0.0000 R0.2229
G02 X-0.2229 Y0.2229 Z0.0000 R0.2229
G02 X0.2229 Y0.2229 Z0.0000 R0.2229
G01 X0.0000 Y-0.0261 Z-0.0064
G02 X0.1966 Y-0.1966 Z0.0000 R0.1966
G02 X-0.1966 Y-0.1966 Z0.0000 R0.1966
G02 X-0.1966 Y0.1966 Z0.0000 R0.1966
G02 X0.1966 Y0.1966 Z0.0000 R0.1966
G01 X0.0000 Y-0.0262 Z-0.0058
G02 X0.1703 Y-0.1703 Z0.0000 R0.1703
G02 X-0.1703 Y-0.1703 Z0.0000 R0.1703
G02 X-0.1703 Y0.1703 Z0.0000 R0.1703
G02 X0.1703 Y0.1703 Z0.0000 R0.1703
G01 X0.0000 Y-0.0264 Z-0.0053
G02 X0.1438 Y-0.1438 Z0.0000 R0.1438
G02 X-0.1438 Y-0.1438 Z0.0000 R0.1438
G02 X-0.1438 Y0.1438 Z0.0000 R0.1438
G02 X0.1438 Y0.1438 Z0.0000 R0.1438
G01 X0.0000 Y-0.0264 Z-0.0048
G02 X0.1174 Y-0.1174 Z0.0000 R0.1174
G02 X-0.1174 Y-0.1174 Z0.0000 R0.1174
G02 X-0.1174 Y0.1174 Z0.0000 R0.1174
G02 X0.1174 Y0.1174 Z0.0000 R0.1174
G01 X0.0000 Y-0.0266 Z-0.0043
G02 X0.0907 Y-0.0907 Z0.0000 R0.0907
G02 X-0.0907 Y-0.0907 Z0.0000 R0.0907
G02 X-0.0907 Y0.0907 Z0.0000 R0.0907
G02 X0.0907 Y0.0907 Z0.0000 R0.0907
G01 X0.0000 Y-0.0266 Z-0.0038
G02 X0.0640 Y-0.0640 Z0.0000 R0.0640
G02 X-0.0640 Y-0.0640 Z0.0000 R0.0640
G02 X-0.0640 Y0.0640 Z0.0000 R0.0640
G02 X0.0640 Y0.0640 Z0.0000 R0.0640
G90
G01 X26.9094 Y1.7374 Z0.0000
( Incremental hole: depth = -0.4200, diameter = 0.3729                         )
G91
G01 X0.0000 Y0.0629 Z0.0000
G01 X0.0000 Y0.0000 Z-0.1400
G02 X0.0629 Y-0.0629 Z0.0000 R0.0629
G02 X-0.0629 Y-0.0629 Z0.0000 R0.0629
G02 X-0.0629 Y0.0629 Z0.0000 R0.0629
G02 X0.0629 Y0.0629 Z0.0000 R0.0629
G01 X0.0000 Y0.0000 Z-0.1400
G02 X0.0629 Y-0.0629 Z0.0000 R0.0629
G02 X-0.0629 Y-0.0629 Z0.0000 R0.0629
G02 X-0.0629 Y0.0629 Z0.0000 R0.0629
G02 X0.0629 Y0.0629 Z0.0000 R0.0629
G01 X0.0000 Y0.0000 Z-0.1400
G02 X0.0629 Y-0.0629 Z0.0000 R0.0629
G02 X-0.0629 Y-0.0629 Z0.0000 R0.0629
G02 X-0.0629 Y0.0629 Z0.0000 R0.0629
G02 X0.0629 Y0.0629 Z0.0000 R0.0629
G02 X0.0629 Y-0.0629 Z0.0000 R0.0629
G02 X-0.0629 Y-0.0629 Z0.0000 R0.0629
G02 X-0.0629 Y0.0629 Z0.0000 R0.0629
G02 X0.0629 Y0.0629 Z0.0000 R0.0629
G02 X0.0629 Y-0.0629 Z0.0000 R0.0629
G02 X-0.0629 Y-0.0629 Z0.0000 R0.0629
G02 X-0.0629 Y0.0629 Z0.0000 R0.0629
G02 X0.0629 Y0.0629 Z0.0000 R0.0629
G02 X0.0629 Y-0.0629 Z0.0000 R0.0629
G02 X-0.0629 Y-0.0629 Z0.0000 R0.0629
G02 X-0.0629 Y0.0629 Z0.0000 R0.0629
G02 X0.0629 Y0.0629 Z0.0000 R0.0629
G01 X0.0000 Y-0.0629 Z0.0000
G90
G01 X26.9094 Y1.7374 Z0.0000
G91
G01 X0.0000 Y0.2514 Z-0.0450
G02 X0.2514 Y-0.2514 Z0.0000 R0.2514
G02 X-0.2514 Y-0.2514 Z0.0000 R0.2514
G02 X-0.2514 Y0.2514 Z0.0000 R0.2514
G02 X0.2514 Y0.2514 Z0.0000 R0.2514
G01 X0.0000 Y-0.0285 Z-0.0069
G02 X0.2229 Y-0.2229 Z0.0000 R0.2229
G02 X-0.2229 Y-0.2229 Z0.0000 R0.2229
G02 X-0.2229 Y0.2229 Z0.0000 R0.2229
G02 X0.2229 Y0.2229 Z0.0000 R0.2229
G01 X0.0000 Y-0.0261 Z-0.0064
G02 X0.1966 Y-0.1966 Z0.0000 R0.1966
G02 X-0.1966 Y-0.1966 Z0.0000 R0.1966
G02 X-0.1966 Y0.1966 Z0.0000 R0.1966
G02 X0.1966 Y0.1966 Z0.0000 R0.1966
G01 X0.0000 Y-0.0262 Z-0.0058
G02 X0.1703 Y-0.1703 Z0.0000 R0.1703
G02 X-0.1703 Y-0.1703 Z0.0000 R0.1703
G02 X-0.1703 Y0.1703 Z0.0000 R0.1703
G02 X0.1703 Y0.1703 Z0.0000 R0.1703
G01 X0.0000 Y-0.0264 Z-0.0053
G02 X0.1438 Y-0.1438 Z0.0000 R0.1438
G02 X-0.1438 Y-0.1438 Z0.0000 R0.1438
G02 X-0.1438 Y0.1438 Z0.0000 R0.1438
G02 X0.1438 Y0.1438 Z0.0000 R0.1438
G01 X0.0000 Y-0.0264 Z-0.0048
G02 X0.1174 Y-0.1174 Z0.0000 R0.1174
G02 X-0.1174 Y-0.1174 Z0.0000 R0.1174
G02 X-0.1174 Y0.1174 Z0.0000 R0.1174
G02 X0.1174 Y0.1174 Z0.0000 R0.1174
G01 X0.0000 Y-0.0266 Z-0.0043
G02 X0.0907 Y-0.0907 Z0.0000 R0.0907
G02 X-0.0907 Y-0.0907 Z0.0000 R0.0907
G02 X-0.0907 Y0.0907 Z0.0000 R0.0907
G02 X0.0907 Y0.0907 Z0.0000 R0.0907
G01 X0.0000 Y-0.0266 Z-0.0038
G02 X0.0640 Y-0.0640 Z0.0000 R0.0640
G02 X-0.0640 Y-0.0640 Z0.0000 R0.0640
G02 X-0.0640 Y0.0640 Z0.0000 R0.0640
G02 X0.0640 Y0.0640 Z0.0000 R0.0640
G90
G00 X26.9094 Y1.8015 Z0.2000
G00 X26.9094 Y1.7374 Z0.2000
G00 X31.9458 Y-2.4712 Z0.2000
( A single insert                                                              )
(   Outer rim diameter = 0.7500"                                               )
(   Outer rim depth    = -0.0450"                                              )
(   Shaft diameter      = 0.3729"                                              )
(   Shaft depth         = -0.4200"                                             )
G01 X31.9458 Y-2.4712 Z0.0000
G91
G01 X0.0000 Y0.2514 Z-0.0450
G02 X0.2514 Y-0.2514 Z0.0000 R0.2514
G02 X-0.2514 Y-0.2514 Z0.0000 R0.2514
G02 X-0.2514 Y0.2514 Z0.0000 R0.2514
G02 X0.2514 Y0.2514 Z0.0000 R0.2514
G01 X0.0000 Y-0.0285 Z-0.0069
G02 X0.2229 Y-0.2229 Z0.0000 R0.2229
G02 X-0.2229 Y-0.2229 Z0.0000 R0.2229
G02 X-0.2229 Y0.2229 Z0.0000 R0.2229
G02 X0.2229 Y0.2229 Z0.0000 R0.2229
G01 X0.0000 Y-0.0261 Z-0.0064
G02 X0.1966 Y-0.1966 Z0.0000 R0.1966
G02 X-0.1966 Y-0.1966 Z0.0000 R0.1966
G02 X-0.1966 Y0.1966 Z0.0000 R0.1966
G02 X0.1966 Y0.1966 Z0.0000 R0.1966
G01 X0.0000 Y-0.0262 Z-0.0058
G02 X0.1703 Y-0.1703 Z0.0000 R0.1703
G02 X-0.1703 Y-0.1703 Z0.0000 R0.1703
G02 X-0.1703 Y0.1703 Z0.0000 R0.1703
G02 X0.1703 Y0.1703 Z0.0000 R0.1703
G01 X0.0000 Y-0.0264 Z-0.0053
G02 X0.1438 Y-0.1438 Z0.0000 R0.1438
G02 X-0.1438 Y-0.1438 Z0.0000 R0.1438
G02 X-0.1438 Y0.1438 Z0.0000 R0.1438
G02 X0.1438 Y0.1438 Z0.0000 R0.1438
G01 X0.0000 Y-0.0264 Z-0.0048
G02 X0.1174 Y-0.1174 Z0.0000 R0.1174
G02 X-0.1174 Y-0.1174 Z0.0000 R0.1174
G02 X-0.1174 Y0.1174 Z0.0000 R0.1174
G02 X0.1174 Y0.1174 Z0.0000 R0.1174
G01 X0.0000 Y-0.0266 Z-0.0043
G02 X0.0907 Y-0.0907 Z0.0000 R0.0907
G02 X-0.0907 Y-0.0907 Z0.0000 R0.0907
G02 X-0.0907 Y0.0907 Z0.0000 R0.0907
G02 X0.0907 Y0.0907 Z0.0000 R0.0907
G01 X0.0000 Y-0.0266 Z-0.0038
G02 X0.0640 Y-0.0640 Z0.0000 R0.0640
G02 X-0.0640 Y-0.0640 Z0.0000 R0.0640
G02 X-0.0640 Y0.0640 Z0.0000 R0.0640
G02 X0.0640 Y0.0640 Z0.0000 R0.0640
G90
G01 X31.9458 Y-2.4712 Z0.0000
( Incremental hole: depth = -0.4200, diameter = 0.3729                         )
G91
G01 X0.0000 Y0.0629 Z0.0000
G01 X0.0000 Y0.0000 Z-0.1400
G02 X0.0629 Y-0.0629 Z0.0000 R0.0629
G02 X-0.0629 Y-0.0629 Z0.0000 R0.0629
G02 X-0.0629 Y0.0629 Z0.0000 R0.0629
G02 X0.0629 Y0.0629 Z0.0000 R0.0629
G01 X0.0000 Y0.0000 Z-0.1400
G02 X0.0629 Y-0.0629 Z0.0000 R0.0629
G02 X-0.0629 Y-0.0629 Z0.0000 R0.0629
G02 X-0.0629 Y0.0629 Z0.0000 R0.0629
G02 X0.0629 Y0.0629 Z0.0000 R0.0629
G01 X0.0000 Y0.0000 Z-0.1400
G02 X0.0629 Y-0.0629 Z0.0000 R0.0629
G02 X-0.0629 Y-0.0629 Z0.0000 R0.0629
G02 X-0.0629 Y0.0629 Z0.0000 R0.0629
G02 X0.0629 Y0.0629 Z0.0000 R0.0629
G02 X0.0629 Y-0.0629 Z0.0000 R0.0629
G02 X-0.0629 Y-0.0629 Z0.0000 R0.0629
G02 X-0.0629 Y0.0629 Z0.0000 R0.0629
G02 X0.0629 Y0.0629 Z0.0000 R0.0629
G02 X0.0629 Y-0.0629 Z0.0000 R0.0629
G02 X-0.0629 Y-0.0629 Z0.0000 R0.0629
G02 X-0.0629 Y0.0629 Z0.0000 R0.0629
G02 X0.0629 Y0.0629 Z0.0000 R0.0629
G02 X0.0629 Y-0.0629 Z0.0000 R0.0629
G02 X-0.0629 Y-0.0629 Z0.0000 R0.0629
G02 X-0.0629 Y0.0629 Z0.0000 R0.0629
G02 X0.0629 Y0.0629 Z0.0000 R0.0629
G01 X0.0000 Y-0.0629 Z0.0000
G90
G01 X31.9458 Y-2.4712 Z0.0000
G91
G01 X0.0000 Y0.2514 Z-0.0450
G02 X0.2514 Y-0.2514 Z0.0000 R0.2514
G02 X-0.2514 Y-0.2514 Z0.0000 R0.2514
G02 X-0.2514 Y0.2514 Z0.0000 R0.2514
G02 X0.2514 Y0.2514 Z0.0000 R0.2514
G01 X0.0000 Y-0.0285 Z-0.0069
G02 X0.2229 Y-0.2229 Z0.0000 R0.2229
G02 X-0.2229 Y-0.2229 Z0.0000 R0.2229
G02 X-0.2229 Y0.2229 Z0.0000 R0.2229
G02 X0.2229 Y0.2229 Z0.0000 R0.2229
G01 X0.0000 Y-0.0261 Z-0.0064
G02 X0.1966 Y-0.1966 Z0.0000 R0.1966
G02 X-0.1966 Y-0.1966 Z0.0000 R0.1966
G02 X-0.1966 Y0.1966 Z0.0000 R0.1966
G02 X0.1966 Y0.1966 Z0.0000 R0.1966
G01 X0.0000 Y-0.0262 Z-0.0058
G02 X0.1703 Y-0.1703 Z0.0000 R0.1703
G02 X-0.1703 Y-0.1703 Z0.0000 R0.1703
G02 X-0.1703 Y0.1703 Z0.0000 R0.1703
G02 X0.1703 Y0.1703 Z0.0000 R0.1703
G01 X0.0000 Y-0.0264 Z-0.0053
G02 X0.1438 Y-0.1438 Z0.0000 R0.1438
G02 X-0.1438 Y-0.1438 Z0.0000 R0.1438
G02 X-0.1438 Y0.1438 Z0.0000 R0.1438
G02 X0.1438 Y0.1438 Z0.0000 R0.1438
G01 X0.0000 Y-0.0264 Z-0.0048
G02 X0.1174 Y-0.1174 Z0.0000 R0.1174
G02 X-0.1174 Y-0.1174 Z0.0000 R0.1174
G02 X-0.1174 Y0.1174 Z0.0000 R0.1174
G02 X0.1174 Y0.1174 Z0.0000 R0.1174
G01 X0.0000 Y-0.0266 Z-0.0043
G02 X0.0907 Y-0.0907 Z0.0000 R0.0907
G02 X-0.0907 Y-0.0907 Z0.0000 R0.0907
G02 X-0.0907 Y0.0907 Z0.0000 R0.0907
G02 X0.0907 Y0.0907 Z0.0000 R0.0907
G01 X0.0000 Y-0.0266 Z-0.0038
G02 X0.0640 Y-0.0640 Z0.0000 R0.0640
G02 X-0.0640 Y-0.0640 Z0.0000 R0.0640
G02 X-0.0640 Y0.0640 Z0.0000 R0.0640
G02 X0.0640 Y0.0640 Z0.0000 R0.0640
G90
G00 X31.9458 Y-2.4072 Z0.2000
G00 X31.9458 Y-2.4712 Z0.2000
G00 X33.0708 Y-3.9087 Z0.2000
( A single insert                                                              )
(   Outer rim diameter = 0.7500"                                               )
(   Outer rim depth    = -0.0450"                                              )
(   Shaft diameter      = 0.3729"                                              )
(   Shaft depth         = -0.4200"                                             )
G01 X33.0708 Y-3.9087 Z0.0000
G91
G01 X0.0000 Y0.2514 Z-0.0450
G02 X0.2514 Y-0.2514 Z0.0000 R0.2514
G02 X-0.2514 Y-0.2514 Z0.0000 R0.2514
G02 X-0.2514 Y0.2514 Z0.0000 R0.2514
G02 X0.2514 Y0.2514 Z0.0000 R0.2514
G01 X0.0000 Y-0.0285 Z-0.0069
G02 X0.2229 Y-0.2229 Z0.0000 R0.2229
G02 X-0.2229 Y-0.2229 Z0.0000 R0.2229
G02 X-0.2229 Y0.2229 Z0.0000 R0.2229
G02 X0.2229 Y0.2229 Z0.0000 R0.2229
G01 X0.0000 Y-0.0261 Z-0.0064
G02 X0.1966 Y-0.1966 Z0.0000 R0.1966
G02 X-0.1966 Y-0.1966 Z0.0000 R0.1966
G02 X-0.1966 Y0.1966 Z0.0000 R0.1966
G02 X0.1966 Y0.1966 Z0.0000 R0.1966
G01 X0.0000 Y-0.0262 Z-0.0058
G02 X0.1703 Y-0.1703 Z0.0000 R0.1703
G02 X-0.1703 Y-0.1703 Z0.0000 R0.1703
G02 X-0.1703 Y0.1703 Z0.0000 R0.1703
G02 X0.1703 Y0.1703 Z0.0000 R0.1703
G01 X0.0000 Y-0.0264 Z-0.0053
G02 X0.1438 Y-0.1438 Z0.0000 R0.1438
G02 X-0.1438 Y-0.1438 Z0.0000 R0.1438
G02 X-0.1438 Y0.1438 Z0.0000 R0.1438
G02 X0.1438 Y0.1438 Z0.0000 R0.1438
G01 X0.0000 Y-0.0264 Z-0.0048
G02 X0.1174 Y-0.1174 Z0.0000 R0.1174
G02 X-0.1174 Y-0.1174 Z0.0000 R0.1174
G02 X-0.1174 Y0.1174 Z0.0000 R0.1174
G02 X0.1174 Y0.1174 Z0.0000 R0.1174
G01 X0.0000 Y-0.0266 Z-0.0043
G02 X0.0907 Y-0.0907 Z0.0000 R0.0907
G02 X-0.0907 Y-0.0907 Z0.0000 R0.0907
G02 X-0.0907 Y0.0907 Z0.0000 R0.0907
G02 X0.0907 Y0.0907 Z0.0000 R0.0907
G01 X0.0000 Y-0.0266 Z-0.0038
G02 X0.0640 Y-0.0640 Z0.0000 R0.0640
G02 X-0.0640 Y-0.0640 Z0.0000 R0.0640
G02 X-0.0640 Y0.0640 Z0.0000 R0.0640
G02 X0.0640 Y0.0640 Z0.0000 R0.0640
G90
G01 X33.0708 Y-3.9087 Z0.0000
( Incremental hole: depth = -0.4200, diameter = 0.3729                         )
G91
G01 X0.0000 Y0.0629 Z0.0000
G01 X0.0000 Y0.0000 Z-0.1400
G02 X0.0629 Y-0.0629 Z0.0000 R0.0629
G02 X-0.0629 Y-0.0629 Z0.0000 R0.0629
G02 X-0.0629 Y0.0629 Z0.0000 R0.0629
G02 X0.0629 Y0.0629 Z0.0000 R0.0629
G01 X0.0000 Y0.0000 Z-0.1400
G02 X0.0629 Y-0.0629 Z0.0000 R0.0629
G02 X-0.0629 Y-0.0629 Z0.0000 R0.0629
G02 X-0.0629 Y0.0629 Z0.0000 R0.0629
G02 X0.0629 Y0.0629 Z0.0000 R0.0629
G01 X0.0000 Y0.0000 Z-0.1400
G02 X0.0629 Y-0.0629 Z0.0000 R0.0629
G02 X-0.0629 Y-0.0629 Z0.0000 R0.0629
G02 X-0.0629 Y0.0629 Z0.0000 R0.0629
G02 X0.0629 Y0.0629 Z0.0000 R0.0629
G02 X0.0629 Y-0.0629 Z0.0000 R0.0629
G02 X-0.0629 Y-0.0629 Z0.0000 R0.0629
G02 X-0.0629 Y0.0629 Z0.0000 R0.0629
G02 X0.0629 Y0.0629 Z0.0000 R0.0629
G02 X0.0629 Y-0.0629 Z0.0000 R0.0629
G02 X-0.0629 Y-0.0629 Z0.0000 R0.0629
G02 X-0.0629 Y0.0629 Z0.0000 R0.0629
G02 X0.0629 Y0.0629 Z0.0000 R0.0629
G02 X0.0629 Y-0.0629 Z0.0000 R0.0629
G02 X-0.0629 Y-0.0629 Z0.0000 R0.0629
G02 X-0.0629 Y0.0629 Z0.0000 R0.0629
G02 X0.0629 Y0.0629 Z0.0000 R0.0629
G01 X0.0000 Y-0.0629 Z0.0000
G90
G01 X33.0708 Y-3.9087 Z0.0000
G91
G01 X0.0000 Y0.2514 Z-0.0450
G02 X0.2514 Y-0.2514 Z0.0000 R0.2514
G02 X-0.2514 Y-0.2514 Z0.0000 R0.2514
G02 X-0.2514 Y0.2514 Z0.0000 R0.2514
G02 X0.2514 Y0.2514 Z0.0000 R0.2514
G01 X0.0000 Y-0.0285 Z-0.0069
G02 X0.2229 Y-0.2229 Z0.0000 R0.2229
G02 X-0.2229 Y-0.2229 Z0.0000 R0.2229
G02 X-0.2229 Y0.2229 Z0.0000 R0.2229
G02 X0.2229 Y0.2229 Z0.0000 R0.2229
G01 X0.0000 Y-0.0261 Z-0.0064
G02 X0.1966 Y-0.1966 Z0.0000 R0.1966
G02 X-0.1966 Y-0.1966 Z0.0000 R0.1966
G02 X-0.1966 Y0.1966 Z0.0000 R0.1966
G02 X0.1966 Y0.1966 Z0.0000 R0.1966
G01 X0.0000 Y-0.0262 Z-0.0058
G02 X0.1703 Y-0.1703 Z0.0000 R0.1703
G02 X-0.1703 Y-0.1703 Z0.0000 R0.1703
G02 X-0.1703 Y0.1703 Z0.0000 R0.1703
G02 X0.1703 Y0.1703 Z0.0000 R0.1703
G01 X0.0000 Y-0.0264 Z-0.0053
G02 X0.1438 Y-0.1438 Z0.0000 R0.1438
G02 X-0.1438 Y-0.1438 Z0.0000 R0.1438
G02 X-0.1438 Y0.1438 Z0.0000 R0.1438
G02 X0.1438 Y0.1438 Z0.0000 R0.1438
G01 X0.0000 Y-0.0264 Z-0.0048
G02 X0.1174 Y-0.1174 Z0.0000 R0.1174
G02 X-0.1174 Y-0.1174 Z0.0000 R0.1174
G02 X-0.1174 Y0.1174 Z0.0000 R0.1174
G02 X0.1174 Y0.1174 Z0.0000 R0.1174
G01 X0.0000 Y-0.0266 Z-0.0043
G02 X0.0907 Y-0.0907 Z0.0000 R0.0907
G02 X-0.0907 Y-0.0907 Z0.0000 R0.0907
G02 X-0.0907 Y0.0907 Z0.0000 R0.0907
G02 X0.0907 Y0.0907 Z0.0000 R0.0907
G01 X0.0000 Y-0.0266 Z-0.0038
G02 X0.0640 Y-0.0640 Z0.0000 R0.0640
G02 X-0.0640 Y-0.0640 Z0.0000 R0.0640
G02 X-0.0640 Y0.0640 Z0.0000 R0.0640
G02 X0.0640 Y0.0640 Z0.0000 R0.0640
G90
G00 X33.0708 Y-3.8446 Z0.2000
G00 X33.0708 Y-3.9087 Z0.2000
G00 X33.0708 Y-1.0337 Z0.2000
( A single insert                                                              )
(   Outer rim diameter = 0.7500"                                               )
(   Outer rim depth    = -0.0450"                                              )
(   Shaft diameter      = 0.3729"                                              )
(   Shaft depth         = -0.4200"                                             )
G01 X33.0708 Y-1.0337 Z0.0000
G91
G01 X0.0000 Y0.2514 Z-0.0450
G02 X0.2514 Y-0.2514 Z0.0000 R0.2514
G02 X-0.2514 Y-0.2514 Z0.0000 R0.2514
G02 X-0.2514 Y0.2514 Z0.0000 R0.2514
G02 X0.2514 Y0.2514 Z0.0000 R0.2514
G01 X0.0000 Y-0.0285 Z-0.0069
G02 X0.2229 Y-0.2229 Z0.0000 R0.2229
G02 X-0.2229 Y-0.2229 Z0.0000 R0.2229
G02 X-0.2229 Y0.2229 Z0.0000 R0.2229
G02 X0.2229 Y0.2229 Z0.0000 R0.2229
G01 X0.0000 Y-0.0261 Z-0.0064
G02 X0.1966 Y-0.1966 Z0.0000 R0.1966
G02 X-0.1966 Y-0.1966 Z0.0000 R0.1966
G02 X-0.1966 Y0.1966 Z0.0000 R0.1966
G02 X0.1966 Y0.1966 Z0.0000 R0.1966
G01 X0.0000 Y-0.0262 Z-0.0058
G02 X0.1703 Y-0.1703 Z0.0000 R0.1703
G02 X-0.1703 Y-0.1703 Z0.0000 R0.1703
G02 X-0.1703 Y0.1703 Z0.0000 R0.1703
G02 X0.1703 Y0.1703 Z0.0000 R0.1703
G01 X0.0000 Y-0.0264 Z-0.0053
G02 X0.1438 Y-0.1438 Z0.0000 R0.1438
G02 X-0.1438 Y-0.1438 Z0.0000 R0.1438
G02 X-0.1438 Y0.1438 Z0.0000 R0.1438
G02 X0.1438 Y0.1438 Z0.0000 R0.1438
G01 X0.0000 Y-0.0264 Z-0.0048
G02 X0.1174 Y-0.1174 Z0.0000 R0.1174
G02 X-0.1174 Y-0.1174 Z0.0000 R0.1174
G02 X-0.1174 Y0.1174 Z0.0000 R0.1174
G02 X0.1174 Y0.1174 Z0.0000 R0.1174
G01 X0.0000 Y-0.0266 Z-0.0043
G02 X0.0907 Y-0.0907 Z0.0000 R0.0907
G02 X-0.0907 Y-0.0907 Z0.0000 R0.0907
G02 X-0.0907 Y0.0907 Z0.0000 R0.0907
G02 X0.0907 Y0.0907 Z0.0000 R0.0907
G01 X0.0000 Y-0.0266 Z-0.0038
G02 X0.0640 Y-0.0640 Z0.0000 R0.0640
G02 X-0.0640 Y-0.0640 Z0.0000 R0.0640
G02 X-0.0640 Y0.0640 Z0.0000 R0.0640
G02 X0.0640 Y0.0640 Z0.0000 R0.0640
G90
G01 X33.0708 Y-1.0337 Z0.0000
( Incremental hole: depth = -0.4200, diameter = 0.3729                         )
G91
G01 X0.0000 Y0.0629 Z0.0000
G01 X0.0000 Y0.0000 Z-0.1400
G02 X0.0629 Y-0.0629 Z0.0000 R0.0629
G02 X-0.0629 Y-0.0629 Z0.0000 R0.0629
G02 X-0.0629 Y0.0629 Z0.0000 R0.0629
G02 X0.0629 Y0.0629 Z0.0000 R0.0629
G01 X0.0000 Y0.0000 Z-0.1400
G02 X0.0629 Y-0.0629 Z0.0000 R0.0629
G02 X-0.0629 Y-0.0629 Z0.0000 R0.0629
G02 X-0.0629 Y0.0629 Z0.0000 R0.0629
G02 X0.0629 Y0.0629 Z0.0000 R0.0629
G01 X0.0000 Y0.0000 Z-0.1400
G02 X0.0629 Y-0.0629 Z0.0000 R0.0629
G02 X-0.0629 Y-0.0629 Z0.0000 R0.0629
G02 X-0.0629 Y0.0629 Z0.0000 R0.0629
G02 X0.0629 Y0.0629 Z0.0000 R0.0629
G02 X0.0629 Y-0.0629 Z0.0000 R0.0629
G02 X-0.0629 Y-0.0629 Z0.0000 R0.0629
G02 X-0.0629 Y0.0629 Z0.0000 R0.0629
G02 X0.0629 Y0.0629 Z0.0000 R0.0629
G02 X0.0629 Y-0.0629 Z0.0000 R0.0629
G02 X-0.0629 Y-0.0629 Z0.0000 R0.0629
G02 X-0.0629 Y0.0629 Z0.0000 R0.0629
G02 X0.0629 Y0.0629 Z0.0000 R0.0629
G02 X0.0629 Y-0.0629 Z0.0000 R0.0629
G02 X-0.0629 Y-0.0629 Z0.0000 R0.0629
G02 X-0.0629 Y0.0629 Z0.0000 R0.0629
G02 X0.0629 Y0.0629 Z0.0000 R0.0629
G01 X0.0000 Y-0.0629 Z0.0000
G90
G01 X33.0708 Y-1.0337 Z0.0000
G91
G01 X0.0000 Y0.2514 Z-0.0450
G02 X0.2514 Y-0.2514 Z0.0000 R0.2514
G02 X-0.2514 Y-0.2514 Z0.0000 R0.2514
G02 X-0.2514 Y0.2514 Z0.0000 R0.2514
G02 X0.2514 Y0.2514 Z0.0000 R0.2514
G01 X0.0000 Y-0.0285 Z-0.0069
G02 X0.2229 Y-0.2229 Z0.0000 R0.2229
G02 X-0.2229 Y-0.2229 Z0.0000 R0.2229
G02 X-0.2229 Y0.2229 Z0.0000 R0.2229
G02 X0.2229 Y0.2229 Z0.0000 R0.2229
G01 X0.0000 Y-0.0261 Z-0.0064
G02 X0.1966 Y-0.1966 Z0.0000 R0.1966
G02 X-0.1966 Y-0.1966 Z0.0000 R0.1966
G02 X-0.1966 Y0.1966 Z0.0000 R0.1966
G02 X0.1966 Y0.1966 Z0.0000 R0.1966
G01 X0.0000 Y-0.0262 Z-0.0058
G02 X0.1703 Y-0.1703 Z0.0000 R0.1703
G02 X-0.1703 Y-0.1703 Z0.0000 R0.1703
G02 X-0.1703 Y0.1703 Z0.0000 R0.1703
G02 X0.1703 Y0.1703 Z0.0000 R0.1703
G01 X0.0000 Y-0.0264 Z-0.0053
G02 X0.1438 Y-0.1438 Z0.0000 R0.1438
G02 X-0.1438 Y-0.1438 Z0.0000 R0.1438
G02 X-0.1438 Y0.1438 Z0.0000 R0.1438
G02 X0.1438 Y0.1438 Z0.0000 R0.1438
G01 X0.0000 Y-0.0264 Z-0.0048
G02 X0.1174 Y-0.1174 Z0.0000 R0.1174
G02 X-0.1174 Y-0.1174 Z0.0000 R0.1174
G02 X-0.1174 Y0.1174 Z0.0000 R0.1174
G02 X0.1174 Y0.1174 Z0.0000 R0.1174
G01 X0.0000 Y-0.0266 Z-0.0043
G02 X0.0907 Y-0.0907 Z0.0000 R0.0907
G02 X-0.0907 Y-0.0907 Z0.0000 R0.0907
G02 X-0.0907 Y0.0907 Z0.0000 R0.0907
G02 X0.0907 Y0.0907 Z0.0000 R0.0907
G01 X0.0000 Y-0.0266 Z-0.0038
G02 X0.0640 Y-0.0640 Z0.0000 R0.0640
G02 X-0.0640 Y-0.0640 Z0.0000 R0.0640
G02 X-0.0640 Y0.0640 Z0.0000 R0.0640
G02 X0.0640 Y0.0640 Z0.0000 R0.0640
G90
G00 X33.0708 Y-0.9697 Z0.2000
G00 X33.0708 Y-1.0337 Z0.2000
G00 X39.3458 Y-2.4712 Z0.2000
( A single insert                                                              )
(   Outer rim diameter = 0.7500"                                               )
(   Outer rim depth    = -0.0450"                                              )
(   Shaft diameter      = 0.3729"                                              )
(   Shaft depth         = -0.4200"                                             )
G01 X39.3458 Y-2.4712 Z0.0000
G91
G01 X0.0000 Y0.2514 Z-0.0450
G02 X0.2514 Y-0.2514 Z0.0000 R0.2514
G02 X-0.2514 Y-0.2514 Z0.0000 R0.2514
G02 X-0.2514 Y0.2514 Z0.0000 R0.2514
G02 X0.2514 Y0.2514 Z0.0000 R0.2514
G01 X0.0000 Y-0.0285 Z-0.0069
G02 X0.2229 Y-0.2229 Z0.0000 R0.2229
G02 X-0.2229 Y-0.2229 Z0.0000 R0.2229
G02 X-0.2229 Y0.2229 Z0.0000 R0.2229
G02 X0.2229 Y0.2229 Z0.0000 R0.2229
G01 X0.0000 Y-0.0261 Z-0.0064
G02 X0.1966 Y-0.1966 Z0.0000 R0.1966
G02 X-0.1966 Y-0.1966 Z0.0000 R0.1966
G02 X-0.1966 Y0.1966 Z0.0000 R0.1966
G02 X0.1966 Y0.1966 Z0.0000 R0.1966
G01 X0.0000 Y-0.0262 Z-0.0058
G02 X0.1703 Y-0.1703 Z0.0000 R0.1703
G02 X-0.1703 Y-0.1703 Z0.0000 R0.1703
G02 X-0.1703 Y0.1703 Z0.0000 R0.1703
G02 X0.1703 Y0.1703 Z0.0000 R0.1703
G01 X0.0000 Y-0.0264 Z-0.0053
G02 X0.1438 Y-0.1438 Z0.0000 R0.1438
G02 X-0.1438 Y-0.1438 Z0.0000 R0.1438
G02 X-0.1438 Y0.1438 Z0.0000 R0.1438
G02 X0.1438 Y0.1438 Z0.0000 R0.1438
G01 X0.0000 Y-0.0264 Z-0.0048
G02 X0.1174 Y-0.1174 Z0.0000 R0.1174
G02 X-0.1174 Y-0.1174 Z0.0000 R0.1174
G02 X-0.1174 Y0.1174 Z0.0000 R0.1174
G02 X0.1174 Y0.1174 Z0.0000 R0.1174
G01 X0.0000 Y-0.0266 Z-0.0043
G02 X0.0907 Y-0.0907 Z0.0000 R0.0907
G02 X-0.0907 Y-0.0907 Z0.0000 R0.0907
G02 X-0.0907 Y0.0907 Z0.0000 R0.0907
G02 X0.0907 Y0.0907 Z0.0000 R0.0907
G01 X0.0000 Y-0.0266 Z-0.0038
G02 X0.0640 Y-0.0640 Z0.0000 R0.0640
G02 X-0.0640 Y-0.0640 Z0.0000 R0.0640
G02 X-0.0640 Y0.0640 Z0.0000 R0.0640
G02 X0.0640 Y0.0640 Z0.0000 R0.0640
G90
G01 X39.3458 Y-2.4712 Z0.0000
( Incremental hole: depth = -0.4200, diameter = 0.3729                         )
G91
G01 X0.0000 Y0.0629 Z0.0000
G01 X0.0000 Y0.0000 Z-0.1400
G02 X0.0629 Y-0.0629 Z0.0000 R0.0629
G02 X-0.0629 Y-0.0629 Z0.0000 R0.0629
G02 X-0.0629 Y0.0629 Z0.0000 R0.0629
G02 X0.0629 Y0.0629 Z0.0000 R0.0629
G01 X0.0000 Y0.0000 Z-0.1400
G02 X0.0629 Y-0.0629 Z0.0000 R0.0629
G02 X-0.0629 Y-0.0629 Z0.0000 R0.0629
G02 X-0.0629 Y0.0629 Z0.0000 R0.0629
G02 X0.0629 Y0.0629 Z0.0000 R0.0629
G01 X0.0000 Y0.0000 Z-0.1400
G02 X0.0629 Y-0.0629 Z0.0000 R0.0629
G02 X-0.0629 Y-0.0629 Z0.0000 R0.0629
G02 X-0.0629 Y0.0629 Z0.0000 R0.0629
G02 X0.0629 Y0.0629 Z0.0000 R0.0629
G02 X0.0629 Y-0.0629 Z0.0000 R0.0629
G02 X-0.0629 Y-0.0629 Z0.0000 R0.0629
G02 X-0.0629 Y0.0629 Z0.0000 R0.0629
G02 X0.0629 Y0.0629 Z0.0000 R0.0629
G02 X0.0629 Y-0.0629 Z0.0000 R0.0629
G02 X-0.0629 Y-0.0629 Z0.0000 R0.0629
G02 X-0.0629 Y0.0629 Z0.0000 R0.0629
G02 X0.0629 Y0.0629 Z0.0000 R0.0629
G02 X0.0629 Y-0.0629 Z0.0000 R0.0629
G02 X-0.0629 Y-0.0629 Z0.0000 R0.0629
G02 X-0.0629 Y0.0629 Z0.0000 R0.0629
G02 X0.0629 Y0.0629 Z0.0000 R0.0629
G01 X0.0000 Y-0.0629 Z0.0000
G90
G01 X39.3458 Y-2.4712 Z0.0000
G91
G01 X0.0000 Y0.2514 Z-0.0450
G02 X0.2514 Y-0.2514 Z0.0000 R0.2514
G02 X-0.2514 Y-0.2514 Z0.0000 R0.2514
G02 X-0.2514 Y0.2514 Z0.0000 R0.2514
G02 X0.2514 Y0.2514 Z0.0000 R0.2514
G01 X0.0000 Y-0.0285 Z-0.0069
G02 X0.2229 Y-0.2229 Z0.0000 R0.2229
G02 X-0.2229 Y-0.2229 Z0.0000 R0.2229
G02 X-0.2229 Y0.2229 Z0.0000 R0.2229
G02 X0.2229 Y0.2229 Z0.0000 R0.2229
G01 X0.0000 Y-0.0261 Z-0.0064
G02 X0.1966 Y-0.1966 Z0.0000 R0.1966
G02 X-0.1966 Y-0.1966 Z0.0000 R0.1966
G02 X-0.1966 Y0.1966 Z0.0000 R0.1966
G02 X0.1966 Y0.1966 Z0.0000 R0.1966
G01 X0.0000 Y-0.0262 Z-0.0058
G02 X0.1703 Y-0.1703 Z0.0000 R0.1703
G02 X-0.1703 Y-0.1703 Z0.0000 R0.1703
G02 X-0.1703 Y0.1703 Z0.0000 R0.1703
G02 X0.1703 Y0.1703 Z0.0000 R0.1703
G01 X0.0000 Y-0.0264 Z-0.0053
G02 X0.1438 Y-0.1438 Z0.0000 R0.1438
G02 X-0.1438 Y-0.1438 Z0.0000 R0.1438
G02 X-0.1438 Y0.1438 Z0.0000 R0.1438
G02 X0.1438 Y0.1438 Z0.0000 R0.1438
G01 X0.0000 Y-0.0264 Z-0.0048
G02 X0.1174 Y-0.1174 Z0.0000 R0.1174
G02 X-0.1174 Y-0.1174 Z0.0000 R0.1174
G02 X-0.1174 Y0.1174 Z0.0000 R0.1174
G02 X0.1174 Y0.1174 Z0.0000 R0.1174
G01 X0.0000 Y-0.0266 Z-0.0043
G02 X0.0907 Y-0.0907 Z0.0000 R0.0907
G02 X-0.0907 Y-0.0907 Z0.0000 R0.0907
G02 X-0.0907 Y0.0907 Z0.0000 R0.0907
G02 X0.0907 Y0.0907 Z0.0000 R0.0907
G01 X0.0000 Y-0.0266 Z-0.0038
G02 X0.0640 Y-0.0640 Z0.0000 R0.0640
G02 X-0.0640 Y-0.0640 Z0.0000 R0.0640
G02 X-0.0640 Y0.0640 Z0.0000 R0.0640
G02 X0.0640 Y0.0640 Z0.0000 R0.0640
G90
G00 X39.3458 Y-2.4072 Z0.2000
G00 X39.3458 Y-2.4712 Z0.2000
G00 X40.4088 Y-2.4712 Z0.2000
( A single insert                                                              )
(   Outer rim diameter = 0.7500"                                               )
(   Outer rim depth    = -0.0450"                                              )
(   Shaft diameter      = 0.3729"                                              )
(   Shaft depth         = -0.4200"                                             )
G01 X40.4088 Y-2.4712 Z0.0000
G91
G01 X0.0000 Y0.2514 Z-0.0450
G02 X0.2514 Y-0.2514 Z0.0000 R0.2514
G02 X-0.2514 Y-0.2514 Z0.0000 R0.2514
G02 X-0.2514 Y0.2514 Z0.0000 R0.2514
G02 X0.2514 Y0.2514 Z0.0000 R0.2514
G01 X0.0000 Y-0.0285 Z-0.0069
G02 X0.2229 Y-0.2229 Z0.0000 R0.2229
G02 X-0.2229 Y-0.2229 Z0.0000 R0.2229
G02 X-0.2229 Y0.2229 Z0.0000 R0.2229
G02 X0.2229 Y0.2229 Z0.0000 R0.2229
G01 X0.0000 Y-0.0261 Z-0.0064
G02 X0.1966 Y-0.1966 Z0.0000 R0.1966
G02 X-0.1966 Y-0.1966 Z0.0000 R0.1966
G02 X-0.1966 Y0.1966 Z0.0000 R0.1966
G02 X0.1966 Y0.1966 Z0.0000 R0.1966
G01 X0.0000 Y-0.0262 Z-0.0058
G02 X0.1703 Y-0.1703 Z0.0000 R0.1703
G02 X-0.1703 Y-0.1703 Z0.0000 R0.1703
G02 X-0.1703 Y0.1703 Z0.0000 R0.1703
G02 X0.1703 Y0.1703 Z0.0000 R0.1703
G01 X0.0000 Y-0.0264 Z-0.0053
G02 X0.1438 Y-0.1438 Z0.0000 R0.1438
G02 X-0.1438 Y-0.1438 Z0.0000 R0.1438
G02 X-0.1438 Y0.1438 Z0.0000 R0.1438
G02 X0.1438 Y0.1438 Z0.0000 R0.1438
G01 X0.0000 Y-0.0264 Z-0.0048
G02 X0.1174 Y-0.1174 Z0.0000 R0.1174
G02 X-0.1174 Y-0.1174 Z0.0000 R0.1174
G02 X-0.1174 Y0.1174 Z0.0000 R0.1174
G02 X0.1174 Y0.1174 Z0.0000 R0.1174
G01 X0.0000 Y-0.0266 Z-0.0043
G02 X0.0907 Y-0.0907 Z0.0000 R0.0907
G02 X-0.0907 Y-0.0907 Z0.0000 R0.0907
G02 X-0.0907 Y0.0907 Z0.0000 R0.0907
G02 X0.0907 Y0.0907 Z0.0000 R0.0907
G01 X0.0000 Y-0.0266 Z-0.0038
G02 X0.0640 Y-0.0640 Z0.0000 R0.0640
G02 X-0.0640 Y-0.0640 Z0.0000 R0.0640
G02 X-0.0640 Y0.0640 Z0.0000 R0.0640
G02 X0.0640 Y0.0640 Z0.0000 R0.0640
G90
G01 X40.4088 Y-2.4712 Z0.0000
( Incremental hole: depth = -0.4200, diameter = 0.3729                         )
G91
G01 X0.0000 Y0.0629 Z0.0000
G01 X0.0000 Y0.0000 Z-0.1400
G02 X0.0629 Y-0.0629 Z0.0000 R0.0629
G02 X-0.0629 Y-0.0629 Z0.0000 R0.0629
G02 X-0.0629 Y0.0629 Z0.0000 R0.0629
G02 X0.0629 Y0.0629 Z0.0000 R0.0629
G01 X0.0000 Y0.0000 Z-0.1400
G02 X0.0629 Y-0.0629 Z0.0000 R0.0629
G02 X-0.0629 Y-0.0629 Z0.0000 R0.0629
G02 X-0.0629 Y0.0629 Z0.0000 R0.0629
G02 X0.0629 Y0.0629 Z0.0000 R0.0629
G01 X0.0000 Y0.0000 Z-0.1400
G02 X0.0629 Y-0.0629 Z0.0000 R0.0629
G02 X-0.0629 Y-0.0629 Z0.0000 R0.0629
G02 X-0.0629 Y0.0629 Z0.0000 R0.0629
G02 X0.0629 Y0.0629 Z0.0000 R0.0629
G02 X0.0629 Y-0.0629 Z0.0000 R0.0629
G02 X-0.0629 Y-0.0629 Z0.0000 R0.0629
G02 X-0.0629 Y0.0629 Z0.0000 R0.0629
G02 X0.0629 Y0.0629 Z0.0000 R0.0629
G02 X0.0629 Y-0.0629 Z0.0000 R0.0629
G02 X-0.0629 Y-0.0629 Z0.0000 R0.0629
G02 X-0.0629 Y0.0629 Z0.0000 R0.0629
G02 X0.0629 Y0.0629 Z0.0000 R0.0629
G02 X0.0629 Y-0.0629 Z0.0000 R0.0629
G02 X-0.0629 Y-0.0629 Z0.0000 R0.0629
G02 X-0.0629 Y0.0629 Z0.0000 R0.0629
G02 X0.0629 Y0.0629 Z0.0000 R0.0629
G01 X0.0000 Y-0.0629 Z0.0000
G90
G01 X40.4088 Y-2.4712 Z0.0000
G91
G01 X0.0000 Y0.2514 Z-0.0450
G02 X0.2514 Y-0.2514 Z0.0000 R0.2514
G02 X-0.2514 Y-0.2514 Z0.0000 R0.2514
G02 X-0.2514 Y0.2514 Z0.0000 R0.2514
G02 X0.2514 Y0.2514 Z0.0000 R0.2514
G01 X0.0000 Y-0.0285 Z-0.0069
G02 X0.2229 Y-0.2229 Z0.0000 R0.2229
G02 X-0.2229 Y-0.2229 Z0.0000 R0.2229
G02 X-0.2229 Y0.2229 Z0.0000 R0.2229
G02 X0.2229 Y0.2229 Z0.0000 R0.2229
G01 X0.0000 Y-0.0261 Z-0.0064
G02 X0.1966 Y-0.1966 Z0.0000 R0.1966
G02 X-0.1966 Y-0.1966 Z0.0000 R0.1966
G02 X-0.1966 Y0.1966 Z0.0000 R0.1966
G02 X0.1966 Y0.1966 Z0.0000 R0.1966
G01 X0.0000 Y-0.0262 Z-0.0058
G02 X0.1703 Y-0.1703 Z0.0000 R0.1703
G02 X-0.1703 Y-0.1703 Z0.0000 R0.1703
G02 X-0.1703 Y0.1703 Z0.0000 R0.1703
G02 X0.1703 Y0.1703 Z0.0000 R0.1703
G01 X0.0000 Y-0.0264 Z-0.0053
G02 X0.1438 Y-0.1438 Z0.0000 R0.1438
G02 X-0.1438 Y-0.1438 Z0.0000 R0.1438
G02 X-0.1438 Y0.1438 Z0.0000 R0.1438
G02 X0.1438 Y0.1438 Z0.0000 R0.1438
G01 X0.0000 Y-0.0264 Z-0.0048
G02 X0.1174 Y-0.1174 Z0.0000 R0.1174
G02 X-0.1174 Y-0.1174 Z0.0000 R0.1174
G02 X-0.1174 Y0.1174 Z0.0000 R0.1174
G02 X0.1174 Y0.1174 Z0.0000 R0.1174
G01 X0.0000 Y-0.0266 Z-0.0043
G02 X0.0907 Y-0.0907 Z0.0000 R0.0907
G02 X-0.0907 Y-0.0907 Z0.0000 R0.0907
G02 X-0.0907 Y0.0907 Z0.0000 R0.0907
G02 X0.0907 Y0.0907 Z0.0000 R0.0907
G01 X0.0000 Y-0.0266 Z-0.0038
G02 X0.0640 Y-0.0640 Z0.0000 R0.0640
G02 X-0.0640 Y-0.0640 Z0.0000 R0.0640
G02 X-0.0640 Y0.0640 Z0.0000 R0.0640
G02 X0.0640 Y0.0640 Z0.0000 R0.0640
G90
G00 X40.4088 Y-2.4072 Z0.2000
G00 X40.4088 Y-2.4712 Z0.2000
G00 X31.9458 Y2.4712 Z0.2000
( A single insert                                                              )
(   Outer rim diameter = 0.7500"                                               )
(   Outer rim depth    = -0.0450"                                              )
(   Shaft diameter      = 0.3729"                                              )
(   Shaft depth         = -0.4200"                                             )
G01 X31.9458 Y2.4712 Z0.0000
G91
G01 X0.0000 Y0.2514 Z-0.0450
G02 X0.2514 Y-0.2514 Z0.0000 R0.2514
G02 X-0.2514 Y-0.2514 Z0.0000 R0.2514
G02 X-0.2514 Y0.2514 Z0.0000 R0.2514
G02 X0.2514 Y0.2514 Z0.0000 R0.2514
G01 X0.0000 Y-0.0285 Z-0.0069
G02 X0.2229 Y-0.2229 Z0.0000 R0.2229
G02 X-0.2229 Y-0.2229 Z0.0000 R0.2229
G02 X-0.2229 Y0.2229 Z0.0000 R0.2229
G02 X0.2229 Y0.2229 Z0.0000 R0.2229
G01 X0.0000 Y-0.0261 Z-0.0064
G02 X0.1966 Y-0.1966 Z0.0000 R0.1966
G02 X-0.1966 Y-0.1966 Z0.0000 R0.1966
G02 X-0.1966 Y0.1966 Z0.0000 R0.1966
G02 X0.1966 Y0.1966 Z0.0000 R0.1966
G01 X0.0000 Y-0.0262 Z-0.0058
G02 X0.1703 Y-0.1703 Z0.0000 R0.1703
G02 X-0.1703 Y-0.1703 Z0.0000 R0.1703
G02 X-0.1703 Y0.1703 Z0.0000 R0.1703
G02 X0.1703 Y0.1703 Z0.0000 R0.1703
G01 X0.0000 Y-0.0264 Z-0.0053
G02 X0.1438 Y-0.1438 Z0.0000 R0.1438
G02 X-0.1438 Y-0.1438 Z0.0000 R0.1438
G02 X-0.1438 Y0.1438 Z0.0000 R0.1438
G02 X0.1438 Y0.1438 Z0.0000 R0.1438
G01 X0.0000 Y-0.0264 Z-0.0048
G02 X0.1174 Y-0.1174 Z0.0000 R0.1174
G02 X-0.1174 Y-0.1174 Z0.0000 R0.1174
G02 X-0.1174 Y0.1174 Z0.0000 R0.1174
G02 X0.1174 Y0.1174 Z0.0000 R0.1174
G01 X0.0000 Y-0.0266 Z-0.0043
G02 X0.0907 Y-0.0907 Z0.0000 R0.0907
G02 X-0.0907 Y-0.0907 Z0.0000 R0.0907
G02 X-0.0907 Y0.0907 Z0.0000 R0.0907
G02 X0.0907 Y0.0907 Z0.0000 R0.0907
G01 X0.0000 Y-0.0266 Z-0.0038
G02 X0.0640 Y-0.0640 Z0.0000 R0.0640
G02 X-0.0640 Y-0.0640 Z0.0000 R0.0640
G02 X-0.0640 Y0.0640 Z0.0000 R0.0640
G02 X0.0640 Y0.0640 Z0.0000 R0.0640
G90
G01 X31.9458 Y2.4712 Z0.0000
( Incremental hole: depth = -0.4200, diameter = 0.3729                         )
G91
G01 X0.0000 Y0.0629 Z0.0000
G01 X0.0000 Y0.0000 Z-0.1400
G02 X0.0629 Y-0.0629 Z0.0000 R0.0629
G02 X-0.0629 Y-0.0629 Z0.0000 R0.0629
G02 X-0.0629 Y0.0629 Z0.0000 R0.0629
G02 X0.0629 Y0.0629 Z0.0000 R0.0629
G01 X0.0000 Y0.0000 Z-0.1400
G02 X0.0629 Y-0.0629 Z0.0000 R0.0629
G02 X-0.0629 Y-0.0629 Z0.0000 R0.0629
G02 X-0.0629 Y0.0629 Z0.0000 R0.0629
G02 X0.0629 Y0.0629 Z0.0000 R0.0629
G01 X0.0000 Y0.0000 Z-0.1400
G02 X0.0629 Y-0.0629 Z0.0000 R0.0629
G02 X-0.0629 Y-0.0629 Z0.0000 R0.0629
G02 X-0.0629 Y0.0629 Z0.0000 R0.0629
G02 X0.0629 Y0.0629 Z0.0000 R0.0629
G02 X0.0629 Y-0.0629 Z0.0000 R0.0629
G02 X-0.0629 Y-0.0629 Z0.0000 R0.0629
G02 X-0.0629 Y0.0629 Z0.0000 R0.0629
G02 X0.0629 Y0.0629 Z0.0000 R0.0629
G02 X0.0629 Y-0.0629 Z0.0000 R0.0629
G02 X-0.0629 Y-0.0629 Z0.0000 R0.0629
G02 X-0.0629 Y0.0629 Z0.0000 R0.0629
G02 X0.0629 Y0.0629 Z0.0000 R0.0629
G02 X0.0629 Y-0.0629 Z0.0000 R0.0629
G02 X-0.0629 Y-0.0629 Z0.0000 R0.0629
G02 X-0.0629 Y0.0629 Z0.0000 R0.0629
G02 X0.0629 Y0.0629 Z0.0000 R0.0629
G01 X0.0000 Y-0.0629 Z0.0000
G90
G01 X31.9458 Y2.4712 Z0.0000
G91
G01 X0.0000 Y0.2514 Z-0.0450
G02 X0.2514 Y-0.2514 Z0.0000 R0.2514
G02 X-0.2514 Y-0.2514 Z0.0000 R0.2514
G02 X-0.2514 Y0.2514 Z0.0000 R0.2514
G02 X0.2514 Y0.2514 Z0.0000 R0.2514
G01 X0.0000 Y-0.0285 Z-0.0069
G02 X0.2229 Y-0.2229 Z0.0000 R0.2229
G02 X-0.2229 Y-0.2229 Z0.0000 R0.2229
G02 X-0.2229 Y0.2229 Z0.0000 R0.2229
G02 X0.2229 Y0.2229 Z0.0000 R0.2229
G01 X0.0000 Y-0.0261 Z-0.0064
G02 X0.1966 Y-0.1966 Z0.0000 R0.1966
G02 X-0.1966 Y-0.1966 Z0.0000 R0.1966
G02 X-0.1966 Y0.1966 Z0.0000 R0.1966
G02 X0.1966 Y0.1966 Z0.0000 R0.1966
G01 X0.0000 Y-0.0262 Z-0.0058
G02 X0.1703 Y-0.1703 Z0.0000 R0.1703
G02 X-0.1703 Y-0.1703 Z0.0000 R0.1703
G02 X-0.1703 Y0.1703 Z0.0000 R0.1703
G02 X0.1703 Y0.1703 Z0.0000 R0.1703
G01 X0.0000 Y-0.0264 Z-0.0053
G02 X0.1438 Y-0.1438 Z0.0000 R0.1438
G02 X-0.1438 Y-0.1438 Z0.0000 R0.1438
G02 X-0.1438 Y0.1438 Z0.0000 R0.1438
G02 X0.1438 Y0.1438 Z0.0000 R0.1438
G01 X0.0000 Y-0.0264 Z-0.0048
G02 X0.1174 Y-0.1174 Z0.0000 R0.1174
G02 X-0.1174 Y-0.1174 Z0.0000 R0.1174
G02 X-0.1174 Y0.1174 Z0.0000 R0.1174
G02 X0.1174 Y0.1174 Z0.0000 R0.1174
G01 X0.0000 Y-0.0266 Z-0.0043
G02 X0.0907 Y-0.0907 Z0.0000 R0.0907
G02 X-0.0907 Y-0.0907 Z0.0000 R0.0907
G02 X-0.0907 Y0.0907 Z0.0000 R0.0907
G02 X0.0907 Y0.0907 Z0.0000 R0.0907
G01 X0.0000 Y-0.0266 Z-0.0038
G02 X0.0640 Y-0.0640 Z0.0000 R0.0640
G02 X-0.0640 Y-0.0640 Z0.0000 R0.0640
G02 X-0.0640 Y0.0640 Z0.0000 R0.0640
G02 X0.0640 Y0.0640 Z0.0000 R0.0640
G90
G00 X31.9458 Y2.5353 Z0.2000
G00 X31.9458 Y2.4712 Z0.2000
G00 X33.0708 Y1.0337 Z0.2000
( A single insert                                                              )
(   Outer rim diameter = 0.7500"                                               )
(   Outer rim depth    = -0.0450"                                              )
(   Shaft diameter      = 0.3729"                                              )
(   Shaft depth         = -0.4200"                                             )
G01 X33.0708 Y1.0337 Z0.0000
G91
G01 X0.0000 Y0.2514 Z-0.0450
G02 X0.2514 Y-0.2514 Z0.0000 R0.2514
G02 X-0.2514 Y-0.2514 Z0.0000 R0.2514
G02 X-0.2514 Y0.2514 Z0.0000 R0.2514
G02 X0.2514 Y0.2514 Z0.0000 R0.2514
G01 X0.0000 Y-0.0285 Z-0.0069
G02 X0.2229 Y-0.2229 Z0.0000 R0.2229
G02 X-0.2229 Y-0.2229 Z0.0000 R0.2229
G02 X-0.2229 Y0.2229 Z0.0000 R0.2229
G02 X0.2229 Y0.2229 Z0.0000 R0.2229
G01 X0.0000 Y-0.0261 Z-0.0064
G02 X0.1966 Y-0.1966 Z0.0000 R0.1966
G02 X-0.1966 Y-0.1966 Z0.0000 R0.1966
G02 X-0.1966 Y0.1966 Z0.0000 R0.1966
G02 X0.1966 Y0.1966 Z0.0000 R0.1966
G01 X0.0000 Y-0.0262 Z-0.0058
G02 X0.1703 Y-0.1703 Z0.0000 R0.1703
G02 X-0.1703 Y-0.1703 Z0.0000 R0.1703
G02 X-0.1703 Y0.1703 Z0.0000 R0.1703
G02 X0.1703 Y0.1703 Z0.0000 R0.1703
G01 X0.0000 Y-0.0264 Z-0.0053
G02 X0.1438 Y-0.1438 Z0.0000 R0.1438
G02 X-0.1438 Y-0.1438 Z0.0000 R0.1438
G02 X-0.1438 Y0.1438 Z0.0000 R0.1438
G02 X0.1438 Y0.1438 Z0.0000 R0.1438
G01 X0.0000 Y-0.0264 Z-0.0048
G02 X0.1174 Y-0.1174 Z0.0000 R0.1174
G02 X-0.1174 Y-0.1174 Z0.0000 R0.1174
G02 X-0.1174 Y0.1174 Z0.0000 R0.1174
G02 X0.1174 Y0.1174 Z0.0000 R0.1174
G01 X0.0000 Y-0.0266 Z-0.0043
G02 X0.0907 Y-0.0907 Z0.0000 R0.0907
G02 X-0.0907 Y-0.0907 Z0.0000 R0.0907
G02 X-0.0907 Y0.0907 Z0.0000 R0.0907
G02 X0.0907 Y0.0907 Z0.0000 R0.0907
G01 X0.0000 Y-0.0266 Z-0.0038
G02 X0.0640 Y-0.0640 Z0.0000 R0.0640
G02 X-0.0640 Y-0.0640 Z0.0000 R0.0640
G02 X-0.0640 Y0.0640 Z0.0000 R0.0640
G02 X0.0640 Y0.0640 Z0.0000 R0.0640
G90
G01 X33.0708 Y1.0337 Z0.0000
( Incremental hole: depth = -0.4200, diameter = 0.3729                         )
G91
G01 X0.0000 Y0.0629 Z0.0000
G01 X0.0000 Y0.0000 Z-0.1400
G02 X0.0629 Y-0.0629 Z0.0000 R0.0629
G02 X-0.0629 Y-0.0629 Z0.0000 R0.0629
G02 X-0.0629 Y0.0629 Z0.0000 R0.0629
G02 X0.0629 Y0.0629 Z0.0000 R0.0629
G01 X0.0000 Y0.0000 Z-0.1400
G02 X0.0629 Y-0.0629 Z0.0000 R0.0629
G02 X-0.0629 Y-0.0629 Z0.0000 R0.0629
G02 X-0.0629 Y0.0629 Z0.0000 R0.0629
G02 X0.0629 Y0.0629 Z0.0000 R0.0629
G01 X0.0000 Y0.0000 Z-0.1400
G02 X0.0629 Y-0.0629 Z0.0000 R0.0629
G02 X-0.0629 Y-0.0629 Z0.0000 R0.0629
G02 X-0.0629 Y0.0629 Z0.0000 R0.0629
G02 X0.0629 Y0.0629 Z0.0000 R0.0629
G02 X0.0629 Y-0.0629 Z0.0000 R0.0629
G02 X-0.0629 Y-0.0629 Z0.0000 R0.0629
G02 X-0.0629 Y0.0629 Z0.0000 R0.0629
G02 X0.0629 Y0.0629 Z0.0000 R0.0629
G02 X0.0629 Y-0.0629 Z0.0000 R0.0629
G02 X-0.0629 Y-0.0629 Z0.0000 R0.0629
G02 X-0.0629 Y0.0629 Z0.0000 R0.0629
G02 X0.0629 Y0.0629 Z0.0000 R0.0629
G02 X0.0629 Y-0.0629 Z0.0000 R0.0629
G02 X-0.0629 Y-0.0629 Z0.0000 R0.0629
G02 X-0.0629 Y0.0629 Z0.0000 R0.0629
G02 X0.0629 Y0.0629 Z0.0000 R0.0629
G01 X0.0000 Y-0.0629 Z0.0000
G90
G01 X33.0708 Y1.0337 Z0.0000
G91
G01 X0.0000 Y0.2514 Z-0.0450
G02 X0.2514 Y-0.2514 Z0.0000 R0.2514
G02 X-0.2514 Y-0.2514 Z0.0000 R0.2514
G02 X-0.2514 Y0.2514 Z0.0000 R0.2514
G02 X0.2514 Y0.2514 Z0.0000 R0.2514
G01 X0.0000 Y-0.0285 Z-0.0069
G02 X0.2229 Y-0.2229 Z0.0000 R0.2229
G02 X-0.2229 Y-0.2229 Z0.0000 R0.2229
G02 X-0.2229 Y0.2229 Z0.0000 R0.2229
G02 X0.2229 Y0.2229 Z0.0000 R0.2229
G01 X0.0000 Y-0.0261 Z-0.0064
G02 X0.1966 Y-0.1966 Z0.0000 R0.1966
G02 X-0.1966 Y-0.1966 Z0.0000 R0.1966
G02 X-0.1966 Y0.1966 Z0.0000 R0.1966
G02 X0.1966 Y0.1966 Z0.0000 R0.1966
G01 X0.0000 Y-0.0262 Z-0.0058
G02 X0.1703 Y-0.1703 Z0.0000 R0.1703
G02 X-0.1703 Y-0.1703 Z0.0000 R0.1703
G02 X-0.1703 Y0.1703 Z0.0000 R0.1703
G02 X0.1703 Y0.1703 Z0.0000 R0.1703
G01 X0.0000 Y-0.0264 Z-0.0053
G02 X0.1438 Y-0.1438 Z0.0000 R0.1438
G02 X-0.1438 Y-0.1438 Z0.0000 R0.1438
G02 X-0.1438 Y0.1438 Z0.0000 R0.1438
G02 X0.1438 Y0.1438 Z0.0000 R0.1438
G01 X0.0000 Y-0.0264 Z-0.0048
G02 X0.1174 Y-0.1174 Z0.0000 R0.1174
G02 X-0.1174 Y-0.1174 Z0.0000 R0.1174
G02 X-0.1174 Y0.1174 Z0.0000 R0.1174
G02 X0.1174 Y0.1174 Z0.0000 R0.1174
G01 X0.0000 Y-0.0266 Z-0.0043
G02 X0.0907 Y-0.0907 Z0.0000 R0.0907
G02 X-0.0907 Y-0.0907 Z0.0000 R0.0907
G02 X-0.0907 Y0.0907 Z0.0000 R0.0907
G02 X0.0907 Y0.0907 Z0.0000 R0.0907
G01 X0.0000 Y-0.0266 Z-0.0038
G02 X0.0640 Y-0.0640 Z0.0000 R0.0640
G02 X-0.0640 Y-0.0640 Z0.0000 R0.0640
G02 X-0.0640 Y0.0640 Z0.0000 R0.0640
G02 X0.0640 Y0.0640 Z0.0000 R0.0640
G90
G00 X33.0708 Y1.0978 Z0.2000
G00 X33.0708 Y1.0337 Z0.2000
G00 X33.0708 Y3.9087 Z0.2000
( A single insert                                                              )
(   Outer rim diameter = 0.7500"                                               )
(   Outer rim depth    = -0.0450"                                              )
(   Shaft diameter      = 0.3729"                                              )
(   Shaft depth         = -0.4200"                                             )
G01 X33.0708 Y3.9087 Z0.0000
G91
G01 X0.0000 Y0.2514 Z-0.0450
G02 X0.2514 Y-0.2514 Z0.0000 R0.2514
G02 X-0.2514 Y-0.2514 Z0.0000 R0.2514
G02 X-0.2514 Y0.2514 Z0.0000 R0.2514
G02 X0.2514 Y0.2514 Z0.0000 R0.2514
G01 X0.0000 Y-0.0285 Z-0.0069
G02 X0.2229 Y-0.2229 Z0.0000 R0.2229
G02 X-0.2229 Y-0.2229 Z0.0000 R0.2229
G02 X-0.2229 Y0.2229 Z0.0000 R0.2229
G02 X0.2229 Y0.2229 Z0.0000 R0.2229
G01 X0.0000 Y-0.0261 Z-0.0064
G02 X0.1966 Y-0.1966 Z0.0000 R0.1966
G02 X-0.1966 Y-0.1966 Z0.0000 R0.1966
G02 X-0.1966 Y0.1966 Z0.0000 R0.1966
G02 X0.1966 Y0.1966 Z0.0000 R0.1966
G01 X0.0000 Y-0.0262 Z-0.0058
G02 X0.1703 Y-0.1703 Z0.0000 R0.1703
G02 X-0.1703 Y-0.1703 Z0.0000 R0.1703
G02 X-0.1703 Y0.1703 Z0.0000 R0.1703
G02 X0.1703 Y0.1703 Z0.0000 R0.1703
G01 X0.0000 Y-0.0264 Z-0.0053
G02 X0.1438 Y-0.1438 Z0.0000 R0.1438
G02 X-0.1438 Y-0.1438 Z0.0000 R0.1438
G02 X-0.1438 Y0.1438 Z0.0000 R0.1438
G02 X0.1438 Y0.1438 Z0.0000 R0.1438
G01 X0.0000 Y-0.0264 Z-0.0048
G02 X0.1174 Y-0.1174 Z0.0000 R0.1174
G02 X-0.1174 Y-0.1174 Z0.0000 R0.1174
G02 X-0.1174 Y0.1174 Z0.0000 R0.1174
G02 X0.1174 Y0.1174 Z0.0000 R0.1174
G01 X0.0000 Y-0.0266 Z-0.0043
G02 X0.0907 Y-0.0907 Z0.0000 R0.0907
G02 X-0.0907 Y-0.0907 Z0.0000 R0.0907
G02 X-0.0907 Y0.0907 Z0.0000 R0.0907
G02 X0.0907 Y0.0907 Z0.0000 R0.0907
G01 X0.0000 Y-0.0266 Z-0.0038
G02 X0.0640 Y-0.0640 Z0.0000 R0.0640
G02 X-0.0640 Y-0.0640 Z0.0000 R0.0640
G02 X-0.0640 Y0.0640 Z0.0000 R0.0640
G02 X0.0640 Y0.0640 Z0.0000 R0.0640
G90
G01 X33.0708 Y3.9087 Z0.0000
( Incremental hole: depth = -0.4200, diameter = 0.3729                         )
G91
G01 X0.0000 Y0.0629 Z0.0000
G01 X0.0000 Y0.0000 Z-0.1400
G02 X0.0629 Y-0.0629 Z0.0000 R0.0629
G02 X-0.0629 Y-0.0629 Z0.0000 R0.0629
G02 X-0.0629 Y0.0629 Z0.0000 R0.0629
G02 X0.0629 Y0.0629 Z0.0000 R0.0629
G01 X0.0000 Y0.0000 Z-0.1400
G02 X0.0629 Y-0.0629 Z0.0000 R0.0629
G02 X-0.0629 Y-0.0629 Z0.0000 R0.0629
G02 X-0.0629 Y0.0629 Z0.0000 R0.0629
G02 X0.0629 Y0.0629 Z0.0000 R0.0629
G01 X0.0000 Y0.0000 Z-0.1400
G02 X0.0629 Y-0.0629 Z0.0000 R0.0629
G02 X-0.0629 Y-0.0629 Z0.0000 R0.0629
G02 X-0.0629 Y0.0629 Z0.0000 R0.0629
G02 X0.0629 Y0.0629 Z0.0000 R0.0629
G02 X0.0629 Y-0.0629 Z0.0000 R0.0629
G02 X-0.0629 Y-0.0629 Z0.0000 R0.0629
G02 X-0.0629 Y0.0629 Z0.0000 R0.0629
G02 X0.0629 Y0.0629 Z0.0000 R0.0629
G02 X0.0629 Y-0.0629 Z0.0000 R0.0629
G02 X-0.0629 Y-0.0629 Z0.0000 R0.0629
G02 X-0.0629 Y0.0629 Z0.0000 R0.0629
G02 X0.0629 Y0.0629 Z0.0000 R0.0629
G02 X0.0629 Y-0.0629 Z0.0000 R0.0629
G02 X-0.0629 Y-0.0629 Z0.0000 R0.0629
G02 X-0.0629 Y0.0629 Z0.0000 R0.0629
G02 X0.0629 Y0.0629 Z0.0000 R0.0629
G01 X0.0000 Y-0.0629 Z0.0000
G90
G01 X33.0708 Y3.9087 Z0.0000
G91
G01 X0.0000 Y0.2514 Z-0.0450
G02 X0.2514 Y-0.2514 Z0.0000 R0.2514
G02 X-0.2514 Y-0.2514 Z0.0000 R0.2514
G02 X-0.2514 Y0.2514 Z0.0000 R0.2514
G02 X0.2514 Y0.2514 Z0.0000 R0.2514
G01 X0.0000 Y-0.0285 Z-0.0069
G02 X0.2229 Y-0.2229 Z0.0000 R0.2229
G02 X-0.2229 Y-0.2229 Z0.0000 R0.2229
G02 X-0.2229 Y0.2229 Z0.0000 R0.2229
G02 X0.2229 Y0.2229 Z0.0000 R0.2229
G01 X0.0000 Y-0.0261 Z-0.0064
G02 X0.1966 Y-0.1966 Z0.0000 R0.1966
G02 X-0.1966 Y-0.1966 Z0.0000 R0.1966
G02 X-0.1966 Y0.1966 Z0.0000 R0.1966
G02 X0.1966 Y0.1966 Z0.0000 R0.1966
G01 X0.0000 Y-0.0262 Z-0.0058
G02 X0.1703 Y-0.1703 Z0.0000 R0.1703
G02 X-0.1703 Y-0.1703 Z0.0000 R0.1703
G02 X-0.1703 Y0.1703 Z0.0000 R0.1703
G02 X0.1703 Y0.1703 Z0.0000 R0.1703
G01 X0.0000 Y-0.0264 Z-0.0053
G02 X0.1438 Y-0.1438 Z0.0000 R0.1438
G02 X-0.1438 Y-0.1438 Z0.0000 R0.1438
G02 X-0.1438 Y0.1438 Z0.0000 R0.1438
G02 X0.1438 Y0.1438 Z0.0000 R0.1438
G01 X0.0000 Y-0.0264 Z-0.0048
G02 X0.1174 Y-0.1174 Z0.0000 R0.1174
G02 X-0.1174 Y-0.1174 Z0.0000 R0.1174
G02 X-0.1174 Y0.1174 Z0.0000 R0.1174
G02 X0.1174 Y0.1174 Z0.0000 R0.1174
G01 X0.0000 Y-0.0266 Z-0.0043
G02 X0.0907 Y-0.0907 Z0.0000 R0.0907
G02 X-0.0907 Y-0.0907 Z0.0000 R0.0907
G02 X-0.0907 Y0.0907 Z0.0000 R0.0907
G02 X0.0907 Y0.0907 Z0.0000 R0.0907
G01 X0.0000 Y-0.0266 Z-0.0038
G02 X0.0640 Y-0.0640 Z0.0000 R0.0640
G02 X-0.0640 Y-0.0640 Z0.0000 R0.0640
G02 X-0.0640 Y0.0640 Z0.0000 R0.0640
G02 X0.0640 Y0.0640 Z0.0000 R0.0640
G90
G00 X33.0708 Y3.9727 Z0.2000
G00 X33.0708 Y3.9087 Z0.2000
G00 X39.3458 Y2.4712 Z0.2000
( A single insert                                                              )
(   Outer rim diameter = 0.7500"                                               )
(   Outer rim depth    = -0.0450"                                              )
(   Shaft diameter      = 0.3729"                                              )
(   Shaft depth         = -0.4200"                                             )
G01 X39.3458 Y2.4712 Z0.0000
G91
G01 X0.0000 Y0.2514 Z-0.0450
G02 X0.2514 Y-0.2514 Z0.0000 R0.2514
G02 X-0.2514 Y-0.2514 Z0.0000 R0.2514
G02 X-0.2514 Y0.2514 Z0.0000 R0.2514
G02 X0.2514 Y0.2514 Z0.0000 R0.2514
G01 X0.0000 Y-0.0285 Z-0.0069
G02 X0.2229 Y-0.2229 Z0.0000 R0.2229
G02 X-0.2229 Y-0.2229 Z0.0000 R0.2229
G02 X-0.2229 Y0.2229 Z0.0000 R0.2229
G02 X0.2229 Y0.2229 Z0.0000 R0.2229
G01 X0.0000 Y-0.0261 Z-0.0064
G02 X0.1966 Y-0.1966 Z0.0000 R0.1966
G02 X-0.1966 Y-0.1966 Z0.0000 R0.1966
G02 X-0.1966 Y0.1966 Z0.0000 R0.1966
G02 X0.1966 Y0.1966 Z0.0000 R0.1966
G01 X0.0000 Y-0.0262 Z-0.0058
G02 X0.1703 Y-0.1703 Z0.0000 R0.1703
G02 X-0.1703 Y-0.1703 Z0.0000 R0.1703
G02 X-0.1703 Y0.1703 Z0.0000 R0.1703
G02 X0.1703 Y0.1703 Z0.0000 R0.1703
G01 X0.0000 Y-0.0264 Z-0.0053
G02 X0.1438 Y-0.1438 Z0.0000 R0.1438
G02 X-0.1438 Y-0.1438 Z0.0000 R0.1438
G02 X-0.1438 Y0.1438 Z0.0000 R0.1438
G02 X0.1438 Y0.1438 Z0.0000 R0.1438
G01 X0.0000 Y-0.0264 Z-0.0048
G02 X0.1174 Y-0.1174 Z0.0000 R0.1174
G02 X-0.1174 Y-0.1174 Z0.0000 R0.1174
G02 X-0.1174 Y0.1174 Z0.0000 R0.1174
G02 X0.1174 Y0.1174 Z0.0000 R0.1174
G01 X0.0000 Y-0.0266 Z-0.0043
G02 X0.0907 Y-0.0907 Z0.0000 R0.0907
G02 X-0.0907 Y-0.0907 Z0.0000 R0.0907
G02 X-0.0907 Y0.0907 Z0.0000 R0.0907
G02 X0.0907 Y0.0907 Z0.0000 R0.0907
G01 X0.0000 Y-0.0266 Z-0.0038
G02 X0.0640 Y-0.0640 Z0.0000 R0.0640
G02 X-0.0640 Y-0.0640 Z0.0000 R0.0640
G02 X-0.0640 Y0.0640 Z0.0000 R0.0640
G02 X0.0640 Y0.0640 Z0.0000 R0.0640
G90
G01 X39.3458 Y2.4712 Z0.0000
( Incremental hole: depth = -0.4200, diameter = 0.3729                         )
G91
G01 X0.0000 Y0.0629 Z0.0000
G01 X0.0000 Y0.0000 Z-0.1400
G02 X0.0629 Y-0.0629 Z0.0000 R0.0629
G02 X-0.0629 Y-0.0629 Z0.0000 R0.0629
G02 X-0.0629 Y0.0629 Z0.0000 R0.0629
G02 X0.0629 Y0.0629 Z0.0000 R0.0629
G01 X0.0000 Y0.0000 Z-0.1400
G02 X0.0629 Y-0.0629 Z0.0000 R0.0629
G02 X-0.0629 Y-0.0629 Z0.0000 R0.0629
G02 X-0.0629 Y0.0629 Z0.0000 R0.0629
G02 X0.0629 Y0.0629 Z0.0000 R0.0629
G01 X0.0000 Y0.0000 Z-0.1400
G02 X0.0629 Y-0.0629 Z0.0000 R0.0629
G02 X-0.0629 Y-0.0629 Z0.0000 R0.0629
G02 X-0.0629 Y0.0629 Z0.0000 R0.0629
G02 X0.0629 Y0.0629 Z0.0000 R0.0629
G02 X0.0629 Y-0.0629 Z0.0000 R0.0629
G02 X-0.0629 Y-0.0629 Z0.0000 R0.0629
G02 X-0.0629 Y0.0629 Z0.0000 R0.0629
G02 X0.0629 Y0.0629 Z0.0000 R0.0629
G02 X0.0629 Y-0.0629 Z0.0000 R0.0629
G02 X-0.0629 Y-0.0629 Z0.0000 R0.0629
G02 X-0.0629 Y0.0629 Z0.0000 R0.0629
G02 X0.0629 Y0.0629 Z0.0000 R0.0629
G02 X0.0629 Y-0.0629 Z0.0000 R0.0629
G02 X-0.0629 Y-0.0629 Z0.0000 R0.0629
G02 X-0.0629 Y0.0629 Z0.0000 R0.0629
G02 X0.0629 Y0.0629 Z0.0000 R0.0629
G01 X0.0000 Y-0.0629 Z0.0000
G90
G01 X39.3458 Y2.4712 Z0.0000
G91
G01 X0.0000 Y0.2514 Z-0.0450
G02 X0.2514 Y-0.2514 Z0.0000 R0.2514
G02 X-0.2514 Y-0.2514 Z0.0000 R0.2514
G02 X-0.2514 Y0.2514 Z0.0000 R0.2514
G02 X0.2514 Y0.2514 Z0.0000 R0.2514
G01 X0.0000 Y-0.0285 Z-0.0069
G02 X0.2229 Y-0.2229 Z0.0000 R0.2229
G02 X-0.2229 Y-0.2229 Z0.0000 R0.2229
G02 X-0.2229 Y0.2229 Z0.0000 R0.2229
G02 X0.2229 Y0.2229 Z0.0000 R0.2229
G01 X0.0000 Y-0.0261 Z-0.0064
G02 X0.1966 Y-0.1966 Z0.0000 R0.1966
G02 X-0.1966 Y-0.1966 Z0.0000 R0.1966
G02 X-0.1966 Y0.1966 Z0.0000 R0.1966
G02 X0.1966 Y0.1966 Z0.0000 R0.1966
G01 X0.0000 Y-0.0262 Z-0.0058
G02 X0.1703 Y-0.1703 Z0.0000 R0.1703
G02 X-0.1703 Y-0.1703 Z0.0000 R0.1703
G02 X-0.1703 Y0.1703 Z0.0000 R0.1703
G02 X0.1703 Y0.1703 Z0.0000 R0.1703
G01 X0.0000 Y-0.0264 Z-0.0053
G02 X0.1438 Y-0.1438 Z0.0000 R0.1438
G02 X-0.1438 Y-0.1438 Z0.0000 R0.1438
