( Sample-snowboard-top-profile.nc                                              )
( Generated by MonkeyCAM v4.0 at 2013-09-20 01:23:04                           )
(                                                                              )
( This GCode program is provided on an 'AS IS' BASIS WITHOUT WARRANTIES OR     )
( CONDITIONS OF ANY KIND, either express or implied. You should inspect this   )
( program very carefully to confirm you understand its operation. YOU ARE      )
( RESPONSIBLE FOR ENSURING THIS PROGRAM WILL NOT DAMAGE YOUR MACHINE OR        )
( MATERIALS.                                                                   )
(                                                                              )
( See http://www.github.com/MonkeyCAM for License and documentation.           )
(                                                                              )
( * Rapid height: 0.5000" (1.2700cm)                                           )
( * Tool: T1, 1.5 Inch Straight, diameter 1.4959" (3.7998cm)                   )
( * Height basline (Z=0.0) is the top of the table.                            )
( * XY origin is the left side of the table, Y is center of the part.          )
( * Requires G54 to be the part work coordinate offsets (WCO). (0, 0) is the   )
(   center of the nose, with the board extending to positive X. The cutter may )
(   move to negative values of X.                                              )
( * Requires G55 to be the machine WCO, with Z above the rapid height.         )
( * Units are inches                                                           )
( * Cutter bounding box in G54:                                                )
(     X0.0000 Y-5.2120 Z0.0787 to X65.6437 Y5.2120 Z0.5000)                    )

G90 G20 G17 G40 G49
G00 G55 X0 Y0 Z0
G43 H1 T1
G00 G54 X0.0000 Y0.0000 Z0.5000

M03
G04 P5
G00 G54 X4.9863 Y0.0000 Z0.5000
G01 G54 X4.9863 Y0.0000 Z0.0787 F20
G01 G54 X4.9863 Y0.0000 Z0.0787 F70
G01 G54 X4.9868 Y0.0458 Z0.0787
G01 G54 X4.9885 Y0.0888 Z0.0787
G01 G54 X4.9911 Y0.1299 Z0.0787
G01 G54 X4.9944 Y0.1667 Z0.0787
G01 G54 X4.9988 Y0.2041 Z0.0787
G01 G54 X5.0029 Y0.2324 Z0.0787
G01 G54 X5.0081 Y0.2620 Z0.0787
G01 G54 X5.0132 Y0.2868 Z0.0787
G01 G54 X5.0180 Y0.3074 Z0.0787
G01 G54 X5.0229 Y0.3255 Z0.0787
G01 G54 X5.0270 Y0.3392 Z0.0787
G01 G54 X5.0312 Y0.3518 Z0.0787
G01 G54 X5.0314 Y0.3523 Z0.0787
G01 G54 X5.0345 Y0.3546 Z0.0787
G01 G54 X5.0456 Y0.3622 Z0.0787
G01 G54 X5.0644 Y0.3741 Z0.0787
G01 G54 X5.0887 Y0.3884 Z0.0787
G01 G54 X5.1182 Y0.4044 Z0.0787
G01 G54 X5.1551 Y0.4227 Z0.0787
G01 G54 X5.2010 Y0.4435 Z0.0787
G01 G54 X5.2544 Y0.4657 Z0.0787
G01 G54 X5.3159 Y0.4890 Z0.0787
G01 G54 X5.3870 Y0.5133 Z0.0787
G01 G54 X5.4684 Y0.5383 Z0.0787
G01 G54 X5.5587 Y0.5631 Z0.0787
G01 G54 X5.6605 Y0.5879 Z0.0787
G01 G54 X5.7739 Y0.6121 Z0.0787
G01 G54 X5.8961 Y0.6346 Z0.0787
G01 G54 X6.0329 Y0.6561 Z0.0787
G01 G54 X6.1775 Y0.6750 Z0.0787
G01 G54 X6.3364 Y0.6916 Z0.0787
G01 G54 X6.3386 Y0.6917 Z0.0787
G01 G54 X6.5044 Y0.7050 Z0.0788
G01 G54 X6.6566 Y0.7135 Z0.0789
G01 G54 X6.6897 Y0.7154 Z0.0790
G01 G54 X6.8806 Y0.7217 Z0.0795
G01 G54 X6.9575 Y0.7225 Z0.0797
G01 G54 X6.9687 Y0.7218 Z0.0797
G01 G54 X7.2749 Y0.7025 Z0.0811
G01 G54 X7.3087 Y0.7005 Z0.0813
G01 G54 X7.3151 Y0.7000 Z0.0813
G01 G54 X7.5756 Y0.6840 Z0.0829
G01 G54 X7.8495 Y0.6671 Z0.0850
G01 G54 X7.8559 Y0.6668 Z0.0850
G01 G54 X7.8712 Y0.6658 Z0.0852
G01 G54 X8.1620 Y0.6483 Z0.0879
G01 G54 X8.3901 Y0.6345 Z0.0904
G01 G54 X8.3970 Y0.6341 Z0.0905
G01 G54 X8.4483 Y0.6310 Z0.0910
G01 G54 X8.7304 Y0.6144 Z0.0946
G01 G54 X8.9318 Y0.6025 Z0.0974
G01 G54 X8.9376 Y0.6022 Z0.0975
G01 G54 X9.0087 Y0.5980 Z0.0985
G01 G54 X9.2835 Y0.5821 Z0.1028
G01 G54 X9.4719 Y0.5712 Z0.1060
G01 G54 X9.4788 Y0.5709 Z0.1061
G01 G54 X9.5550 Y0.5666 Z0.1075
G01 G54 X9.8236 Y0.5514 Z0.1124
G01 G54 X10.0137 Y0.5406 Z0.1161
G01 G54 X10.0199 Y0.5403 Z0.1162
G01 G54 X10.0896 Y0.5364 Z0.1176
G01 G54 X10.3535 Y0.5218 Z0.1231
G01 G54 X10.5542 Y0.5107 Z0.1275
G01 G54 X10.5611 Y0.5104 Z0.1276
G01 G54 X10.5611 Y0.5103 Z0.1276
G01 G54 X10.6153 Y0.5074 Z0.1288
G01 G54 X10.8756 Y0.4933 Z0.1348
G01 G54 X11.0961 Y0.4814 Z0.1400
G01 G54 X11.1024 Y0.4811 Z0.1402
G01 G54 X11.1346 Y0.4793 Z0.1410
G01 G54 X11.3926 Y0.4657 Z0.1473
G01 G54 X11.6368 Y0.4528 Z0.1535
G01 G54 X11.6433 Y0.4525 Z0.1536
G01 G54 X11.6433 Y0.4525 Z0.1536
G01 G54 X11.6500 Y0.4521 Z0.1538
G01 G54 X11.9071 Y0.4388 Z0.1604
G01 G54 X12.1641 Y0.4255 Z0.1672
G01 G54 X12.1783 Y0.4248 Z0.1675
G01 G54 X12.1847 Y0.4245 Z0.1677
G01 G54 X12.4215 Y0.4125 Z0.1740
G01 G54 X12.6795 Y0.3996 Z0.1809
G01 G54 X12.7195 Y0.3975 Z0.1820
G01 G54 X12.7259 Y0.3972 Z0.1821
G01 G54 X12.9385 Y0.3868 Z0.1879
G01 G54 X13.1988 Y0.3739 Z0.1948
G01 G54 X13.2604 Y0.3709 Z0.1964
G01 G54 X13.2672 Y0.3707 Z0.1966
G01 G54 X13.2672 Y0.3706 Z0.1966
G01 G54 X13.4607 Y0.3613 Z0.2017
G01 G54 X13.7245 Y0.3487 Z0.2087
G01 G54 X13.8024 Y0.3450 Z0.2107
G01 G54 X13.8088 Y0.3447 Z0.2109
G01 G54 X13.9905 Y0.3362 Z0.2156
G01 G54 X14.2592 Y0.3237 Z0.2224
G01 G54 X14.3437 Y0.3198 Z0.2245
G01 G54 X14.3501 Y0.3194 Z0.2247
G01 G54 X14.5307 Y0.3112 Z0.2292
G01 G54 X14.8054 Y0.2987 Z0.2358
G01 G54 X14.8847 Y0.2951 Z0.2376
G01 G54 X14.8911 Y0.2950 Z0.2378
G01 G54 X14.8911 Y0.2949 Z0.2378
G01 G54 X15.0837 Y0.2864 Z0.2423
G01 G54 X15.3658 Y0.2739 Z0.2487
G01 G54 X15.4263 Y0.2712 Z0.2500
G01 G54 X15.4328 Y0.2710 Z0.2501
G01 G54 X15.6521 Y0.2615 Z0.2548
G01 G54 X15.9429 Y0.2490 Z0.2607
G01 G54 X15.9678 Y0.2480 Z0.2612
G01 G54 X15.9742 Y0.2477 Z0.2614
G01 G54 X16.2385 Y0.2366 Z0.2665
G01 G54 X16.5088 Y0.2254 Z0.2714
G01 G54 X16.5157 Y0.2252 Z0.2716
G01 G54 X16.5157 Y0.2251 Z0.2716
G01 G54 X16.5392 Y0.2242 Z0.2720
G01 G54 X16.8455 Y0.2118 Z0.2772
G01 G54 X17.0510 Y0.2035 Z0.2805
G01 G54 X17.0570 Y0.2033 Z0.2805
G01 G54 X17.1575 Y0.1993 Z0.2821
G01 G54 X17.4756 Y0.1868 Z0.2868
G01 G54 X17.5921 Y0.1822 Z0.2883
G01 G54 X17.5989 Y0.1820 Z0.2884
G01 G54 X17.8001 Y0.1743 Z0.2911
G01 G54 X18.1314 Y0.1617 Z0.2950
G01 G54 X18.1337 Y0.1616 Z0.2950
G01 G54 X18.1401 Y0.1615 Z0.2951
G01 G54 X18.1401 Y0.1614 Z0.2951
G01 G54 X18.4697 Y0.1493 Z0.2985
G01 G54 X18.6755 Y0.1418 Z0.3004
G01 G54 X18.6819 Y0.1415 Z0.3005
G01 G54 X18.8154 Y0.1368 Z0.3017
G01 G54 X19.1689 Y0.1242 Z0.3044
G01 G54 X19.2170 Y0.1225 Z0.3047
G01 G54 X19.2235 Y0.1223 Z0.3048
G01 G54 X19.5303 Y0.1117 Z0.3067
G01 G54 X19.7583 Y0.1039 Z0.3078
G01 G54 X19.7650 Y0.1038 Z0.3079
G01 G54 X19.7650 Y0.1037 Z0.3079
G01 G54 X19.9001 Y0.0992 Z0.3085
G01 G54 X20.2787 Y0.0868 Z0.3098
G01 G54 X20.3005 Y0.0861 Z0.3099
G01 G54 X20.3066 Y0.0859 Z0.3099
G01 G54 X20.6662 Y0.0744 Z0.3107
G01 G54 X20.8418 Y0.0688 Z0.3108
G01 G54 X20.8487 Y0.0686 Z0.3108
G01 G54 X21.0630 Y0.0620 Z0.3110
G01 G54 X21.3840 Y0.0523 Z0.3110
G01 G54 X21.3901 Y0.0521 Z0.3110
G01 G54 X21.9253 Y0.0364 Z0.3110
G01 G54 X21.9318 Y0.0362 Z0.3110
G01 G54 X22.4667 Y0.0212 Z0.3110
G01 G54 X22.4735 Y0.0211 Z0.3110
G01 G54 X22.4735 Y0.0210 Z0.3110
G01 G54 X23.0090 Y0.0066 Z0.3110
G01 G54 X23.0155 Y0.0065 Z0.3110
G01 G54 X23.2708 Y0.0000 Z0.3110
G01 G54 X23.0155 Y-0.0065 Z0.3110
G01 G54 X23.0090 Y-0.0066 Z0.3110
G01 G54 X22.4735 Y-0.0210 Z0.3110
G01 G54 X22.4735 Y-0.0211 Z0.3110
G01 G54 X22.4667 Y-0.0212 Z0.3110
G01 G54 X21.9318 Y-0.0362 Z0.3110
G01 G54 X21.9253 Y-0.0364 Z0.3110
G01 G54 X21.3901 Y-0.0521 Z0.3110
G01 G54 X21.3840 Y-0.0523 Z0.3110
G01 G54 X21.0630 Y-0.0620 Z0.3110
G01 G54 X20.8487 Y-0.0686 Z0.3108
G01 G54 X20.8418 Y-0.0688 Z0.3108
G01 G54 X20.6662 Y-0.0744 Z0.3107
G01 G54 X20.3066 Y-0.0859 Z0.3099
G01 G54 X20.3005 Y-0.0861 Z0.3099
G01 G54 X20.2787 Y-0.0868 Z0.3098
G01 G54 X19.9001 Y-0.0992 Z0.3085
G01 G54 X19.7650 Y-0.1037 Z0.3079
G01 G54 X19.7650 Y-0.1038 Z0.3079
G01 G54 X19.7583 Y-0.1039 Z0.3078
G01 G54 X19.5303 Y-0.1117 Z0.3067
G01 G54 X19.2235 Y-0.1223 Z0.3048
G01 G54 X19.2170 Y-0.1225 Z0.3047
G01 G54 X19.1689 Y-0.1242 Z0.3044
G01 G54 X18.8154 Y-0.1368 Z0.3017
G01 G54 X18.6819 Y-0.1415 Z0.3005
G01 G54 X18.6755 Y-0.1418 Z0.3004
G01 G54 X18.4697 Y-0.1493 Z0.2985
G01 G54 X18.1401 Y-0.1614 Z0.2951
G01 G54 X18.1401 Y-0.1615 Z0.2951
G01 G54 X18.1337 Y-0.1616 Z0.2950
G01 G54 X18.1314 Y-0.1617 Z0.2950
G01 G54 X17.8001 Y-0.1743 Z0.2911
G01 G54 X17.5989 Y-0.1820 Z0.2884
G01 G54 X17.5921 Y-0.1822 Z0.2883
G01 G54 X17.4756 Y-0.1868 Z0.2868
G01 G54 X17.1575 Y-0.1993 Z0.2821
G01 G54 X17.0570 Y-0.2033 Z0.2805
G01 G54 X17.0510 Y-0.2035 Z0.2805
G01 G54 X16.8455 Y-0.2118 Z0.2772
G01 G54 X16.5392 Y-0.2242 Z0.2720
G01 G54 X16.5157 Y-0.2251 Z0.2716
G01 G54 X16.5157 Y-0.2252 Z0.2716
G01 G54 X16.5088 Y-0.2254 Z0.2714
G01 G54 X16.2385 Y-0.2366 Z0.2665
G01 G54 X15.9742 Y-0.2477 Z0.2614
G01 G54 X15.9678 Y-0.2480 Z0.2612
G01 G54 X15.9429 Y-0.2490 Z0.2607
G01 G54 X15.6521 Y-0.2615 Z0.2548
G01 G54 X15.4328 Y-0.2710 Z0.2501
G01 G54 X15.4263 Y-0.2712 Z0.2500
G01 G54 X15.3658 Y-0.2739 Z0.2487
G01 G54 X15.0837 Y-0.2864 Z0.2423
G01 G54 X14.8911 Y-0.2949 Z0.2378
G01 G54 X14.8911 Y-0.2950 Z0.2378
G01 G54 X14.8847 Y-0.2951 Z0.2376
G01 G54 X14.8054 Y-0.2987 Z0.2358
G01 G54 X14.5307 Y-0.3112 Z0.2292
G01 G54 X14.3501 Y-0.3194 Z0.2247
G01 G54 X14.3437 Y-0.3198 Z0.2245
G01 G54 X14.2592 Y-0.3237 Z0.2224
G01 G54 X13.9905 Y-0.3362 Z0.2156
G01 G54 X13.8088 Y-0.3447 Z0.2109
G01 G54 X13.8024 Y-0.3450 Z0.2107
G01 G54 X13.7245 Y-0.3487 Z0.2087
G01 G54 X13.4607 Y-0.3613 Z0.2017
G01 G54 X13.2672 Y-0.3706 Z0.1966
G01 G54 X13.2672 Y-0.3707 Z0.1966
G01 G54 X13.2604 Y-0.3709 Z0.1964
G01 G54 X13.1988 Y-0.3739 Z0.1948
G01 G54 X12.9385 Y-0.3867 Z0.1879
G01 G54 X12.7259 Y-0.3972 Z0.1821
G01 G54 X12.7195 Y-0.3975 Z0.1820
G01 G54 X12.6795 Y-0.3996 Z0.1809
G01 G54 X12.4215 Y-0.4125 Z0.1740
G01 G54 X12.1847 Y-0.4245 Z0.1677
G01 G54 X12.1783 Y-0.4248 Z0.1675
G01 G54 X12.1641 Y-0.4255 Z0.1672
G01 G54 X11.9071 Y-0.4388 Z0.1604
G01 G54 X11.6500 Y-0.4521 Z0.1538
G01 G54 X11.6433 Y-0.4525 Z0.1536
G01 G54 X11.6433 Y-0.4525 Z0.1536
G01 G54 X11.6368 Y-0.4528 Z0.1535
G01 G54 X11.3926 Y-0.4657 Z0.1473
G01 G54 X11.1346 Y-0.4793 Z0.1410
G01 G54 X11.1024 Y-0.4811 Z0.1402
G01 G54 X11.0961 Y-0.4814 Z0.1400
G01 G54 X10.8756 Y-0.4933 Z0.1348
G01 G54 X10.6153 Y-0.5074 Z0.1288
G01 G54 X10.5611 Y-0.5103 Z0.1276
G01 G54 X10.5611 Y-0.5104 Z0.1276
G01 G54 X10.5542 Y-0.5107 Z0.1275
G01 G54 X10.3535 Y-0.5218 Z0.1231
G01 G54 X10.0896 Y-0.5364 Z0.1176
G01 G54 X10.0199 Y-0.5403 Z0.1162
G01 G54 X10.0137 Y-0.5406 Z0.1161
G01 G54 X9.8236 Y-0.5514 Z0.1124
G01 G54 X9.5550 Y-0.5666 Z0.1075
G01 G54 X9.4788 Y-0.5709 Z0.1061
G01 G54 X9.4719 Y-0.5712 Z0.1060
G01 G54 X9.2835 Y-0.5821 Z0.1028
G01 G54 X9.0087 Y-0.5980 Z0.0985
G01 G54 X8.9376 Y-0.6022 Z0.0975
G01 G54 X8.9318 Y-0.6025 Z0.0974
G01 G54 X8.7304 Y-0.6144 Z0.0946
G01 G54 X8.4483 Y-0.6310 Z0.0910
G01 G54 X8.3970 Y-0.6341 Z0.0905
G01 G54 X8.3901 Y-0.6345 Z0.0904
G01 G54 X8.1620 Y-0.6483 Z0.0879
G01 G54 X7.8712 Y-0.6658 Z0.0852
G01 G54 X7.8559 Y-0.6668 Z0.0850
G01 G54 X7.8495 Y-0.6671 Z0.0850
G01 G54 X7.5756 Y-0.6840 Z0.0829
G01 G54 X7.3151 Y-0.7000 Z0.0813
G01 G54 X7.3087 Y-0.7005 Z0.0813
G01 G54 X7.2749 Y-0.7025 Z0.0811
G01 G54 X6.9687 Y-0.7218 Z0.0797
G01 G54 X6.9575 Y-0.7225 Z0.0797
G01 G54 X6.8806 Y-0.7217 Z0.0795
G01 G54 X6.6897 Y-0.7154 Z0.0790
G01 G54 X6.6566 Y-0.7135 Z0.0789
G01 G54 X6.5044 Y-0.7050 Z0.0788
G01 G54 X6.3386 Y-0.6917 Z0.0787
G01 G54 X6.3364 Y-0.6916 Z0.0787
G01 G54 X6.1775 Y-0.6750 Z0.0787
G01 G54 X6.0329 Y-0.6561 Z0.0787
G01 G54 X5.8961 Y-0.6346 Z0.0787
G01 G54 X5.7739 Y-0.6121 Z0.0787
G01 G54 X5.6605 Y-0.5879 Z0.0787
G01 G54 X5.5587 Y-0.5631 Z0.0787
G01 G54 X5.4686 Y-0.5384 Z0.0787
G01 G54 X5.3870 Y-0.5133 Z0.0787
G01 G54 X5.3159 Y-0.4890 Z0.0787
G01 G54 X5.2544 Y-0.4657 Z0.0787
G01 G54 X5.2010 Y-0.4435 Z0.0787
G01 G54 X5.1551 Y-0.4227 Z0.0787
G01 G54 X5.1186 Y-0.4046 Z0.0787
G01 G54 X5.0887 Y-0.3884 Z0.0787
G01 G54 X5.0644 Y-0.3741 Z0.0787
G01 G54 X5.0456 Y-0.3622 Z0.0787
G01 G54 X5.0345 Y-0.3546 Z0.0787
G01 G54 X5.0314 Y-0.3523 Z0.0787
G01 G54 X5.0313 Y-0.3521 Z0.0787
G01 G54 X5.0270 Y-0.3393 Z0.0787
G01 G54 X5.0231 Y-0.3263 Z0.0787
G01 G54 X5.0180 Y-0.3074 Z0.0787
G01 G54 X5.0133 Y-0.2875 Z0.0787
G01 G54 X5.0082 Y-0.2624 Z0.0787
G01 G54 X5.0029 Y-0.2324 Z0.0787
G01 G54 X4.9989 Y-0.2051 Z0.0787
G01 G54 X4.9944 Y-0.1668 Z0.0787
G01 G54 X4.9911 Y-0.1302 Z0.0787
G01 G54 X4.9885 Y-0.0893 Z0.0787
G01 G54 X4.9868 Y-0.0462 Z0.0787
G01 G54 X4.9863 Y0.0000 Z0.0787
G00 G54 X4.9863 Y0.0000 Z0.5000
G00 G54 X45.7194 Y0.0000 Z0.5000
G01 G54 X45.7194 Y0.0000 Z0.3110 F20
G01 G54 X45.7194 Y0.0000 Z0.3110 F70
G01 G54 X45.7679 Y0.0012 Z0.3110
G01 G54 X45.7740 Y0.0013 Z0.3110
G01 G54 X46.3093 Y0.0154 Z0.3110
G01 G54 X46.3161 Y0.0156 Z0.3110
G01 G54 X46.6535 Y0.0249 Z0.3110
G01 G54 X46.8517 Y0.0304 Z0.3108
G01 G54 X46.8517 Y0.0305 Z0.3108
G01 G54 X46.8581 Y0.0305 Z0.3108
G01 G54 X47.0502 Y0.0361 Z0.3107
G01 G54 X47.3930 Y0.0460 Z0.3100
G01 G54 X47.3998 Y0.0462 Z0.3100
G01 G54 X47.4377 Y0.0473 Z0.3098
G01 G54 X47.8162 Y0.0587 Z0.3085
G01 G54 X47.9351 Y0.0623 Z0.3079
G01 G54 X47.9412 Y0.0625 Z0.3079
G01 G54 X48.1861 Y0.0701 Z0.3067
G01 G54 X48.4764 Y0.0793 Z0.3049
G01 G54 X48.4829 Y0.0795 Z0.3048
G01 G54 X48.5475 Y0.0816 Z0.3044
G01 G54 X48.9010 Y0.0931 Z0.3017
G01 G54 X49.0183 Y0.0969 Z0.3006
G01 G54 X49.0183 Y0.0970 Z0.3006
G01 G54 X49.0247 Y0.0971 Z0.3006
G01 G54 X49.2467 Y0.1046 Z0.2985
G01 G54 X49.5596 Y0.1152 Z0.2953
G01 G54 X49.5664 Y0.1154 Z0.2952
G01 G54 X49.5850 Y0.1161 Z0.2950
G01 G54 X49.9163 Y0.1277 Z0.2911
G01 G54 X50.1015 Y0.1342 Z0.2886
G01 G54 X50.1077 Y0.1344 Z0.2885
G01 G54 X50.2409 Y0.1392 Z0.2868
G01 G54 X50.5589 Y0.1507 Z0.2821
G01 G54 X50.6428 Y0.1538 Z0.2808
G01 G54 X50.6492 Y0.1540 Z0.2807
G01 G54 X50.8709 Y0.1624 Z0.2772
G01 G54 X51.1772 Y0.1738 Z0.2720
G01 G54 X51.1846 Y0.1741 Z0.2718
G01 G54 X51.1846 Y0.1742 Z0.2718
G01 G54 X51.1918 Y0.1744 Z0.2717
G01 G54 X51.4779 Y0.1855 Z0.2665
G01 G54 X51.7266 Y0.1951 Z0.2617
G01 G54 X51.7323 Y0.1954 Z0.2616
G01 G54 X51.7735 Y0.1970 Z0.2608
G01 G54 X52.0643 Y0.2086 Z0.2548
G01 G54 X52.2672 Y0.2168 Z0.2504
G01 G54 X52.2740 Y0.2170 Z0.2503
G01 G54 X52.3506 Y0.2202 Z0.2487
G01 G54 X52.6327 Y0.2318 Z0.2423
G01 G54 X52.8094 Y0.2391 Z0.2382
G01 G54 X52.8094 Y0.2392 Z0.2382
G01 G54 X52.8162 Y0.2394 Z0.2380
G01 G54 X52.9110 Y0.2434 Z0.2358
G01 G54 X53.1857 Y0.2551 Z0.2292
G01 G54 X53.3509 Y0.2621 Z0.2251
G01 G54 X53.3569 Y0.2624 Z0.2249
G01 G54 X53.4572 Y0.2668 Z0.2224
G01 G54 X53.7259 Y0.2785 Z0.2156
G01 G54 X53.8918 Y0.2858 Z0.2113
G01 G54 X53.8983 Y0.2861 Z0.2111
G01 G54 X53.9919 Y0.2902 Z0.2087
G01 G54 X54.2557 Y0.3021 Z0.2017
G01 G54 X54.4335 Y0.3101 Z0.1970
G01 G54 X54.4335 Y0.3101 Z0.1970
G01 G54 X54.4403 Y0.3104 Z0.1968
G01 G54 X54.5176 Y0.3139 Z0.1948
G01 G54 X54.7779 Y0.3260 Z0.1879
G01 G54 X54.9749 Y0.3351 Z0.1825
G01 G54 X54.9813 Y0.3354 Z0.1824
G01 G54 X55.0369 Y0.3381 Z0.1809
G01 G54 X55.2949 Y0.3503 Z0.1740
G01 G54 X55.5162 Y0.3608 Z0.1681
G01 G54 X55.5222 Y0.3611 Z0.1680
G01 G54 X55.5523 Y0.3625 Z0.1672
G01 G54 X55.8094 Y0.3750 Z0.1604
G01 G54 X56.0574 Y0.3871 Z0.1540
G01 G54 X56.0574 Y0.3872 Z0.1540
G01 G54 X56.0646 Y0.3874 Z0.1538
G01 G54 X56.0664 Y0.3875 Z0.1538
G01 G54 X56.3238 Y0.4004 Z0.1473
G01 G54 X56.5818 Y0.4133 Z0.1410
G01 G54 X56.5990 Y0.4142 Z0.1405
G01 G54 X56.6049 Y0.4145 Z0.1404
G01 G54 X56.8408 Y0.4265 Z0.1348
G01 G54 X57.1011 Y0.4398 Z0.1288
G01 G54 X57.1400 Y0.4418 Z0.1280
G01 G54 X57.1400 Y0.4419 Z0.1280
G01 G54 X57.1468 Y0.4422 Z0.1278
G01 G54 X57.3629 Y0.4535 Z0.1231
G01 G54 X57.6268 Y0.4673 Z0.1176
G01 G54 X57.6812 Y0.4702 Z0.1165
G01 G54 X57.6875 Y0.4705 Z0.1164
G01 G54 X57.8928 Y0.4815 Z0.1124
G01 G54 X58.1614 Y0.4959 Z0.1075
G01 G54 X58.2225 Y0.4992 Z0.1064
G01 G54 X58.2225 Y0.4992 Z0.1064
G01 G54 X58.2294 Y0.4995 Z0.1063
G01 G54 X58.4330 Y0.5107 Z0.1028
G01 G54 X58.7077 Y0.5258 Z0.0985
G01 G54 X58.7637 Y0.5289 Z0.0977
G01 G54 X58.7697 Y0.5292 Z0.0976
G01 G54 X58.9860 Y0.5414 Z0.0946
G01 G54 X59.2681 Y0.5572 Z0.0911
G01 G54 X59.3043 Y0.5592 Z0.0906
G01 G54 X59.3107 Y0.5596 Z0.0906
G01 G54 X59.5544 Y0.5735 Z0.0879
G01 G54 X59.8452 Y0.5902 Z0.0852
G01 G54 X59.8456 Y0.5903 Z0.0851
G01 G54 X59.8525 Y0.5907 Z0.0851
G01 G54 X60.1408 Y0.6075 Z0.0829
G01 G54 X60.3867 Y0.6220 Z0.0814
G01 G54 X60.3929 Y0.6224 Z0.0814
G01 G54 X60.4415 Y0.6253 Z0.0811
G01 G54 X60.7416 Y0.6433 Z0.0798
G01 G54 X60.7477 Y0.6430 Z0.0798
G01 G54 X60.8325 Y0.6394 Z0.0795
G01 G54 X60.9170 Y0.6335 Z0.0793
G01 G54 X60.9895 Y0.6261 Z0.0791
G01 G54 X61.0541 Y0.6175 Z0.0789
G01 G54 X61.0598 Y0.6166 Z0.0789
G01 G54 X61.0913 Y0.6114 Z0.0789
G01 G54 X61.0998 Y0.5760 Z0.0789
G01 G54 X61.1088 Y0.5330 Z0.0789
G01 G54 X61.1176 Y0.4856 Z0.0788
G01 G54 X61.1253 Y0.4383 Z0.0788
G01 G54 X61.1331 Y0.3812 Z0.0788
G01 G54 X61.1395 Y0.3257 Z0.0788
G01 G54 X61.1450 Y0.2666 Z0.0788
G01 G54 X61.1494 Y0.2051 Z0.0788
G01 G54 X61.1527 Y0.1380 Z0.0788
G01 G54 X61.1548 Y0.0670 Z0.0788
G01 G54 X61.1555 Y0.0000 Z0.0788
G01 G54 X61.1548 Y-0.0674 Z0.0788
G01 G54 X61.1527 Y-0.1380 Z0.0788
G01 G54 X61.1494 Y-0.2054 Z0.0788
G01 G54 X61.1449 Y-0.2674 Z0.0788
G01 G54 X61.1394 Y-0.3263 Z0.0788
G01 G54 X61.1329 Y-0.3829 Z0.0788
G01 G54 X61.1251 Y-0.4390 Z0.0788
G01 G54 X61.1175 Y-0.4860 Z0.0788
G01 G54 X61.1088 Y-0.5330 Z0.0789
G01 G54 X61.0997 Y-0.5762 Z0.0789
G01 G54 X61.0913 Y-0.6114 Z0.0789
G01 G54 X61.0598 Y-0.6166 Z0.0789
G01 G54 X61.0541 Y-0.6175 Z0.0789
G01 G54 X60.9895 Y-0.6261 Z0.0791
G01 G54 X60.9170 Y-0.6335 Z0.0793
G01 G54 X60.8325 Y-0.6394 Z0.0795
G01 G54 X60.7477 Y-0.6430 Z0.0798
G01 G54 X60.7416 Y-0.6433 Z0.0798
G01 G54 X60.4415 Y-0.6253 Z0.0811
G01 G54 X60.3929 Y-0.6224 Z0.0814
G01 G54 X60.3867 Y-0.6220 Z0.0814
G01 G54 X60.1408 Y-0.6075 Z0.0829
G01 G54 X59.8525 Y-0.5907 Z0.0851
G01 G54 X59.8456 Y-0.5903 Z0.0851
G01 G54 X59.8452 Y-0.5902 Z0.0852
G01 G54 X59.5544 Y-0.5735 Z0.0879
G01 G54 X59.3107 Y-0.5596 Z0.0906
G01 G54 X59.3043 Y-0.5592 Z0.0906
G01 G54 X59.2681 Y-0.5572 Z0.0911
G01 G54 X58.9860 Y-0.5414 Z0.0946
G01 G54 X58.7697 Y-0.5292 Z0.0976
G01 G54 X58.7637 Y-0.5289 Z0.0977
G01 G54 X58.7077 Y-0.5258 Z0.0985
G01 G54 X58.4330 Y-0.5107 Z0.1028
G01 G54 X58.2294 Y-0.4995 Z0.1063
G01 G54 X58.2225 Y-0.4992 Z0.1064
G01 G54 X58.2225 Y-0.4992 Z0.1064
G01 G54 X58.1614 Y-0.4959 Z0.1075
G01 G54 X57.8928 Y-0.4815 Z0.1124
G01 G54 X57.6875 Y-0.4705 Z0.1164
G01 G54 X57.6812 Y-0.4702 Z0.1165
G01 G54 X57.6268 Y-0.4673 Z0.1176
G01 G54 X57.3629 Y-0.4535 Z0.1231
G01 G54 X57.1468 Y-0.4422 Z0.1278
G01 G54 X57.1400 Y-0.4419 Z0.1280
G01 G54 X57.1400 Y-0.4418 Z0.1280
G01 G54 X57.1011 Y-0.4398 Z0.1288
G01 G54 X56.8408 Y-0.4265 Z0.1348
G01 G54 X56.6049 Y-0.4145 Z0.1404
G01 G54 X56.5990 Y-0.4142 Z0.1405
G01 G54 X56.5818 Y-0.4133 Z0.1410
G01 G54 X56.3238 Y-0.4004 Z0.1473
G01 G54 X56.0664 Y-0.3875 Z0.1538
G01 G54 X56.0646 Y-0.3874 Z0.1538
G01 G54 X56.0574 Y-0.3872 Z0.1540
G01 G54 X56.0574 Y-0.3871 Z0.1540
G01 G54 X55.8094 Y-0.3750 Z0.1604
G01 G54 X55.5523 Y-0.3625 Z0.1672
G01 G54 X55.5222 Y-0.3611 Z0.1680
G01 G54 X55.5162 Y-0.3608 Z0.1681
G01 G54 X55.2949 Y-0.3503 Z0.1740
G01 G54 X55.0369 Y-0.3381 Z0.1809
G01 G54 X54.9813 Y-0.3354 Z0.1824
G01 G54 X54.9749 Y-0.3351 Z0.1825
G01 G54 X54.7779 Y-0.3260 Z0.1879
G01 G54 X54.5176 Y-0.3139 Z0.1948
G01 G54 X54.4403 Y-0.3104 Z0.1968
G01 G54 X54.4335 Y-0.3101 Z0.1970
G01 G54 X54.4335 Y-0.3101 Z0.1970
G01 G54 X54.2557 Y-0.3021 Z0.2017
G01 G54 X53.9919 Y-0.2902 Z0.2087
G01 G54 X53.8983 Y-0.2861 Z0.2111
G01 G54 X53.8918 Y-0.2858 Z0.2113
G01 G54 X53.7259 Y-0.2785 Z0.2156
G01 G54 X53.4572 Y-0.2668 Z0.2224
G01 G54 X53.3569 Y-0.2624 Z0.2249
G01 G54 X53.3509 Y-0.2621 Z0.2251
G01 G54 X53.1857 Y-0.2551 Z0.2292
G01 G54 X52.9110 Y-0.2434 Z0.2358
G01 G54 X52.8162 Y-0.2394 Z0.2380
G01 G54 X52.8094 Y-0.2392 Z0.2382
G01 G54 X52.8094 Y-0.2391 Z0.2382
G01 G54 X52.6327 Y-0.2318 Z0.2423
G01 G54 X52.3506 Y-0.2202 Z0.2487
G01 G54 X52.2740 Y-0.2170 Z0.2503
G01 G54 X52.2672 Y-0.2168 Z0.2504
G01 G54 X52.0643 Y-0.2087 Z0.2548
G01 G54 X51.7735 Y-0.1970 Z0.2608
G01 G54 X51.7323 Y-0.1954 Z0.2616
G01 G54 X51.7266 Y-0.1951 Z0.2617
G01 G54 X51.4779 Y-0.1855 Z0.2665
G01 G54 X51.1918 Y-0.1744 Z0.2717
G01 G54 X51.1846 Y-0.1742 Z0.2718
G01 G54 X51.1846 Y-0.1741 Z0.2718
G01 G54 X51.1772 Y-0.1738 Z0.2720
G01 G54 X50.8709 Y-0.1623 Z0.2772
G01 G54 X50.6492 Y-0.1540 Z0.2807
G01 G54 X50.6428 Y-0.1538 Z0.2808
G01 G54 X50.5589 Y-0.1507 Z0.2821
G01 G54 X50.2409 Y-0.1392 Z0.2868
G01 G54 X50.1077 Y-0.1344 Z0.2885
G01 G54 X50.1015 Y-0.1342 Z0.2886
G01 G54 X49.9163 Y-0.1277 Z0.2911
G01 G54 X49.5850 Y-0.1161 Z0.2950
G01 G54 X49.5664 Y-0.1154 Z0.2952
G01 G54 X49.5596 Y-0.1152 Z0.2953
G01 G54 X49.2467 Y-0.1046 Z0.2985
G01 G54 X49.0247 Y-0.0971 Z0.3006
G01 G54 X49.0183 Y-0.0970 Z0.3006
G01 G54 X49.0183 Y-0.0969 Z0.3006
G01 G54 X48.9010 Y-0.0931 Z0.3017
G01 G54 X48.5475 Y-0.0816 Z0.3044
G01 G54 X48.4829 Y-0.0795 Z0.3048
G01 G54 X48.4764 Y-0.0793 Z0.3049
G01 G54 X48.1861 Y-0.0701 Z0.3067
G01 G54 X47.9412 Y-0.0625 Z0.3079
G01 G54 X47.9351 Y-0.0623 Z0.3079
G01 G54 X47.8162 Y-0.0587 Z0.3085
G01 G54 X47.4377 Y-0.0473 Z0.3098
G01 G54 X47.3998 Y-0.0462 Z0.3100
G01 G54 X47.3930 Y-0.0460 Z0.3100
G01 G54 X47.0502 Y-0.0361 Z0.3107
G01 G54 X46.8581 Y-0.0305 Z0.3108
G01 G54 X46.8517 Y-0.0305 Z0.3108
G01 G54 X46.8517 Y-0.0304 Z0.3108
G01 G54 X46.6535 Y-0.0249 Z0.3110
G01 G54 X46.3161 Y-0.0156 Z0.3110
G01 G54 X46.3093 Y-0.0154 Z0.3110
G01 G54 X45.7740 Y-0.0013 Z0.3110
G01 G54 X45.7679 Y-0.0012 Z0.3110
G01 G54 X45.7194 Y0.0000 Z0.3110
G00 G54 X45.7194 Y0.0000 Z0.5000
G00 G54 X4.2382 Y0.0000 Z0.5000
G01 G54 X4.2382 Y0.0000 Z0.0787 F20
G01 G54 X4.2382 Y0.0000 Z0.0787 F70
G01 G54 X4.2390 Y0.0630 Z0.0787
G01 G54 X4.2414 Y0.1264 Z0.0787
G01 G54 X4.2453 Y0.1875 Z0.0787
G01 G54 X4.2505 Y0.2455 Z0.0787
G01 G54 X4.2570 Y0.3004 Z0.0787
G01 G54 X4.2646 Y0.3528 Z0.0787
G01 G54 X4.2730 Y0.4008 Z0.0787
G01 G54 X4.2825 Y0.4470 Z0.0787
G01 G54 X4.2928 Y0.4910 Z0.0787
G01 G54 X4.3030 Y0.5290 Z0.0787
G01 G54 X4.3144 Y0.5670 Z0.0787
G01 G54 X4.3260 Y0.6014 Z0.0787
G01 G54 X4.3381 Y0.6339 Z0.0787
G01 G54 X4.3493 Y0.6612 Z0.0787
G01 G54 X4.3608 Y0.6868 Z0.0787
G01 G54 X4.3729 Y0.7115 Z0.0787
G01 G54 X4.3848 Y0.7337 Z0.0787
G01 G54 X4.3964 Y0.7535 Z0.0787
G01 G54 X4.4081 Y0.7721 Z0.0787
G01 G54 X4.4211 Y0.7912 Z0.0787
G01 G54 X4.4344 Y0.8092 Z0.0787
G01 G54 X4.4468 Y0.8249 Z0.0787
G01 G54 X4.4630 Y0.8437 Z0.0787
G01 G54 X4.4779 Y0.8598 Z0.0787
G01 G54 X4.4967 Y0.8787 Z0.0787
G01 G54 X4.5162 Y0.8969 Z0.0787
G01 G54 X4.5409 Y0.9183 Z0.0787
G01 G54 X4.5668 Y0.9390 Z0.0787
G01 G54 X4.5986 Y0.9626 Z0.0787
G01 G54 X4.6331 Y0.9863 Z0.0787
G01 G54 X4.6744 Y1.0125 Z0.0787
G01 G54 X4.7219 Y1.0404 Z0.0787
G01 G54 X4.7742 Y1.0687 Z0.0787
G01 G54 X4.8337 Y1.0982 Z0.0787
G01 G54 X4.9025 Y1.1295 Z0.0787
G01 G54 X4.9790 Y1.1613 Z0.0787
G01 G54 X5.0625 Y1.1928 Z0.0787
G01 G54 X5.1563 Y1.2249 Z0.0787
G01 G54 X5.2591 Y1.2565 Z0.0787
G01 G54 X5.3716 Y1.2874 Z0.0787
G01 G54 X5.4935 Y1.3171 Z0.0787
G01 G54 X5.6289 Y1.3460 Z0.0787
G01 G54 X5.7692 Y1.3719 Z0.0787
G01 G54 X5.9268 Y1.3966 Z0.0787
G01 G54 X6.0908 Y1.4180 Z0.0787
G01 G54 X6.2662 Y1.4363 Z0.0787
G01 G54 X6.3386 Y1.4421 Z0.0787
G01 G54 X6.4560 Y1.4515 Z0.0788
G01 G54 X6.6540 Y1.4626 Z0.0789
G01 G54 X6.6566 Y1.4627 Z0.0789
G01 G54 X6.8655 Y1.4696 Z0.0795
G01 G54 X6.9687 Y1.4707 Z0.0797
G01 G54 X6.9765 Y1.4708 Z0.0798
G01 G54 X7.2749 Y1.4520 Z0.0811
G01 G54 X7.3556 Y1.4470 Z0.0816
G01 G54 X7.3611 Y1.4466 Z0.0816
G01 G54 X7.5756 Y1.4334 Z0.0829
G01 G54 X7.8712 Y1.4152 Z0.0852
G01 G54 X7.8955 Y1.4137 Z0.0854
G01 G54 X7.9010 Y1.4134 Z0.0855
G01 G54 X8.1620 Y1.3976 Z0.0879
G01 G54 X8.4351 Y1.3811 Z0.0909
G01 G54 X8.4411 Y1.3808 Z0.0909
G01 G54 X8.4483 Y1.3803 Z0.0910
G01 G54 X8.7304 Y1.3637 Z0.0946
G01 G54 X8.9759 Y1.3492 Z0.0981
G01 G54 X8.9809 Y1.3489 Z0.0981
G01 G54 X9.0087 Y1.3473 Z0.0985
G01 G54 X9.2835 Y1.3314 Z0.1028
G01 G54 X9.5152 Y1.3180 Z0.1068
G01 G54 X9.5211 Y1.3177 Z0.1069
G01 G54 X9.5211 Y1.3177 Z0.1069
G01 G54 X9.5550 Y1.3157 Z0.1075
G01 G54 X9.8236 Y1.3005 Z0.1124
G01 G54 X10.0560 Y1.2874 Z0.1170
G01 G54 X10.0613 Y1.2871 Z0.1170
G01 G54 X10.0896 Y1.2855 Z0.1176
G01 G54 X10.3535 Y1.2709 Z0.1231
G01 G54 X10.5956 Y1.2575 Z0.1284
G01 G54 X10.6015 Y1.2573 Z0.1285
G01 G54 X10.6015 Y1.2572 Z0.1285
G01 G54 X10.6153 Y1.2564 Z0.1288
G01 G54 X10.8756 Y1.2424 Z0.1348
G01 G54 X11.1346 Y1.2283 Z0.1410
G01 G54 X11.1365 Y1.2283 Z0.1410
G01 G54 X11.1419 Y1.2280 Z0.1411
G01 G54 X11.3926 Y1.2147 Z0.1473
G01 G54 X11.6500 Y1.2011 Z0.1538
G01 G54 X11.6763 Y1.1997 Z0.1545
G01 G54 X11.6818 Y1.1995 Z0.1546
G01 G54 X11.6818 Y1.1995 Z0.1546
G01 G54 X11.9071 Y1.1878 Z0.1604
G01 G54 X12.1641 Y1.1746 Z0.1672
G01 G54 X12.2169 Y1.1718 Z0.1686
G01 G54 X12.2224 Y1.1716 Z0.1687
G01 G54 X12.4215 Y1.1615 Z0.1740
G01 G54 X12.6795 Y1.1485 Z0.1809
G01 G54 X12.7572 Y1.1446 Z0.1830
G01 G54 X12.7627 Y1.1443 Z0.1831
G01 G54 X12.9385 Y1.1357 Z0.1879
G01 G54 X13.1988 Y1.1228 Z0.1948
G01 G54 X13.2972 Y1.1180 Z0.1974
G01 G54 X13.3030 Y1.1178 Z0.1976
G01 G54 X13.3030 Y1.1178 Z0.1976
G01 G54 X13.4607 Y1.1102 Z0.2017
G01 G54 X13.7245 Y1.0976 Z0.2087
G01 G54 X13.8382 Y1.0922 Z0.2116
G01 G54 X13.8437 Y1.0919 Z0.2118
G01 G54 X13.9905 Y1.0850 Z0.2156
G01 G54 X14.2592 Y1.0725 Z0.2224
G01 G54 X14.3785 Y1.0669 Z0.2254
G01 G54 X14.3840 Y1.0666 Z0.2255
G01 G54 X14.5307 Y1.0600 Z0.2292
G01 G54 X14.8054 Y1.0475 Z0.2358
G01 G54 X14.9187 Y1.0424 Z0.2385
G01 G54 X14.9242 Y1.0422 Z0.2386
G01 G54 X14.9242 Y1.0422 Z0.2386
G01 G54 X15.0837 Y1.0351 Z0.2423
G01 G54 X15.3658 Y1.0226 Z0.2487
G01 G54 X15.4594 Y1.0185 Z0.2507
G01 G54 X15.4649 Y1.0183 Z0.2508
G01 G54 X15.6521 Y1.0102 Z0.2548
G01 G54 X15.9429 Y0.9977 Z0.2607
G01 G54 X15.9999 Y0.9953 Z0.2619
G01 G54 X16.0054 Y0.9950 Z0.2620
G01 G54 X16.2385 Y0.9853 Z0.2665
G01 G54 X16.5392 Y0.9727 Z0.2720
G01 G54 X16.5401 Y0.9727 Z0.2720
G01 G54 X16.5459 Y0.9725 Z0.2721
G01 G54 X16.5459 Y0.9725 Z0.2721
G01 G54 X16.8455 Y0.9604 Z0.2772
G01 G54 X17.0812 Y0.9509 Z0.2809
G01 G54 X17.0864 Y0.9507 Z0.2810
G01 G54 X17.1575 Y0.9479 Z0.2821
G01 G54 X17.4756 Y0.9353 Z0.2868
G01 G54 X17.6214 Y0.9296 Z0.2887
G01 G54 X17.6273 Y0.9294 Z0.2888
G01 G54 X17.8001 Y0.9228 Z0.2911
G01 G54 X18.1314 Y0.9102 Z0.2950
G01 G54 X18.1621 Y0.9091 Z0.2953
G01 G54 X18.1675 Y0.9090 Z0.2954
G01 G54 X18.1675 Y0.9089 Z0.2954
G01 G54 X18.4697 Y0.8978 Z0.2985
G01 G54 X18.7030 Y0.8892 Z0.3007
G01 G54 X18.7085 Y0.8890 Z0.3007
G01 G54 X18.8154 Y0.8852 Z0.3017
G01 G54 X19.1689 Y0.8727 Z0.3044
G01 G54 X19.2436 Y0.8700 Z0.3049
G01 G54 X19.2491 Y0.8698 Z0.3049
G01 G54 X19.5303 Y0.8601 Z0.3067
G01 G54 X19.7839 Y0.8515 Z0.3079
G01 G54 X19.7897 Y0.8514 Z0.3080
G01 G54 X19.7897 Y0.8513 Z0.3080
G01 G54 X19.9001 Y0.8477 Z0.3085
G01 G54 X20.2787 Y0.8352 Z0.3098
G01 G54 X20.3252 Y0.8337 Z0.3100
G01 G54 X20.3304 Y0.8335 Z0.3100
G01 G54 X20.6662 Y0.8228 Z0.3107
G01 G54 X20.8656 Y0.8164 Z0.3108
G01 G54 X20.8716 Y0.8162 Z0.3108
G01 G54 X21.0630 Y0.8104 Z0.3110
G01 G54 X21.4068 Y0.7999 Z0.3110
G01 G54 X21.4121 Y0.7998 Z0.3110
G01 G54 X21.9473 Y0.7840 Z0.3110
G01 G54 X21.9528 Y0.7839 Z0.3110
G01 G54 X22.4877 Y0.7688 Z0.3110
G01 G54 X22.4935 Y0.7688 Z0.3110
G01 G54 X22.4935 Y0.7687 Z0.3110
G01 G54 X23.0291 Y0.7544 Z0.3110
G01 G54 X23.0346 Y0.7542 Z0.3110
G01 G54 X23.5699 Y0.7405 Z0.3110
G01 G54 X23.5752 Y0.7404 Z0.3110
G01 G54 X24.1106 Y0.7273 Z0.3110
G01 G54 X24.1165 Y0.7272 Z0.3110
G01 G54 X24.6518 Y0.7148 Z0.3110
G01 G54 X24.6570 Y0.7147 Z0.3110
G01 G54 X25.1920 Y0.7029 Z0.3110
G01 G54 X25.1977 Y0.7029 Z0.3110
G01 G54 X25.1977 Y0.7029 Z0.3110
G01 G54 X25.7334 Y0.6918 Z0.3110
G01 G54 X25.7390 Y0.6917 Z0.3110
G01 G54 X26.2743 Y0.6813 Z0.3110
G01 G54 X26.2796 Y0.6812 Z0.3110
G01 G54 X26.8150 Y0.6714 Z0.3110
G01 G54 X26.8209 Y0.6713 Z0.3110
G01 G54 X27.3563 Y0.6623 Z0.3110
G01 G54 X27.3616 Y0.6622 Z0.3110
G01 G54 X27.8970 Y0.6538 Z0.3110
G01 G54 X27.9026 Y0.6537 Z0.3110
G01 G54 X28.4380 Y0.6459 Z0.3110
G01 G54 X28.4439 Y0.6459 Z0.3110
G01 G54 X28.9791 Y0.6388 Z0.3110
G01 G54 X28.9841 Y0.6388 Z0.3110
G01 G54 X28.9841 Y0.6388 Z0.3110
G01 G54 X29.5198 Y0.6323 Z0.3110
G01 G54 X29.5257 Y0.6323 Z0.3110
G01 G54 X30.0611 Y0.6265 Z0.3110
G01 G54 X30.0668 Y0.6264 Z0.3110
G01 G54 X30.6022 Y0.6214 Z0.3110
G01 G54 X30.6075 Y0.6213 Z0.3110
G01 G54 X31.1429 Y0.6169 Z0.3110
G01 G54 X31.1485 Y0.6168 Z0.3110
G01 G54 X31.6840 Y0.6131 Z0.3110
G01 G54 X31.6896 Y0.6130 Z0.3110
G01 G54 X32.2251 Y0.6099 Z0.3110
G01 G54 X32.2307 Y0.6099 Z0.3110
G01 G54 X32.7661 Y0.6074 Z0.3110
G01 G54 X32.7717 Y0.6074 Z0.3110
G01 G54 X33.3072 Y0.6057 Z0.3110
G01 G54 X33.3128 Y0.6056 Z0.3110
G01 G54 X33.8483 Y0.6045 Z0.3110
G01 G54 X33.8535 Y0.6045 Z0.3110
G01 G54 X34.3889 Y0.6040 Z0.3110
G01 G54 X34.3946 Y0.6040 Z0.3110
G01 G54 X34.9298 Y0.6042 Z0.3110
G01 G54 X34.9354 Y0.6042 Z0.3110
G01 G54 X35.4709 Y0.6051 Z0.3110
G01 G54 X35.4765 Y0.6051 Z0.3110
G01 G54 X36.0119 Y0.6066 Z0.3110
G01 G54 X36.0175 Y0.6067 Z0.3110
G01 G54 X36.5530 Y0.6089 Z0.3110
G01 G54 X36.5586 Y0.6089 Z0.3110
G01 G54 X37.0940 Y0.6118 Z0.3110
G01 G54 X37.0993 Y0.6118 Z0.3110
G01 G54 X37.6348 Y0.6153 Z0.3110
G01 G54 X37.6404 Y0.6153 Z0.3110
G01 G54 X38.1759 Y0.6195 Z0.3110
G01 G54 X38.1815 Y0.6196 Z0.3110
G01 G54 X38.7169 Y0.6244 Z0.3110
G01 G54 X38.7225 Y0.6245 Z0.3110
G01 G54 X39.2579 Y0.6300 Z0.3110
G01 G54 X39.2635 Y0.6301 Z0.3110
G01 G54 X39.7993 Y0.6362 Z0.3110
G01 G54 X39.8050 Y0.6362 Z0.3110
G01 G54 X40.3400 Y0.6431 Z0.3110
G01 G54 X40.3453 Y0.6432 Z0.3110
G01 G54 X40.8807 Y0.6507 Z0.3110
G01 G54 X40.8863 Y0.6507 Z0.3110
G01 G54 X41.4217 Y0.6589 Z0.3110
G01 G54 X41.4273 Y0.6590 Z0.3110
G01 G54 X41.9627 Y0.6678 Z0.3110
G01 G54 X41.9684 Y0.6679 Z0.3110
G01 G54 X42.5037 Y0.6774 Z0.3110
G01 G54 X42.5093 Y0.6775 Z0.3110
G01 G54 X43.0447 Y0.6877 Z0.3110
G01 G54 X43.0503 Y0.6877 Z0.3110
G01 G54 X43.5857 Y0.6986 Z0.3110
G01 G54 X43.5909 Y0.6987 Z0.3110
G01 G54 X44.1266 Y0.7101 Z0.3110
G01 G54 X44.1266 Y0.7102 Z0.3110
G01 G54 X44.1323 Y0.7102 Z0.3110
G01 G54 X44.6673 Y0.7224 Z0.3110
G01 G54 X44.6731 Y0.7225 Z0.3110
G01 G54 X45.2085 Y0.7353 Z0.3110
G01 G54 X45.2137 Y0.7355 Z0.3110
G01 G54 X45.7490 Y0.7489 Z0.3110
G01 G54 X45.7544 Y0.7490 Z0.3110
G01 G54 X46.2896 Y0.7631 Z0.3110
G01 G54 X46.2955 Y0.7633 Z0.3110
G01 G54 X46.6535 Y0.7732 Z0.3110
G01 G54 X46.8311 Y0.7781 Z0.3108
G01 G54 X46.8365 Y0.7782 Z0.3108
G01 G54 X47.0502 Y0.7844 Z0.3107
G01 G54 X47.3714 Y0.7937 Z0.3100
G01 G54 X47.3773 Y0.7938 Z0.3100
G01 G54 X47.4377 Y0.7957 Z0.3098
G01 G54 X47.8162 Y0.8071 Z0.3085
G01 G54 X47.9125 Y0.8100 Z0.3081
G01 G54 X47.9178 Y0.8101 Z0.3080
G01 G54 X48.1861 Y0.8185 Z0.3067
G01 G54 X48.4530 Y0.8269 Z0.3050
G01 G54 X48.4585 Y0.8271 Z0.3050
G01 G54 X48.5475 Y0.8300 Z0.3044
G01 G54 X48.9010 Y0.8414 Z0.3017
G01 G54 X48.9940 Y0.8445 Z0.3009
G01 G54 X48.9940 Y0.8446 Z0.3009
G01 G54 X48.9994 Y0.8447 Z0.3008
G01 G54 X49.2467 Y0.8530 Z0.2985
G01 G54 X49.5343 Y0.8627 Z0.2955
G01 G54 X49.5401 Y0.8629 Z0.2955
G01 G54 X49.5850 Y0.8645 Z0.2950
G01 G54 X49.9163 Y0.8761 Z0.2911
G01 G54 X50.0753 Y0.8817 Z0.2890
G01 G54 X50.0806 Y0.8819 Z0.2889
G01 G54 X50.2409 Y0.8877 Z0.2868
G01 G54 X50.5589 Y0.8992 Z0.2821
G01 G54 X50.6157 Y0.9013 Z0.2812
G01 G54 X50.6212 Y0.9015 Z0.2812
G01 G54 X50.8709 Y0.9109 Z0.2772
G01 G54 X51.1566 Y0.9216 Z0.2723
G01 G54 X51.1566 Y0.9216 Z0.2723
G01 G54 X51.1627 Y0.9218 Z0.2722
G01 G54 X51.1772 Y0.9224 Z0.2720
G01 G54 X51.4779 Y0.9340 Z0.2665
G01 G54 X51.6975 Y0.9426 Z0.2622
G01 G54 X51.7024 Y0.9428 Z0.2622
G01 G54 X51.7735 Y0.9456 Z0.2608
G01 G54 X52.0643 Y0.9572 Z0.2548
G01 G54 X52.2374 Y0.9642 Z0.2511
G01 G54 X52.2432 Y0.9644 Z0.2509
G01 G54 X52.3506 Y0.9688 Z0.2487
G01 G54 X52.6327 Y0.9804 Z0.2423
G01 G54 X52.7785 Y0.9865 Z0.2389
G01 G54 X52.7785 Y0.9865 Z0.2389
G01 G54 X52.7844 Y0.9867 Z0.2388
G01 G54 X52.9110 Y0.9920 Z0.2358
G01 G54 X53.1857 Y1.0037 Z0.2292
G01 G54 X53.3190 Y1.0094 Z0.2259
G01 G54 X53.3242 Y1.0097 Z0.2257
G01 G54 X53.4572 Y1.0155 Z0.2224
G01 G54 X53.7259 Y1.0272 Z0.2156
G01 G54 X53.8592 Y1.0331 Z0.2122
G01 G54 X53.8647 Y1.0333 Z0.2120
G01 G54 X53.9919 Y1.0390 Z0.2087
G01 G54 X54.2557 Y1.0509 Z0.2017
G01 G54 X54.3999 Y1.0574 Z0.1979
G01 G54 X54.3999 Y1.0574 Z0.1979
G01 G54 X54.4058 Y1.0576 Z0.1978
G01 G54 X54.5176 Y1.0627 Z0.1948
G01 G54 X54.7779 Y1.0748 Z0.1879
G01 G54 X54.9403 Y1.0823 Z0.1835
G01 G54 X54.9458 Y1.0825 Z0.1833
G01 G54 X55.0369 Y1.0868 Z0.1809
G01 G54 X55.2949 Y1.0991 Z0.1740
G01 G54 X55.4807 Y1.1079 Z0.1691
G01 G54 X55.4859 Y1.1082 Z0.1689
G01 G54 X55.5523 Y1.1114 Z0.1672
G01 G54 X55.8094 Y1.1239 Z0.1604
G01 G54 X56.0210 Y1.1342 Z0.1550
G01 G54 X56.0272 Y1.1345 Z0.1548
G01 G54 X56.0664 Y1.1364 Z0.1538
G01 G54 X56.3238 Y1.1493 Z0.1473
G01 G54 X56.5617 Y1.1612 Z0.1414
G01 G54 X56.5667 Y1.1615 Z0.1413
G01 G54 X56.5818 Y1.1622 Z0.1410
G01 G54 X56.8408 Y1.1755 Z0.1348
G01 G54 X57.1011 Y1.1888 Z0.1288
G01 G54 X57.1018 Y1.1888 Z0.1288
G01 G54 X57.1077 Y1.1891 Z0.1287
G01 G54 X57.3629 Y1.2025 Z0.1231
G01 G54 X57.6268 Y1.2163 Z0.1176
G01 G54 X57.6421 Y1.2171 Z0.1173
G01 G54 X57.6474 Y1.2174 Z0.1172
G01 G54 X57.8928 Y1.2306 Z0.1124
G01 G54 X58.1614 Y1.2450 Z0.1075
G01 G54 X58.1824 Y1.2461 Z0.1071
G01 G54 X58.1824 Y1.2462 Z0.1071
G01 G54 X58.1883 Y1.2464 Z0.1070
G01 G54 X58.4330 Y1.2598 Z0.1028
G01 G54 X58.7077 Y1.2750 Z0.0985
G01 G54 X58.7226 Y1.2758 Z0.0983
G01 G54 X58.7277 Y1.2761 Z0.0982
G01 G54 X58.9860 Y1.2905 Z0.0946
G01 G54 X59.2624 Y1.3061 Z0.0911
G01 G54 X59.2679 Y1.3064 Z0.0911
G01 G54 X59.2681 Y1.3064 Z0.0911
G01 G54 X59.5544 Y1.3228 Z0.0879
G01 G54 X59.8028 Y1.3370 Z0.0856
G01 G54 X59.8087 Y1.3374 Z0.0855
G01 G54 X59.8452 Y1.3395 Z0.0852
G01 G54 X60.1408 Y1.3568 Z0.0829
G01 G54 X60.3429 Y1.3687 Z0.0817
G01 G54 X60.3482 Y1.3690 Z0.0816
G01 G54 X60.4415 Y1.3746 Z0.0811
G01 G54 X60.7267 Y1.3917 Z0.0798
G01 G54 X60.7477 Y1.3914 Z0.0798
G01 G54 X60.7571 Y1.3913 Z0.0797
G01 G54 X60.8735 Y1.3864 Z0.0794
G01 G54 X60.9814 Y1.3787 Z0.0791
G01 G54 X61.0598 Y1.3708 Z0.0789
G01 G54 X61.0767 Y1.3691 Z0.0789
G01 G54 X61.1653 Y1.3573 Z0.0788
G01 G54 X61.2422 Y1.3446 Z0.0788
G01 G54 X61.3116 Y1.3308 Z0.0787
G01 G54 X61.3717 Y1.3168 Z0.0787
G01 G54 X61.3779 Y1.3151 Z0.0787
G01 G54 X61.4223 Y1.3031 Z0.0787
G01 G54 X61.4684 Y1.2888 Z0.0787
G01 G54 X61.5039 Y1.2764 Z0.0787
G01 G54 X61.5370 Y1.2636 Z0.0787
G01 G54 X61.5612 Y1.2531 Z0.0787
G01 G54 X61.5807 Y1.2438 Z0.0787
G01 G54 X61.5971 Y1.2351 Z0.0787
G01 G54 X61.6088 Y1.2283 Z0.0787
G01 G54 X61.6177 Y1.2227 Z0.0787
G01 G54 X61.6232 Y1.2190 Z0.0787
G01 G54 X61.6305 Y1.2135 Z0.0787
G01 G54 X61.6331 Y1.2114 Z0.0787
G01 G54 X61.6364 Y1.2086 Z0.0787
G01 G54 X61.6382 Y1.2069 Z0.0787
G01 G54 X61.6427 Y1.2022 Z0.0787
G01 G54 X61.6474 Y1.1971 Z0.0787
G01 G54 X61.6516 Y1.1922 Z0.0787
G01 G54 X61.6578 Y1.1842 Z0.0787
G01 G54 X61.6644 Y1.1751 Z0.0787
G01 G54 X61.6728 Y1.1628 Z0.0787
G01 G54 X61.6823 Y1.1477 Z0.0787
G01 G54 X61.6931 Y1.1289 Z0.0787
G01 G54 X61.7048 Y1.1073 Z0.0787
G01 G54 X61.7178 Y1.0811 Z0.0787
G01 G54 X61.7307 Y1.0530 Z0.0787
G01 G54 X61.7443 Y1.0208 Z0.0787
G01 G54 X61.7591 Y0.9825 Z0.0787
G01 G54 X61.7733 Y0.9428 Z0.0787
G01 G54 X61.7881 Y0.8969 Z0.0787
G01 G54 X61.8028 Y0.8466 Z0.0787
G01 G54 X61.8164 Y0.7953 Z0.0787
G01 G54 X61.8299 Y0.7388 Z0.0787
G01 G54 X61.8425 Y0.6792 Z0.0787
G01 G54 X61.8544 Y0.6150 Z0.0787
G01 G54 X61.8652 Y0.5479 Z0.0787
G01 G54 X61.8750 Y0.4768 Z0.0787
G01 G54 X61.8837 Y0.4020 Z0.0787
G01 G54 X61.8905 Y0.3286 Z0.0787
G01 G54 X61.8961 Y0.2489 Z0.0787
G01 G54 X61.9001 Y0.1688 Z0.0787
G01 G54 X61.9027 Y0.0833 Z0.0787
G01 G54 X61.9035 Y0.0000 Z0.0787
G01 G54 X61.9027 Y-0.0833 Z0.0787
G01 G54 X61.9001 Y-0.1688 Z0.0787
G01 G54 X61.8961 Y-0.2489 Z0.0787
G01 G54 X61.8905 Y-0.3286 Z0.0787
G01 G54 X61.8837 Y-0.4020 Z0.0787
G01 G54 X61.8750 Y-0.4768 Z0.0787
G01 G54 X61.8652 Y-0.5479 Z0.0787
G01 G54 X61.8544 Y-0.6150 Z0.0787
G01 G54 X61.8425 Y-0.6792 Z0.0787
G01 G54 X61.8299 Y-0.7388 Z0.0787
G01 G54 X61.8162 Y-0.7964 Z0.0787
G01 G54 X61.8028 Y-0.8466 Z0.0787
G01 G54 X61.7879 Y-0.8973 Z0.0787
G01 G54 X61.7731 Y-0.9432 Z0.0787
G01 G54 X61.7590 Y-0.9831 Z0.0787
G01 G54 X61.7443 Y-1.0208 Z0.0787
G01 G54 X61.7305 Y-1.0535 Z0.0787
G01 G54 X61.7178 Y-1.0811 Z0.0787
G01 G54 X61.7048 Y-1.1073 Z0.0787
G01 G54 X61.6931 Y-1.1290 Z0.0787
G01 G54 X61.6820 Y-1.1481 Z0.0787
G01 G54 X61.6727 Y-1.1630 Z0.0787
G01 G54 X61.6644 Y-1.1753 Z0.0787
G01 G54 X61.6576 Y-1.1845 Z0.0787
G01 G54 X61.6516 Y-1.1922 Z0.0787
G01 G54 X61.6470 Y-1.1975 Z0.0787
G01 G54 X61.6427 Y-1.2022 Z0.0787
G01 G54 X61.6382 Y-1.2069 Z0.0787
G01 G54 X61.6362 Y-1.2087 Z0.0787
G01 G54 X61.6327 Y-1.2118 Z0.0787
G01 G54 X61.6305 Y-1.2135 Z0.0787
G01 G54 X61.6232 Y-1.2190 Z0.0787
G01 G54 X61.6177 Y-1.2227 Z0.0787
G01 G54 X61.6088 Y-1.2283 Z0.0787
G01 G54 X61.5969 Y-1.2352 Z0.0787
G01 G54 X61.5807 Y-1.2438 Z0.0787
G01 G54 X61.5612 Y-1.2531 Z0.0787
G01 G54 X61.5370 Y-1.2636 Z0.0787
G01 G54 X61.5039 Y-1.2764 Z0.0787
G01 G54 X61.4684 Y-1.2888 Z0.0787
G01 G54 X61.4223 Y-1.3031 Z0.0787
G01 G54 X61.3779 Y-1.3151 Z0.0787
G01 G54 X61.3717 Y-1.3168 Z0.0787
G01 G54 X61.3116 Y-1.3308 Z0.0787
G01 G54 X61.2422 Y-1.3446 Z0.0788
G01 G54 X61.1653 Y-1.3573 Z0.0788
G01 G54 X61.0767 Y-1.3691 Z0.0789
G01 G54 X61.0598 Y-1.3708 Z0.0789
G01 G54 X60.9814 Y-1.3787 Z0.0791
G01 G54 X60.8735 Y-1.3864 Z0.0794
G01 G54 X60.7571 Y-1.3913 Z0.0797
G01 G54 X60.7477 Y-1.3914 Z0.0798
G01 G54 X60.7267 Y-1.3917 Z0.0798
G01 G54 X60.4415 Y-1.3746 Z0.0811
G01 G54 X60.3482 Y-1.3690 Z0.0816
G01 G54 X60.3429 Y-1.3687 Z0.0817
G01 G54 X60.1408 Y-1.3568 Z0.0829
G01 G54 X59.8452 Y-1.3395 Z0.0852
G01 G54 X59.8087 Y-1.3374 Z0.0855
G01 G54 X59.8028 Y-1.3370 Z0.0856
G01 G54 X59.5544 Y-1.3228 Z0.0879
G01 G54 X59.2681 Y-1.3064 Z0.0911
G01 G54 X59.2679 Y-1.3064 Z0.0911
G01 G54 X59.2624 Y-1.3061 Z0.0911
G01 G54 X58.9860 Y-1.2905 Z0.0946
G01 G54 X58.7277 Y-1.2761 Z0.0982
G01 G54 X58.7226 Y-1.2758 Z0.0983
G01 G54 X58.7077 Y-1.2750 Z0.0985
G01 G54 X58.4330 Y-1.2598 Z0.1028
G01 G54 X58.1883 Y-1.2464 Z0.1070
G01 G54 X58.1824 Y-1.2462 Z0.1071
G01 G54 X58.1824 Y-1.2461 Z0.1071
G01 G54 X58.1614 Y-1.2450 Z0.1075
G01 G54 X57.8928 Y-1.2306 Z0.1124
G01 G54 X57.6474 Y-1.2174 Z0.1172
G01 G54 X57.6421 Y-1.2171 Z0.1173
G01 G54 X57.6268 Y-1.2163 Z0.1176
G01 G54 X57.3629 Y-1.2024 Z0.1231
G01 G54 X57.1077 Y-1.1891 Z0.1287
G01 G54 X57.1018 Y-1.1888 Z0.1288
G01 G54 X57.1011 Y-1.1888 Z0.1288
G01 G54 X56.8408 Y-1.1755 Z0.1348
G01 G54 X56.5818 Y-1.1622 Z0.1410
G01 G54 X56.5667 Y-1.1615 Z0.1413
G01 G54 X56.5617 Y-1.1612 Z0.1414
G01 G54 X56.3238 Y-1.1493 Z0.1473
G01 G54 X56.0664 Y-1.1364 Z0.1538
G01 G54 X56.0272 Y-1.1345 Z0.1548
G01 G54 X56.0210 Y-1.1342 Z0.1550
G01 G54 X55.8094 Y-1.1239 Z0.1604
G01 G54 X55.5523 Y-1.1114 Z0.1672
G01 G54 X55.4859 Y-1.1082 Z0.1689
G01 G54 X55.4807 Y-1.1079 Z0.1691
G01 G54 X55.2949 Y-1.0991 Z0.1740
G01 G54 X55.0369 Y-1.0868 Z0.1809
G01 G54 X54.9458 Y-1.0825 Z0.1833
G01 G54 X54.9403 Y-1.0823 Z0.1835
G01 G54 X54.7779 Y-1.0748 Z0.1879
G01 G54 X54.5176 Y-1.0627 Z0.1948
G01 G54 X54.4058 Y-1.0576 Z0.1978
G01 G54 X54.3999 Y-1.0574 Z0.1979
G01 G54 X54.3999 Y-1.0574 Z0.1979
G01 G54 X54.2557 Y-1.0509 Z0.2017
G01 G54 X53.9919 Y-1.0390 Z0.2087
G01 G54 X53.8647 Y-1.0333 Z0.2120
G01 G54 X53.8592 Y-1.0331 Z0.2122
G01 G54 X53.7259 Y-1.0272 Z0.2156
G01 G54 X53.4572 Y-1.0155 Z0.2224
G01 G54 X53.3242 Y-1.0097 Z0.2257
G01 G54 X53.3190 Y-1.0094 Z0.2259
G01 G54 X53.1857 Y-1.0037 Z0.2292
G01 G54 X52.9110 Y-0.9920 Z0.2358
G01 G54 X52.7844 Y-0.9867 Z0.2388
G01 G54 X52.7785 Y-0.9865 Z0.2389
G01 G54 X52.7785 Y-0.9865 Z0.2389
G01 G54 X52.6327 Y-0.9805 Z0.2423
G01 G54 X52.3506 Y-0.9688 Z0.2487
G01 G54 X52.2432 Y-0.9644 Z0.2509
G01 G54 X52.2374 Y-0.9642 Z0.2511
G01 G54 X52.0643 Y-0.9572 Z0.2548
G01 G54 X51.7735 Y-0.9456 Z0.2608
G01 G54 X51.7024 Y-0.9428 Z0.2622
G01 G54 X51.6975 Y-0.9426 Z0.2622
G01 G54 X51.4779 Y-0.9340 Z0.2665
G01 G54 X51.1772 Y-0.9224 Z0.2720
G01 G54 X51.1627 Y-0.9218 Z0.2722
G01 G54 X51.1566 Y-0.9216 Z0.2723
G01 G54 X51.1566 Y-0.9216 Z0.2723
G01 G54 X50.8709 Y-0.9109 Z0.2772
G01 G54 X50.6212 Y-0.9015 Z0.2812
G01 G54 X50.6157 Y-0.9013 Z0.2812
G01 G54 X50.5589 Y-0.8992 Z0.2821
G01 G54 X50.2409 Y-0.8877 Z0.2868
G01 G54 X50.0806 Y-0.8819 Z0.2889
G01 G54 X50.0753 Y-0.8817 Z0.2890
G01 G54 X49.9163 Y-0.8761 Z0.2911
G01 G54 X49.5850 Y-0.8645 Z0.2950
G01 G54 X49.5401 Y-0.8629 Z0.2955
G01 G54 X49.5343 Y-0.8627 Z0.2955
G01 G54 X49.2467 Y-0.8530 Z0.2985
G01 G54 X48.9994 Y-0.8447 Z0.3008
G01 G54 X48.9940 Y-0.8446 Z0.3009
G01 G54 X48.9940 Y-0.8445 Z0.3009
G01 G54 X48.9010 Y-0.8415 Z0.3017
G01 G54 X48.5475 Y-0.8300 Z0.3044
G01 G54 X48.4585 Y-0.8271 Z0.3050
G01 G54 X48.4530 Y-0.8269 Z0.3050
G01 G54 X48.1861 Y-0.8185 Z0.3067
G01 G54 X47.9178 Y-0.8101 Z0.3080
G01 G54 X47.9125 Y-0.8100 Z0.3081
G01 G54 X47.8162 Y-0.8071 Z0.3085
G01 G54 X47.4377 Y-0.7957 Z0.3098
G01 G54 X47.3773 Y-0.7938 Z0.3100
G01 G54 X47.3714 Y-0.7937 Z0.3100
G01 G54 X47.0502 Y-0.7844 Z0.3107
G01 G54 X46.8365 Y-0.7782 Z0.3108
G01 G54 X46.8311 Y-0.7781 Z0.3108
G01 G54 X46.6535 Y-0.7732 Z0.3110
G01 G54 X46.2955 Y-0.7633 Z0.3110
G01 G54 X46.2896 Y-0.7631 Z0.3110
G01 G54 X45.7544 Y-0.7490 Z0.3110
G01 G54 X45.7490 Y-0.7489 Z0.3110
G01 G54 X45.2137 Y-0.7355 Z0.3110
G01 G54 X45.2085 Y-0.7353 Z0.3110
G01 G54 X44.6731 Y-0.7225 Z0.3110
G01 G54 X44.6673 Y-0.7224 Z0.3110
G01 G54 X44.1323 Y-0.7102 Z0.3110
G01 G54 X44.1266 Y-0.7102 Z0.3110
G01 G54 X44.1266 Y-0.7101 Z0.3110
G01 G54 X43.5909 Y-0.6987 Z0.3110
G01 G54 X43.5857 Y-0.6986 Z0.3110
G01 G54 X43.0503 Y-0.6877 Z0.3110
G01 G54 X43.0447 Y-0.6877 Z0.3110
G01 G54 X42.5093 Y-0.6775 Z0.3110
G01 G54 X42.5037 Y-0.6774 Z0.3110
G01 G54 X41.9684 Y-0.6679 Z0.3110
G01 G54 X41.9627 Y-0.6678 Z0.3110
G01 G54 X41.4273 Y-0.6590 Z0.3110
G01 G54 X41.4217 Y-0.6589 Z0.3110
G01 G54 X40.8863 Y-0.6507 Z0.3110
G01 G54 X40.8807 Y-0.6507 Z0.3110
G01 G54 X40.3453 Y-0.6432 Z0.3110
G01 G54 X40.3400 Y-0.6431 Z0.3110
G01 G54 X39.8050 Y-0.6362 Z0.3110
G01 G54 X39.7993 Y-0.6362 Z0.3110
G01 G54 X39.2635 Y-0.6301 Z0.3110
G01 G54 X39.2579 Y-0.6300 Z0.3110
G01 G54 X38.7225 Y-0.6245 Z0.3110
G01 G54 X38.7169 Y-0.6244 Z0.3110
G01 G54 X38.1815 Y-0.6196 Z0.3110
G01 G54 X38.1759 Y-0.6195 Z0.3110
G01 G54 X37.6404 Y-0.6153 Z0.3110
G01 G54 X37.6348 Y-0.6153 Z0.3110
G01 G54 X37.0993 Y-0.6118 Z0.3110
G01 G54 X37.0940 Y-0.6118 Z0.3110
G01 G54 X36.5586 Y-0.6089 Z0.3110
G01 G54 X36.5530 Y-0.6089 Z0.3110
G01 G54 X36.0175 Y-0.6067 Z0.3110
G01 G54 X36.0119 Y-0.6066 Z0.3110
G01 G54 X35.4765 Y-0.6051 Z0.3110
G01 G54 X35.4709 Y-0.6051 Z0.3110
G01 G54 X34.9354 Y-0.6042 Z0.3110
G01 G54 X34.9298 Y-0.6042 Z0.3110
G01 G54 X34.3946 Y-0.6040 Z0.3110
G01 G54 X34.3889 Y-0.6040 Z0.3110
G01 G54 X33.8535 Y-0.6045 Z0.3110
G01 G54 X33.8483 Y-0.6045 Z0.3110
G01 G54 X33.3128 Y-0.6056 Z0.3110
G01 G54 X33.3072 Y-0.6057 Z0.3110
G01 G54 X32.7717 Y-0.6074 Z0.3110
G01 G54 X32.7661 Y-0.6074 Z0.3110
G01 G54 X32.2307 Y-0.6099 Z0.3110
G01 G54 X32.2251 Y-0.6099 Z0.3110
G01 G54 X31.6896 Y-0.6130 Z0.3110
G01 G54 X31.6840 Y-0.6131 Z0.3110
G01 G54 X31.1485 Y-0.6168 Z0.3110
G01 G54 X31.1429 Y-0.6169 Z0.3110
G01 G54 X30.6075 Y-0.6213 Z0.3110
G01 G54 X30.6022 Y-0.6214 Z0.3110
G01 G54 X30.0668 Y-0.6264 Z0.3110
G01 G54 X30.0611 Y-0.6265 Z0.3110
G01 G54 X29.5257 Y-0.6323 Z0.3110
G01 G54 X29.5198 Y-0.6323 Z0.3110
G01 G54 X28.9841 Y-0.6388 Z0.3110
G01 G54 X28.9841 Y-0.6388 Z0.3110
G01 G54 X28.9791 Y-0.6388 Z0.3110
G01 G54 X28.4439 Y-0.6459 Z0.3110
G01 G54 X28.4380 Y-0.6459 Z0.3110
G01 G54 X27.9026 Y-0.6537 Z0.3110
G01 G54 X27.8970 Y-0.6538 Z0.3110
G01 G54 X27.3616 Y-0.6622 Z0.3110
G01 G54 X27.3563 Y-0.6623 Z0.3110
G01 G54 X26.8209 Y-0.6713 Z0.3110
G01 G54 X26.8150 Y-0.6714 Z0.3110
G01 G54 X26.2796 Y-0.6812 Z0.3110
G01 G54 X26.2743 Y-0.6813 Z0.3110
G01 G54 X25.7390 Y-0.6917 Z0.3110
G01 G54 X25.7334 Y-0.6918 Z0.3110
G01 G54 X25.1977 Y-0.7029 Z0.3110
G01 G54 X25.1977 Y-0.7029 Z0.3110
G01 G54 X25.1920 Y-0.7029 Z0.3110
G01 G54 X24.6570 Y-0.7147 Z0.3110
G01 G54 X24.6518 Y-0.7148 Z0.3110
G01 G54 X24.1165 Y-0.7272 Z0.3110
G01 G54 X24.1106 Y-0.7273 Z0.3110
G01 G54 X23.5752 Y-0.7404 Z0.3110
G01 G54 X23.5699 Y-0.7405 Z0.3110
G01 G54 X23.0346 Y-0.7542 Z0.3110
G01 G54 X23.0291 Y-0.7544 Z0.3110
G01 G54 X22.4935 Y-0.7687 Z0.3110
G01 G54 X22.4935 Y-0.7688 Z0.3110
G01 G54 X22.4877 Y-0.7688 Z0.3110
G01 G54 X21.9528 Y-0.7839 Z0.3110
G01 G54 X21.9473 Y-0.7840 Z0.3110
G01 G54 X21.4121 Y-0.7998 Z0.3110
G01 G54 X21.4068 Y-0.7999 Z0.3110
G01 G54 X21.0630 Y-0.8104 Z0.3110
G01 G54 X20.8716 Y-0.8162 Z0.3108
G01 G54 X20.8656 Y-0.8164 Z0.3108
G01 G54 X20.6662 Y-0.8228 Z0.3107
G01 G54 X20.3304 Y-0.8335 Z0.3100
G01 G54 X20.3252 Y-0.8337 Z0.3100
G01 G54 X20.2787 Y-0.8352 Z0.3098
G01 G54 X19.9001 Y-0.8477 Z0.3085
G01 G54 X19.7897 Y-0.8513 Z0.3080
G01 G54 X19.7897 Y-0.8514 Z0.3080
G01 G54 X19.7839 Y-0.8515 Z0.3079
G01 G54 X19.5303 Y-0.8601 Z0.3067
G01 G54 X19.2491 Y-0.8698 Z0.3049
G01 G54 X19.2436 Y-0.8700 Z0.3049
G01 G54 X19.1689 Y-0.8727 Z0.3044
G01 G54 X18.8154 Y-0.8852 Z0.3017
G01 G54 X18.7085 Y-0.8890 Z0.3007
G01 G54 X18.7030 Y-0.8892 Z0.3007
G01 G54 X18.4697 Y-0.8978 Z0.2985
G01 G54 X18.1675 Y-0.9089 Z0.2954
G01 G54 X18.1675 Y-0.9090 Z0.2954
G01 G54 X18.1621 Y-0.9091 Z0.2953
G01 G54 X18.1314 Y-0.9102 Z0.2950
G01 G54 X17.8001 Y-0.9228 Z0.2911
G01 G54 X17.6273 Y-0.9294 Z0.2888
G01 G54 X17.6214 Y-0.9296 Z0.2887
G01 G54 X17.4756 Y-0.9353 Z0.2868
G01 G54 X17.1575 Y-0.9478 Z0.2821
G01 G54 X17.0864 Y-0.9507 Z0.2810
G01 G54 X17.0812 Y-0.9509 Z0.2809
G01 G54 X16.8455 Y-0.9604 Z0.2772
G01 G54 X16.5459 Y-0.9725 Z0.2721
G01 G54 X16.5459 Y-0.9725 Z0.2721
G01 G54 X16.5401 Y-0.9727 Z0.2720
G01 G54 X16.5392 Y-0.9727 Z0.2720
G01 G54 X16.2385 Y-0.9853 Z0.2665
G01 G54 X16.0054 Y-0.9950 Z0.2620
G01 G54 X15.9999 Y-0.9953 Z0.2619
G01 G54 X15.9429 Y-0.9977 Z0.2607
G01 G54 X15.6521 Y-1.0102 Z0.2548
G01 G54 X15.4649 Y-1.0183 Z0.2508
G01 G54 X15.4594 Y-1.0185 Z0.2507
G01 G54 X15.3658 Y-1.0226 Z0.2487
G01 G54 X15.0837 Y-1.0351 Z0.2423
G01 G54 X14.9242 Y-1.0422 Z0.2386
G01 G54 X14.9242 Y-1.0422 Z0.2386
G01 G54 X14.9187 Y-1.0424 Z0.2385
G01 G54 X14.8054 Y-1.0475 Z0.2358
G01 G54 X14.5307 Y-1.0600 Z0.2292
G01 G54 X14.3840 Y-1.0666 Z0.2255
G01 G54 X14.3785 Y-1.0669 Z0.2254
G01 G54 X14.2592 Y-1.0725 Z0.2224
G01 G54 X13.9905 Y-1.0850 Z0.2156
G01 G54 X13.8437 Y-1.0919 Z0.2118
G01 G54 X13.8382 Y-1.0922 Z0.2116
G01 G54 X13.7245 Y-1.0976 Z0.2087
G01 G54 X13.4607 Y-1.1102 Z0.2017
G01 G54 X13.3030 Y-1.1178 Z0.1976
G01 G54 X13.3030 Y-1.1178 Z0.1976
G01 G54 X13.2972 Y-1.1180 Z0.1974
G01 G54 X13.1988 Y-1.1228 Z0.1948
G01 G54 X12.9385 Y-1.1356 Z0.1879
G01 G54 X12.7627 Y-1.1443 Z0.1831
G01 G54 X12.7572 Y-1.1446 Z0.1830
G01 G54 X12.6795 Y-1.1485 Z0.1809
G01 G54 X12.4215 Y-1.1615 Z0.1740
G01 G54 X12.2224 Y-1.1716 Z0.1687
G01 G54 X12.2169 Y-1.1718 Z0.1686
G01 G54 X12.1641 Y-1.1746 Z0.1672
G01 G54 X11.9071 Y-1.1878 Z0.1604
G01 G54 X11.6818 Y-1.1995 Z0.1546
G01 G54 X11.6818 Y-1.1995 Z0.1546
G01 G54 X11.6763 Y-1.1997 Z0.1545
G01 G54 X11.6500 Y-1.2011 Z0.1538
G01 G54 X11.3926 Y-1.2147 Z0.1473
G01 G54 X11.1419 Y-1.2280 Z0.1411
G01 G54 X11.1365 Y-1.2283 Z0.1410
G01 G54 X11.1346 Y-1.2283 Z0.1410
G01 G54 X10.8756 Y-1.2424 Z0.1348
G01 G54 X10.6153 Y-1.2564 Z0.1288
G01 G54 X10.6015 Y-1.2572 Z0.1285
G01 G54 X10.6015 Y-1.2573 Z0.1285
G01 G54 X10.5956 Y-1.2575 Z0.1284
G01 G54 X10.3535 Y-1.2709 Z0.1231
G01 G54 X10.0896 Y-1.2855 Z0.1176
G01 G54 X10.0613 Y-1.2871 Z0.1170
G01 G54 X10.0560 Y-1.2874 Z0.1170
G01 G54 X9.8236 Y-1.3005 Z0.1124
G01 G54 X9.5550 Y-1.3157 Z0.1075
G01 G54 X9.5211 Y-1.3177 Z0.1069
G01 G54 X9.5211 Y-1.3177 Z0.1069
G01 G54 X9.5152 Y-1.3180 Z0.1068
G01 G54 X9.2835 Y-1.3314 Z0.1028
G01 G54 X9.0087 Y-1.3473 Z0.0985
G01 G54 X8.9809 Y-1.3489 Z0.0981
G01 G54 X8.9759 Y-1.3492 Z0.0981
G01 G54 X8.7304 Y-1.3637 Z0.0946
G01 G54 X8.4483 Y-1.3803 Z0.0910
G01 G54 X8.4411 Y-1.3808 Z0.0909
G01 G54 X8.4351 Y-1.3811 Z0.0909
G01 G54 X8.1620 Y-1.3976 Z0.0879
G01 G54 X7.9010 Y-1.4134 Z0.0855
G01 G54 X7.8955 Y-1.4137 Z0.0854
G01 G54 X7.8712 Y-1.4152 Z0.0852
G01 G54 X7.5756 Y-1.4334 Z0.0829
G01 G54 X7.3611 Y-1.4466 Z0.0816
G01 G54 X7.3556 Y-1.4470 Z0.0816
G01 G54 X7.2749 Y-1.4520 Z0.0811
G01 G54 X6.9765 Y-1.4708 Z0.0798
G01 G54 X6.9687 Y-1.4707 Z0.0797
G01 G54 X6.8655 Y-1.4696 Z0.0795
G01 G54 X6.6566 Y-1.4627 Z0.0789
G01 G54 X6.6540 Y-1.4626 Z0.0789
G01 G54 X6.4560 Y-1.4515 Z0.0788
G01 G54 X6.3386 Y-1.4421 Z0.0787
G01 G54 X6.2662 Y-1.4363 Z0.0787
G01 G54 X6.0908 Y-1.4180 Z0.0787
G01 G54 X5.9268 Y-1.3966 Z0.0787
G01 G54 X5.7692 Y-1.3719 Z0.0787
G01 G54 X5.6289 Y-1.3460 Z0.0787
G01 G54 X5.4935 Y-1.3171 Z0.0787
G01 G54 X5.3716 Y-1.2874 Z0.0787
G01 G54 X5.2591 Y-1.2565 Z0.0787
G01 G54 X5.1563 Y-1.2249 Z0.0787
G01 G54 X5.0625 Y-1.1928 Z0.0787
G01 G54 X4.9790 Y-1.1613 Z0.0787
G01 G54 X4.9025 Y-1.1295 Z0.0787
G01 G54 X4.8337 Y-1.0982 Z0.0787
G01 G54 X4.7743 Y-1.0687 Z0.0787
G01 G54 X4.7219 Y-1.0404 Z0.0787
G01 G54 X4.6744 Y-1.0125 Z0.0787
G01 G54 X4.6331 Y-0.9863 Z0.0787
G01 G54 X4.5986 Y-0.9626 Z0.0787
G01 G54 X4.5668 Y-0.9390 Z0.0787
G01 G54 X4.5409 Y-0.9183 Z0.0787
G01 G54 X4.5163 Y-0.8970 Z0.0787
G01 G54 X4.4967 Y-0.8787 Z0.0787
G01 G54 X4.4779 Y-0.8598 Z0.0787
G01 G54 X4.4633 Y-0.8440 Z0.0787
G01 G54 X4.4468 Y-0.8249 Z0.0787
G01 G54 X4.4344 Y-0.8092 Z0.0787
G01 G54 X4.4214 Y-0.7916 Z0.0787
G01 G54 X4.4083 Y-0.7724 Z0.0787
G01 G54 X4.3964 Y-0.7536 Z0.0787
G01 G54 X4.3848 Y-0.7337 Z0.0787
G01 G54 X4.3729 Y-0.7115 Z0.0787
G01 G54 X4.3610 Y-0.6872 Z0.0787
G01 G54 X4.3496 Y-0.6618 Z0.0787
G01 G54 X4.3382 Y-0.6342 Z0.0787
G01 G54 X4.3260 Y-0.6014 Z0.0787
G01 G54 X4.3144 Y-0.5670 Z0.0787
G01 G54 X4.3030 Y-0.5290 Z0.0787
G01 G54 X4.2928 Y-0.4910 Z0.0787
G01 G54 X4.2825 Y-0.4470 Z0.0787
G01 G54 X4.2731 Y-0.4013 Z0.0787
G01 G54 X4.2646 Y-0.3528 Z0.0787
G01 G54 X4.2570 Y-0.3004 Z0.0787
G01 G54 X4.2505 Y-0.2455 Z0.0787
G01 G54 X4.2453 Y-0.1883 Z0.0787
G01 G54 X4.2414 Y-0.1274 Z0.0787
G01 G54 X4.2390 Y-0.0630 Z0.0787
G01 G54 X4.2382 Y0.0000 Z0.0787
G01 G54 X3.4902 Y0.0000 Z0.0787 F20
G01 G54 X3.4902 Y0.0000 Z0.0787 F70
G01 G54 X3.4912 Y0.0835 Z0.0787
G01 G54 X3.4943 Y0.1653 Z0.0787
G01 G54 X3.4994 Y0.2448 Z0.0787
G01 G54 X3.5063 Y0.3213 Z0.0787
G01 G54 X3.5155 Y0.3998 Z0.0787
G01 G54 X3.5259 Y0.4705 Z0.0787
G01 G54 X3.5381 Y0.5407 Z0.0787
G01 G54 X3.5517 Y0.6072 Z0.0787
G01 G54 X3.5673 Y0.6734 Z0.0787
G01 G54 X3.5836 Y0.7340 Z0.0787
G01 G54 X3.6016 Y0.7940 Z0.0787
G01 G54 X3.6210 Y0.8516 Z0.0787
G01 G54 X3.6412 Y0.9058 Z0.0787
G01 G54 X3.6621 Y0.9568 Z0.0787
G01 G54 X3.6838 Y1.0051 Z0.0787
G01 G54 X3.7078 Y1.0539 Z0.0787
G01 G54 X3.7317 Y1.0985 Z0.0787
G01 G54 X3.7559 Y1.1400 Z0.0787
G01 G54 X3.7831 Y1.1833 Z0.0787
G01 G54 X3.8108 Y1.2239 Z0.0787
G01 G54 X3.8403 Y1.2639 Z0.0787
G01 G54 X3.8705 Y1.3018 Z0.0787
G01 G54 X3.9040 Y1.3409 Z0.0787
G01 G54 X3.9383 Y1.3779 Z0.0787
G01 G54 X3.9762 Y1.4161 Z0.0787
G01 G54 X4.0166 Y1.4537 Z0.0787
G01 G54 X4.0628 Y1.4937 Z0.0787
G01 G54 X4.1092 Y1.5309 Z0.0787
G01 G54 X4.1644 Y1.5718 Z0.0787
G01 G54 X4.2201 Y1.6101 Z0.0787
G01 G54 X4.2840 Y1.6507 Z0.0787
G01 G54 X4.3548 Y1.6922 Z0.0787
G01 G54 X4.4303 Y1.7330 Z0.0787
G01 G54 X4.5124 Y1.7738 Z0.0787
G01 G54 X4.6047 Y1.8158 Z0.0787
G01 G54 X4.7030 Y1.8566 Z0.0787
G01 G54 X4.8090 Y1.8966 Z0.0787
G01 G54 X4.9248 Y1.9362 Z0.0787
G01 G54 X5.0501 Y1.9748 Z0.0787
G01 G54 X5.1849 Y2.0118 Z0.0787
G01 G54 X5.3277 Y2.0466 Z0.0787
G01 G54 X5.4812 Y2.0794 Z0.0787
G01 G54 X5.6450 Y2.1096 Z0.0787
G01 G54 X5.8194 Y2.1369 Z0.0787
G01 G54 X6.0040 Y2.1610 Z0.0787
G01 G54 X6.1980 Y2.1812 Z0.0787
G01 G54 X6.3386 Y2.1925 Z0.0787
G01 G54 X6.4042 Y2.1977 Z0.0787
G01 G54 X6.6218 Y2.2099 Z0.0789
G01 G54 X6.6566 Y2.2111 Z0.0789
G01 G54 X6.8487 Y2.2174 Z0.0794
G01 G54 X6.9687 Y2.2187 Z0.0797
G01 G54 X6.9960 Y2.2190 Z0.0799
G01 G54 X7.2749 Y2.2015 Z0.0811
G01 G54 X7.4025 Y2.1935 Z0.0818
G01 G54 X7.4070 Y2.1932 Z0.0819
G01 G54 X7.5756 Y2.1828 Z0.0829
G01 G54 X7.8712 Y2.1646 Z0.0852
G01 G54 X7.9415 Y2.1603 Z0.0858
G01 G54 X7.9460 Y2.1600 Z0.0859
G01 G54 X8.1620 Y2.1470 Z0.0879
G01 G54 X8.4483 Y2.1297 Z0.0910
G01 G54 X8.4802 Y2.1278 Z0.0914
G01 G54 X8.4851 Y2.1275 Z0.0915
G01 G54 X8.7304 Y2.1130 Z0.0946
G01 G54 X9.0087 Y2.0965 Z0.0985
G01 G54 X9.0200 Y2.0959 Z0.0987
G01 G54 X9.0241 Y2.0957 Z0.0988
G01 G54 X9.2835 Y2.0806 Z0.1028
G01 G54 X9.5550 Y2.0649 Z0.1075
G01 G54 X9.5584 Y2.0647 Z0.1075
G01 G54 X9.5633 Y2.0645 Z0.1076
G01 G54 X9.5633 Y2.0645 Z0.1076
G01 G54 X9.8236 Y2.0497 Z0.1124
G01 G54 X10.0896 Y2.0347 Z0.1176
G01 G54 X10.0983 Y2.0342 Z0.1178
G01 G54 X10.1027 Y2.0339 Z0.1179
G01 G54 X10.3535 Y2.0200 Z0.1231
G01 G54 X10.6153 Y2.0055 Z0.1288
G01 G54 X10.6370 Y2.0043 Z0.1293
G01 G54 X10.6422 Y2.0041 Z0.1294
G01 G54 X10.8756 Y1.9915 Z0.1348
G01 G54 X11.1346 Y1.9775 Z0.1410
G01 G54 X11.1769 Y1.9752 Z0.1420
G01 G54 X11.1814 Y1.9750 Z0.1421
G01 G54 X11.3926 Y1.9638 Z0.1473
G01 G54 X11.6500 Y1.9501 Z0.1538
G01 G54 X11.7159 Y1.9467 Z0.1555
G01 G54 X11.7205 Y1.9465 Z0.1556
G01 G54 X11.7205 Y1.9464 Z0.1556
G01 G54 X11.9071 Y1.9368 Z0.1604
G01 G54 X12.1641 Y1.9235 Z0.1672
G01 G54 X12.2555 Y1.9188 Z0.1696
G01 G54 X12.2601 Y1.9186 Z0.1697
G01 G54 X12.4215 Y1.9105 Z0.1740
G01 G54 X12.6795 Y1.8974 Z0.1809
G01 G54 X12.7949 Y1.8916 Z0.1840
G01 G54 X12.7994 Y1.8914 Z0.1841
G01 G54 X12.9385 Y1.8846 Z0.1879
G01 G54 X13.1988 Y1.8717 Z0.1948
G01 G54 X13.3339 Y1.8651 Z0.1984
G01 G54 X13.3388 Y1.8650 Z0.1985
G01 G54 X13.3388 Y1.8649 Z0.1985
G01 G54 X13.4607 Y1.8590 Z0.2017
G01 G54 X13.7245 Y1.8464 Z0.2087
G01 G54 X13.8740 Y1.8393 Z0.2126
G01 G54 X13.8785 Y1.8390 Z0.2127
G01 G54 X13.9905 Y1.8338 Z0.2156
G01 G54 X14.2592 Y1.8212 Z0.2224
G01 G54 X14.4134 Y1.8141 Z0.2262
G01 G54 X14.4180 Y1.8139 Z0.2264
G01 G54 X14.5307 Y1.8087 Z0.2292
G01 G54 X14.8054 Y1.7962 Z0.2358
G01 G54 X14.9526 Y1.7896 Z0.2392
G01 G54 X14.9572 Y1.7894 Z0.2393
G01 G54 X15.0837 Y1.7838 Z0.2423
G01 G54 X15.3658 Y1.7713 Z0.2487
G01 G54 X15.4924 Y1.7658 Z0.2514
G01 G54 X15.4970 Y1.7656 Z0.2514
G01 G54 X15.6521 Y1.7589 Z0.2548
G01 G54 X15.9429 Y1.7464 Z0.2607
G01 G54 X16.0320 Y1.7426 Z0.2625
G01 G54 X16.0366 Y1.7424 Z0.2626
G01 G54 X16.2385 Y1.7339 Z0.2665
G01 G54 X16.5392 Y1.7214 Z0.2720
G01 G54 X16.5712 Y1.7201 Z0.2725
G01 G54 X16.5761 Y1.7200 Z0.2726
G01 G54 X16.5761 Y1.7199 Z0.2726
G01 G54 X16.8455 Y1.7090 Z0.2772
G01 G54 X17.1115 Y1.6983 Z0.2814
G01 G54 X17.1158 Y1.6981 Z0.2815
G01 G54 X17.1575 Y1.6964 Z0.2821
G01 G54 X17.4756 Y1.6839 Z0.2868
G01 G54 X17.6508 Y1.6770 Z0.2891
G01 G54 X17.6557 Y1.6768 Z0.2892
G01 G54 X17.8001 Y1.6713 Z0.2911
G01 G54 X18.1314 Y1.6587 Z0.2950
G01 G54 X18.1905 Y1.6565 Z0.2956
G01 G54 X18.1950 Y1.6564 Z0.2957
G01 G54 X18.4697 Y1.6463 Z0.2985
G01 G54 X18.7305 Y1.6367 Z0.3009
G01 G54 X18.7350 Y1.6366 Z0.3010
G01 G54 X18.8154 Y1.6337 Z0.3017
G01 G54 X19.1689 Y1.6211 Z0.3044
G01 G54 X19.2701 Y1.6175 Z0.3051
G01 G54 X19.2748 Y1.6174 Z0.3051
G01 G54 X19.5303 Y1.6086 Z0.3067
G01 G54 X19.8096 Y1.5990 Z0.3081
G01 G54 X19.8144 Y1.5990 Z0.3081
G01 G54 X19.8144 Y1.5989 Z0.3081
G01 G54 X19.9001 Y1.5961 Z0.3085
G01 G54 X20.2787 Y1.5836 Z0.3098
G01 G54 X20.3499 Y1.5812 Z0.3100
G01 G54 X20.3542 Y1.5811 Z0.3100
G01 G54 X20.6662 Y1.5711 Z0.3107
G01 G54 X20.8894 Y1.5640 Z0.3108
G01 G54 X20.8944 Y1.5639 Z0.3109
G01 G54 X21.0630 Y1.5587 Z0.3110
G01 G54 X21.4296 Y1.5475 Z0.3110
G01 G54 X21.4340 Y1.5474 Z0.3110
G01 G54 X21.9692 Y1.5317 Z0.3110
G01 G54 X21.9738 Y1.5316 Z0.3110
G01 G54 X22.5088 Y1.5166 Z0.3110
G01 G54 X22.5136 Y1.5165 Z0.3110
G01 G54 X22.5136 Y1.5164 Z0.3110
G01 G54 X23.0492 Y1.5021 Z0.3110
G01 G54 X23.0538 Y1.5020 Z0.3110
G01 G54 X23.5890 Y1.4883 Z0.3110
G01 G54 X23.5935 Y1.4881 Z0.3110
G01 G54 X24.1288 Y1.4751 Z0.3110
G01 G54 X24.1338 Y1.4750 Z0.3110
G01 G54 X24.6691 Y1.4626 Z0.3110
G01 G54 X24.6734 Y1.4625 Z0.3110
G01 G54 X25.2084 Y1.4508 Z0.3110
G01 G54 X25.2132 Y1.4507 Z0.3110
G01 G54 X25.2132 Y1.4507 Z0.3110
G01 G54 X25.7489 Y1.4396 Z0.3110
G01 G54 X25.7535 Y1.4396 Z0.3110
G01 G54 X26.2888 Y1.4292 Z0.3110
G01 G54 X26.2933 Y1.4291 Z0.3110
G01 G54 X26.8287 Y1.4193 Z0.3110
G01 G54 X26.8336 Y1.4192 Z0.3110
G01 G54 X27.3689 Y1.4102 Z0.3110
G01 G54 X27.3733 Y1.4101 Z0.3110
G01 G54 X27.9088 Y1.4017 Z0.3110
G01 G54 X27.9135 Y1.4016 Z0.3110
G01 G54 X28.4488 Y1.3938 Z0.3110
G01 G54 X28.4538 Y1.3938 Z0.3110
G01 G54 X28.9889 Y1.3867 Z0.3110
G01 G54 X28.9931 Y1.3867 Z0.3110
G01 G54 X29.5288 Y1.3803 Z0.3110
G01 G54 X29.5338 Y1.3802 Z0.3110
G01 G54 X30.0692 Y1.3744 Z0.3110
G01 G54 X30.0738 Y1.3744 Z0.3110
G01 G54 X30.6093 Y1.3693 Z0.3110
G01 G54 X30.6137 Y1.3693 Z0.3110
G01 G54 X31.1492 Y1.3648 Z0.3110
G01 G54 X31.1538 Y1.3648 Z0.3110
G01 G54 X31.6892 Y1.3610 Z0.3110
G01 G54 X31.6939 Y1.3610 Z0.3110
G01 G54 X32.2294 Y1.3579 Z0.3110
G01 G54 X32.2341 Y1.3579 Z0.3110
G01 G54 X32.7695 Y1.3554 Z0.3110
G01 G54 X32.7742 Y1.3554 Z0.3110
G01 G54 X33.3097 Y1.3537 Z0.3110
G01 G54 X33.3143 Y1.3536 Z0.3110
G01 G54 X33.8498 Y1.3525 Z0.3110
G01 G54 X33.8542 Y1.3525 Z0.3110
G01 G54 X34.3896 Y1.3520 Z0.3110
G01 G54 X34.3943 Y1.3520 Z0.3110
G01 G54 X34.9295 Y1.3522 Z0.3110
G01 G54 X34.9342 Y1.3522 Z0.3110
G01 G54 X35.4697 Y1.3531 Z0.3110
G01 G54 X35.4743 Y1.3531 Z0.3110
G01 G54 X36.0098 Y1.3546 Z0.3110
G01 G54 X36.0144 Y1.3547 Z0.3110
G01 G54 X36.5499 Y1.3569 Z0.3110
G01 G54 X36.5546 Y1.3569 Z0.3110
G01 G54 X37.0900 Y1.3598 Z0.3110
G01 G54 X37.0944 Y1.3598 Z0.3110
G01 G54 X37.6300 Y1.3633 Z0.3110
G01 G54 X37.6346 Y1.3633 Z0.3110
G01 G54 X38.1700 Y1.3675 Z0.3110
G01 G54 X38.1747 Y1.3675 Z0.3110
G01 G54 X38.7101 Y1.3724 Z0.3110
G01 G54 X38.7148 Y1.3724 Z0.3110
G01 G54 X39.2503 Y1.3779 Z0.3110
G01 G54 X39.2549 Y1.3780 Z0.3110
G01 G54 X39.7907 Y1.3842 Z0.3110
G01 G54 X39.7907 Y1.3842 Z0.3110
G01 G54 X39.7954 Y1.3842 Z0.3110
G01 G54 X40.3305 Y1.3911 Z0.3110
G01 G54 X40.3348 Y1.3911 Z0.3110
G01 G54 X40.8703 Y1.3986 Z0.3110
G01 G54 X40.8750 Y1.3987 Z0.3110
G01 G54 X41.4103 Y1.4068 Z0.3110
G01 G54 X41.4150 Y1.4069 Z0.3110
G01 G54 X41.9504 Y1.4157 Z0.3110
G01 G54 X41.9551 Y1.4158 Z0.3110
G01 G54 X42.4905 Y1.4253 Z0.3110
G01 G54 X42.4951 Y1.4253 Z0.3110
G01 G54 X43.0305 Y1.4355 Z0.3110
G01 G54 X43.0352 Y1.4356 Z0.3110
G01 G54 X43.5706 Y1.4464 Z0.3110
G01 G54 X43.5749 Y1.4465 Z0.3110
G01 G54 X44.1105 Y1.4580 Z0.3110
G01 G54 X44.1153 Y1.4580 Z0.3110
G01 G54 X44.6503 Y1.4701 Z0.3110
G01 G54 X44.6552 Y1.4703 Z0.3110
G01 G54 X45.1905 Y1.4831 Z0.3110
G01 G54 X45.1950 Y1.4832 Z0.3110
G01 G54 X45.7303 Y1.4967 Z0.3110
G01 G54 X45.7346 Y1.4968 Z0.3110
G01 G54 X46.2699 Y1.5109 Z0.3110
G01 G54 X46.2748 Y1.5110 Z0.3110
G01 G54 X46.6535 Y1.5214 Z0.3110
G01 G54 X46.8104 Y1.5258 Z0.3109
G01 G54 X46.8104 Y1.5259 Z0.3109
G01 G54 X46.8150 Y1.5259 Z0.3109
G01 G54 X47.0502 Y1.5327 Z0.3107
G01 G54 X47.3499 Y1.5414 Z0.3100
G01 G54 X47.3548 Y1.5415 Z0.3100
G01 G54 X47.4377 Y1.5440 Z0.3098
G01 G54 X47.8162 Y1.5554 Z0.3085
G01 G54 X47.8900 Y1.5576 Z0.3081
G01 G54 X47.8944 Y1.5578 Z0.3081
G01 G54 X48.1861 Y1.5669 Z0.3067
G01 G54 X48.4296 Y1.5746 Z0.3051
G01 G54 X48.4342 Y1.5747 Z0.3051
G01 G54 X48.5475 Y1.5783 Z0.3044
G01 G54 X48.9010 Y1.5899 Z0.3017
G01 G54 X48.9696 Y1.5921 Z0.3011
G01 G54 X48.9696 Y1.5922 Z0.3011
G01 G54 X48.9742 Y1.5922 Z0.3011
G01 G54 X49.2467 Y1.6014 Z0.2985
G01 G54 X49.5090 Y1.6103 Z0.2958
G01 G54 X49.5139 Y1.6105 Z0.2957
G01 G54 X49.5850 Y1.6129 Z0.2950
G01 G54 X49.9163 Y1.6246 Z0.2911
G01 G54 X50.0490 Y1.6292 Z0.2893
G01 G54 X50.0535 Y1.6294 Z0.2892
G01 G54 X50.2409 Y1.6362 Z0.2868
G01 G54 X50.5589 Y1.6477 Z0.2821
G01 G54 X50.5886 Y1.6488 Z0.2817
G01 G54 X50.5932 Y1.6490 Z0.2816
G01 G54 X50.8709 Y1.6594 Z0.2772
G01 G54 X51.1286 Y1.6691 Z0.2728
G01 G54 X51.1286 Y1.6691 Z0.2728
G01 G54 X51.1337 Y1.6692 Z0.2727
G01 G54 X51.1772 Y1.6709 Z0.2720
G01 G54 X51.4779 Y1.6826 Z0.2665
G01 G54 X51.6685 Y1.6900 Z0.2628
G01 G54 X51.6725 Y1.6902 Z0.2627
G01 G54 X51.7735 Y1.6942 Z0.2608
G01 G54 X52.0643 Y1.7058 Z0.2548
G01 G54 X52.2075 Y1.7116 Z0.2517
G01 G54 X52.2124 Y1.7118 Z0.2516
G01 G54 X52.3506 Y1.7174 Z0.2487
G01 G54 X52.6327 Y1.7291 Z0.2423
G01 G54 X52.7477 Y1.7338 Z0.2396
G01 G54 X52.7477 Y1.7339 Z0.2396
G01 G54 X52.7525 Y1.7340 Z0.2395
G01 G54 X52.9110 Y1.7407 Z0.2358
G01 G54 X53.1857 Y1.7524 Z0.2292
G01 G54 X53.2872 Y1.7568 Z0.2266
G01 G54 X53.2916 Y1.7570 Z0.2265
G01 G54 X53.4572 Y1.7642 Z0.2224
G01 G54 X53.7259 Y1.7759 Z0.2156
G01 G54 X53.8265 Y1.7803 Z0.2130
G01 G54 X53.8311 Y1.7805 Z0.2129
G01 G54 X53.9919 Y1.7877 Z0.2087
G01 G54 X54.2557 Y1.7996 Z0.2017
G01 G54 X54.3663 Y1.8046 Z0.1988
G01 G54 X54.3712 Y1.8048 Z0.1987
G01 G54 X54.5176 Y1.8115 Z0.1948
G01 G54 X54.7779 Y1.8235 Z0.1879
G01 G54 X54.9058 Y1.8295 Z0.1844
G01 G54 X54.9103 Y1.8297 Z0.1843
G01 G54 X55.0369 Y1.8357 Z0.1809
G01 G54 X55.2949 Y1.8479 Z0.1740
G01 G54 X55.4452 Y1.8551 Z0.1700
G01 G54 X55.4495 Y1.8553 Z0.1699
G01 G54 X55.5523 Y1.8603 Z0.1672
G01 G54 X55.8094 Y1.8728 Z0.1604
G01 G54 X55.9847 Y1.8813 Z0.1559
G01 G54 X55.9847 Y1.8814 Z0.1559
G01 G54 X55.9898 Y1.8816 Z0.1558
G01 G54 X56.0664 Y1.8854 Z0.1538
G01 G54 X56.3238 Y1.8983 Z0.1473
G01 G54 X56.5243 Y1.9083 Z0.1424
G01 G54 X56.5285 Y1.9085 Z0.1423
G01 G54 X56.5818 Y1.9112 Z0.1410
G01 G54 X56.8408 Y1.9244 Z0.1348
G01 G54 X57.0636 Y1.9359 Z0.1297
G01 G54 X57.0685 Y1.9361 Z0.1296
G01 G54 X57.1011 Y1.9377 Z0.1288
G01 G54 X57.3629 Y1.9515 Z0.1231
G01 G54 X57.6029 Y1.9641 Z0.1181
G01 G54 X57.6074 Y1.9643 Z0.1180
G01 G54 X57.6268 Y1.9653 Z0.1176
G01 G54 X57.8928 Y1.9796 Z0.1124
G01 G54 X58.1424 Y1.9930 Z0.1078
G01 G54 X58.1424 Y1.9931 Z0.1078
G01 G54 X58.1473 Y1.9933 Z0.1077
G01 G54 X58.1614 Y1.9940 Z0.1075
G01 G54 X58.4330 Y2.0089 Z0.1028
G01 G54 X58.6816 Y2.0226 Z0.0989
G01 G54 X58.6859 Y2.0229 Z0.0988
G01 G54 X58.7077 Y2.0241 Z0.0985
G01 G54 X58.9860 Y2.0397 Z0.0946
G01 G54 X59.2205 Y2.0529 Z0.0916
G01 G54 X59.2251 Y2.0531 Z0.0916
G01 G54 X59.2681 Y2.0556 Z0.0911
G01 G54 X59.5544 Y2.0720 Z0.0879
G01 G54 X59.7600 Y2.0838 Z0.0860
G01 G54 X59.7649 Y2.0841 Z0.0859
G01 G54 X59.8452 Y2.0888 Z0.0852
G01 G54 X60.1408 Y2.1061 Z0.0829
G01 G54 X60.2991 Y2.1154 Z0.0819
G01 G54 X60.3035 Y2.1157 Z0.0819
G01 G54 X60.4415 Y2.1239 Z0.0811
G01 G54 X60.7095 Y2.1400 Z0.0799
G01 G54 X60.7477 Y2.1394 Z0.0798
G01 G54 X60.7776 Y2.1390 Z0.0796
G01 G54 X60.9171 Y2.1332 Z0.0793
G01 G54 X61.0445 Y2.1242 Z0.0790
G01 G54 X61.0598 Y2.1226 Z0.0789
G01 G54 X61.1638 Y2.1121 Z0.0788
G01 G54 X61.2753 Y2.0973 Z0.0787
G01 G54 X61.3762 Y2.0806 Z0.0787
G01 G54 X61.3779 Y2.0803 Z0.0787
G01 G54 X61.4693 Y2.0621 Z0.0787
G01 G54 X61.5561 Y2.0418 Z0.0787
G01 G54 X61.6304 Y2.0217 Z0.0787
G01 G54 X61.7005 Y2.0000 Z0.0787
G01 G54 X61.7640 Y1.9779 Z0.0787
G01 G54 X61.8216 Y1.9555 Z0.0787
G01 G54 X61.8716 Y1.9338 Z0.0787
G01 G54 X61.9163 Y1.9124 Z0.0787
G01 G54 X61.9578 Y1.8905 Z0.0787
G01 G54 X61.9948 Y1.8692 Z0.0787
G01 G54 X62.0282 Y1.8481 Z0.0787
G01 G54 X62.0591 Y1.8270 Z0.0787
G01 G54 X62.0870 Y1.8062 Z0.0787
G01 G54 X62.1140 Y1.7845 Z0.0787
G01 G54 X62.1387 Y1.7629 Z0.0787
G01 G54 X62.1623 Y1.7407 Z0.0787
G01 G54 X62.1855 Y1.7171 Z0.0787
G01 G54 X62.2092 Y1.6912 Z0.0787
G01 G54 X62.2307 Y1.6658 Z0.0787
G01 G54 X62.2550 Y1.6349 Z0.0787
G01 G54 X62.2762 Y1.6057 Z0.0787
G01 G54 X62.2995 Y1.5714 Z0.0787
G01 G54 X62.3224 Y1.5349 Z0.0787
G01 G54 X62.3461 Y1.4940 Z0.0787
G01 G54 X62.3696 Y1.4503 Z0.0787
G01 G54 X62.3923 Y1.4047 Z0.0787
G01 G54 X62.4153 Y1.3546 Z0.0787
G01 G54 X62.4381 Y1.3005 Z0.0787
G01 G54 X62.4602 Y1.2437 Z0.0787
G01 G54 X62.4816 Y1.1831 Z0.0787
G01 G54 X62.5027 Y1.1181 Z0.0787
G01 G54 X62.5233 Y1.0478 Z0.0787
G01 G54 X62.5420 Y0.9775 Z0.0787
G01 G54 X62.5596 Y0.9035 Z0.0787
G01 G54 X62.5764 Y0.8234 Z0.0787
G01 G54 X62.5912 Y0.7440 Z0.0787
G01 G54 X62.6052 Y0.6576 Z0.0787
G01 G54 X62.6170 Y0.5718 Z0.0787
G01 G54 X62.6275 Y0.4801 Z0.0787
G01 G54 X62.6361 Y0.3884 Z0.0787
G01 G54 X62.6428 Y0.2943 Z0.0787
G01 G54 X62.6475 Y0.1996 Z0.0787
G01 G54 X62.6506 Y0.0972 Z0.0787
G01 G54 X62.6516 Y0.0000 Z0.0787
G01 G54 X62.6506 Y-0.0972 Z0.0787
G01 G54 X62.6475 Y-0.2003 Z0.0787
G01 G54 X62.6428 Y-0.2943 Z0.0787
G01 G54 X62.6361 Y-0.3884 Z0.0787
G01 G54 X62.6275 Y-0.4801 Z0.0787
G01 G54 X62.6169 Y-0.5726 Z0.0787
G01 G54 X62.6052 Y-0.6576 Z0.0787
G01 G54 X62.5912 Y-0.7440 Z0.0787
G01 G54 X62.5764 Y-0.8234 Z0.0787
G01 G54 X62.5596 Y-0.9036 Z0.0787
G01 G54 X62.5420 Y-0.9775 Z0.0787
G01 G54 X62.5233 Y-1.0478 Z0.0787
G01 G54 X62.5027 Y-1.1181 Z0.0787
G01 G54 X62.4816 Y-1.1831 Z0.0787
G01 G54 X62.4602 Y-1.2437 Z0.0787
G01 G54 X62.4381 Y-1.3005 Z0.0787
G01 G54 X62.4153 Y-1.3547 Z0.0787
G01 G54 X62.3923 Y-1.4047 Z0.0787
G01 G54 X62.3694 Y-1.4508 Z0.0787
G01 G54 X62.3461 Y-1.4940 Z0.0787
G01 G54 X62.3221 Y-1.5353 Z0.0787
G01 G54 X62.2992 Y-1.5718 Z0.0787
G01 G54 X62.2762 Y-1.6057 Z0.0787
G01 G54 X62.2550 Y-1.6349 Z0.0787
G01 G54 X62.2307 Y-1.6658 Z0.0787
G01 G54 X62.2092 Y-1.6912 Z0.0787
G01 G54 X62.1853 Y-1.7174 Z0.0787
G01 G54 X62.1623 Y-1.7407 Z0.0787
G01 G54 X62.1387 Y-1.7629 Z0.0787
G01 G54 X62.1140 Y-1.7845 Z0.0787
G01 G54 X62.0870 Y-1.8062 Z0.0787
G01 G54 X62.0591 Y-1.8270 Z0.0787
G01 G54 X62.0282 Y-1.8481 Z0.0787
G01 G54 X61.9948 Y-1.8692 Z0.0787
G01 G54 X61.9578 Y-1.8905 Z0.0787
G01 G54 X61.9163 Y-1.9124 Z0.0787
G01 G54 X61.8716 Y-1.9338 Z0.0787
G01 G54 X61.8216 Y-1.9555 Z0.0787
G01 G54 X61.7640 Y-1.9779 Z0.0787
G01 G54 X61.7005 Y-2.0000 Z0.0787
G01 G54 X61.6304 Y-2.0217 Z0.0787
G01 G54 X61.5561 Y-2.0418 Z0.0787
G01 G54 X61.4693 Y-2.0621 Z0.0787
G01 G54 X61.3779 Y-2.0803 Z0.0787
G01 G54 X61.3762 Y-2.0806 Z0.0787
G01 G54 X61.2753 Y-2.0973 Z0.0787
G01 G54 X61.1638 Y-2.1121 Z0.0788
G01 G54 X61.0598 Y-2.1226 Z0.0789
G01 G54 X61.0445 Y-2.1242 Z0.0790
G01 G54 X60.9171 Y-2.1332 Z0.0793
G01 G54 X60.7776 Y-2.1390 Z0.0796
G01 G54 X60.7477 Y-2.1394 Z0.0798
G01 G54 X60.7095 Y-2.1400 Z0.0799
G01 G54 X60.4415 Y-2.1239 Z0.0811
G01 G54 X60.3035 Y-2.1157 Z0.0819
G01 G54 X60.2991 Y-2.1154 Z0.0819
G01 G54 X60.1408 Y-2.1061 Z0.0829
G01 G54 X59.8452 Y-2.0888 Z0.0852
G01 G54 X59.7649 Y-2.0841 Z0.0859
G01 G54 X59.7600 Y-2.0838 Z0.0860
G01 G54 X59.5544 Y-2.0720 Z0.0879
G01 G54 X59.2681 Y-2.0556 Z0.0911
G01 G54 X59.2251 Y-2.0531 Z0.0916
G01 G54 X59.2205 Y-2.0529 Z0.0916
G01 G54 X58.9860 Y-2.0397 Z0.0946
G01 G54 X58.7077 Y-2.0241 Z0.0985
G01 G54 X58.6859 Y-2.0229 Z0.0988
G01 G54 X58.6816 Y-2.0226 Z0.0989
G01 G54 X58.4330 Y-2.0089 Z0.1028
G01 G54 X58.1614 Y-1.9940 Z0.1075
G01 G54 X58.1473 Y-1.9933 Z0.1077
G01 G54 X58.1424 Y-1.9931 Z0.1078
G01 G54 X58.1424 Y-1.9930 Z0.1078
G01 G54 X57.8928 Y-1.9796 Z0.1124
G01 G54 X57.6268 Y-1.9653 Z0.1176
G01 G54 X57.6074 Y-1.9643 Z0.1180
G01 G54 X57.6029 Y-1.9641 Z0.1181
G01 G54 X57.3629 Y-1.9515 Z0.1231
G01 G54 X57.1011 Y-1.9377 Z0.1288
G01 G54 X57.0685 Y-1.9361 Z0.1296
G01 G54 X57.0636 Y-1.9359 Z0.1297
G01 G54 X56.8408 Y-1.9244 Z0.1348
G01 G54 X56.5818 Y-1.9112 Z0.1410
G01 G54 X56.5285 Y-1.9085 Z0.1423
G01 G54 X56.5243 Y-1.9083 Z0.1424
G01 G54 X56.3238 Y-1.8983 Z0.1473
G01 G54 X56.0664 Y-1.8854 Z0.1538
G01 G54 X55.9898 Y-1.8816 Z0.1558
G01 G54 X55.9847 Y-1.8814 Z0.1559
G01 G54 X55.9847 Y-1.8813 Z0.1559
G01 G54 X55.8094 Y-1.8728 Z0.1604
G01 G54 X55.5523 Y-1.8603 Z0.1672
G01 G54 X55.4495 Y-1.8553 Z0.1699
G01 G54 X55.4452 Y-1.8551 Z0.1700
G01 G54 X55.2949 Y-1.8479 Z0.1740
G01 G54 X55.0369 Y-1.8357 Z0.1809
G01 G54 X54.9103 Y-1.8297 Z0.1843
G01 G54 X54.9058 Y-1.8295 Z0.1844
G01 G54 X54.7779 Y-1.8235 Z0.1879
G01 G54 X54.5176 Y-1.8115 Z0.1948
G01 G54 X54.3712 Y-1.8048 Z0.1987
G01 G54 X54.3663 Y-1.8046 Z0.1988
G01 G54 X54.2557 Y-1.7996 Z0.2017
G01 G54 X53.9919 Y-1.7877 Z0.2087
G01 G54 X53.8311 Y-1.7805 Z0.2129
G01 G54 X53.8265 Y-1.7803 Z0.2130
G01 G54 X53.7259 Y-1.7759 Z0.2156
G01 G54 X53.4572 Y-1.7642 Z0.2224
G01 G54 X53.2916 Y-1.7570 Z0.2265
G01 G54 X53.2872 Y-1.7568 Z0.2266
G01 G54 X53.1857 Y-1.7524 Z0.2292
G01 G54 X52.9110 Y-1.7407 Z0.2358
G01 G54 X52.7525 Y-1.7340 Z0.2395
G01 G54 X52.7477 Y-1.7339 Z0.2396
G01 G54 X52.7477 Y-1.7338 Z0.2396
G01 G54 X52.6327 Y-1.7291 Z0.2423
G01 G54 X52.3506 Y-1.7174 Z0.2487
G01 G54 X52.2124 Y-1.7118 Z0.2516
G01 G54 X52.2075 Y-1.7116 Z0.2517
G01 G54 X52.0643 Y-1.7058 Z0.2548
G01 G54 X51.7735 Y-1.6942 Z0.2608
G01 G54 X51.6725 Y-1.6902 Z0.2627
G01 G54 X51.6685 Y-1.6900 Z0.2628
G01 G54 X51.4779 Y-1.6826 Z0.2665
G01 G54 X51.1772 Y-1.6709 Z0.2720
G01 G54 X51.1337 Y-1.6692 Z0.2727
G01 G54 X51.1286 Y-1.6691 Z0.2728
G01 G54 X51.1286 Y-1.6691 Z0.2728
G01 G54 X50.8709 Y-1.6594 Z0.2772
G01 G54 X50.5932 Y-1.6490 Z0.2816
G01 G54 X50.5886 Y-1.6488 Z0.2817
G01 G54 X50.5589 Y-1.6477 Z0.2821
G01 G54 X50.2409 Y-1.6362 Z0.2868
G01 G54 X50.0535 Y-1.6294 Z0.2892
G01 G54 X50.0490 Y-1.6292 Z0.2893
G01 G54 X49.9163 Y-1.6246 Z0.2911
G01 G54 X49.5850 Y-1.6129 Z0.2950
G01 G54 X49.5139 Y-1.6105 Z0.2957
G01 G54 X49.5090 Y-1.6103 Z0.2958
G01 G54 X49.2467 Y-1.6014 Z0.2985
G01 G54 X48.9742 Y-1.5922 Z0.3011
G01 G54 X48.9696 Y-1.5922 Z0.3011
G01 G54 X48.9696 Y-1.5921 Z0.3011
G01 G54 X48.9010 Y-1.5899 Z0.3017
G01 G54 X48.5475 Y-1.5783 Z0.3044
G01 G54 X48.4342 Y-1.5747 Z0.3051
G01 G54 X48.4296 Y-1.5746 Z0.3051
G01 G54 X48.1861 Y-1.5669 Z0.3067
G01 G54 X47.8944 Y-1.5578 Z0.3081
G01 G54 X47.8900 Y-1.5576 Z0.3081
G01 G54 X47.8162 Y-1.5554 Z0.3085
G01 G54 X47.4377 Y-1.5440 Z0.3098
G01 G54 X47.3548 Y-1.5415 Z0.3100
G01 G54 X47.3499 Y-1.5414 Z0.3100
G01 G54 X47.0502 Y-1.5327 Z0.3107
G01 G54 X46.8150 Y-1.5259 Z0.3109
G01 G54 X46.8104 Y-1.5259 Z0.3109
G01 G54 X46.8104 Y-1.5258 Z0.3109
G01 G54 X46.6535 Y-1.5214 Z0.3110
G01 G54 X46.2748 Y-1.5110 Z0.3110
G01 G54 X46.2699 Y-1.5109 Z0.3110
G01 G54 X45.7346 Y-1.4968 Z0.3110
G01 G54 X45.7303 Y-1.4967 Z0.3110
G01 G54 X45.1950 Y-1.4832 Z0.3110
G01 G54 X45.1905 Y-1.4831 Z0.3110
G01 G54 X44.6552 Y-1.4703 Z0.3110
G01 G54 X44.6503 Y-1.4701 Z0.3110
G01 G54 X44.1153 Y-1.4580 Z0.3110
G01 G54 X44.1105 Y-1.4580 Z0.3110
G01 G54 X43.5749 Y-1.4465 Z0.3110
G01 G54 X43.5706 Y-1.4464 Z0.3110
G01 G54 X43.0352 Y-1.4356 Z0.3110
G01 G54 X43.0305 Y-1.4355 Z0.3110
G01 G54 X42.4951 Y-1.4253 Z0.3110
G01 G54 X42.4905 Y-1.4253 Z0.3110
G01 G54 X41.9551 Y-1.4158 Z0.3110
G01 G54 X41.9504 Y-1.4157 Z0.3110
G01 G54 X41.4150 Y-1.4069 Z0.3110
G01 G54 X41.4103 Y-1.4068 Z0.3110
G01 G54 X40.8750 Y-1.3987 Z0.3110
G01 G54 X40.8703 Y-1.3986 Z0.3110
G01 G54 X40.3348 Y-1.3911 Z0.3110
G01 G54 X40.3305 Y-1.3911 Z0.3110
G01 G54 X39.7954 Y-1.3842 Z0.3110
G01 G54 X39.7907 Y-1.3842 Z0.3110
G01 G54 X39.7907 Y-1.3842 Z0.3110
G01 G54 X39.2549 Y-1.3780 Z0.3110
G01 G54 X39.2503 Y-1.3779 Z0.3110
G01 G54 X38.7148 Y-1.3724 Z0.3110
G01 G54 X38.7101 Y-1.3724 Z0.3110
G01 G54 X38.1747 Y-1.3675 Z0.3110
G01 G54 X38.1700 Y-1.3675 Z0.3110
G01 G54 X37.6346 Y-1.3633 Z0.3110
G01 G54 X37.6300 Y-1.3633 Z0.3110
G01 G54 X37.0944 Y-1.3598 Z0.3110
G01 G54 X37.0900 Y-1.3598 Z0.3110
G01 G54 X36.5546 Y-1.3569 Z0.3110
G01 G54 X36.5499 Y-1.3569 Z0.3110
G01 G54 X36.0144 Y-1.3547 Z0.3110
G01 G54 X36.0098 Y-1.3546 Z0.3110
G01 G54 X35.4743 Y-1.3531 Z0.3110
G01 G54 X35.4697 Y-1.3531 Z0.3110
G01 G54 X34.9342 Y-1.3522 Z0.3110
G01 G54 X34.9295 Y-1.3522 Z0.3110
G01 G54 X34.3943 Y-1.3520 Z0.3110
G01 G54 X34.3896 Y-1.3520 Z0.3110
G01 G54 X33.8542 Y-1.3525 Z0.3110
G01 G54 X33.8498 Y-1.3525 Z0.3110
G01 G54 X33.3143 Y-1.3536 Z0.3110
G01 G54 X33.3097 Y-1.3537 Z0.3110
G01 G54 X32.7742 Y-1.3554 Z0.3110
G01 G54 X32.7695 Y-1.3554 Z0.3110
G01 G54 X32.2341 Y-1.3579 Z0.3110
G01 G54 X32.2294 Y-1.3579 Z0.3110
G01 G54 X31.6939 Y-1.3610 Z0.3110
G01 G54 X31.6892 Y-1.3610 Z0.3110
G01 G54 X31.1538 Y-1.3648 Z0.3110
G01 G54 X31.1492 Y-1.3648 Z0.3110
G01 G54 X30.6137 Y-1.3693 Z0.3110
G01 G54 X30.6093 Y-1.3693 Z0.3110
G01 G54 X30.0738 Y-1.3744 Z0.3110
G01 G54 X30.0692 Y-1.3744 Z0.3110
G01 G54 X29.5338 Y-1.3802 Z0.3110
G01 G54 X29.5288 Y-1.3803 Z0.3110
G01 G54 X28.9931 Y-1.3867 Z0.3110
G01 G54 X28.9889 Y-1.3867 Z0.3110
G01 G54 X28.4538 Y-1.3938 Z0.3110
G01 G54 X28.4488 Y-1.3938 Z0.3110
G01 G54 X27.9135 Y-1.4016 Z0.3110
G01 G54 X27.9088 Y-1.4017 Z0.3110
G01 G54 X27.3733 Y-1.4101 Z0.3110
G01 G54 X27.3689 Y-1.4102 Z0.3110
G01 G54 X26.8336 Y-1.4192 Z0.3110
G01 G54 X26.8287 Y-1.4193 Z0.3110
G01 G54 X26.2933 Y-1.4291 Z0.3110
G01 G54 X26.2888 Y-1.4292 Z0.3110
G01 G54 X25.7535 Y-1.4396 Z0.3110
G01 G54 X25.7489 Y-1.4396 Z0.3110
G01 G54 X25.2132 Y-1.4507 Z0.3110
G01 G54 X25.2132 Y-1.4507 Z0.3110
G01 G54 X25.2084 Y-1.4508 Z0.3110
G01 G54 X24.6734 Y-1.4625 Z0.3110
G01 G54 X24.6691 Y-1.4626 Z0.3110
G01 G54 X24.1338 Y-1.4750 Z0.3110
G01 G54 X24.1288 Y-1.4751 Z0.3110
G01 G54 X23.5935 Y-1.4881 Z0.3110
G01 G54 X23.5890 Y-1.4883 Z0.3110
G01 G54 X23.0538 Y-1.5020 Z0.3110
G01 G54 X23.0492 Y-1.5021 Z0.3110
G01 G54 X22.5136 Y-1.5164 Z0.3110
G01 G54 X22.5136 Y-1.5165 Z0.3110
G01 G54 X22.5088 Y-1.5166 Z0.3110
G01 G54 X21.9738 Y-1.5316 Z0.3110
G01 G54 X21.9692 Y-1.5317 Z0.3110
G01 G54 X21.4340 Y-1.5474 Z0.3110
G01 G54 X21.4296 Y-1.5475 Z0.3110
G01 G54 X21.0630 Y-1.5587 Z0.3110
G01 G54 X20.8944 Y-1.5639 Z0.3109
G01 G54 X20.8894 Y-1.5640 Z0.3108
G01 G54 X20.6662 Y-1.5711 Z0.3107
G01 G54 X20.3542 Y-1.5811 Z0.3100
G01 G54 X20.3499 Y-1.5812 Z0.3100
G01 G54 X20.2787 Y-1.5836 Z0.3098
G01 G54 X19.9001 Y-1.5961 Z0.3085
G01 G54 X19.8144 Y-1.5989 Z0.3081
G01 G54 X19.8144 Y-1.5990 Z0.3081
G01 G54 X19.8096 Y-1.5990 Z0.3081
G01 G54 X19.5303 Y-1.6086 Z0.3067
G01 G54 X19.2748 Y-1.6174 Z0.3051
G01 G54 X19.2701 Y-1.6175 Z0.3051
G01 G54 X19.1689 Y-1.6211 Z0.3044
G01 G54 X18.8154 Y-1.6337 Z0.3017
G01 G54 X18.7350 Y-1.6366 Z0.3010
G01 G54 X18.7305 Y-1.6367 Z0.3009
G01 G54 X18.4697 Y-1.6463 Z0.2985
G01 G54 X18.1950 Y-1.6564 Z0.2957
G01 G54 X18.1905 Y-1.6565 Z0.2956
G01 G54 X18.1314 Y-1.6588 Z0.2950
G01 G54 X17.8001 Y-1.6713 Z0.2911
G01 G54 X17.6557 Y-1.6768 Z0.2892
G01 G54 X17.6508 Y-1.6770 Z0.2891
G01 G54 X17.4756 Y-1.6839 Z0.2868
G01 G54 X17.1575 Y-1.6964 Z0.2821
G01 G54 X17.1158 Y-1.6981 Z0.2815
G01 G54 X17.1115 Y-1.6983 Z0.2814
G01 G54 X16.8455 Y-1.7090 Z0.2772
G01 G54 X16.5761 Y-1.7199 Z0.2726
G01 G54 X16.5761 Y-1.7200 Z0.2726
G01 G54 X16.5712 Y-1.7201 Z0.2725
G01 G54 X16.5392 Y-1.7214 Z0.2720
G01 G54 X16.2385 Y-1.7339 Z0.2665
G01 G54 X16.0366 Y-1.7424 Z0.2626
G01 G54 X16.0320 Y-1.7426 Z0.2625
G01 G54 X15.9429 Y-1.7464 Z0.2607
G01 G54 X15.6521 Y-1.7589 Z0.2548
G01 G54 X15.4970 Y-1.7656 Z0.2514
G01 G54 X15.4924 Y-1.7658 Z0.2514
G01 G54 X15.3658 Y-1.7714 Z0.2487
G01 G54 X15.0837 Y-1.7838 Z0.2423
G01 G54 X14.9572 Y-1.7894 Z0.2393
G01 G54 X14.9526 Y-1.7896 Z0.2392
G01 G54 X14.8054 Y-1.7962 Z0.2358
G01 G54 X14.5307 Y-1.8087 Z0.2292
G01 G54 X14.4180 Y-1.8139 Z0.2264
G01 G54 X14.4134 Y-1.8141 Z0.2262
G01 G54 X14.2592 Y-1.8212 Z0.2224
G01 G54 X13.9905 Y-1.8338 Z0.2156
G01 G54 X13.8785 Y-1.8390 Z0.2127
G01 G54 X13.8740 Y-1.8393 Z0.2126
G01 G54 X13.7245 Y-1.8464 Z0.2087
G01 G54 X13.4607 Y-1.8590 Z0.2017
G01 G54 X13.3388 Y-1.8649 Z0.1985
G01 G54 X13.3388 Y-1.8650 Z0.1985
G01 G54 X13.3339 Y-1.8651 Z0.1984
G01 G54 X13.1988 Y-1.8717 Z0.1948
G01 G54 X12.9385 Y-1.8845 Z0.1879
G01 G54 X12.7994 Y-1.8914 Z0.1841
G01 G54 X12.7949 Y-1.8916 Z0.1840
G01 G54 X12.6795 Y-1.8974 Z0.1809
G01 G54 X12.4215 Y-1.9104 Z0.1740
G01 G54 X12.2601 Y-1.9186 Z0.1697
G01 G54 X12.2555 Y-1.9188 Z0.1696
G01 G54 X12.1641 Y-1.9235 Z0.1672
G01 G54 X11.9071 Y-1.9368 Z0.1604
G01 G54 X11.7205 Y-1.9464 Z0.1556
G01 G54 X11.7205 Y-1.9465 Z0.1556
G01 G54 X11.7159 Y-1.9467 Z0.1555
G01 G54 X11.6500 Y-1.9501 Z0.1538
G01 G54 X11.3926 Y-1.9638 Z0.1473
G01 G54 X11.1814 Y-1.9750 Z0.1421
G01 G54 X11.1769 Y-1.9752 Z0.1420
G01 G54 X11.1346 Y-1.9775 Z0.1410
G01 G54 X10.8756 Y-1.9915 Z0.1348
G01 G54 X10.6422 Y-2.0041 Z0.1294
G01 G54 X10.6370 Y-2.0043 Z0.1293
G01 G54 X10.6153 Y-2.0055 Z0.1288
G01 G54 X10.3535 Y-2.0200 Z0.1231
G01 G54 X10.1027 Y-2.0339 Z0.1179
G01 G54 X10.0983 Y-2.0342 Z0.1178
G01 G54 X10.0896 Y-2.0347 Z0.1176
G01 G54 X9.8236 Y-2.0497 Z0.1124
G01 G54 X9.5633 Y-2.0645 Z0.1076
G01 G54 X9.5633 Y-2.0645 Z0.1076
G01 G54 X9.5584 Y-2.0647 Z0.1075
G01 G54 X9.5550 Y-2.0649 Z0.1075
G01 G54 X9.2835 Y-2.0806 Z0.1028
G01 G54 X9.0241 Y-2.0957 Z0.0988
G01 G54 X9.0200 Y-2.0959 Z0.0987
G01 G54 X9.0087 Y-2.0965 Z0.0985
G01 G54 X8.7304 Y-2.1129 Z0.0946
G01 G54 X8.4851 Y-2.1275 Z0.0915
G01 G54 X8.4802 Y-2.1278 Z0.0914
G01 G54 X8.4483 Y-2.1297 Z0.0910
G01 G54 X8.1620 Y-2.1470 Z0.0879
G01 G54 X7.9460 Y-2.1600 Z0.0859
G01 G54 X7.9415 Y-2.1603 Z0.0858
G01 G54 X7.8712 Y-2.1646 Z0.0852
G01 G54 X7.5756 Y-2.1828 Z0.0829
G01 G54 X7.4070 Y-2.1932 Z0.0819
G01 G54 X7.4025 Y-2.1935 Z0.0818
G01 G54 X7.2749 Y-2.2015 Z0.0811
G01 G54 X6.9960 Y-2.2190 Z0.0799
G01 G54 X6.9687 Y-2.2187 Z0.0797
G01 G54 X6.8487 Y-2.2174 Z0.0794
G01 G54 X6.6566 Y-2.2111 Z0.0789
G01 G54 X6.6218 Y-2.2099 Z0.0789
G01 G54 X6.4042 Y-2.1977 Z0.0787
G01 G54 X6.3386 Y-2.1925 Z0.0787
G01 G54 X6.1980 Y-2.1812 Z0.0787
G01 G54 X6.0040 Y-2.1610 Z0.0787
G01 G54 X5.8194 Y-2.1369 Z0.0787
G01 G54 X5.6450 Y-2.1096 Z0.0787
G01 G54 X5.4812 Y-2.0794 Z0.0787
G01 G54 X5.3277 Y-2.0466 Z0.0787
G01 G54 X5.1849 Y-2.0118 Z0.0787
G01 G54 X5.0501 Y-1.9748 Z0.0787
G01 G54 X4.9248 Y-1.9362 Z0.0787
G01 G54 X4.8090 Y-1.8966 Z0.0787
G01 G54 X4.7030 Y-1.8566 Z0.0787
G01 G54 X4.6047 Y-1.8158 Z0.0787
G01 G54 X4.5124 Y-1.7738 Z0.0787
G01 G54 X4.4304 Y-1.7331 Z0.0787
G01 G54 X4.3551 Y-1.6924 Z0.0787
G01 G54 X4.2840 Y-1.6507 Z0.0787
G01 G54 X4.2201 Y-1.6101 Z0.0787
G01 G54 X4.1644 Y-1.5718 Z0.0787
G01 G54 X4.1094 Y-1.5309 Z0.0787
G01 G54 X4.0628 Y-1.4937 Z0.0787
G01 G54 X4.0166 Y-1.4537 Z0.0787
G01 G54 X3.9766 Y-1.4164 Z0.0787
G01 G54 X3.9383 Y-1.3780 Z0.0787
G01 G54 X3.9040 Y-1.3409 Z0.0787
G01 G54 X3.8705 Y-1.3018 Z0.0787
G01 G54 X3.8403 Y-1.2639 Z0.0787
G01 G54 X3.8109 Y-1.2239 Z0.0787
G01 G54 X3.7831 Y-1.1833 Z0.0787
G01 G54 X3.7561 Y-1.1404 Z0.0787
G01 G54 X3.7317 Y-1.0985 Z0.0787
G01 G54 X3.7078 Y-1.0539 Z0.0787
G01 G54 X3.6838 Y-1.0051 Z0.0787
G01 G54 X3.6621 Y-0.9568 Z0.0787
G01 G54 X3.6413 Y-0.9062 Z0.0787
G01 G54 X3.6212 Y-0.8521 Z0.0787
G01 G54 X3.6016 Y-0.7940 Z0.0787
G01 G54 X3.5836 Y-0.7340 Z0.0787
G01 G54 X3.5673 Y-0.6734 Z0.0787
G01 G54 X3.5517 Y-0.6072 Z0.0787
G01 G54 X3.5381 Y-0.5407 Z0.0787
G01 G54 X3.5259 Y-0.4705 Z0.0787
G01 G54 X3.5155 Y-0.3998 Z0.0787
G01 G54 X3.5063 Y-0.3213 Z0.0787
G01 G54 X3.4994 Y-0.2448 Z0.0787
G01 G54 X3.4943 Y-0.1653 Z0.0787
G01 G54 X3.4912 Y-0.0835 Z0.0787
G01 G54 X3.4902 Y0.0000 Z0.0787
G01 G54 X2.7421 Y0.0000 Z0.0787 F20
G01 G54 X2.7421 Y0.0000 Z0.0787 F70
G01 G54 X2.7433 Y0.1001 Z0.0787
G01 G54 X2.7472 Y0.2034 Z0.0787
G01 G54 X2.7536 Y0.3035 Z0.0787
G01 G54 X2.7622 Y0.3984 Z0.0787
G01 G54 X2.7737 Y0.4962 Z0.0787
G01 G54 X2.7872 Y0.5885 Z0.0787
G01 G54 X2.8029 Y0.6790 Z0.0787
G01 G54 X2.8216 Y0.7700 Z0.0787
G01 G54 X2.8414 Y0.8542 Z0.0787
G01 G54 X2.8645 Y0.9402 Z0.0787
G01 G54 X2.8889 Y1.0214 Z0.0787
G01 G54 X2.9154 Y1.1001 Z0.0787
G01 G54 X2.9446 Y1.1785 Z0.0787
G01 G54 X2.9750 Y1.2528 Z0.0787
G01 G54 X3.0068 Y1.3234 Z0.0787
G01 G54 X3.0422 Y1.3955 Z0.0787
G01 G54 X3.0783 Y1.4629 Z0.0787
G01 G54 X3.1166 Y1.5287 Z0.0787
G01 G54 X3.1574 Y1.5934 Z0.0787
G01 G54 X3.2005 Y1.6565 Z0.0787
G01 G54 X3.2463 Y1.7187 Z0.0787
G01 G54 X3.2936 Y1.7782 Z0.0787
G01 G54 X3.3453 Y1.8384 Z0.0787
G01 G54 X3.3983 Y1.8957 Z0.0787
G01 G54 X3.4571 Y1.9547 Z0.0787
G01 G54 X3.5174 Y2.0110 Z0.0787
G01 G54 X3.5830 Y2.0677 Z0.0787
G01 G54 X3.6531 Y2.1238 Z0.0787
G01 G54 X3.7290 Y2.1802 Z0.0787
G01 G54 X3.8076 Y2.2342 Z0.0787
G01 G54 X3.8949 Y2.2897 Z0.0787
G01 G54 X3.9870 Y2.3437 Z0.0787
G01 G54 X4.0870 Y2.3977 Z0.0787
G01 G54 X4.1906 Y2.4492 Z0.0787
G01 G54 X4.3062 Y2.5017 Z0.0787
G01 G54 X4.4271 Y2.5520 Z0.0787
G01 G54 X4.5564 Y2.6008 Z0.0787
G01 G54 X4.6937 Y2.6477 Z0.0787
G01 G54 X4.8419 Y2.6933 Z0.0787
G01 G54 X4.9966 Y2.7358 Z0.0787
G01 G54 X5.1606 Y2.7757 Z0.0787
G01 G54 X5.3360 Y2.8132 Z0.0787
G01 G54 X5.5181 Y2.8468 Z0.0787
G01 G54 X5.7137 Y2.8775 Z0.0787
G01 G54 X5.9170 Y2.9039 Z0.0787
G01 G54 X6.1296 Y2.9262 Z0.0787
G01 G54 X6.3386 Y2.9428 Z0.0787
G01 G54 X6.3524 Y2.9440 Z0.0787
G01 G54 X6.5879 Y2.9572 Z0.0788
G01 G54 X6.6566 Y2.9594 Z0.0789
G01 G54 X6.8336 Y2.9653 Z0.0794
G01 G54 X6.9687 Y2.9668 Z0.0797
G01 G54 X7.0150 Y2.9673 Z0.0800
G01 G54 X7.2749 Y2.9509 Z0.0811
G01 G54 X7.4494 Y2.9400 Z0.0821
G01 G54 X7.4530 Y2.9398 Z0.0822
G01 G54 X7.5756 Y2.9322 Z0.0829
G01 G54 X7.8712 Y2.9140 Z0.0852
G01 G54 X7.9875 Y2.9069 Z0.0862
G01 G54 X7.9911 Y2.9066 Z0.0863
G01 G54 X8.1620 Y2.8963 Z0.0879
G01 G54 X8.4483 Y2.8790 Z0.0910
G01 G54 X8.5253 Y2.8744 Z0.0920
G01 G54 X8.5292 Y2.8742 Z0.0920
G01 G54 X8.7304 Y2.8623 Z0.0946
G01 G54 X9.0087 Y2.8458 Z0.0985
G01 G54 X9.0640 Y2.8426 Z0.0994
G01 G54 X9.0674 Y2.8424 Z0.0994
G01 G54 X9.2835 Y2.8299 Z0.1028
G01 G54 X9.5550 Y2.8141 Z0.1075
G01 G54 X9.6017 Y2.8114 Z0.1083
G01 G54 X9.6056 Y2.8113 Z0.1084
G01 G54 X9.6056 Y2.8112 Z0.1084
G01 G54 X9.8236 Y2.7989 Z0.1124
G01 G54 X10.0896 Y2.7838 Z0.1176
G01 G54 X10.1405 Y2.7810 Z0.1187
G01 G54 X10.1441 Y2.7808 Z0.1187
G01 G54 X10.3535 Y2.7692 Z0.1231
G01 G54 X10.6153 Y2.7546 Z0.1288
G01 G54 X10.6784 Y2.7512 Z0.1303
G01 G54 X10.6827 Y2.7510 Z0.1304
G01 G54 X10.8756 Y2.7405 Z0.1348
G01 G54 X11.1346 Y2.7265 Z0.1410
G01 G54 X11.2174 Y2.7221 Z0.1430
G01 G54 X11.2209 Y2.7219 Z0.1431
G01 G54 X11.3926 Y2.7128 Z0.1473
G01 G54 X11.6500 Y2.6992 Z0.1538
G01 G54 X11.7553 Y2.6936 Z0.1565
G01 G54 X11.7590 Y2.6935 Z0.1566
G01 G54 X11.9071 Y2.6858 Z0.1604
G01 G54 X12.1641 Y2.6725 Z0.1672
G01 G54 X12.2941 Y2.6658 Z0.1706
G01 G54 X12.2977 Y2.6656 Z0.1707
G01 G54 X12.4215 Y2.6594 Z0.1740
G01 G54 X12.6795 Y2.6463 Z0.1809
G01 G54 X12.8325 Y2.6387 Z0.1850
G01 G54 X12.8362 Y2.6385 Z0.1851
G01 G54 X12.9385 Y2.6335 Z0.1879
G01 G54 X13.1988 Y2.6206 Z0.1948
G01 G54 X13.3707 Y2.6122 Z0.1994
G01 G54 X13.3746 Y2.6120 Z0.1995
G01 G54 X13.4607 Y2.6079 Z0.2017
G01 G54 X13.7245 Y2.5953 Z0.2087
G01 G54 X13.9098 Y2.5864 Z0.2135
G01 G54 X13.9134 Y2.5862 Z0.2136
G01 G54 X13.9905 Y2.5826 Z0.2156
G01 G54 X14.2592 Y2.5701 Z0.2224
G01 G54 X14.4483 Y2.5613 Z0.2271
G01 G54 X14.4519 Y2.5611 Z0.2272
G01 G54 X14.5307 Y2.5575 Z0.2292
G01 G54 X14.8054 Y2.5450 Z0.2358
G01 G54 X14.9865 Y2.5368 Z0.2400
G01 G54 X14.9902 Y2.5367 Z0.2401
G01 G54 X15.0837 Y2.5325 Z0.2423
G01 G54 X15.3658 Y2.5201 Z0.2487
G01 G54 X15.5255 Y2.5130 Z0.2521
G01 G54 X15.5291 Y2.5129 Z0.2522
G01 G54 X15.6521 Y2.5075 Z0.2548
G01 G54 X15.9429 Y2.4951 Z0.2607
G01 G54 X16.0641 Y2.4899 Z0.2631
G01 G54 X16.0678 Y2.4897 Z0.2632
G01 G54 X16.2385 Y2.4825 Z0.2665
G01 G54 X16.5392 Y2.4700 Z0.2720
G01 G54 X16.6025 Y2.4674 Z0.2731
G01 G54 X16.6064 Y2.4673 Z0.2731
G01 G54 X16.8455 Y2.4576 Z0.2772
G01 G54 X17.1417 Y2.4456 Z0.2819
G01 G54 X17.1451 Y2.4455 Z0.2820
G01 G54 X17.1575 Y2.4450 Z0.2821
G01 G54 X17.4756 Y2.4325 Z0.2868
G01 G54 X17.6802 Y2.4245 Z0.2895
G01 G54 X17.6841 Y2.4243 Z0.2896
G01 G54 X17.8001 Y2.4199 Z0.2911
G01 G54 X18.1314 Y2.4073 Z0.2950
G01 G54 X18.2188 Y2.4040 Z0.2959
G01 G54 X18.2225 Y2.4039 Z0.2960
G01 G54 X18.2225 Y2.4039 Z0.2960
G01 G54 X18.4697 Y2.3948 Z0.2985
G01 G54 X18.7579 Y2.3842 Z0.3012
G01 G54 X18.7616 Y2.3841 Z0.3012
G01 G54 X18.8154 Y2.3822 Z0.3017
G01 G54 X19.1689 Y2.3696 Z0.3044
G01 G54 X19.2967 Y2.3651 Z0.3052
G01 G54 X19.3004 Y2.3650 Z0.3053
G01 G54 X19.5303 Y2.3570 Z0.3067
G01 G54 X19.8352 Y2.3466 Z0.3082
G01 G54 X19.8391 Y2.3465 Z0.3082
G01 G54 X19.8391 Y2.3465 Z0.3082
G01 G54 X19.9001 Y2.3444 Z0.3085
G01 G54 X20.2787 Y2.3320 Z0.3098
G01 G54 X20.3746 Y2.3288 Z0.3101
G01 G54 X20.3781 Y2.3287 Z0.3101
G01 G54 X20.6662 Y2.3195 Z0.3107
G01 G54 X20.9133 Y2.3117 Z0.3109
G01 G54 X20.9172 Y2.3115 Z0.3109
G01 G54 X21.0630 Y2.3070 Z0.3110
G01 G54 X21.4524 Y2.2952 Z0.3110
G01 G54 X21.4560 Y2.2951 Z0.3110
G01 G54 X21.9912 Y2.2794 Z0.3110
G01 G54 X21.9949 Y2.2793 Z0.3110
G01 G54 X22.5298 Y2.2642 Z0.3110
G01 G54 X22.5337 Y2.2642 Z0.3110
G01 G54 X22.5337 Y2.2642 Z0.3110
G01 G54 X23.0692 Y2.2498 Z0.3110
G01 G54 X23.0729 Y2.2497 Z0.3110
G01 G54 X23.6082 Y2.2360 Z0.3110
G01 G54 X23.6117 Y2.2359 Z0.3110
G01 G54 X24.1471 Y2.2229 Z0.3110
G01 G54 X24.1510 Y2.2227 Z0.3110
G01 G54 X24.6863 Y2.2104 Z0.3110
G01 G54 X24.6898 Y2.2103 Z0.3110
G01 G54 X25.2248 Y2.1986 Z0.3110
G01 G54 X25.2287 Y2.1985 Z0.3110
G01 G54 X25.7643 Y2.1875 Z0.3110
G01 G54 X25.7680 Y2.1874 Z0.3110
G01 G54 X26.3034 Y2.1770 Z0.3110
G01 G54 X26.3069 Y2.1770 Z0.3110
G01 G54 X26.8423 Y2.1672 Z0.3110
G01 G54 X26.8462 Y2.1671 Z0.3110
G01 G54 X27.3816 Y2.1581 Z0.3110
G01 G54 X27.3851 Y2.1580 Z0.3110
G01 G54 X27.9205 Y2.1496 Z0.3110
G01 G54 X27.9243 Y2.1495 Z0.3110
G01 G54 X28.4597 Y2.1418 Z0.3110
G01 G54 X28.4636 Y2.1417 Z0.3110
G01 G54 X28.9988 Y2.1347 Z0.3110
G01 G54 X29.0021 Y2.1347 Z0.3110
G01 G54 X29.5379 Y2.1282 Z0.3110
G01 G54 X29.5418 Y2.1281 Z0.3110
G01 G54 X30.0772 Y2.1224 Z0.3110
G01 G54 X30.0809 Y2.1224 Z0.3110
G01 G54 X30.6164 Y2.1173 Z0.3110
G01 G54 X30.6199 Y2.1173 Z0.3110
G01 G54 X31.1554 Y2.1128 Z0.3110
G01 G54 X31.1591 Y2.1128 Z0.3110
G01 G54 X31.6946 Y2.1090 Z0.3110
G01 G54 X31.6983 Y2.1090 Z0.3110
G01 G54 X32.2338 Y2.1059 Z0.3110
G01 G54 X32.2375 Y2.1059 Z0.3110
G01 G54 X32.7729 Y2.1034 Z0.3110
G01 G54 X32.7767 Y2.1034 Z0.3110
G01 G54 X33.3122 Y2.1016 Z0.3110
G01 G54 X33.3159 Y2.1016 Z0.3110
G01 G54 X33.8514 Y2.1005 Z0.3110
G01 G54 X33.8549 Y2.1005 Z0.3110
G01 G54 X34.3903 Y2.1000 Z0.3110
G01 G54 X34.3940 Y2.1000 Z0.3110
G01 G54 X34.9292 Y2.1002 Z0.3110
G01 G54 X34.9330 Y2.1002 Z0.3110
G01 G54 X35.4685 Y2.1011 Z0.3110
G01 G54 X35.4722 Y2.1011 Z0.3110
G01 G54 X36.0076 Y2.1026 Z0.3110
G01 G54 X36.0114 Y2.1027 Z0.3110
G01 G54 X36.5468 Y2.1049 Z0.3110
G01 G54 X36.5506 Y2.1049 Z0.3110
G01 G54 X37.0860 Y2.1077 Z0.3110
G01 G54 X37.0895 Y2.1078 Z0.3110
G01 G54 X37.6250 Y2.1113 Z0.3110
G01 G54 X37.6288 Y2.1113 Z0.3110
G01 G54 X38.1642 Y2.1155 Z0.3110
G01 G54 X38.1679 Y2.1155 Z0.3110
G01 G54 X38.7034 Y2.1203 Z0.3110
G01 G54 X38.7071 Y2.1204 Z0.3110
G01 G54 X39.2425 Y2.1259 Z0.3110
G01 G54 X39.2463 Y2.1259 Z0.3110
G01 G54 X39.7820 Y2.1321 Z0.3110
G01 G54 X39.7858 Y2.1321 Z0.3110
G01 G54 X40.3209 Y2.1390 Z0.3110
G01 G54 X40.3244 Y2.1390 Z0.3110
G01 G54 X40.8598 Y2.1465 Z0.3110
G01 G54 X40.8636 Y2.1466 Z0.3110
G01 G54 X41.3990 Y2.1547 Z0.3110
G01 G54 X41.4027 Y2.1548 Z0.3110
G01 G54 X41.9381 Y2.1636 Z0.3110
G01 G54 X41.9419 Y2.1637 Z0.3110
G01 G54 X42.4772 Y2.1731 Z0.3110
G01 G54 X42.4810 Y2.1732 Z0.3110
G01 G54 X43.0164 Y2.1834 Z0.3110
G01 G54 X43.0201 Y2.1835 Z0.3110
G01 G54 X43.5555 Y2.1943 Z0.3110
G01 G54 X43.5589 Y2.1943 Z0.3110
G01 G54 X44.0946 Y2.2058 Z0.3110
G01 G54 X44.0946 Y2.2058 Z0.3110
G01 G54 X44.0984 Y2.2059 Z0.3110
G01 G54 X44.6334 Y2.2180 Z0.3110
G01 G54 X44.6373 Y2.2181 Z0.3110
G01 G54 X45.1726 Y2.2309 Z0.3110
G01 G54 X45.1761 Y2.2310 Z0.3110
G01 G54 X45.7114 Y2.2444 Z0.3110
G01 G54 X45.7150 Y2.2445 Z0.3110
G01 G54 X46.2502 Y2.2586 Z0.3110
G01 G54 X46.2542 Y2.2587 Z0.3110
G01 G54 X46.6535 Y2.2698 Z0.3110
G01 G54 X46.7898 Y2.2735 Z0.3109
G01 G54 X46.7898 Y2.2736 Z0.3109
G01 G54 X46.7934 Y2.2736 Z0.3109
G01 G54 X47.0502 Y2.2810 Z0.3107
G01 G54 X47.3283 Y2.2890 Z0.3101
G01 G54 X47.3322 Y2.2892 Z0.3101
G01 G54 X47.4377 Y2.2923 Z0.3098
G01 G54 X47.8162 Y2.3037 Z0.3085
G01 G54 X47.8674 Y2.3053 Z0.3083
G01 G54 X47.8709 Y2.3054 Z0.3083
G01 G54 X48.1861 Y2.3152 Z0.3067
G01 G54 X48.4061 Y2.3222 Z0.3053
G01 G54 X48.4098 Y2.3223 Z0.3053
G01 G54 X48.5475 Y2.3267 Z0.3044
G01 G54 X48.9010 Y2.3383 Z0.3017
G01 G54 X48.9453 Y2.3397 Z0.3013
G01 G54 X48.9489 Y2.3398 Z0.3012
G01 G54 X49.2467 Y2.3498 Z0.2985
G01 G54 X49.4838 Y2.3579 Z0.2961
G01 G54 X49.4877 Y2.3580 Z0.2960
G01 G54 X49.5850 Y2.3614 Z0.2950
G01 G54 X49.9163 Y2.3730 Z0.2911
G01 G54 X50.0228 Y2.3768 Z0.2897
G01 G54 X50.0264 Y2.3769 Z0.2896
G01 G54 X50.2409 Y2.3847 Z0.2868
G01 G54 X50.5589 Y2.3962 Z0.2821
G01 G54 X50.5615 Y2.3963 Z0.2821
G01 G54 X50.5651 Y2.3964 Z0.2820
G01 G54 X50.8709 Y2.4079 Z0.2772
G01 G54 X51.1005 Y2.4165 Z0.2733
G01 G54 X51.1046 Y2.4166 Z0.2732
G01 G54 X51.1772 Y2.4194 Z0.2720
G01 G54 X51.4779 Y2.4311 Z0.2665
G01 G54 X51.6394 Y2.4374 Z0.2634
G01 G54 X51.6427 Y2.4376 Z0.2633
G01 G54 X51.7735 Y2.4428 Z0.2608
G01 G54 X52.0643 Y2.4544 Z0.2548
G01 G54 X52.1777 Y2.4590 Z0.2524
G01 G54 X52.1815 Y2.4591 Z0.2523
G01 G54 X52.3506 Y2.4661 Z0.2487
G01 G54 X52.6327 Y2.4777 Z0.2423
G01 G54 X52.7169 Y2.4812 Z0.2403
G01 G54 X52.7207 Y2.4813 Z0.2402
G01 G54 X52.9110 Y2.4894 Z0.2358
G01 G54 X53.1857 Y2.5011 Z0.2292
G01 G54 X53.2554 Y2.5041 Z0.2274
G01 G54 X53.2589 Y2.5042 Z0.2274
G01 G54 X53.4572 Y2.5129 Z0.2224
G01 G54 X53.7259 Y2.5246 Z0.2156
G01 G54 X53.7938 Y2.5276 Z0.2138
G01 G54 X53.7975 Y2.5278 Z0.2137
G01 G54 X53.9919 Y2.5365 Z0.2087
G01 G54 X54.2557 Y2.5483 Z0.2017
G01 G54 X54.3322 Y2.5518 Z0.1997
G01 G54 X54.3366 Y2.5520 Z0.1996
G01 G54 X54.5176 Y2.5603 Z0.1948
G01 G54 X54.7779 Y2.5724 Z0.1879
G01 G54 X54.8712 Y2.5767 Z0.1853
G01 G54 X54.8749 Y2.5768 Z0.1852
G01 G54 X55.0369 Y2.5845 Z0.1809
G01 G54 X55.2949 Y2.5968 Z0.1740
G01 G54 X55.4098 Y2.6022 Z0.1709
G01 G54 X55.4132 Y2.6024 Z0.1709
G01 G54 X55.5523 Y2.6092 Z0.1672
G01 G54 X55.8094 Y2.6217 Z0.1604
G01 G54 X55.9483 Y2.6285 Z0.1568
G01 G54 X55.9525 Y2.6286 Z0.1567
G01 G54 X56.0664 Y2.6343 Z0.1538
G01 G54 X56.3238 Y2.6472 Z0.1473
G01 G54 X56.4870 Y2.6553 Z0.1433
G01 G54 X56.4903 Y2.6555 Z0.1432
G01 G54 X56.5818 Y2.6601 Z0.1410
G01 G54 X56.8408 Y2.6734 Z0.1348
G01 G54 X57.0254 Y2.6829 Z0.1305
G01 G54 X57.0293 Y2.6830 Z0.1305
G01 G54 X57.1011 Y2.6868 Z0.1288
G01 G54 X57.3629 Y2.7005 Z0.1231
G01 G54 X57.5637 Y2.7111 Z0.1189
G01 G54 X57.5673 Y2.7112 Z0.1188
G01 G54 X57.6268 Y2.7144 Z0.1176
G01 G54 X57.8928 Y2.7287 Z0.1124
G01 G54 X58.1023 Y2.7400 Z0.1085
G01 G54 X58.1023 Y2.7400 Z0.1085
G01 G54 X58.1062 Y2.7401 Z0.1085
G01 G54 X58.1614 Y2.7432 Z0.1075
G01 G54 X58.4330 Y2.7581 Z0.1028
G01 G54 X58.6405 Y2.7695 Z0.0996
G01 G54 X58.6440 Y2.7697 Z0.0995
G01 G54 X58.7077 Y2.7732 Z0.0985
G01 G54 X58.9860 Y2.7888 Z0.0946
G01 G54 X59.1786 Y2.7997 Z0.0922
G01 G54 X59.1822 Y2.7999 Z0.0921
G01 G54 X59.2681 Y2.8048 Z0.0911
G01 G54 X59.5544 Y2.8212 Z0.0879
G01 G54 X59.7172 Y2.8306 Z0.0864
G01 G54 X59.7211 Y2.8308 Z0.0863
G01 G54 X59.8452 Y2.8380 Z0.0852
G01 G54 X60.1408 Y2.8554 Z0.0829
G01 G54 X60.2553 Y2.8621 Z0.0822
G01 G54 X60.2588 Y2.8624 Z0.0822
G01 G54 X60.4415 Y2.8733 Z0.0811
G01 G54 X60.6922 Y2.8883 Z0.0800
G01 G54 X60.7477 Y2.8875 Z0.0798
G01 G54 X60.7981 Y2.8868 Z0.0796
G01 G54 X60.9594 Y2.8801 Z0.0792
G01 G54 X61.0598 Y2.8729 Z0.0789
G01 G54 X61.1089 Y2.8695 Z0.0789
G01 G54 X61.2511 Y2.8551 Z0.0788
G01 G54 X61.3779 Y2.8382 Z0.0787
G01 G54 X61.3854 Y2.8372 Z0.0787
G01 G54 X61.5101 Y2.8166 Z0.0787
G01 G54 X61.6281 Y2.7931 Z0.0787
G01 G54 X61.7382 Y2.7674 Z0.0787
G01 G54 X61.8384 Y2.7403 Z0.0787
G01 G54 X61.9349 Y2.7105 Z0.0787
G01 G54 X62.0228 Y2.6799 Z0.0787
G01 G54 X62.1059 Y2.6475 Z0.0787
G01 G54 X62.1815 Y2.6147 Z0.0787
G01 G54 X62.2524 Y2.5807 Z0.0787
G01 G54 X62.3197 Y2.5453 Z0.0787
G01 G54 X62.3816 Y2.5096 Z0.0787
G01 G54 X62.4388 Y2.4736 Z0.0787
G01 G54 X62.4932 Y2.4363 Z0.0787
G01 G54 X62.5453 Y2.3975 Z0.0787
G01 G54 X62.5946 Y2.3579 Z0.0787
G01 G54 X62.6416 Y2.3168 Z0.0787
G01 G54 X62.6849 Y2.2761 Z0.0787
G01 G54 X62.7287 Y2.2315 Z0.0787
G01 G54 X62.7712 Y2.1850 Z0.0787
G01 G54 X62.8103 Y2.1388 Z0.0787
G01 G54 X62.8512 Y2.0867 Z0.0787
G01 G54 X62.8887 Y2.0354 Z0.0787
G01 G54 X62.9261 Y1.9801 Z0.0787
G01 G54 X62.9627 Y1.9217 Z0.0787
G01 G54 X62.9991 Y1.8590 Z0.0787
G01 G54 X63.0331 Y1.7958 Z0.0787
G01 G54 X63.0678 Y1.7262 Z0.0787
G01 G54 X63.0999 Y1.6561 Z0.0787
G01 G54 X63.1313 Y1.5817 Z0.0787
G01 G54 X63.1618 Y1.5031 Z0.0787
G01 G54 X63.1900 Y1.4236 Z0.0787
G01 G54 X63.2174 Y1.3390 Z0.0787
G01 G54 X63.2438 Y1.2490 Z0.0787
G01 G54 X63.2674 Y1.1600 Z0.0787
G01 G54 X63.2894 Y1.0674 Z0.0787
G01 G54 X63.3102 Y0.9688 Z0.0787
G01 G54 X63.3287 Y0.8698 Z0.0787
G01 G54 X63.3446 Y0.7708 Z0.0787
G01 G54 X63.3594 Y0.6632 Z0.0787
G01 G54 X63.3716 Y0.5581 Z0.0787
G01 G54 X63.3816 Y0.4502 Z0.0787
G01 G54 X63.3894 Y0.3397 Z0.0787
G01 G54 X63.3950 Y0.2285 Z0.0787
G01 G54 X63.3985 Y0.1132 Z0.0787
G01 G54 X63.3996 Y0.0000 Z0.0787
G01 G54 X63.3985 Y-0.1132 Z0.0787
G01 G54 X63.3950 Y-0.2292 Z0.0787
G01 G54 X63.3894 Y-0.3397 Z0.0787
G01 G54 X63.3815 Y-0.4508 Z0.0787
G01 G54 X63.3716 Y-0.5581 Z0.0787
G01 G54 X63.3594 Y-0.6632 Z0.0787
G01 G54 X63.3446 Y-0.7708 Z0.0787
G01 G54 X63.3285 Y-0.8704 Z0.0787
G01 G54 X63.3101 Y-0.9696 Z0.0787
G01 G54 X63.2894 Y-1.0675 Z0.0787
G01 G54 X63.2674 Y-1.1600 Z0.0787
G01 G54 X63.2438 Y-1.2490 Z0.0787
G01 G54 X63.2174 Y-1.3390 Z0.0787
G01 G54 X63.1899 Y-1.4240 Z0.0787
G01 G54 X63.1618 Y-1.5031 Z0.0787
G01 G54 X63.1311 Y-1.5824 Z0.0787
G01 G54 X63.0999 Y-1.6561 Z0.0787
G01 G54 X63.0678 Y-1.7262 Z0.0787
G01 G54 X63.0331 Y-1.7958 Z0.0787
G01 G54 X62.9991 Y-1.8590 Z0.0787
G01 G54 X62.9627 Y-1.9217 Z0.0787
G01 G54 X62.9261 Y-1.9801 Z0.0787
G01 G54 X62.8887 Y-2.0354 Z0.0787
G01 G54 X62.8512 Y-2.0867 Z0.0787
G01 G54 X62.8101 Y-2.1390 Z0.0787
G01 G54 X62.7710 Y-2.1852 Z0.0787
G01 G54 X62.7287 Y-2.2315 Z0.0787
G01 G54 X62.6849 Y-2.2761 Z0.0787
G01 G54 X62.6416 Y-2.3168 Z0.0787
G01 G54 X62.5941 Y-2.3582 Z0.0787
G01 G54 X62.5453 Y-2.3975 Z0.0787
G01 G54 X62.4932 Y-2.4363 Z0.0787
G01 G54 X62.4388 Y-2.4736 Z0.0787
G01 G54 X62.3816 Y-2.5096 Z0.0787
G01 G54 X62.3197 Y-2.5453 Z0.0787
G01 G54 X62.2524 Y-2.5807 Z0.0787
G01 G54 X62.1812 Y-2.6148 Z0.0787
G01 G54 X62.1057 Y-2.6475 Z0.0787
G01 G54 X62.0228 Y-2.6799 Z0.0787
G01 G54 X61.9349 Y-2.7105 Z0.0787
G01 G54 X61.8384 Y-2.7403 Z0.0787
G01 G54 X61.7382 Y-2.7674 Z0.0787
G01 G54 X61.6281 Y-2.7931 Z0.0787
G01 G54 X61.5101 Y-2.8166 Z0.0787
G01 G54 X61.3854 Y-2.8372 Z0.0787
G01 G54 X61.3779 Y-2.8382 Z0.0787
G01 G54 X61.2511 Y-2.8551 Z0.0788
G01 G54 X61.1089 Y-2.8695 Z0.0789
G01 G54 X61.0598 Y-2.8729 Z0.0789
G01 G54 X60.9594 Y-2.8801 Z0.0792
G01 G54 X60.7981 Y-2.8868 Z0.0796
G01 G54 X60.7477 Y-2.8875 Z0.0798
G01 G54 X60.6922 Y-2.8883 Z0.0800
G01 G54 X60.4415 Y-2.8733 Z0.0811
G01 G54 X60.2588 Y-2.8624 Z0.0822
G01 G54 X60.2553 Y-2.8621 Z0.0822
G01 G54 X60.1408 Y-2.8554 Z0.0829
G01 G54 X59.8452 Y-2.8380 Z0.0852
G01 G54 X59.7211 Y-2.8308 Z0.0863
G01 G54 X59.7172 Y-2.8306 Z0.0864
G01 G54 X59.5544 Y-2.8212 Z0.0879
G01 G54 X59.2681 Y-2.8048 Z0.0911
G01 G54 X59.1822 Y-2.7999 Z0.0921
G01 G54 X59.1786 Y-2.7997 Z0.0922
G01 G54 X58.9860 Y-2.7888 Z0.0946
G01 G54 X58.7077 Y-2.7732 Z0.0985
G01 G54 X58.6440 Y-2.7697 Z0.0995
G01 G54 X58.6405 Y-2.7695 Z0.0996
G01 G54 X58.4330 Y-2.7581 Z0.1028
G01 G54 X58.1614 Y-2.7432 Z0.1075
G01 G54 X58.1062 Y-2.7401 Z0.1085
G01 G54 X58.1023 Y-2.7400 Z0.1085
G01 G54 X58.1023 Y-2.7400 Z0.1085
G01 G54 X57.8928 Y-2.7287 Z0.1124
G01 G54 X57.6268 Y-2.7144 Z0.1176
G01 G54 X57.5673 Y-2.7112 Z0.1188
G01 G54 X57.5637 Y-2.7111 Z0.1189
G01 G54 X57.3629 Y-2.7005 Z0.1231
G01 G54 X57.1011 Y-2.6868 Z0.1288
G01 G54 X57.0293 Y-2.6830 Z0.1305
G01 G54 X57.0254 Y-2.6829 Z0.1305
G01 G54 X56.8408 Y-2.6734 Z0.1348
G01 G54 X56.5818 Y-2.6601 Z0.1410
G01 G54 X56.4903 Y-2.6555 Z0.1432
G01 G54 X56.4870 Y-2.6553 Z0.1433
G01 G54 X56.3238 Y-2.6472 Z0.1473
G01 G54 X56.0664 Y-2.6343 Z0.1538
G01 G54 X55.9525 Y-2.6286 Z0.1567
G01 G54 X55.9483 Y-2.6285 Z0.1568
G01 G54 X55.8094 Y-2.6217 Z0.1604
G01 G54 X55.5523 Y-2.6092 Z0.1672
G01 G54 X55.4132 Y-2.6024 Z0.1709
G01 G54 X55.4098 Y-2.6022 Z0.1709
G01 G54 X55.2949 Y-2.5968 Z0.1740
G01 G54 X55.0369 Y-2.5845 Z0.1809
G01 G54 X54.8749 Y-2.5768 Z0.1852
G01 G54 X54.8712 Y-2.5767 Z0.1853
G01 G54 X54.7779 Y-2.5724 Z0.1879
G01 G54 X54.5176 Y-2.5603 Z0.1948
G01 G54 X54.3366 Y-2.5520 Z0.1996
G01 G54 X54.3322 Y-2.5518 Z0.1997
G01 G54 X54.2557 Y-2.5483 Z0.2017
G01 G54 X53.9919 Y-2.5365 Z0.2087
G01 G54 X53.7975 Y-2.5278 Z0.2137
G01 G54 X53.7938 Y-2.5276 Z0.2138
G01 G54 X53.7259 Y-2.5246 Z0.2156
G01 G54 X53.4572 Y-2.5129 Z0.2224
G01 G54 X53.2589 Y-2.5042 Z0.2274
G01 G54 X53.2554 Y-2.5041 Z0.2274
G01 G54 X53.1857 Y-2.5011 Z0.2292
G01 G54 X52.9110 Y-2.4894 Z0.2358
G01 G54 X52.7207 Y-2.4813 Z0.2402
G01 G54 X52.7169 Y-2.4812 Z0.2403
G01 G54 X52.6327 Y-2.4777 Z0.2423
G01 G54 X52.3506 Y-2.4661 Z0.2487
G01 G54 X52.1815 Y-2.4591 Z0.2523
G01 G54 X52.1777 Y-2.4590 Z0.2524
G01 G54 X52.0643 Y-2.4544 Z0.2548
G01 G54 X51.7735 Y-2.4428 Z0.2608
G01 G54 X51.6427 Y-2.4376 Z0.2633
G01 G54 X51.6394 Y-2.4374 Z0.2634
G01 G54 X51.4779 Y-2.4311 Z0.2665
G01 G54 X51.1772 Y-2.4194 Z0.2720
G01 G54 X51.1046 Y-2.4166 Z0.2732
G01 G54 X51.1005 Y-2.4165 Z0.2733
G01 G54 X50.8709 Y-2.4079 Z0.2772
G01 G54 X50.5651 Y-2.3964 Z0.2820
G01 G54 X50.5615 Y-2.3963 Z0.2821
G01 G54 X50.5589 Y-2.3962 Z0.2821
G01 G54 X50.2409 Y-2.3847 Z0.2868
G01 G54 X50.0264 Y-2.3769 Z0.2896
G01 G54 X50.0228 Y-2.3768 Z0.2897
G01 G54 X49.9163 Y-2.3731 Z0.2911
G01 G54 X49.5850 Y-2.3614 Z0.2950
G01 G54 X49.4877 Y-2.3580 Z0.2960
G01 G54 X49.4838 Y-2.3579 Z0.2961
G01 G54 X49.2467 Y-2.3498 Z0.2985
G01 G54 X48.9489 Y-2.3398 Z0.3012
G01 G54 X48.9453 Y-2.3397 Z0.3013
G01 G54 X48.9010 Y-2.3383 Z0.3017
G01 G54 X48.5475 Y-2.3267 Z0.3044
G01 G54 X48.4098 Y-2.3223 Z0.3053
G01 G54 X48.4061 Y-2.3222 Z0.3053
G01 G54 X48.1861 Y-2.3152 Z0.3067
G01 G54 X47.8709 Y-2.3054 Z0.3083
G01 G54 X47.8674 Y-2.3053 Z0.3083
G01 G54 X47.8162 Y-2.3037 Z0.3085
G01 G54 X47.4377 Y-2.2923 Z0.3098
G01 G54 X47.3322 Y-2.2892 Z0.3101
G01 G54 X47.3283 Y-2.2890 Z0.3101
G01 G54 X47.0502 Y-2.2810 Z0.3107
G01 G54 X46.7934 Y-2.2736 Z0.3109
G01 G54 X46.7898 Y-2.2736 Z0.3109
G01 G54 X46.7898 Y-2.2735 Z0.3109
G01 G54 X46.6535 Y-2.2698 Z0.3110
G01 G54 X46.2542 Y-2.2587 Z0.3110
G01 G54 X46.2502 Y-2.2586 Z0.3110
G01 G54 X45.7150 Y-2.2445 Z0.3110
G01 G54 X45.7114 Y-2.2444 Z0.3110
G01 G54 X45.1761 Y-2.2310 Z0.3110
G01 G54 X45.1726 Y-2.2309 Z0.3110
G01 G54 X44.6373 Y-2.2181 Z0.3110
G01 G54 X44.6334 Y-2.2180 Z0.3110
G01 G54 X44.0984 Y-2.2059 Z0.3110
G01 G54 X44.0946 Y-2.2058 Z0.3110
G01 G54 X44.0946 Y-2.2058 Z0.3110
G01 G54 X43.5589 Y-2.1943 Z0.3110
G01 G54 X43.5555 Y-2.1943 Z0.3110
G01 G54 X43.0201 Y-2.1835 Z0.3110
G01 G54 X43.0164 Y-2.1834 Z0.3110
G01 G54 X42.4810 Y-2.1732 Z0.3110
G01 G54 X42.4772 Y-2.1731 Z0.3110
G01 G54 X41.9419 Y-2.1637 Z0.3110
G01 G54 X41.9381 Y-2.1636 Z0.3110
G01 G54 X41.4027 Y-2.1548 Z0.3110
G01 G54 X41.3990 Y-2.1547 Z0.3110
G01 G54 X40.8636 Y-2.1466 Z0.3110
G01 G54 X40.8598 Y-2.1465 Z0.3110
G01 G54 X40.3244 Y-2.1390 Z0.3110
G01 G54 X40.3209 Y-2.1390 Z0.3110
G01 G54 X39.7858 Y-2.1321 Z0.3110
G01 G54 X39.7820 Y-2.1321 Z0.3110
G01 G54 X39.2463 Y-2.1259 Z0.3110
G01 G54 X39.2425 Y-2.1259 Z0.3110
G01 G54 X38.7071 Y-2.1204 Z0.3110
G01 G54 X38.7034 Y-2.1203 Z0.3110
G01 G54 X38.1679 Y-2.1155 Z0.3110
G01 G54 X38.1642 Y-2.1155 Z0.3110
G01 G54 X37.6288 Y-2.1113 Z0.3110
G01 G54 X37.6250 Y-2.1113 Z0.3110
G01 G54 X37.0895 Y-2.1078 Z0.3110
G01 G54 X37.0860 Y-2.1077 Z0.3110
G01 G54 X36.5506 Y-2.1049 Z0.3110
G01 G54 X36.5468 Y-2.1049 Z0.3110
G01 G54 X36.0114 Y-2.1027 Z0.3110
G01 G54 X36.0076 Y-2.1026 Z0.3110
G01 G54 X35.4722 Y-2.1011 Z0.3110
G01 G54 X35.4685 Y-2.1011 Z0.3110
G01 G54 X34.9330 Y-2.1002 Z0.3110
G01 G54 X34.9292 Y-2.1002 Z0.3110
G01 G54 X34.3940 Y-2.1000 Z0.3110
G01 G54 X34.3903 Y-2.1000 Z0.3110
G01 G54 X33.8549 Y-2.1005 Z0.3110
G01 G54 X33.8514 Y-2.1005 Z0.3110
G01 G54 X33.3159 Y-2.1016 Z0.3110
G01 G54 X33.3122 Y-2.1016 Z0.3110
G01 G54 X32.7767 Y-2.1034 Z0.3110
G01 G54 X32.7729 Y-2.1034 Z0.3110
G01 G54 X32.2375 Y-2.1059 Z0.3110
G01 G54 X32.2338 Y-2.1059 Z0.3110
G01 G54 X31.6983 Y-2.1090 Z0.3110
G01 G54 X31.6946 Y-2.1090 Z0.3110
G01 G54 X31.1591 Y-2.1128 Z0.3110
G01 G54 X31.1554 Y-2.1128 Z0.3110
G01 G54 X30.6199 Y-2.1173 Z0.3110
G01 G54 X30.6164 Y-2.1173 Z0.3110
G01 G54 X30.0809 Y-2.1224 Z0.3110
G01 G54 X30.0772 Y-2.1224 Z0.3110
G01 G54 X29.5418 Y-2.1281 Z0.3110
G01 G54 X29.5379 Y-2.1282 Z0.3110
G01 G54 X29.0021 Y-2.1347 Z0.3110
G01 G54 X28.9988 Y-2.1347 Z0.3110
G01 G54 X28.4636 Y-2.1417 Z0.3110
G01 G54 X28.4597 Y-2.1418 Z0.3110
G01 G54 X27.9243 Y-2.1495 Z0.3110
G01 G54 X27.9205 Y-2.1496 Z0.3110
G01 G54 X27.3851 Y-2.1580 Z0.3110
G01 G54 X27.3816 Y-2.1581 Z0.3110
G01 G54 X26.8462 Y-2.1671 Z0.3110
G01 G54 X26.8423 Y-2.1672 Z0.3110
G01 G54 X26.3069 Y-2.1770 Z0.3110
G01 G54 X26.3034 Y-2.1770 Z0.3110
G01 G54 X25.7680 Y-2.1874 Z0.3110
G01 G54 X25.7643 Y-2.1875 Z0.3110
G01 G54 X25.2287 Y-2.1985 Z0.3110
G01 G54 X25.2248 Y-2.1986 Z0.3110
G01 G54 X24.6898 Y-2.2103 Z0.3110
G01 G54 X24.6863 Y-2.2104 Z0.3110
G01 G54 X24.1510 Y-2.2227 Z0.3110
G01 G54 X24.1471 Y-2.2229 Z0.3110
G01 G54 X23.6117 Y-2.2359 Z0.3110
G01 G54 X23.6082 Y-2.2360 Z0.3110
G01 G54 X23.0729 Y-2.2497 Z0.3110
G01 G54 X23.0692 Y-2.2498 Z0.3110
G01 G54 X22.5337 Y-2.2642 Z0.3110
G01 G54 X22.5337 Y-2.2642 Z0.3110
G01 G54 X22.5298 Y-2.2642 Z0.3110
G01 G54 X21.9949 Y-2.2793 Z0.3110
G01 G54 X21.9912 Y-2.2794 Z0.3110
G01 G54 X21.4560 Y-2.2951 Z0.3110
G01 G54 X21.4524 Y-2.2952 Z0.3110
G01 G54 X21.0630 Y-2.3070 Z0.3110
G01 G54 X20.9172 Y-2.3115 Z0.3109
G01 G54 X20.9133 Y-2.3117 Z0.3109
G01 G54 X20.6662 Y-2.3195 Z0.3107
G01 G54 X20.3781 Y-2.3287 Z0.3101
G01 G54 X20.3746 Y-2.3288 Z0.3101
G01 G54 X20.2787 Y-2.3320 Z0.3098
G01 G54 X19.9001 Y-2.3444 Z0.3085
G01 G54 X19.8391 Y-2.3465 Z0.3082
G01 G54 X19.8391 Y-2.3465 Z0.3082
G01 G54 X19.8352 Y-2.3466 Z0.3082
G01 G54 X19.5303 Y-2.3570 Z0.3067
G01 G54 X19.3004 Y-2.3650 Z0.3053
G01 G54 X19.2967 Y-2.3651 Z0.3052
G01 G54 X19.1689 Y-2.3696 Z0.3044
G01 G54 X18.8154 Y-2.3822 Z0.3017
G01 G54 X18.7616 Y-2.3841 Z0.3012
G01 G54 X18.7579 Y-2.3842 Z0.3012
G01 G54 X18.4697 Y-2.3948 Z0.2985
G01 G54 X18.2225 Y-2.4039 Z0.2960
G01 G54 X18.2225 Y-2.4039 Z0.2960
G01 G54 X18.2188 Y-2.4040 Z0.2959
G01 G54 X18.1314 Y-2.4073 Z0.2950
G01 G54 X17.8001 Y-2.4199 Z0.2911
G01 G54 X17.6841 Y-2.4243 Z0.2896
G01 G54 X17.6802 Y-2.4245 Z0.2895
G01 G54 X17.4756 Y-2.4325 Z0.2868
G01 G54 X17.1575 Y-2.4450 Z0.2821
G01 G54 X17.1451 Y-2.4455 Z0.2820
G01 G54 X17.1417 Y-2.4456 Z0.2819
G01 G54 X16.8455 Y-2.4576 Z0.2772
G01 G54 X16.6064 Y-2.4673 Z0.2731
G01 G54 X16.6025 Y-2.4674 Z0.2731
