( Sample-ski-top-profile.nc                                                    )
( Generated by MonkeyCAM v4.0.5 at 2016-08-20 16:07:11 PDT                     )
(                                                                              )
( This GCode program is provided on an "AS IS" BASIS WITHOUT WARRANTIES OR     )
( CONDITIONS OF ANY KIND, either express or implied. You should inspect this   )
( program very carefully to confirm you understand its operation. YOU ARE      )
( RESPONSIBLE FOR ENSURING THIS PROGRAM WILL NOT DAMAGE YOUR MACHINE OR        )
( MATERIALS.                                                                   )
(                                                                              )
( See http://www.github.com/mikemag/MonkeyCAM for License and documentation.   )
(                                                                              )
( * Rapid height: 0.6000" [1.5240cm]                                           )
( * Tool: T1, 1.5 Inch Straight, diameter 1.4959" [3.7998cm]                   )
( * Height baseline [Z=0.0] is the top of the table.                           )
( * XY origin is the left side of the table, Y is center of the part.          )
( * Requires G54 to be the part work coordinate offsets [WCO]. [0, 0] is the   )
(   center of the nose, with the board extending to positive X. The cutter may )
(   move to negative values of X.                                              )
( * Requires G55 to be the machine WCO, with Z above the rapid height.         )
( * Units are inches                                                           )
( * Center of the board in G54:                                                )
(     X=36.0236 Y=0.0000 Z=0.0000                                              )
( * Cutter bounding box in G54:                                                )
(     X0.0000 Y-1.9055 Z0.0787 to X69.6455 Y1.9055 Z0.6000                     )

G90 G20 G17 G40 G49
G43 H1 T1
G00 G54 X0 Y0 Z0.6000

M03
G04 P5
G00 X6.1497 Y-0.3369 Z0.6000
G01 X6.1497 Y-0.3369 Z0.6000 F50
G01 X6.0802 Y-0.3396 Z0.5909
G01 X5.7413 Y-0.3525 Z0.5467
G01 X5.5163 Y-0.3612 Z0.5173
G01 X5.5146 Y-0.3613 Z0.5171
G01 X5.3971 Y-0.3659 Z0.5018
G01 X5.0471 Y-0.3795 Z0.4561
G01 X4.8812 Y-0.3861 Z0.4345
G01 X4.8795 Y-0.3861 Z0.4343
G01 X4.6911 Y-0.3936 Z0.4097
G01 X4.3286 Y-0.4080 Z0.3624
G01 X4.2967 Y-0.4093 Z0.3583
G01 X4.1743 Y-0.4083 Z0.3423
G01 X4.0175 Y-0.4046 Z0.3219
G01 X3.9592 Y-0.4022 Z0.3143
G01 X3.8742 Y-0.3987 Z0.3032
G01 X3.7356 Y-0.3907 Z0.2851
G01 X3.5996 Y-0.3803 Z0.2673
G01 X3.5827 Y-0.3787 Z0.2651
G01 X3.4744 Y-0.3685 Z0.2509
G01 X3.3531 Y-0.3547 Z0.2350
G01 X3.2366 Y-0.3390 Z0.2197
G01 X3.1295 Y-0.3224 Z0.2056
G01 X3.0256 Y-0.3041 Z0.1918
G01 X2.9306 Y-0.2851 Z0.1792
G01 X2.8388 Y-0.2646 Z0.1670
G01 X2.7556 Y-0.2439 Z0.1558
G01 X2.6769 Y-0.2223 Z0.1451
G01 X2.6037 Y-0.2002 Z0.1352
G01 X2.5359 Y-0.1778 Z0.1259
G01 X2.4763 Y-0.1563 Z0.1176
G01 X2.4191 Y-0.1339 Z0.1096
G01 X2.3687 Y-0.1124 Z0.1025
G01 X2.3248 Y-0.0921 Z0.0962
G01 X2.2838 Y-0.0716 Z0.0902
G01 X2.2481 Y-0.0524 Z0.0849
G01 X2.2182 Y-0.0350 Z0.0804
G01 X2.1923 Y-0.0187 Z0.0787
G01 X2.1694 Y-0.0032 Z0.0787
G01 X2.1650 Y0.0000 Z0.0787
G01 X2.1650 Y0.0000 Z0.0787 F20
G01 X2.1650 Y0.0000 Z0.0787 F50
G01 X2.1691 Y0.0030 Z0.0787
G01 X2.1923 Y0.0187 Z0.0787
G01 X2.2179 Y0.0348 Z0.0787
G01 X2.2481 Y0.0524 Z0.0787
G01 X2.2838 Y0.0716 Z0.0787
G01 X2.3248 Y0.0921 Z0.0787
G01 X2.3687 Y0.1124 Z0.0787
G01 X2.4188 Y0.1337 Z0.0787
G01 X2.4763 Y0.1563 Z0.0787
G01 X2.5359 Y0.1778 Z0.0787
G01 X2.6036 Y0.2002 Z0.0787
G01 X2.6769 Y0.2223 Z0.0787
G01 X2.7553 Y0.2438 Z0.0787
G01 X2.8388 Y0.2646 Z0.0787
G01 X2.9306 Y0.2851 Z0.0787
G01 X3.0256 Y0.3041 Z0.0787
G01 X3.1295 Y0.3224 Z0.0787
G01 X3.2366 Y0.3390 Z0.0787
G01 X3.3531 Y0.3547 Z0.0787
G01 X3.4744 Y0.3685 Z0.0787
G01 X3.5827 Y0.3787 Z0.0787
G01 X3.5996 Y0.3803 Z0.0787
G01 X3.7356 Y0.3907 Z0.0788
G01 X3.8742 Y0.3987 Z0.0788
G01 X3.9592 Y0.4022 Z0.0789
G01 X4.0175 Y0.4046 Z0.0790
G01 X4.1743 Y0.4083 Z0.0794
G01 X4.2967 Y0.4093 Z0.0797
G01 X4.3286 Y0.4080 Z0.0797
G01 X4.6911 Y0.3936 Z0.0811
G01 X4.8795 Y0.3861 Z0.0820
G01 X4.8812 Y0.3861 Z0.0820
G01 X5.0471 Y0.3796 Z0.0829
G01 X5.3971 Y0.3659 Z0.0852
G01 X5.5146 Y0.3613 Z0.0861
G01 X5.5163 Y0.3612 Z0.0861
G01 X5.7413 Y0.3525 Z0.0879
G01 X6.0802 Y0.3396 Z0.0911
G01 X6.1497 Y0.3369 Z0.0918
G01 X6.1512 Y0.3368 Z0.0918
G01 X6.4142 Y0.3269 Z0.0946
G01 X6.7437 Y0.3145 Z0.0985
G01 X6.7848 Y0.3130 Z0.0990
G01 X6.7864 Y0.3129 Z0.0991
G01 X7.0689 Y0.3025 Z0.1028
G01 X7.3903 Y0.2906 Z0.1075
G01 X7.4199 Y0.2896 Z0.1079
G01 X7.4214 Y0.2895 Z0.1079
G01 X7.7083 Y0.2790 Z0.1124
G01 X8.0233 Y0.2677 Z0.1176
G01 X8.0549 Y0.2665 Z0.1182
G01 X8.0566 Y0.2665 Z0.1182
G01 X8.3356 Y0.2566 Z0.1231
G01 X8.6456 Y0.2456 Z0.1288
G01 X8.6901 Y0.2440 Z0.1297
G01 X8.6916 Y0.2439 Z0.1297
G01 X8.9537 Y0.2348 Z0.1348
G01 X9.2603 Y0.2241 Z0.1409
G01 X9.3252 Y0.2219 Z0.1423
G01 X9.3268 Y0.2218 Z0.1424
G01 X9.5658 Y0.2137 Z0.1473
G01 X9.8705 Y0.2033 Z0.1538
G01 X9.9604 Y0.2003 Z0.1557
G01 X9.9619 Y0.2002 Z0.1558
G01 X10.1748 Y0.1931 Z0.1604
G01 X10.4791 Y0.1829 Z0.1672
G01 X10.5955 Y0.1791 Z0.1698
G01 X10.5972 Y0.1790 Z0.1698
G01 X10.7838 Y0.1729 Z0.1740
G01 X11.0892 Y0.1629 Z0.1809
G01 X11.2307 Y0.1583 Z0.1841
G01 X11.2322 Y0.1583 Z0.1841
G01 X11.3959 Y0.1531 Z0.1879
G01 X11.7040 Y0.1432 Z0.1948
G01 X11.8657 Y0.1381 Z0.1984
G01 X11.8697 Y0.1380 Z0.1985
G01 X12.0140 Y0.1335 Z0.2017
G01 X12.3263 Y0.1237 Z0.2087
G01 X12.5011 Y0.1183 Z0.2125
G01 X12.5027 Y0.1183 Z0.2125
G01 X12.6412 Y0.1140 Z0.2156
G01 X12.9592 Y0.1043 Z0.2224
G01 X13.1363 Y0.0989 Z0.2261
G01 X13.1379 Y0.0988 Z0.2262
G01 X13.2807 Y0.0946 Z0.2292
G01 X13.6059 Y0.0849 Z0.2358
G01 X13.7716 Y0.0800 Z0.2390
G01 X13.7733 Y0.0800 Z0.2391
G01 X13.9353 Y0.0752 Z0.2423
G01 X14.2693 Y0.0655 Z0.2486
G01 X14.4069 Y0.0616 Z0.2511
G01 X14.4085 Y0.0615 Z0.2512
G01 X14.6082 Y0.0559 Z0.2548
G01 X14.9525 Y0.0461 Z0.2607
G01 X15.0421 Y0.0436 Z0.2622
G01 X15.0437 Y0.0435 Z0.2623
G01 X15.3024 Y0.0364 Z0.2665
G01 X15.6585 Y0.0265 Z0.2720
G01 X15.6774 Y0.0260 Z0.2722
G01 X15.6790 Y0.0260 Z0.2723
G01 X16.0210 Y0.0168 Z0.2772
G01 X16.3127 Y0.0089 Z0.2811
G01 X16.3142 Y0.0089 Z0.2811
G01 X16.3903 Y0.0069 Z0.2821
G01 X16.6551 Y0.0000 Z0.2854
G01 X16.3903 Y-0.0069 Z0.2821
G01 X16.3142 Y-0.0089 Z0.2811
G01 X16.3127 Y-0.0089 Z0.2811
G01 X16.0210 Y-0.0168 Z0.2772
G01 X15.6790 Y-0.0260 Z0.2723
G01 X15.6774 Y-0.0260 Z0.2722
G01 X15.6585 Y-0.0265 Z0.2720
G01 X15.3024 Y-0.0364 Z0.2665
G01 X15.0437 Y-0.0435 Z0.2623
G01 X15.0421 Y-0.0436 Z0.2622
G01 X14.9525 Y-0.0461 Z0.2607
G01 X14.6082 Y-0.0559 Z0.2548
G01 X14.4085 Y-0.0615 Z0.2512
G01 X14.4069 Y-0.0616 Z0.2511
G01 X14.2693 Y-0.0655 Z0.2486
G01 X13.9353 Y-0.0752 Z0.2423
G01 X13.7733 Y-0.0800 Z0.2391
G01 X13.7716 Y-0.0800 Z0.2390
G01 X13.6059 Y-0.0849 Z0.2358
G01 X13.2807 Y-0.0946 Z0.2292
G01 X13.1379 Y-0.0988 Z0.2262
G01 X13.1363 Y-0.0989 Z0.2261
G01 X12.9592 Y-0.1043 Z0.2224
G01 X12.6412 Y-0.1140 Z0.2156
G01 X12.5027 Y-0.1183 Z0.2125
G01 X12.5011 Y-0.1183 Z0.2125
G01 X12.3263 Y-0.1237 Z0.2087
G01 X12.0140 Y-0.1335 Z0.2017
G01 X11.8697 Y-0.1380 Z0.1985
G01 X11.8657 Y-0.1381 Z0.1984
G01 X11.7040 Y-0.1432 Z0.1948
G01 X11.3959 Y-0.1531 Z0.1879
G01 X11.2322 Y-0.1583 Z0.1841
G01 X11.2307 Y-0.1583 Z0.1841
G01 X11.0892 Y-0.1629 Z0.1809
G01 X10.7838 Y-0.1729 Z0.1740
G01 X10.5972 Y-0.1790 Z0.1698
G01 X10.5955 Y-0.1791 Z0.1698
G01 X10.4791 Y-0.1829 Z0.1672
G01 X10.1748 Y-0.1931 Z0.1604
G01 X9.9619 Y-0.2002 Z0.1558
G01 X9.9604 Y-0.2003 Z0.1557
G01 X9.8705 Y-0.2033 Z0.1538
G01 X9.5658 Y-0.2137 Z0.1473
G01 X9.3268 Y-0.2218 Z0.1424
G01 X9.3252 Y-0.2219 Z0.1423
G01 X9.2603 Y-0.2241 Z0.1409
G01 X8.9537 Y-0.2348 Z0.1348
G01 X8.6916 Y-0.2439 Z0.1297
G01 X8.6901 Y-0.2440 Z0.1297
G01 X8.6456 Y-0.2456 Z0.1288
G01 X8.3356 Y-0.2566 Z0.1231
G01 X8.0566 Y-0.2665 Z0.1182
G01 X8.0549 Y-0.2665 Z0.1182
G01 X8.0233 Y-0.2677 Z0.1176
G01 X7.7083 Y-0.2790 Z0.1124
G01 X7.4214 Y-0.2895 Z0.1079
G01 X7.4199 Y-0.2896 Z0.1079
G01 X7.3903 Y-0.2906 Z0.1075
G01 X7.0689 Y-0.3025 Z0.1028
G01 X6.7864 Y-0.3129 Z0.0991
G01 X6.7848 Y-0.3130 Z0.0990
G01 X6.7437 Y-0.3145 Z0.0985
G01 X6.4142 Y-0.3269 Z0.0946
G01 X6.1512 Y-0.3368 Z0.0918
G01 X6.1497 Y-0.3369 Z0.0918
G01 X6.0802 Y-0.3396 Z0.0911
G01 X5.7413 Y-0.3525 Z0.0879
G01 X5.5163 Y-0.3612 Z0.0861
G01 X5.5146 Y-0.3613 Z0.0861
G01 X5.3971 Y-0.3659 Z0.0852
G01 X5.0471 Y-0.3795 Z0.0829
G01 X4.8812 Y-0.3861 Z0.0820
G01 X4.8795 Y-0.3861 Z0.0820
G01 X4.6911 Y-0.3936 Z0.0811
G01 X4.3286 Y-0.4080 Z0.0797
G01 X4.2967 Y-0.4093 Z0.0797
G01 X4.1743 Y-0.4083 Z0.0794
G01 X4.0175 Y-0.4046 Z0.0790
G01 X3.9592 Y-0.4022 Z0.0789
G01 X3.8742 Y-0.3987 Z0.0788
G01 X3.7356 Y-0.3907 Z0.0788
G01 X3.5996 Y-0.3803 Z0.0787
G01 X3.5827 Y-0.3787 Z0.0787
G01 X3.4744 Y-0.3685 Z0.0787
G01 X3.3531 Y-0.3547 Z0.0787
G01 X3.2366 Y-0.3390 Z0.0787
G01 X3.1295 Y-0.3224 Z0.0787
G01 X3.0256 Y-0.3041 Z0.0787
G01 X2.9306 Y-0.2851 Z0.0787
G01 X2.8388 Y-0.2646 Z0.0787
G01 X2.7556 Y-0.2439 Z0.0787
G01 X2.6769 Y-0.2223 Z0.0787
G01 X2.6037 Y-0.2002 Z0.0787
G01 X2.5359 Y-0.1778 Z0.0787
G01 X2.4763 Y-0.1563 Z0.0787
G01 X2.4191 Y-0.1339 Z0.0787
G01 X2.3687 Y-0.1124 Z0.0787
G01 X2.3248 Y-0.0921 Z0.0787
G01 X2.2838 Y-0.0716 Z0.0787
G01 X2.2481 Y-0.0524 Z0.0787
G01 X2.2182 Y-0.0350 Z0.0787
G01 X2.1923 Y-0.0187 Z0.0787
G01 X2.1694 Y-0.0032 Z0.0787
G01 X2.1650 Y0.0000 Z0.0787
G00 X2.1650 Y0.0000 Z0.6000
G00 X67.1473 Y-0.1153 Z0.6000
G01 X67.1473 Y-0.1153 Z0.6000
G01 X67.0199 Y-0.1114 Z0.5855
G01 X66.7268 Y-0.1025 Z0.5524
G01 X66.5137 Y-0.0961 Z0.5283
G01 X66.5120 Y-0.0960 Z0.5281
G01 X66.4323 Y-0.0937 Z0.5191
G01 X66.1365 Y-0.0849 Z0.4856
G01 X65.8783 Y-0.0772 Z0.4564
G01 X65.8768 Y-0.0772 Z0.4562
G01 X65.8394 Y-0.0761 Z0.4520
G01 X65.5411 Y-0.0674 Z0.4183
G01 X65.2431 Y-0.0588 Z0.3846
G01 X65.2416 Y-0.0588 Z0.3844
G01 X64.9409 Y-0.0503 Z0.3504
G01 X64.6390 Y-0.0418 Z0.3162
G01 X64.6078 Y-0.0409 Z0.3127
G01 X64.6063 Y-0.0409 Z0.3125
G01 X64.3360 Y-0.0335 Z0.2820
G01 X64.0319 Y-0.0251 Z0.2476
G01 X63.9726 Y-0.0235 Z0.2409
G01 X63.9711 Y-0.0234 Z0.2407
G01 X63.7267 Y-0.0168 Z0.2131
G01 X63.4205 Y-0.0086 Z0.1784
G01 X63.3374 Y-0.0064 Z0.1690
G01 X63.3356 Y-0.0063 Z0.1688
G01 X63.1133 Y-0.0005 Z0.1473
G01 X63.0906 Y0.0000 Z0.1478
G01 X63.0906 Y0.0000 Z0.1478 F20
G01 X63.0906 Y0.0000 Z0.1478 F50
G01 X63.1133 Y0.0005 Z0.1473
G01 X63.3356 Y0.0063 Z0.1427
G01 X63.3374 Y0.0064 Z0.1427
G01 X63.4205 Y0.0086 Z0.1410
G01 X63.7267 Y0.0168 Z0.1348
G01 X63.9711 Y0.0234 Z0.1300
G01 X63.9726 Y0.0235 Z0.1300
G01 X64.0319 Y0.0251 Z0.1288
G01 X64.3360 Y0.0334 Z0.1231
G01 X64.6063 Y0.0409 Z0.1182
G01 X64.6078 Y0.0409 Z0.1182
G01 X64.6390 Y0.0418 Z0.1176
G01 X64.9409 Y0.0503 Z0.1124
G01 X65.2414 Y0.0588 Z0.1075
G01 X65.2431 Y0.0588 Z0.1074
G01 X65.5411 Y0.0675 Z0.1028
G01 X65.8394 Y0.0761 Z0.0985
G01 X65.8768 Y0.0772 Z0.0980
G01 X65.8783 Y0.0772 Z0.0980
G01 X66.1365 Y0.0849 Z0.0946
G01 X66.4323 Y0.0936 Z0.0911
G01 X66.5120 Y0.0960 Z0.0902
G01 X66.5137 Y0.0961 Z0.0901
G01 X66.7268 Y0.1025 Z0.0879
G01 X67.0199 Y0.1114 Z0.0851
G01 X67.1473 Y0.1153 Z0.0842
G01 X67.1489 Y0.1154 Z0.0842
G01 X67.3117 Y0.1204 Z0.0829
G01 X67.6020 Y0.1295 Z0.0811
G01 X67.7441 Y0.1339 Z0.0804
G01 X67.8149 Y0.1337 Z0.0801
G01 X67.8910 Y0.1328 Z0.0797
G01 X67.9085 Y0.1326 Z0.0797
G01 X68.0039 Y0.1308 Z0.0794
G01 X68.0875 Y0.1286 Z0.0792
G01 X68.1496 Y0.1264 Z0.0790
G01 X68.1496 Y-0.1264 Z0.0790
G01 X68.0875 Y-0.1286 Z0.0792
G01 X68.0039 Y-0.1308 Z0.0794
G01 X67.9085 Y-0.1326 Z0.0797
G01 X67.8910 Y-0.1328 Z0.0797
G01 X67.8149 Y-0.1337 Z0.0801
G01 X67.7441 Y-0.1339 Z0.0804
G01 X67.6020 Y-0.1295 Z0.0811
G01 X67.3117 Y-0.1204 Z0.0829
G01 X67.1489 Y-0.1154 Z0.0842
G01 X67.1473 Y-0.1153 Z0.0842
G01 X67.0199 Y-0.1114 Z0.0851
G01 X66.7268 Y-0.1025 Z0.0879
G01 X66.5137 Y-0.0961 Z0.0901
G01 X66.5120 Y-0.0960 Z0.0902
G01 X66.4323 Y-0.0937 Z0.0911
G01 X66.1365 Y-0.0849 Z0.0946
G01 X65.8783 Y-0.0772 Z0.0980
G01 X65.8768 Y-0.0772 Z0.0980
G01 X65.8394 Y-0.0761 Z0.0985
G01 X65.5411 Y-0.0674 Z0.1028
G01 X65.2431 Y-0.0588 Z0.1074
G01 X65.2416 Y-0.0588 Z0.1075
G01 X64.9409 Y-0.0503 Z0.1124
G01 X64.6390 Y-0.0418 Z0.1176
G01 X64.6078 Y-0.0409 Z0.1182
G01 X64.6063 Y-0.0409 Z0.1182
G01 X64.3360 Y-0.0335 Z0.1231
G01 X64.0319 Y-0.0251 Z0.1288
G01 X63.9726 Y-0.0235 Z0.1300
G01 X63.9711 Y-0.0234 Z0.1300
G01 X63.7267 Y-0.0168 Z0.1348
G01 X63.4205 Y-0.0086 Z0.1410
G01 X63.3374 Y-0.0064 Z0.1427
G01 X63.3356 Y-0.0063 Z0.1427
G01 X63.1133 Y-0.0005 Z0.1473
G01 X63.0906 Y0.0000 Z0.1478
G00 X63.0906 Y0.0000 Z0.6000
G00 X4.9092 Y-1.1335 Z0.6000
G01 X4.9092 Y-1.1335 Z0.6000
G01 X4.6911 Y-1.1422 Z0.5715
G01 X4.3286 Y-1.1566 Z0.5242
G01 X4.3090 Y-1.1574 Z0.5216
G01 X4.1602 Y-1.1562 Z0.5023
G01 X3.9953 Y-1.1523 Z0.4808
G01 X3.9592 Y-1.1508 Z0.4761
G01 X3.8369 Y-1.1458 Z0.4601
G01 X3.6861 Y-1.1371 Z0.4404
G01 X3.5827 Y-1.1292 Z0.4269
G01 X3.5358 Y-1.1257 Z0.4208
G01 X3.3953 Y-1.1124 Z0.4024
G01 X3.2624 Y-1.0972 Z0.3850
G01 X3.1283 Y-1.0792 Z0.3673
G01 X3.0075 Y-1.0605 Z0.3514
G01 X2.8884 Y-1.0394 Z0.3356
G01 X2.7739 Y-1.0166 Z0.3204
G01 X2.6681 Y-0.9929 Z0.3063
G01 X2.5659 Y-0.9675 Z0.2925
G01 X2.4698 Y-0.9411 Z0.2796
G01 X2.3784 Y-0.9135 Z0.2672
G01 X2.2931 Y-0.8854 Z0.2554
G01 X2.2101 Y-0.8554 Z0.2439
G01 X2.1375 Y-0.8269 Z0.2338
G01 X2.0650 Y-0.7960 Z0.2235
G01 X2.0007 Y-0.7664 Z0.2143
G01 X1.9390 Y-0.7355 Z0.2053
G01 X1.8819 Y-0.7047 Z0.1968
G01 X1.8311 Y-0.6751 Z0.1892
G01 X1.7839 Y-0.6455 Z0.1819
G01 X1.7389 Y-0.6150 Z0.1748
G01 X1.7007 Y-0.5872 Z0.1687
G01 X1.6640 Y-0.5583 Z0.1626
G01 X1.6313 Y-0.5307 Z0.1570
G01 X1.6018 Y-0.5037 Z0.1518
G01 X1.5750 Y-0.4773 Z0.1469
G01 X1.5511 Y-0.4518 Z0.1424
G01 X1.5299 Y-0.4274 Z0.1381
G01 X1.5118 Y-0.4048 Z0.1343
G01 X1.4936 Y-0.3801 Z0.1303
G01 X1.4780 Y-0.3570 Z0.1267
G01 X1.4648 Y-0.3356 Z0.1235
G01 X1.4522 Y-0.3135 Z0.1201
G01 X1.4408 Y-0.2911 Z0.1168
G01 X1.4309 Y-0.2698 Z0.1138
G01 X1.4220 Y-0.2483 Z0.1107
G01 X1.4136 Y-0.2254 Z0.1076
G01 X1.4067 Y-0.2042 Z0.1047
G01 X1.4001 Y-0.1807 Z0.1015
G01 X1.3948 Y-0.1589 Z0.0986
G01 X1.3894 Y-0.1318 Z0.0950
G01 X1.3856 Y-0.1084 Z0.0919
G01 X1.3825 Y-0.0835 Z0.0886
G01 X1.3801 Y-0.0561 Z0.0850
G01 X1.3786 Y-0.0277 Z0.0813
G01 X1.3781 Y0.0000 Z0.0787
G01 X1.3781 Y0.0000 Z0.0787 F20
G01 X1.3781 Y0.0000 Z0.0787 F50
G01 X1.3786 Y0.0277 Z0.0787
G01 X1.3801 Y0.0561 Z0.0787
G01 X1.3823 Y0.0821 Z0.0787
G01 X1.3856 Y0.1084 Z0.0787
G01 X1.3894 Y0.1317 Z0.0787
G01 X1.3947 Y0.1585 Z0.0787
G01 X1.4001 Y0.1807 Z0.0787
G01 X1.4067 Y0.2042 Z0.0787
G01 X1.4136 Y0.2254 Z0.0787
G01 X1.4220 Y0.2483 Z0.0787
G01 X1.4309 Y0.2698 Z0.0787
G01 X1.4407 Y0.2909 Z0.0787
G01 X1.4522 Y0.3135 Z0.0787
G01 X1.4648 Y0.3356 Z0.0787
G01 X1.4780 Y0.3570 Z0.0787
G01 X1.4936 Y0.3801 Z0.0787
G01 X1.5118 Y0.4048 Z0.0787
G01 X1.5299 Y0.4274 Z0.0787
G01 X1.5511 Y0.4518 Z0.0787
G01 X1.5750 Y0.4773 Z0.0787
G01 X1.6018 Y0.5037 Z0.0787
G01 X1.6313 Y0.5307 Z0.0787
G01 X1.6640 Y0.5583 Z0.0787
G01 X1.7007 Y0.5871 Z0.0787
G01 X1.7389 Y0.6150 Z0.0787
G01 X1.7839 Y0.6455 Z0.0787
G01 X1.8311 Y0.6751 Z0.0787
G01 X1.8819 Y0.7047 Z0.0787
G01 X1.9390 Y0.7355 Z0.0787
G01 X2.0007 Y0.7663 Z0.0787
G01 X2.0650 Y0.7960 Z0.0787
G01 X2.1375 Y0.8269 Z0.0787
G01 X2.2101 Y0.8554 Z0.0787
G01 X2.2928 Y0.8853 Z0.0787
G01 X2.3784 Y0.9135 Z0.0787
G01 X2.4698 Y0.9411 Z0.0787
G01 X2.5659 Y0.9675 Z0.0787
G01 X2.6681 Y0.9929 Z0.0787
G01 X2.7739 Y1.0166 Z0.0787
G01 X2.8884 Y1.0394 Z0.0787
G01 X3.0073 Y1.0604 Z0.0787
G01 X3.1283 Y1.0792 Z0.0787
G01 X3.2624 Y1.0972 Z0.0787
G01 X3.3953 Y1.1124 Z0.0787
G01 X3.5358 Y1.1257 Z0.0787
G01 X3.5827 Y1.1292 Z0.0787
G01 X3.6861 Y1.1371 Z0.0787
G01 X3.8369 Y1.1458 Z0.0788
G01 X3.9592 Y1.1508 Z0.0789
G01 X3.9953 Y1.1523 Z0.0790
G01 X4.1602 Y1.1562 Z0.0794
G01 X4.3090 Y1.1574 Z0.0797
G01 X4.3286 Y1.1566 Z0.0797
G01 X4.6911 Y1.1422 Z0.0811
G01 X4.9092 Y1.1335 Z0.0822
G01 X4.9104 Y1.1335 Z0.0822
G01 X5.0471 Y1.1281 Z0.0829
G01 X5.3971 Y1.1144 Z0.0852
G01 X5.5438 Y1.1087 Z0.0863
G01 X5.5450 Y1.1087 Z0.0863
G01 X5.7413 Y1.1011 Z0.0879
G01 X6.0802 Y1.0881 Z0.0911
G01 X6.1784 Y1.0844 Z0.0921
G01 X6.1794 Y1.0843 Z0.0921
G01 X6.4142 Y1.0755 Z0.0946
G01 X6.7437 Y1.0631 Z0.0985
G01 X6.8129 Y1.0605 Z0.0994
G01 X6.8140 Y1.0604 Z0.0994
G01 X7.0689 Y1.0510 Z0.1028
G01 X7.3903 Y1.0391 Z0.1075
G01 X7.4475 Y1.0370 Z0.1083
G01 X7.4485 Y1.0370 Z0.1083
G01 X7.7083 Y1.0275 Z0.1124
G01 X8.0233 Y1.0161 Z0.1176
G01 X8.0820 Y1.0140 Z0.1187
G01 X8.0831 Y1.0140 Z0.1187
G01 X8.3356 Y1.0050 Z0.1231
G01 X8.6456 Y0.9940 Z0.1288
G01 X8.7166 Y0.9915 Z0.1302
G01 X8.7176 Y0.9915 Z0.1302
G01 X8.9537 Y0.9833 Z0.1348
G01 X9.2603 Y0.9726 Z0.1409
G01 X9.3512 Y0.9694 Z0.1428
G01 X9.3523 Y0.9694 Z0.1429
G01 X9.5658 Y0.9621 Z0.1473
G01 X9.8705 Y0.9517 Z0.1538
G01 X9.9859 Y0.9478 Z0.1563
G01 X9.9869 Y0.9478 Z0.1563
G01 X10.1748 Y0.9415 Z0.1604
G01 X10.4791 Y0.9313 Z0.1672
G01 X10.6204 Y0.9266 Z0.1703
G01 X10.6215 Y0.9266 Z0.1703
G01 X10.7838 Y0.9213 Z0.1740
G01 X11.0892 Y0.9113 Z0.1809
G01 X11.2551 Y0.9059 Z0.1846
G01 X11.2561 Y0.9059 Z0.1847
G01 X11.3959 Y0.9014 Z0.1879
G01 X11.7040 Y0.8916 Z0.1948
G01 X11.8896 Y0.8857 Z0.1990
G01 X11.8922 Y0.8856 Z0.1990
G01 X12.0140 Y0.8818 Z0.2017
G01 X12.3263 Y0.8720 Z0.2087
G01 X12.5244 Y0.8659 Z0.2131
G01 X12.5255 Y0.8659 Z0.2131
G01 X12.6412 Y0.8624 Z0.2156
G01 X12.9592 Y0.8526 Z0.2224
G01 X13.1591 Y0.8466 Z0.2266
G01 X13.1602 Y0.8465 Z0.2266
G01 X13.2807 Y0.8429 Z0.2292
G01 X13.6059 Y0.8332 Z0.2358
G01 X13.7938 Y0.8277 Z0.2395
G01 X13.7950 Y0.8276 Z0.2395
G01 X13.9353 Y0.8235 Z0.2423
G01 X14.2693 Y0.8138 Z0.2486
G01 X14.4286 Y0.8092 Z0.2515
G01 X14.4296 Y0.8092 Z0.2516
G01 X14.6082 Y0.8041 Z0.2548
G01 X14.9525 Y0.7944 Z0.2607
G01 X15.0633 Y0.7912 Z0.2626
G01 X15.0643 Y0.7912 Z0.2626
G01 X15.3024 Y0.7846 Z0.2665
G01 X15.6585 Y0.7748 Z0.2720
G01 X15.6980 Y0.7737 Z0.2725
G01 X15.6991 Y0.7737 Z0.2725
G01 X16.0210 Y0.7650 Z0.2772
G01 X16.3328 Y0.7566 Z0.2814
G01 X16.3338 Y0.7566 Z0.2814
G01 X16.3903 Y0.7551 Z0.2821
G01 X16.7669 Y0.7452 Z0.2868
G01 X16.9675 Y0.7400 Z0.2890
G01 X16.9686 Y0.7400 Z0.2890
G01 X17.1511 Y0.7353 Z0.2911
G01 X17.5433 Y0.7253 Z0.2950
G01 X17.6023 Y0.7238 Z0.2955
G01 X17.6035 Y0.7238 Z0.2955
G01 X17.9438 Y0.7154 Z0.2986
G01 X18.2372 Y0.7081 Z0.3008
G01 X18.2382 Y0.7081 Z0.3008
G01 X18.3531 Y0.7053 Z0.3017
G01 X18.7715 Y0.6953 Z0.3044
G01 X18.8719 Y0.6929 Z0.3050
G01 X18.8730 Y0.6928 Z0.3050
G01 X19.1994 Y0.6852 Z0.3067
G01 X19.5068 Y0.6781 Z0.3080
G01 X19.5078 Y0.6781 Z0.3080
G01 X19.6372 Y0.6751 Z0.3085
G01 X20.0853 Y0.6650 Z0.3098
G01 X20.1416 Y0.6637 Z0.3100
G01 X20.1426 Y0.6637 Z0.3100
G01 X20.5440 Y0.6549 Z0.3107
G01 X20.7764 Y0.6498 Z0.3108
G01 X20.7776 Y0.6498 Z0.3108
G01 X21.0138 Y0.6448 Z0.3110
G01 X21.4113 Y0.6364 Z0.3110
G01 X21.4122 Y0.6364 Z0.3110
G01 X22.0460 Y0.6234 Z0.3110
G01 X22.0472 Y0.6233 Z0.3110
G01 X22.6809 Y0.6108 Z0.3110
G01 X22.6820 Y0.6108 Z0.3110
G01 X23.3159 Y0.5988 Z0.3110
G01 X23.3169 Y0.5987 Z0.3110
G01 X23.9506 Y0.5871 Z0.3110
G01 X23.9549 Y0.5871 Z0.3110
G01 X24.5856 Y0.5760 Z0.3110
G01 X24.5866 Y0.5760 Z0.3110
G01 X25.2205 Y0.5653 Z0.3110
G01 X25.2216 Y0.5653 Z0.3110
G01 X25.8554 Y0.5550 Z0.3110
G01 X25.8565 Y0.5550 Z0.3110
G01 X26.4904 Y0.5453 Z0.3110
G01 X26.4913 Y0.5452 Z0.3110
G01 X27.1251 Y0.5359 Z0.3110
G01 X27.1263 Y0.5359 Z0.3110
G01 X27.7602 Y0.5270 Z0.3110
G01 X27.7612 Y0.5270 Z0.3110
G01 X28.3951 Y0.5185 Z0.3110
G01 X28.3961 Y0.5185 Z0.3110
G01 X29.0300 Y0.5105 Z0.3110
G01 X29.0311 Y0.5105 Z0.3110
G01 X29.6650 Y0.5030 Z0.3110
G01 X29.6661 Y0.5030 Z0.3110
G01 X30.3000 Y0.4959 Z0.3110
G01 X30.3010 Y0.4959 Z0.3110
G01 X30.9349 Y0.4893 Z0.3110
G01 X30.9359 Y0.4893 Z0.3110
G01 X31.5698 Y0.4831 Z0.3110
G01 X31.5709 Y0.4831 Z0.3110
G01 X32.2048 Y0.4774 Z0.3110
G01 X32.2059 Y0.4774 Z0.3110
G01 X32.8398 Y0.4722 Z0.3110
G01 X32.8408 Y0.4722 Z0.3110
G01 X33.4747 Y0.4674 Z0.3110
G01 X33.4758 Y0.4674 Z0.3110
G01 X34.1097 Y0.4630 Z0.3110
G01 X34.1107 Y0.4630 Z0.3110
G01 X34.7446 Y0.4591 Z0.3110
G01 X34.7457 Y0.4591 Z0.3110
G01 X35.3796 Y0.4557 Z0.3110
G01 X35.3807 Y0.4557 Z0.3110
G01 X36.0146 Y0.4527 Z0.3110
G01 X36.0157 Y0.4527 Z0.3110
G01 X36.6496 Y0.4501 Z0.3110
G01 X36.6506 Y0.4501 Z0.3110
G01 X37.2846 Y0.4481 Z0.3110
G01 X37.2857 Y0.4481 Z0.3110
G01 X37.9196 Y0.4464 Z0.3110
G01 X37.9206 Y0.4464 Z0.3110
G01 X38.5545 Y0.4453 Z0.3110
G01 X38.5557 Y0.4453 Z0.3110
G01 X39.1896 Y0.4446 Z0.3110
G01 X39.1905 Y0.4446 Z0.3110
G01 X39.8244 Y0.4443 Z0.3110
G01 X39.8255 Y0.4443 Z0.3110
G01 X40.4594 Y0.4445 Z0.3110
G01 X40.4605 Y0.4445 Z0.3110
G01 X41.0944 Y0.4451 Z0.3110
G01 X41.0955 Y0.4451 Z0.3110
G01 X41.7294 Y0.4462 Z0.3110
G01 X41.7305 Y0.4462 Z0.3110
G01 X42.3644 Y0.4478 Z0.3110
G01 X42.3654 Y0.4478 Z0.3110
G01 X42.9993 Y0.4498 Z0.3110
G01 X43.0003 Y0.4498 Z0.3110
G01 X43.6342 Y0.4522 Z0.3110
G01 X43.6355 Y0.4522 Z0.3110
G01 X44.2694 Y0.4552 Z0.3110
G01 X44.2703 Y0.4552 Z0.3110
G01 X44.9042 Y0.4586 Z0.3110
G01 X44.9053 Y0.4586 Z0.3110
G01 X45.5392 Y0.4624 Z0.3110
G01 X45.5403 Y0.4624 Z0.3110
G01 X46.1743 Y0.4667 Z0.3110
G01 X46.1753 Y0.4667 Z0.3110
G01 X46.8092 Y0.4714 Z0.3110
G01 X46.8103 Y0.4714 Z0.3110
G01 X47.4442 Y0.4766 Z0.3110
G01 X47.4452 Y0.4766 Z0.3110
G01 X48.0791 Y0.4822 Z0.3110
G01 X48.0802 Y0.4823 Z0.3110
G01 X48.7141 Y0.4884 Z0.3110
G01 X48.7151 Y0.4884 Z0.3110
G01 X49.3490 Y0.4949 Z0.3110
G01 X49.3501 Y0.4949 Z0.3110
G01 X49.9840 Y0.5019 Z0.3110
G01 X49.9850 Y0.5020 Z0.3110
G01 X50.6189 Y0.5094 Z0.3110
G01 X50.6200 Y0.5094 Z0.3110
G01 X51.2539 Y0.5173 Z0.3110
G01 X51.2549 Y0.5173 Z0.3110
G01 X51.8887 Y0.5257 Z0.3110
G01 X51.8899 Y0.5257 Z0.3110
G01 X52.5237 Y0.5345 Z0.3110
G01 X52.5248 Y0.5345 Z0.3110
G01 X52.9350 Y0.5405 Z0.3110
G01 X53.1587 Y0.5438 Z0.3108
G01 X53.1596 Y0.5438 Z0.3108
G01 X53.2582 Y0.5453 Z0.3107
G01 X53.5814 Y0.5502 Z0.3098
G01 X53.7935 Y0.5535 Z0.3090
G01 X53.7947 Y0.5535 Z0.3090
G01 X53.9046 Y0.5553 Z0.3085
G01 X54.2277 Y0.5605 Z0.3067
G01 X54.4285 Y0.5637 Z0.3053
G01 X54.4295 Y0.5637 Z0.3053
G01 X54.5506 Y0.5657 Z0.3044
G01 X54.8735 Y0.5711 Z0.3017
G01 X55.0633 Y0.5744 Z0.2998
G01 X55.0644 Y0.5744 Z0.2998
G01 X55.1961 Y0.5767 Z0.2985
G01 X55.5185 Y0.5823 Z0.2950
G01 X55.6982 Y0.5855 Z0.2928
G01 X55.6993 Y0.5855 Z0.2928
G01 X55.8407 Y0.5880 Z0.2911
G01 X56.1625 Y0.5939 Z0.2868
G01 X56.3327 Y0.5970 Z0.2843
G01 X56.3343 Y0.5970 Z0.2843
G01 X56.4841 Y0.5998 Z0.2821
G01 X56.8054 Y0.6059 Z0.2772
G01 X56.9680 Y0.6090 Z0.2746
G01 X56.9690 Y0.6090 Z0.2746
G01 X57.1263 Y0.6121 Z0.2720
G01 X57.4468 Y0.6184 Z0.2665
G01 X57.6029 Y0.6214 Z0.2637
G01 X57.6040 Y0.6215 Z0.2637
G01 X57.7668 Y0.6248 Z0.2608
G01 X58.0864 Y0.6313 Z0.2548
G01 X58.2377 Y0.6344 Z0.2519
G01 X58.2388 Y0.6344 Z0.2519
G01 X58.4056 Y0.6379 Z0.2486
G01 X58.7242 Y0.6446 Z0.2423
G01 X58.8725 Y0.6477 Z0.2393
G01 X58.8736 Y0.6478 Z0.2392
G01 X59.0422 Y0.6514 Z0.2358
G01 X59.3597 Y0.6583 Z0.2292
G01 X59.5073 Y0.6616 Z0.2260
G01 X59.5085 Y0.6616 Z0.2260
G01 X59.6766 Y0.6654 Z0.2224
G01 X59.9928 Y0.6725 Z0.2156
G01 X60.1423 Y0.6759 Z0.2124
G01 X60.1432 Y0.6759 Z0.2123
G01 X60.3084 Y0.6797 Z0.2087
G01 X60.6233 Y0.6870 Z0.2017
G01 X60.7769 Y0.6906 Z0.1983
G01 X60.7781 Y0.6906 Z0.1983
G01 X60.9374 Y0.6944 Z0.1948
G01 X61.2508 Y0.7019 Z0.1878
G01 X61.4119 Y0.7058 Z0.1842
G01 X61.4128 Y0.7058 Z0.1842
G01 X61.5633 Y0.7095 Z0.1809
G01 X61.8751 Y0.7172 Z0.1740
G01 X62.0466 Y0.7214 Z0.1702
G01 X62.0477 Y0.7214 Z0.1702
G01 X62.1860 Y0.7250 Z0.1672
G01 X62.4961 Y0.7328 Z0.1604
G01 X62.6815 Y0.7375 Z0.1564
G01 X62.6824 Y0.7376 Z0.1564
G01 X62.8051 Y0.7408 Z0.1538
G01 X63.1133 Y0.7488 Z0.1473
G01 X63.3161 Y0.7541 Z0.1431
G01 X63.3174 Y0.7541 Z0.1431
G01 X63.4205 Y0.7569 Z0.1410
G01 X63.7267 Y0.7651 Z0.1348
G01 X63.9510 Y0.7711 Z0.1304
G01 X63.9520 Y0.7711 Z0.1304
G01 X64.0319 Y0.7733 Z0.1288
G01 X64.3360 Y0.7817 Z0.1231
G01 X64.5857 Y0.7886 Z0.1186
G01 X64.5867 Y0.7886 Z0.1185
G01 X64.6390 Y0.7901 Z0.1176
G01 X64.9409 Y0.7986 Z0.1124
G01 X65.2203 Y0.8065 Z0.1078
G01 X65.2215 Y0.8065 Z0.1078
G01 X65.2416 Y0.8071 Z0.1075
G01 X65.5411 Y0.8157 Z0.1028
G01 X65.8394 Y0.8244 Z0.0985
G01 X65.8551 Y0.8249 Z0.0983
G01 X65.8562 Y0.8249 Z0.0983
G01 X66.1365 Y0.8332 Z0.0946
G01 X66.4323 Y0.8420 Z0.0911
G01 X66.4898 Y0.8437 Z0.0904
G01 X66.4909 Y0.8437 Z0.0904
G01 X66.7268 Y0.8509 Z0.0879
G01 X67.0199 Y0.8598 Z0.0851
G01 X67.1246 Y0.8630 Z0.0844
G01 X67.1257 Y0.8630 Z0.0843
G01 X67.3117 Y0.8688 Z0.0829
G01 X67.6020 Y0.8778 Z0.0811
G01 X67.7350 Y0.8820 Z0.0805
G01 X67.8206 Y0.8816 Z0.0801
G01 X67.8910 Y0.8808 Z0.0797
G01 X67.9204 Y0.8805 Z0.0796
G01 X68.0170 Y0.8787 Z0.0794
G01 X68.1101 Y0.8762 Z0.0791
G01 X68.1785 Y0.8739 Z0.0789
G01 X68.2002 Y0.8731 Z0.0789
G01 X68.2914 Y0.8692 Z0.0788
G01 X68.3660 Y0.8653 Z0.0788
G01 X68.4525 Y0.8600 Z0.0787
G01 X68.4645 Y0.8591 Z0.0787
G01 X68.5284 Y0.8546 Z0.0787
G01 X68.6017 Y0.8487 Z0.0787
G01 X68.6735 Y0.8421 Z0.0787
G01 X68.7378 Y0.8355 Z0.0787
G01 X68.8027 Y0.8281 Z0.0787
G01 X68.8610 Y0.8209 Z0.0787
G01 X68.8975 Y0.8158 Z0.0787
G01 X68.8975 Y-0.8158 Z0.0787
G01 X68.8608 Y-0.8209 Z0.0787
G01 X68.8027 Y-0.8281 Z0.0787
G01 X68.7378 Y-0.8355 Z0.0787
G01 X68.6735 Y-0.8421 Z0.0787
G01 X68.6017 Y-0.8487 Z0.0787
G01 X68.5284 Y-0.8546 Z0.0787
G01 X68.4645 Y-0.8591 Z0.0787
G01 X68.4525 Y-0.8600 Z0.0787
G01 X68.3660 Y-0.8653 Z0.0788
G01 X68.2914 Y-0.8692 Z0.0788
G01 X68.2002 Y-0.8731 Z0.0789
G01 X68.1785 Y-0.8739 Z0.0789
G01 X68.1101 Y-0.8762 Z0.0791
G01 X68.0170 Y-0.8787 Z0.0794
G01 X67.9204 Y-0.8805 Z0.0796
G01 X67.8910 Y-0.8808 Z0.0797
G01 X67.8206 Y-0.8816 Z0.0801
G01 X67.7350 Y-0.8820 Z0.0805
G01 X67.6020 Y-0.8778 Z0.0811
G01 X67.3117 Y-0.8687 Z0.0829
G01 X67.1257 Y-0.8630 Z0.0843
G01 X67.1246 Y-0.8630 Z0.0844
G01 X67.0199 Y-0.8598 Z0.0851
G01 X66.7268 Y-0.8509 Z0.0879
G01 X66.4909 Y-0.8437 Z0.0904
G01 X66.4898 Y-0.8437 Z0.0904
G01 X66.4323 Y-0.8420 Z0.0911
G01 X66.1365 Y-0.8332 Z0.0946
G01 X65.8562 Y-0.8249 Z0.0983
G01 X65.8551 Y-0.8249 Z0.0983
G01 X65.8394 Y-0.8244 Z0.0985
G01 X65.5411 Y-0.8157 Z0.1028
G01 X65.2416 Y-0.8071 Z0.1075
G01 X65.2215 Y-0.8065 Z0.1078
G01 X65.2203 Y-0.8065 Z0.1078
G01 X64.9409 Y-0.7986 Z0.1124
G01 X64.6390 Y-0.7901 Z0.1176
G01 X64.5867 Y-0.7886 Z0.1185
G01 X64.5857 Y-0.7886 Z0.1186
G01 X64.3360 Y-0.7817 Z0.1231
G01 X64.0319 Y-0.7733 Z0.1288
G01 X63.9520 Y-0.7711 Z0.1304
G01 X63.9510 Y-0.7711 Z0.1304
G01 X63.7267 Y-0.7651 Z0.1348
G01 X63.4205 Y-0.7569 Z0.1410
G01 X63.3174 Y-0.7541 Z0.1431
G01 X63.3161 Y-0.7541 Z0.1431
G01 X63.1133 Y-0.7488 Z0.1473
G01 X62.8051 Y-0.7407 Z0.1538
G01 X62.6824 Y-0.7376 Z0.1564
G01 X62.6815 Y-0.7375 Z0.1564
G01 X62.4961 Y-0.7328 Z0.1604
G01 X62.1860 Y-0.7250 Z0.1672
G01 X62.0477 Y-0.7214 Z0.1702
G01 X62.0466 Y-0.7214 Z0.1702
G01 X61.8751 Y-0.7172 Z0.1740
G01 X61.5633 Y-0.7095 Z0.1809
G01 X61.4128 Y-0.7058 Z0.1842
G01 X61.4119 Y-0.7058 Z0.1842
G01 X61.2508 Y-0.7019 Z0.1878
G01 X60.9374 Y-0.6944 Z0.1948
G01 X60.7781 Y-0.6906 Z0.1983
G01 X60.7769 Y-0.6906 Z0.1983
G01 X60.6233 Y-0.6870 Z0.2017
G01 X60.3084 Y-0.6797 Z0.2087
G01 X60.1432 Y-0.6759 Z0.2123
G01 X60.1423 Y-0.6759 Z0.2124
G01 X59.9928 Y-0.6725 Z0.2156
G01 X59.6766 Y-0.6654 Z0.2224
G01 X59.5085 Y-0.6616 Z0.2260
G01 X59.5073 Y-0.6616 Z0.2260
G01 X59.3597 Y-0.6583 Z0.2292
G01 X59.0422 Y-0.6514 Z0.2358
G01 X58.8736 Y-0.6478 Z0.2392
G01 X58.8725 Y-0.6477 Z0.2393
G01 X58.7242 Y-0.6446 Z0.2423
G01 X58.4056 Y-0.6379 Z0.2486
G01 X58.2388 Y-0.6344 Z0.2519
G01 X58.2377 Y-0.6344 Z0.2519
G01 X58.0864 Y-0.6313 Z0.2548
G01 X57.7668 Y-0.6248 Z0.2608
G01 X57.6040 Y-0.6215 Z0.2637
G01 X57.6029 Y-0.6214 Z0.2637
G01 X57.4468 Y-0.6184 Z0.2665
G01 X57.1263 Y-0.6121 Z0.2720
G01 X56.9690 Y-0.6090 Z0.2746
G01 X56.9680 Y-0.6090 Z0.2746
G01 X56.8054 Y-0.6059 Z0.2772
G01 X56.4841 Y-0.5998 Z0.2821
G01 X56.3343 Y-0.5970 Z0.2843
G01 X56.3327 Y-0.5970 Z0.2843
G01 X56.1625 Y-0.5939 Z0.2868
G01 X55.8407 Y-0.5880 Z0.2911
G01 X55.6993 Y-0.5855 Z0.2928
G01 X55.6982 Y-0.5855 Z0.2928
G01 X55.5185 Y-0.5823 Z0.2950
G01 X55.1961 Y-0.5767 Z0.2985
G01 X55.0644 Y-0.5744 Z0.2998
G01 X55.0633 Y-0.5744 Z0.2998
G01 X54.8735 Y-0.5712 Z0.3017
G01 X54.5506 Y-0.5657 Z0.3044
G01 X54.4295 Y-0.5637 Z0.3053
G01 X54.4285 Y-0.5637 Z0.3053
G01 X54.2277 Y-0.5605 Z0.3067
G01 X53.9046 Y-0.5553 Z0.3085
G01 X53.7947 Y-0.5535 Z0.3090
G01 X53.7935 Y-0.5535 Z0.3090
G01 X53.5814 Y-0.5502 Z0.3098
G01 X53.2582 Y-0.5453 Z0.3107
G01 X53.1596 Y-0.5438 Z0.3108
G01 X53.1587 Y-0.5438 Z0.3108
G01 X52.9350 Y-0.5405 Z0.3110
G01 X52.5248 Y-0.5345 Z0.3110
G01 X52.5237 Y-0.5345 Z0.3110
G01 X51.8899 Y-0.5257 Z0.3110
G01 X51.8887 Y-0.5257 Z0.3110
G01 X51.2549 Y-0.5173 Z0.3110
G01 X51.2539 Y-0.5173 Z0.3110
G01 X50.6200 Y-0.5094 Z0.3110
G01 X50.6189 Y-0.5094 Z0.3110
G01 X49.9850 Y-0.5020 Z0.3110
G01 X49.9840 Y-0.5019 Z0.3110
G01 X49.3501 Y-0.4949 Z0.3110
G01 X49.3490 Y-0.4949 Z0.3110
G01 X48.7151 Y-0.4884 Z0.3110
G01 X48.7141 Y-0.4884 Z0.3110
G01 X48.0802 Y-0.4823 Z0.3110
G01 X48.0791 Y-0.4822 Z0.3110
G01 X47.4452 Y-0.4766 Z0.3110
G01 X47.4442 Y-0.4766 Z0.3110
G01 X46.8103 Y-0.4714 Z0.3110
G01 X46.8092 Y-0.4714 Z0.3110
G01 X46.1753 Y-0.4667 Z0.3110
G01 X46.1743 Y-0.4667 Z0.3110
G01 X45.5403 Y-0.4624 Z0.3110
G01 X45.5392 Y-0.4624 Z0.3110
G01 X44.9053 Y-0.4586 Z0.3110
G01 X44.9042 Y-0.4586 Z0.3110
G01 X44.2703 Y-0.4552 Z0.3110
G01 X44.2694 Y-0.4552 Z0.3110
G01 X43.6355 Y-0.4522 Z0.3110
G01 X43.6342 Y-0.4522 Z0.3110
G01 X43.0003 Y-0.4498 Z0.3110
G01 X42.9993 Y-0.4498 Z0.3110
G01 X42.3654 Y-0.4478 Z0.3110
G01 X42.3644 Y-0.4478 Z0.3110
G01 X41.7305 Y-0.4462 Z0.3110
G01 X41.7294 Y-0.4462 Z0.3110
G01 X41.0955 Y-0.4451 Z0.3110
G01 X41.0944 Y-0.4451 Z0.3110
G01 X40.4605 Y-0.4445 Z0.3110
G01 X40.4594 Y-0.4445 Z0.3110
G01 X39.8255 Y-0.4443 Z0.3110
G01 X39.8244 Y-0.4443 Z0.3110
G01 X39.1905 Y-0.4446 Z0.3110
G01 X39.1896 Y-0.4446 Z0.3110
G01 X38.5557 Y-0.4453 Z0.3110
G01 X38.5545 Y-0.4453 Z0.3110
G01 X37.9206 Y-0.4464 Z0.3110
G01 X37.9196 Y-0.4464 Z0.3110
G01 X37.2857 Y-0.4481 Z0.3110
G01 X37.2846 Y-0.4481 Z0.3110
G01 X36.6506 Y-0.4501 Z0.3110
G01 X36.6496 Y-0.4501 Z0.3110
G01 X36.0157 Y-0.4527 Z0.3110
G01 X36.0146 Y-0.4527 Z0.3110
G01 X35.3807 Y-0.4557 Z0.3110
G01 X35.3796 Y-0.4557 Z0.3110
G01 X34.7457 Y-0.4591 Z0.3110
G01 X34.7446 Y-0.4591 Z0.3110
G01 X34.1107 Y-0.4630 Z0.3110
G01 X34.1097 Y-0.4630 Z0.3110
G01 X33.4758 Y-0.4674 Z0.3110
G01 X33.4747 Y-0.4674 Z0.3110
G01 X32.8408 Y-0.4722 Z0.3110
G01 X32.8398 Y-0.4722 Z0.3110
G01 X32.2059 Y-0.4774 Z0.3110
G01 X32.2048 Y-0.4774 Z0.3110
G01 X31.5709 Y-0.4831 Z0.3110
G01 X31.5698 Y-0.4831 Z0.3110
G01 X30.9359 Y-0.4893 Z0.3110
G01 X30.9349 Y-0.4893 Z0.3110
G01 X30.3010 Y-0.4959 Z0.3110
G01 X30.3000 Y-0.4959 Z0.3110
G01 X29.6661 Y-0.5030 Z0.3110
G01 X29.6650 Y-0.5030 Z0.3110
G01 X29.0311 Y-0.5105 Z0.3110
G01 X29.0300 Y-0.5105 Z0.3110
G01 X28.3961 Y-0.5185 Z0.3110
G01 X28.3951 Y-0.5185 Z0.3110
G01 X27.7612 Y-0.5270 Z0.3110
G01 X27.7602 Y-0.5270 Z0.3110
G01 X27.1263 Y-0.5359 Z0.3110
G01 X27.1251 Y-0.5359 Z0.3110
G01 X26.4913 Y-0.5452 Z0.3110
G01 X26.4904 Y-0.5453 Z0.3110
G01 X25.8565 Y-0.5550 Z0.3110
G01 X25.8554 Y-0.5550 Z0.3110
G01 X25.2216 Y-0.5653 Z0.3110
G01 X25.2205 Y-0.5653 Z0.3110
G01 X24.5866 Y-0.5760 Z0.3110
G01 X24.5856 Y-0.5760 Z0.3110
G01 X23.9549 Y-0.5871 Z0.3110
G01 X23.9506 Y-0.5871 Z0.3110
G01 X23.3169 Y-0.5987 Z0.3110
G01 X23.3159 Y-0.5988 Z0.3110
G01 X22.6820 Y-0.6108 Z0.3110
G01 X22.6809 Y-0.6108 Z0.3110
G01 X22.0472 Y-0.6233 Z0.3110
G01 X22.0460 Y-0.6234 Z0.3110
G01 X21.4122 Y-0.6364 Z0.3110
G01 X21.4113 Y-0.6364 Z0.3110
G01 X21.0138 Y-0.6448 Z0.3110
G01 X20.7776 Y-0.6498 Z0.3108
G01 X20.7764 Y-0.6498 Z0.3108
G01 X20.5440 Y-0.6549 Z0.3107
G01 X20.1426 Y-0.6637 Z0.3100
G01 X20.1416 Y-0.6637 Z0.3100
G01 X20.0853 Y-0.6650 Z0.3098
G01 X19.6372 Y-0.6751 Z0.3085
G01 X19.5078 Y-0.6781 Z0.3080
G01 X19.5068 Y-0.6781 Z0.3080
G01 X19.1994 Y-0.6852 Z0.3067
G01 X18.8730 Y-0.6928 Z0.3050
G01 X18.8719 Y-0.6929 Z0.3050
G01 X18.7715 Y-0.6953 Z0.3044
G01 X18.3531 Y-0.7053 Z0.3017
G01 X18.2382 Y-0.7081 Z0.3008
G01 X18.2372 Y-0.7081 Z0.3008
G01 X17.9438 Y-0.7154 Z0.2986
G01 X17.6035 Y-0.7238 Z0.2955
G01 X17.6023 Y-0.7238 Z0.2955
G01 X17.5433 Y-0.7253 Z0.2950
G01 X17.1511 Y-0.7353 Z0.2911
G01 X16.9686 Y-0.7400 Z0.2890
G01 X16.9675 Y-0.7400 Z0.2890
G01 X16.7669 Y-0.7452 Z0.2868
G01 X16.3903 Y-0.7551 Z0.2821
G01 X16.3338 Y-0.7566 Z0.2814
G01 X16.3328 Y-0.7566 Z0.2814
G01 X16.0210 Y-0.7650 Z0.2772
G01 X15.6991 Y-0.7737 Z0.2725
G01 X15.6980 Y-0.7737 Z0.2725
G01 X15.6585 Y-0.7748 Z0.2720
G01 X15.3024 Y-0.7846 Z0.2665
G01 X15.0643 Y-0.7912 Z0.2626
G01 X15.0633 Y-0.7912 Z0.2626
G01 X14.9525 Y-0.7944 Z0.2607
G01 X14.6082 Y-0.8041 Z0.2548
G01 X14.4296 Y-0.8092 Z0.2516
G01 X14.4286 Y-0.8092 Z0.2515
G01 X14.2693 Y-0.8138 Z0.2486
G01 X13.9353 Y-0.8235 Z0.2423
G01 X13.7950 Y-0.8276 Z0.2395
G01 X13.7938 Y-0.8277 Z0.2395
G01 X13.6059 Y-0.8333 Z0.2358
G01 X13.2807 Y-0.8429 Z0.2292
G01 X13.1602 Y-0.8465 Z0.2266
G01 X13.1591 Y-0.8466 Z0.2266
G01 X12.9592 Y-0.8526 Z0.2224
G01 X12.6412 Y-0.8624 Z0.2156
G01 X12.5255 Y-0.8659 Z0.2131
G01 X12.5244 Y-0.8659 Z0.2131
G01 X12.3263 Y-0.8721 Z0.2087
G01 X12.0140 Y-0.8818 Z0.2017
G01 X11.8922 Y-0.8856 Z0.1990
G01 X11.8896 Y-0.8857 Z0.1990
G01 X11.7040 Y-0.8916 Z0.1948
G01 X11.3959 Y-0.9014 Z0.1879
G01 X11.2561 Y-0.9059 Z0.1847
G01 X11.2551 Y-0.9059 Z0.1846
G01 X11.0892 Y-0.9113 Z0.1809
G01 X10.7838 Y-0.9213 Z0.1740
G01 X10.6215 Y-0.9266 Z0.1703
G01 X10.6204 Y-0.9266 Z0.1703
G01 X10.4791 Y-0.9313 Z0.1672
G01 X10.1748 Y-0.9415 Z0.1604
G01 X9.9869 Y-0.9478 Z0.1563
G01 X9.9859 Y-0.9478 Z0.1563
G01 X9.8705 Y-0.9517 Z0.1538
G01 X9.5658 Y-0.9621 Z0.1473
G01 X9.3523 Y-0.9694 Z0.1429
G01 X9.3512 Y-0.9694 Z0.1428
G01 X9.2603 Y-0.9726 Z0.1409
G01 X8.9537 Y-0.9833 Z0.1348
G01 X8.7176 Y-0.9915 Z0.1302
G01 X8.7166 Y-0.9915 Z0.1302
G01 X8.6456 Y-0.9940 Z0.1288
G01 X8.3356 Y-1.0050 Z0.1231
G01 X8.0831 Y-1.0140 Z0.1187
G01 X8.0820 Y-1.0140 Z0.1187
G01 X8.0233 Y-1.0162 Z0.1176
G01 X7.7083 Y-1.0275 Z0.1124
G01 X7.4485 Y-1.0370 Z0.1083
G01 X7.4475 Y-1.0370 Z0.1083
G01 X7.3903 Y-1.0391 Z0.1075
G01 X7.0689 Y-1.0510 Z0.1028
G01 X6.8140 Y-1.0604 Z0.0994
G01 X6.8129 Y-1.0605 Z0.0994
G01 X6.7437 Y-1.0631 Z0.0985
G01 X6.4142 Y-1.0755 Z0.0946
G01 X6.1794 Y-1.0843 Z0.0921
G01 X6.1784 Y-1.0844 Z0.0921
G01 X6.0802 Y-1.0881 Z0.0911
G01 X5.7413 Y-1.1011 Z0.0879
G01 X5.5450 Y-1.1087 Z0.0863
G01 X5.5438 Y-1.1087 Z0.0863
G01 X5.3971 Y-1.1144 Z0.0852
G01 X5.0471 Y-1.1281 Z0.0829
G01 X4.9104 Y-1.1335 Z0.0822
G01 X4.9092 Y-1.1335 Z0.0822
G01 X4.6911 Y-1.1422 Z0.0811
G01 X4.3286 Y-1.1566 Z0.0797
G01 X4.3090 Y-1.1574 Z0.0797
G01 X4.1602 Y-1.1562 Z0.0794
G01 X3.9953 Y-1.1523 Z0.0790
G01 X3.9592 Y-1.1508 Z0.0789
G01 X3.8369 Y-1.1458 Z0.0788
G01 X3.6861 Y-1.1371 Z0.0787
G01 X3.5827 Y-1.1292 Z0.0787
G01 X3.5358 Y-1.1257 Z0.0787
G01 X3.3953 Y-1.1124 Z0.0787
G01 X3.2624 Y-1.0972 Z0.0787
G01 X3.1283 Y-1.0792 Z0.0787
G01 X3.0075 Y-1.0605 Z0.0787
G01 X2.8884 Y-1.0394 Z0.0787
G01 X2.7739 Y-1.0166 Z0.0787
G01 X2.6681 Y-0.9929 Z0.0787
G01 X2.5659 Y-0.9675 Z0.0787
G01 X2.4698 Y-0.9411 Z0.0787
G01 X2.3784 Y-0.9135 Z0.0787
G01 X2.2931 Y-0.8854 Z0.0787
G01 X2.2101 Y-0.8554 Z0.0787
G01 X2.1375 Y-0.8269 Z0.0787
G01 X2.0650 Y-0.7960 Z0.0787
G01 X2.0007 Y-0.7664 Z0.0787
G01 X1.9390 Y-0.7355 Z0.0787
G01 X1.8819 Y-0.7047 Z0.0787
G01 X1.8311 Y-0.6751 Z0.0787
G01 X1.7839 Y-0.6455 Z0.0787
G01 X1.7389 Y-0.6150 Z0.0787
G01 X1.7007 Y-0.5872 Z0.0787
G01 X1.6640 Y-0.5583 Z0.0787
G01 X1.6313 Y-0.5307 Z0.0787
G01 X1.6018 Y-0.5037 Z0.0787
G01 X1.5750 Y-0.4773 Z0.0787
G01 X1.5511 Y-0.4518 Z0.0787
G01 X1.5299 Y-0.4274 Z0.0787
G01 X1.5118 Y-0.4048 Z0.0787
G01 X1.4936 Y-0.3801 Z0.0787
G01 X1.4780 Y-0.3570 Z0.0787
G01 X1.4648 Y-0.3356 Z0.0787
G01 X1.4522 Y-0.3135 Z0.0787
G01 X1.4408 Y-0.2911 Z0.0787
G01 X1.4309 Y-0.2698 Z0.0787
G01 X1.4220 Y-0.2483 Z0.0787
G01 X1.4136 Y-0.2254 Z0.0787
G01 X1.4067 Y-0.2042 Z0.0787
G01 X1.4001 Y-0.1807 Z0.0787
G01 X1.3948 Y-0.1589 Z0.0787
G01 X1.3894 Y-0.1318 Z0.0787
G01 X1.3856 Y-0.1084 Z0.0787
G01 X1.3825 Y-0.0835 Z0.0787
G01 X1.3801 Y-0.0561 Z0.0787
G01 X1.3786 Y-0.0277 Z0.0787
G01 X1.3781 Y0.0000 Z0.0787
G01 X0.6300 Y0.0000 Z0.0787 F20
G01 X0.6300 Y0.0000 Z0.0787 F50
G01 X0.6309 Y0.0531 Z0.0787
G01 X0.6338 Y0.1096 Z0.0787
G01 X0.6383 Y0.1602 Z0.0787
G01 X0.6451 Y0.2152 Z0.0787
G01 X0.6533 Y0.2655 Z0.0787
G01 X0.6638 Y0.3182 Z0.0787
G01 X0.6762 Y0.3697 Z0.0787
G01 X0.6906 Y0.4208 Z0.0787
G01 X0.7068 Y0.4707 Z0.0787
G01 X0.7254 Y0.5212 Z0.0787
G01 X0.7458 Y0.5703 Z0.0787
G01 X0.7687 Y0.6197 Z0.0787
G01 X0.7931 Y0.6674 Z0.0787
G01 X0.8207 Y0.7162 Z0.0787
G01 X0.8502 Y0.7640 Z0.0787
G01 X0.8827 Y0.8119 Z0.0787
G01 X0.9177 Y0.8596 Z0.0787
G01 X0.9551 Y0.9062 Z0.0787
G01 X0.9962 Y0.9537 Z0.0787
G01 X1.0395 Y0.9997 Z0.0787
G01 X1.0872 Y1.0467 Z0.0787
G01 X1.1372 Y1.0924 Z0.0787
G01 X1.1906 Y1.1376 Z0.0787
G01 X1.2486 Y1.1832 Z0.0787
G01 X1.3087 Y1.2271 Z0.0787
G01 X1.3754 Y1.2722 Z0.0787
G01 X1.4435 Y1.3150 Z0.0787
G01 X1.5171 Y1.3578 Z0.0787
G01 X1.5941 Y1.3994 Z0.0787
G01 X1.6762 Y1.4404 Z0.0787
G01 X1.7624 Y1.4802 Z0.0787
G01 X1.8530 Y1.5188 Z0.0787
G01 X1.9473 Y1.5558 Z0.0787
G01 X2.0485 Y1.5923 Z0.0787
G01 X2.1522 Y1.6266 Z0.0787
G01 X2.2622 Y1.6598 Z0.0787
G01 X2.3772 Y1.6914 Z0.0787
G01 X2.4964 Y1.7210 Z0.0787
G01 X2.6201 Y1.7487 Z0.0787
G01 X2.7480 Y1.7742 Z0.0787
G01 X2.8848 Y1.7983 Z0.0787
G01 X3.0236 Y1.8199 Z0.0787
G01 X3.1683 Y1.8393 Z0.0787
G01 X3.3199 Y1.8566 Z0.0787
G01 X3.4722 Y1.8710 Z0.0787
G01 X3.5827 Y1.8794 Z0.0787
G01 X3.6346 Y1.8833 Z0.0787
G01 X3.8017 Y1.8930 Z0.0788
G01 X3.9592 Y1.8994 Z0.0789
G01 X3.9683 Y1.8998 Z0.0789
G01 X4.1511 Y1.9042 Z0.0793
G01 X4.3205 Y1.9055 Z0.0797
G01 X4.3286 Y1.9052 Z0.0797
G01 X4.6911 Y1.8907 Z0.0811
G01 X4.9390 Y1.8809 Z0.0824
G01 X4.9396 Y1.8809 Z0.0824
G01 X5.0471 Y1.8767 Z0.0829
G01 X5.3971 Y1.8630 Z0.0852
G01 X5.5731 Y1.8561 Z0.0866
G01 X5.5736 Y1.8561 Z0.0866
G01 X5.7413 Y1.8496 Z0.0879
G01 X6.0802 Y1.8366 Z0.0911
G01 X6.2070 Y1.8318 Z0.0924
G01 X6.2075 Y1.8318 Z0.0924
G01 X6.4142 Y1.8240 Z0.0946
G01 X6.7437 Y1.8116 Z0.0985
G01 X6.8411 Y1.8079 Z0.0998
G01 X6.8416 Y1.8079 Z0.0998
G01 X7.0689 Y1.7995 Z0.1028
G01 X7.3903 Y1.7876 Z0.1075
G01 X7.4751 Y1.7845 Z0.1088
G01 X7.4756 Y1.7845 Z0.1088
G01 X7.7083 Y1.7760 Z0.1124
G01 X8.0233 Y1.7646 Z0.1176
G01 X8.1091 Y1.7615 Z0.1191
G01 X8.1096 Y1.7615 Z0.1191
G01 X8.3356 Y1.7535 Z0.1231
G01 X8.6456 Y1.7425 Z0.1288
G01 X8.7431 Y1.7390 Z0.1307
G01 X8.7437 Y1.7390 Z0.1307
G01 X8.9537 Y1.7317 Z0.1348
G01 X9.2603 Y1.7210 Z0.1409
G01 X9.3772 Y1.7170 Z0.1434
G01 X9.3777 Y1.7170 Z0.1434
G01 X9.5658 Y1.7105 Z0.1473
G01 X9.8705 Y1.7001 Z0.1538
G01 X10.0113 Y1.6954 Z0.1568
G01 X10.0118 Y1.6954 Z0.1569
G01 X10.1748 Y1.6899 Z0.1604
G01 X10.4791 Y1.6798 Z0.1672
G01 X10.6453 Y1.6742 Z0.1709
G01 X10.6459 Y1.6742 Z0.1709
G01 X10.7838 Y1.6697 Z0.1740
G01 X11.0892 Y1.6597 Z0.1809
G01 X11.2795 Y1.6535 Z0.1852
G01 X11.2800 Y1.6535 Z0.1852
G01 X11.3959 Y1.6498 Z0.1879
G01 X11.7040 Y1.6400 Z0.1948
G01 X11.9135 Y1.6333 Z0.1995
G01 X11.9150 Y1.6333 Z0.1995
G01 X12.0140 Y1.6301 Z0.2017
G01 X12.3263 Y1.6204 Z0.2087
G01 X12.5478 Y1.6135 Z0.2136
G01 X12.5483 Y1.6135 Z0.2136
G01 X12.6412 Y1.6107 Z0.2156
G01 X12.9592 Y1.6010 Z0.2224
G01 X13.1819 Y1.5942 Z0.2271
G01 X13.1825 Y1.5942 Z0.2271
G01 X13.2807 Y1.5912 Z0.2292
G01 X13.6059 Y1.5815 Z0.2358
G01 X13.8161 Y1.5753 Z0.2400
G01 X13.8166 Y1.5753 Z0.2400
G01 X13.9353 Y1.5718 Z0.2423
G01 X14.2693 Y1.5622 Z0.2486
G01 X14.4503 Y1.5569 Z0.2519
G01 X14.4508 Y1.5569 Z0.2520
G01 X14.6082 Y1.5524 Z0.2548
G01 X14.9525 Y1.5427 Z0.2607
G01 X15.0845 Y1.5390 Z0.2629
G01 X15.0850 Y1.5389 Z0.2629
G01 X15.3024 Y1.5329 Z0.2665
G01 X15.6585 Y1.5231 Z0.2720
G01 X15.7187 Y1.5214 Z0.2729
G01 X15.7192 Y1.5214 Z0.2729
G01 X16.0210 Y1.5133 Z0.2772
G01 X16.3529 Y1.5044 Z0.2816
G01 X16.3534 Y1.5044 Z0.2816
G01 X16.3903 Y1.5034 Z0.2821
G01 X16.7669 Y1.4935 Z0.2868
G01 X16.9871 Y1.4877 Z0.2892
G01 X16.9877 Y1.4877 Z0.2892
G01 X17.1511 Y1.4835 Z0.2911
G01 X17.5433 Y1.4735 Z0.2950
G01 X17.6214 Y1.4716 Z0.2957
G01 X17.6219 Y1.4716 Z0.2957
G01 X17.9438 Y1.4636 Z0.2986
G01 X18.2556 Y1.4559 Z0.3009
G01 X18.2561 Y1.4559 Z0.3010
G01 X18.3531 Y1.4535 Z0.3017
G01 X18.7715 Y1.4435 Z0.3044
G01 X18.8899 Y1.4406 Z0.3051
G01 X18.8905 Y1.4406 Z0.3051
G01 X19.1994 Y1.4334 Z0.3067
G01 X19.5242 Y1.4259 Z0.3081
G01 X19.5247 Y1.4259 Z0.3081
G01 X19.6372 Y1.4233 Z0.3085
G01 X20.0853 Y1.4131 Z0.3098
G01 X20.1585 Y1.4115 Z0.3100
G01 X20.1590 Y1.4115 Z0.3100
G01 X20.5440 Y1.4031 Z0.3107
G01 X20.7927 Y1.3976 Z0.3108
G01 X20.7934 Y1.3976 Z0.3108
G01 X21.0138 Y1.3929 Z0.3110
G01 X21.4271 Y1.3842 Z0.3110
G01 X21.4276 Y1.3842 Z0.3110
G01 X22.0614 Y1.3712 Z0.3110
G01 X22.0619 Y1.3712 Z0.3110
G01 X22.6957 Y1.3587 Z0.3110
G01 X22.6962 Y1.3587 Z0.3110
G01 X23.3301 Y1.3466 Z0.3110
G01 X23.3306 Y1.3466 Z0.3110
G01 X23.9643 Y1.3350 Z0.3110
G01 X23.9679 Y1.3350 Z0.3110
G01 X24.5988 Y1.3239 Z0.3110
G01 X24.5993 Y1.3239 Z0.3110
G01 X25.2331 Y1.3132 Z0.3110
G01 X25.2337 Y1.3131 Z0.3110
G01 X25.8675 Y1.3029 Z0.3110
G01 X25.8680 Y1.3029 Z0.3110
G01 X26.5019 Y1.2931 Z0.3110
G01 X26.5024 Y1.2931 Z0.3110
G01 X27.1362 Y1.2838 Z0.3110
G01 X27.1368 Y1.2838 Z0.3110
G01 X27.7707 Y1.2749 Z0.3110
G01 X27.7712 Y1.2749 Z0.3110
G01 X28.4051 Y1.2665 Z0.3110
G01 X28.4055 Y1.2665 Z0.3110
G01 X29.0394 Y1.2585 Z0.3110
G01 X29.0400 Y1.2585 Z0.3110
G01 X29.6738 Y1.2509 Z0.3110
G01 X29.6744 Y1.2509 Z0.3110
G01 X30.3083 Y1.2439 Z0.3110
G01 X30.3088 Y1.2439 Z0.3110
G01 X30.9427 Y1.2373 Z0.3110
G01 X30.9432 Y1.2373 Z0.3110
G01 X31.5771 Y1.2311 Z0.3110
G01 X31.5776 Y1.2311 Z0.3110
G01 X32.2115 Y1.2254 Z0.3110
G01 X32.2120 Y1.2254 Z0.3110
G01 X32.8459 Y1.2201 Z0.3110
G01 X32.8464 Y1.2201 Z0.3110
G01 X33.4804 Y1.2153 Z0.3110
G01 X33.4809 Y1.2153 Z0.3110
G01 X34.1148 Y1.2110 Z0.3110
G01 X34.1153 Y1.2110 Z0.3110
G01 X34.7492 Y1.2071 Z0.3110
G01 X34.7498 Y1.2071 Z0.3110
G01 X35.3837 Y1.2037 Z0.3110
G01 X35.3842 Y1.2037 Z0.3110
G01 X36.0181 Y1.2007 Z0.3110
G01 X36.0187 Y1.2007 Z0.3110
G01 X36.6525 Y1.1981 Z0.3110
G01 X36.6531 Y1.1981 Z0.3110
G01 X37.2870 Y1.1961 Z0.3110
G01 X37.2876 Y1.1961 Z0.3110
G01 X37.9215 Y1.1944 Z0.3110
G01 X37.9220 Y1.1944 Z0.3110
G01 X38.5559 Y1.1933 Z0.3110
G01 X38.5565 Y1.1933 Z0.3110
G01 X39.1904 Y1.1925 Z0.3110
G01 X39.1909 Y1.1925 Z0.3110
G01 X39.8248 Y1.1923 Z0.3110
G01 X39.8253 Y1.1923 Z0.3110
G01 X40.4592 Y1.1925 Z0.3110
G01 X40.4597 Y1.1925 Z0.3110
G01 X41.0936 Y1.1931 Z0.3110
G01 X41.0942 Y1.1931 Z0.3110
G01 X41.7281 Y1.1942 Z0.3110
G01 X41.7287 Y1.1942 Z0.3110
G01 X42.3625 Y1.1958 Z0.3110
G01 X42.3631 Y1.1958 Z0.3110
G01 X42.9970 Y1.1978 Z0.3110
G01 X42.9975 Y1.1978 Z0.3110
G01 X43.6314 Y1.2002 Z0.3110
G01 X43.6320 Y1.2002 Z0.3110
G01 X44.2659 Y1.2032 Z0.3110
G01 X44.2664 Y1.2032 Z0.3110
G01 X44.9003 Y1.2065 Z0.3110
G01 X44.9008 Y1.2065 Z0.3110
G01 X45.5347 Y1.2103 Z0.3110
G01 X45.5353 Y1.2103 Z0.3110
G01 X46.1692 Y1.2146 Z0.3110
G01 X46.1698 Y1.2147 Z0.3110
G01 X46.8036 Y1.2194 Z0.3110
G01 X46.8042 Y1.2194 Z0.3110
G01 X47.4381 Y1.2246 Z0.3110
G01 X47.4386 Y1.2246 Z0.3110
G01 X48.0725 Y1.2302 Z0.3110
G01 X48.0730 Y1.2302 Z0.3110
G01 X48.7069 Y1.2363 Z0.3110
G01 X48.7074 Y1.2363 Z0.3110
G01 X49.3413 Y1.2429 Z0.3110
G01 X49.3418 Y1.2429 Z0.3110
G01 X49.9757 Y1.2499 Z0.3110
G01 X49.9762 Y1.2499 Z0.3110
G01 X50.6101 Y1.2573 Z0.3110
G01 X50.6107 Y1.2573 Z0.3110
G01 X51.2446 Y1.2652 Z0.3110
G01 X51.2451 Y1.2653 Z0.3110
G01 X51.8789 Y1.2736 Z0.3110
G01 X51.8794 Y1.2736 Z0.3110
G01 X52.5133 Y1.2824 Z0.3110
G01 X52.5138 Y1.2824 Z0.3110
G01 X52.9350 Y1.2886 Z0.3110
G01 X53.1477 Y1.2917 Z0.3108
G01 X53.1482 Y1.2917 Z0.3108
G01 X53.2582 Y1.2934 Z0.3107
G01 X53.5814 Y1.2983 Z0.3098
G01 X53.7820 Y1.3014 Z0.3090
G01 X53.7827 Y1.3014 Z0.3090
G01 X53.9046 Y1.3033 Z0.3085
G01 X54.2277 Y1.3085 Z0.3067
G01 X54.4165 Y1.3116 Z0.3054
G01 X54.4170 Y1.3116 Z0.3053
G01 X54.5506 Y1.3138 Z0.3044
G01 X54.8735 Y1.3193 Z0.3017
G01 X55.0508 Y1.3223 Z0.3000
G01 X55.0513 Y1.3223 Z0.3000
G01 X55.1961 Y1.3248 Z0.2985
G01 X55.5185 Y1.3304 Z0.2950
G01 X55.6851 Y1.3333 Z0.2930
G01 X55.6857 Y1.3333 Z0.2930
G01 X55.8407 Y1.3361 Z0.2911
G01 X56.1625 Y1.3420 Z0.2868
G01 X56.3167 Y1.3448 Z0.2846
G01 X56.3201 Y1.3448 Z0.2845
G01 X56.4841 Y1.3479 Z0.2821
G01 X56.8054 Y1.3540 Z0.2772
G01 X56.9538 Y1.3568 Z0.2748
G01 X56.9544 Y1.3569 Z0.2748
G01 X57.1263 Y1.3602 Z0.2720
G01 X57.4468 Y1.3665 Z0.2665
G01 X57.5882 Y1.3693 Z0.2640
G01 X57.5887 Y1.3693 Z0.2640
G01 X57.7668 Y1.3729 Z0.2608
G01 X58.0864 Y1.3794 Z0.2548
G01 X58.2225 Y1.3822 Z0.2522
G01 X58.2230 Y1.3822 Z0.2522
G01 X58.4056 Y1.3861 Z0.2486
G01 X58.7242 Y1.3927 Z0.2423
G01 X58.8568 Y1.3956 Z0.2396
G01 X58.8573 Y1.3956 Z0.2396
G01 X59.0422 Y1.3996 Z0.2358
G01 X59.3597 Y1.4065 Z0.2292
G01 X59.4911 Y1.4094 Z0.2264
G01 X59.4916 Y1.4094 Z0.2264
G01 X59.6766 Y1.4135 Z0.2224
G01 X59.9928 Y1.4207 Z0.2156
G01 X60.1254 Y1.4237 Z0.2127
G01 X60.1259 Y1.4237 Z0.2127
G01 X60.3084 Y1.4279 Z0.2087
G01 X60.6233 Y1.4352 Z0.2017
G01 X60.7596 Y1.4384 Z0.1987
G01 X60.7602 Y1.4384 Z0.1987
G01 X60.9374 Y1.4426 Z0.1948
G01 X61.2508 Y1.4501 Z0.1878
G01 X61.3939 Y1.4536 Z0.1846
G01 X61.3944 Y1.4536 Z0.1846
G01 X61.5633 Y1.4577 Z0.1809
G01 X61.8751 Y1.4654 Z0.1740
G01 X62.0281 Y1.4692 Z0.1706
G01 X62.0288 Y1.4692 Z0.1706
G01 X62.1860 Y1.4732 Z0.1672
G01 X62.4961 Y1.4811 Z0.1604
G01 X62.6625 Y1.4853 Z0.1568
G01 X62.8051 Y1.4890 Z0.1538
G01 X63.1133 Y1.4970 Z0.1473
G01 X63.2966 Y1.5018 Z0.1435
G01 X63.2973 Y1.5018 Z0.1435
G01 X63.4205 Y1.5051 Z0.1410
G01 X63.7267 Y1.5133 Z0.1348
G01 X63.9309 Y1.5188 Z0.1308
G01 X63.9314 Y1.5188 Z0.1308
G01 X64.0319 Y1.5216 Z0.1288
G01 X64.3360 Y1.5300 Z0.1231
G01 X64.5651 Y1.5363 Z0.1189
G01 X64.5657 Y1.5363 Z0.1189
G01 X64.6390 Y1.5384 Z0.1176
G01 X64.9409 Y1.5469 Z0.1124
G01 X65.1993 Y1.5542 Z0.1081
G01 X65.1998 Y1.5542 Z0.1081
G01 X65.2416 Y1.5554 Z0.1075
G01 X65.5411 Y1.5640 Z0.1028
G01 X65.8335 Y1.5725 Z0.0986
G01 X65.8340 Y1.5725 Z0.0986
G01 X65.8394 Y1.5727 Z0.0985
G01 X66.1365 Y1.5815 Z0.0946
G01 X66.4323 Y1.5903 Z0.0911
G01 X66.4677 Y1.5913 Z0.0907
G01 X66.4682 Y1.5914 Z0.0907
G01 X66.7268 Y1.5992 Z0.0879
G01 X67.0199 Y1.6081 Z0.0851
G01 X67.1018 Y1.6106 Z0.0845
G01 X67.1024 Y1.6106 Z0.0845
G01 X67.3117 Y1.6171 Z0.0829
G01 X67.6020 Y1.6261 Z0.0811
G01 X67.7247 Y1.6300 Z0.0805
G01 X67.8262 Y1.6296 Z0.0800
G01 X67.8910 Y1.6289 Z0.0797
G01 X67.9283 Y1.6285 Z0.0796
G01 X67.9289 Y1.6285 Z0.0796
G01 X68.0365 Y1.6264 Z0.0793
G01 X68.0382 Y1.6264 Z0.0793
G01 X68.1327 Y1.6239 Z0.0790
G01 X68.1785 Y1.6223 Z0.0789
G01 X68.2287 Y1.6206 Z0.0788
G01 X68.2297 Y1.6205 Z0.0788
G01 X68.3235 Y1.6165 Z0.0788
G01 X68.4121 Y1.6119 Z0.0787
G01 X68.4645 Y1.6087 Z0.0787
G01 X68.4990 Y1.6066 Z0.0787
G01 X68.5829 Y1.6006 Z0.0787
G01 X68.6656 Y1.5939 Z0.0787
G01 X68.7468 Y1.5865 Z0.0787
G01 X68.7474 Y1.5864 Z0.0787
G01 X68.8175 Y1.5793 Z0.0787
G01 X68.8909 Y1.5709 Z0.0787
G01 X68.9588 Y1.5624 Z0.0787
G01 X68.9603 Y1.5622 Z0.0787
G01 X68.9609 Y1.5622 Z0.0787
G01 X69.0226 Y1.5537 Z0.0787
G01 X69.0892 Y1.5436 Z0.0787
G01 X69.1491 Y1.5337 Z0.0787
G01 X69.2056 Y1.5236 Z0.0787
G01 X69.2585 Y1.5133 Z0.0787
G01 X69.3134 Y1.5016 Z0.0787
G01 X69.3586 Y1.4913 Z0.0787
G01 X69.4044 Y1.4800 Z0.0787
G01 X69.4454 Y1.4691 Z0.0787
G01 X69.4872 Y1.4571 Z0.0787
G01 X69.5241 Y1.4457 Z0.0787
G01 X69.5557 Y1.4351 Z0.0787
G01 X69.5875 Y1.4237 Z0.0787
G01 X69.6138 Y1.4135 Z0.0787
G01 X69.6390 Y1.4029 Z0.0787
G01 X69.6455 Y1.4000 Z0.0787
G01 X69.6455 Y-1.4000 Z0.0787
G01 X69.6390 Y-1.4029 Z0.0787
G01 X69.6138 Y-1.4135 Z0.0787
G01 X69.5872 Y-1.4238 Z0.0787
G01 X69.5554 Y-1.4352 Z0.0787
G01 X69.5240 Y-1.4457 Z0.0787
G01 X69.4872 Y-1.4571 Z0.0787
G01 X69.4453 Y-1.4691 Z0.0787
G01 X69.4044 Y-1.4800 Z0.0787
G01 X69.3586 Y-1.4913 Z0.0787
G01 X69.3134 Y-1.5016 Z0.0787
G01 X69.2585 Y-1.5133 Z0.0787
G01 X69.2056 Y-1.5236 Z0.0787
G01 X69.1491 Y-1.5337 Z0.0787
G01 X69.0892 Y-1.5436 Z0.0787
G01 X69.0226 Y-1.5537 Z0.0787
G01 X68.9609 Y-1.5622 Z0.0787
G01 X68.9603 Y-1.5622 Z0.0787
G01 X68.9588 Y-1.5624 Z0.0787
G01 X68.8909 Y-1.5709 Z0.0787
G01 X68.8175 Y-1.5793 Z0.0787
G01 X68.7474 Y-1.5864 Z0.0787
G01 X68.7468 Y-1.5865 Z0.0787
G01 X68.6656 Y-1.5939 Z0.0787
G01 X68.5829 Y-1.6006 Z0.0787
G01 X68.4990 Y-1.6066 Z0.0787
G01 X68.4645 Y-1.6087 Z0.0787
G01 X68.4121 Y-1.6119 Z0.0787
G01 X68.3235 Y-1.6165 Z0.0788
G01 X68.2297 Y-1.6206 Z0.0788
G01 X68.2287 Y-1.6206 Z0.0788
G01 X68.1785 Y-1.6223 Z0.0789
G01 X68.1327 Y-1.6239 Z0.0790
G01 X68.0382 Y-1.6264 Z0.0793
G01 X68.0365 Y-1.6264 Z0.0793
G01 X67.9289 Y-1.6285 Z0.0796
G01 X67.9283 Y-1.6285 Z0.0796
G01 X67.8910 Y-1.6289 Z0.0797
G01 X67.8262 Y-1.6296 Z0.0800
G01 X67.7247 Y-1.6300 Z0.0805
G01 X67.6020 Y-1.6262 Z0.0811
G01 X67.3117 Y-1.6171 Z0.0829
G01 X67.1024 Y-1.6106 Z0.0845
G01 X67.1018 Y-1.6106 Z0.0845
G01 X67.0199 Y-1.6081 Z0.0851
G01 X66.7268 Y-1.5992 Z0.0879
G01 X66.4682 Y-1.5914 Z0.0907
G01 X66.4677 Y-1.5913 Z0.0907
G01 X66.4323 Y-1.5903 Z0.0911
G01 X66.1365 Y-1.5815 Z0.0946
G01 X65.8394 Y-1.5727 Z0.0985
G01 X65.8340 Y-1.5725 Z0.0986
G01 X65.8335 Y-1.5725 Z0.0986
G01 X65.5411 Y-1.5640 Z0.1028
G01 X65.2416 Y-1.5554 Z0.1075
G01 X65.1998 Y-1.5542 Z0.1081
G01 X65.1993 Y-1.5542 Z0.1081
G01 X64.9409 Y-1.5469 Z0.1124
G01 X64.6390 Y-1.5384 Z0.1176
G01 X64.5657 Y-1.5363 Z0.1189
G01 X64.5651 Y-1.5363 Z0.1189
G01 X64.3360 Y-1.5300 Z0.1231
G01 X64.0319 Y-1.5216 Z0.1288
G01 X63.9314 Y-1.5188 Z0.1308
G01 X63.9309 Y-1.5188 Z0.1308
G01 X63.7267 Y-1.5133 Z0.1348
G01 X63.4205 Y-1.5051 Z0.1410
G01 X63.2973 Y-1.5018 Z0.1435
G01 X63.2966 Y-1.5018 Z0.1435
G01 X63.1133 Y-1.4970 Z0.1473
G01 X62.8051 Y-1.4890 Z0.1538
G01 X62.6629 Y-1.4853 Z0.1568
G01 X62.4961 Y-1.4811 Z0.1604
G01 X62.1860 Y-1.4732 Z0.1672
G01 X62.0288 Y-1.4692 Z0.1706
G01 X62.0281 Y-1.4692 Z0.1706
G01 X61.8751 Y-1.4654 Z0.1740
G01 X61.5633 Y-1.4577 Z0.1809
G01 X61.3944 Y-1.4536 Z0.1846
G01 X61.3939 Y-1.4536 Z0.1846
G01 X61.2508 Y-1.4501 Z0.1878
G01 X60.9374 Y-1.4426 Z0.1948
G01 X60.7602 Y-1.4384 Z0.1987
G01 X60.7596 Y-1.4384 Z0.1987
G01 X60.6233 Y-1.4352 Z0.2017
G01 X60.3084 Y-1.4279 Z0.2087
G01 X60.1259 Y-1.4237 Z0.2127
G01 X60.1254 Y-1.4237 Z0.2127
G01 X59.9928 Y-1.4207 Z0.2156
G01 X59.6766 Y-1.4135 Z0.2224
G01 X59.4916 Y-1.4094 Z0.2264
G01 X59.4911 Y-1.4094 Z0.2264
G01 X59.3597 Y-1.4065 Z0.2292
G01 X59.0422 Y-1.3996 Z0.2358
G01 X58.8573 Y-1.3956 Z0.2396
G01 X58.8568 Y-1.3956 Z0.2396
G01 X58.7242 Y-1.3928 Z0.2423
G01 X58.4056 Y-1.3861 Z0.2486
G01 X58.2230 Y-1.3822 Z0.2522
G01 X58.2225 Y-1.3822 Z0.2522
G01 X58.0864 Y-1.3794 Z0.2548
G01 X57.7668 Y-1.3729 Z0.2608
G01 X57.5887 Y-1.3693 Z0.2640
G01 X57.5882 Y-1.3693 Z0.2640
G01 X57.4468 Y-1.3665 Z0.2665
G01 X57.1263 Y-1.3602 Z0.2720
G01 X56.9544 Y-1.3569 Z0.2748
G01 X56.9538 Y-1.3568 Z0.2748
G01 X56.8054 Y-1.3540 Z0.2772
G01 X56.4841 Y-1.3479 Z0.2821
G01 X56.3201 Y-1.3448 Z0.2845
G01 X56.3167 Y-1.3448 Z0.2846
G01 X56.1625 Y-1.3420 Z0.2868
G01 X55.8407 Y-1.3361 Z0.2911
G01 X55.6857 Y-1.3333 Z0.2930
G01 X55.6851 Y-1.3333 Z0.2930
G01 X55.5185 Y-1.3304 Z0.2950
G01 X55.1961 Y-1.3248 Z0.2985
G01 X55.0513 Y-1.3223 Z0.3000
G01 X55.0508 Y-1.3223 Z0.3000
G01 X54.8735 Y-1.3193 Z0.3017
G01 X54.5506 Y-1.3138 Z0.3044
G01 X54.4170 Y-1.3116 Z0.3053
G01 X54.4165 Y-1.3116 Z0.3054
G01 X54.2277 Y-1.3085 Z0.3067
G01 X53.9046 Y-1.3033 Z0.3085
G01 X53.7827 Y-1.3014 Z0.3090
G01 X53.7820 Y-1.3014 Z0.3090
G01 X53.5814 Y-1.2983 Z0.3098
G01 X53.2582 Y-1.2934 Z0.3107
G01 X53.1482 Y-1.2917 Z0.3108
G01 X53.1477 Y-1.2917 Z0.3108
G01 X52.9350 Y-1.2886 Z0.3110
G01 X52.5138 Y-1.2824 Z0.3110
G01 X52.5133 Y-1.2824 Z0.3110
G01 X51.8794 Y-1.2736 Z0.3110
G01 X51.8789 Y-1.2736 Z0.3110
G01 X51.2451 Y-1.2653 Z0.3110
G01 X51.2446 Y-1.2652 Z0.3110
G01 X50.6107 Y-1.2573 Z0.3110
G01 X50.6101 Y-1.2573 Z0.3110
G01 X49.9762 Y-1.2499 Z0.3110
G01 X49.9757 Y-1.2499 Z0.3110
G01 X49.3418 Y-1.2429 Z0.3110
G01 X49.3413 Y-1.2429 Z0.3110
G01 X48.7074 Y-1.2363 Z0.3110
G01 X48.7069 Y-1.2363 Z0.3110
G01 X48.0730 Y-1.2302 Z0.3110
G01 X48.0725 Y-1.2302 Z0.3110
G01 X47.4386 Y-1.2246 Z0.3110
G01 X47.4381 Y-1.2246 Z0.3110
G01 X46.8042 Y-1.2194 Z0.3110
G01 X46.8036 Y-1.2194 Z0.3110
G01 X46.1698 Y-1.2147 Z0.3110
G01 X46.1692 Y-1.2146 Z0.3110
G01 X45.5353 Y-1.2103 Z0.3110
G01 X45.5347 Y-1.2103 Z0.3110
G01 X44.9008 Y-1.2065 Z0.3110
G01 X44.9003 Y-1.2065 Z0.3110
G01 X44.2664 Y-1.2032 Z0.3110
G01 X44.2659 Y-1.2032 Z0.3110
G01 X43.6320 Y-1.2002 Z0.3110
G01 X43.6314 Y-1.2002 Z0.3110
G01 X42.9975 Y-1.1978 Z0.3110
G01 X42.9970 Y-1.1978 Z0.3110
G01 X42.3631 Y-1.1958 Z0.3110
G01 X42.3625 Y-1.1958 Z0.3110
G01 X41.7287 Y-1.1942 Z0.3110
G01 X41.7281 Y-1.1942 Z0.3110
G01 X41.0942 Y-1.1931 Z0.3110
G01 X41.0936 Y-1.1931 Z0.3110
G01 X40.4597 Y-1.1925 Z0.3110
G01 X40.4592 Y-1.1925 Z0.3110
G01 X39.8253 Y-1.1923 Z0.3110
G01 X39.8248 Y-1.1923 Z0.3110
G01 X39.1909 Y-1.1925 Z0.3110
G01 X39.1904 Y-1.1925 Z0.3110
G01 X38.5565 Y-1.1933 Z0.3110
G01 X38.5559 Y-1.1933 Z0.3110
G01 X37.9220 Y-1.1944 Z0.3110
G01 X37.9215 Y-1.1944 Z0.3110
G01 X37.2876 Y-1.1961 Z0.3110
G01 X37.2870 Y-1.1961 Z0.3110
G01 X36.6531 Y-1.1981 Z0.3110
G01 X36.6525 Y-1.1981 Z0.3110
G01 X36.0187 Y-1.2007 Z0.3110
G01 X36.0181 Y-1.2007 Z0.3110
G01 X35.3842 Y-1.2037 Z0.3110
G01 X35.3837 Y-1.2037 Z0.3110
G01 X34.7498 Y-1.2071 Z0.3110
G01 X34.7492 Y-1.2071 Z0.3110
G01 X34.1153 Y-1.2110 Z0.3110
G01 X34.1148 Y-1.2110 Z0.3110
G01 X33.4809 Y-1.2153 Z0.3110
G01 X33.4804 Y-1.2153 Z0.3110
G01 X32.8464 Y-1.2201 Z0.3110
G01 X32.8459 Y-1.2201 Z0.3110
G01 X32.2120 Y-1.2254 Z0.3110
G01 X32.2115 Y-1.2254 Z0.3110
G01 X31.5776 Y-1.2311 Z0.3110
G01 X31.5771 Y-1.2311 Z0.3110
G01 X30.9432 Y-1.2373 Z0.3110
G01 X30.9427 Y-1.2373 Z0.3110
G01 X30.3088 Y-1.2439 Z0.3110
G01 X30.3083 Y-1.2439 Z0.3110
G01 X29.6744 Y-1.2509 Z0.3110
G01 X29.6738 Y-1.2509 Z0.3110
G01 X29.0400 Y-1.2585 Z0.3110
G01 X29.0394 Y-1.2585 Z0.3110
G01 X28.4055 Y-1.2665 Z0.3110
G01 X28.4051 Y-1.2665 Z0.3110
G01 X27.7712 Y-1.2749 Z0.3110
G01 X27.7707 Y-1.2749 Z0.3110
G01 X27.1368 Y-1.2838 Z0.3110
G01 X27.1362 Y-1.2838 Z0.3110
G01 X26.5024 Y-1.2931 Z0.3110
G01 X26.5019 Y-1.2931 Z0.3110
G01 X25.8680 Y-1.3029 Z0.3110
G01 X25.8675 Y-1.3029 Z0.3110
G01 X25.2337 Y-1.3131 Z0.3110
G01 X25.2331 Y-1.3132 Z0.3110
G01 X24.5993 Y-1.3239 Z0.3110
G01 X24.5988 Y-1.3239 Z0.3110
G01 X23.9679 Y-1.3350 Z0.3110
G01 X23.9643 Y-1.3350 Z0.3110
G01 X23.3306 Y-1.3466 Z0.3110
G01 X23.3301 Y-1.3466 Z0.3110
G01 X22.6962 Y-1.3587 Z0.3110
G01 X22.6957 Y-1.3587 Z0.3110
G01 X22.0619 Y-1.3712 Z0.3110
G01 X22.0614 Y-1.3712 Z0.3110
G01 X21.4276 Y-1.3842 Z0.3110
G01 X21.4271 Y-1.3842 Z0.3110
G01 X21.0138 Y-1.3929 Z0.3110
G01 X20.7934 Y-1.3976 Z0.3108
G01 X20.7927 Y-1.3976 Z0.3108
G01 X20.5440 Y-1.4031 Z0.3107
G01 X20.1590 Y-1.4115 Z0.3100
G01 X20.1585 Y-1.4115 Z0.3100
G01 X20.0853 Y-1.4132 Z0.3098
G01 X19.6372 Y-1.4233 Z0.3085
G01 X19.5247 Y-1.4259 Z0.3081
G01 X19.5242 Y-1.4259 Z0.3081
G01 X19.1994 Y-1.4334 Z0.3067
G01 X18.8905 Y-1.4406 Z0.3051
G01 X18.8899 Y-1.4406 Z0.3051
G01 X18.7715 Y-1.4435 Z0.3044
G01 X18.3531 Y-1.4535 Z0.3017
G01 X18.2561 Y-1.4559 Z0.3010
G01 X18.2556 Y-1.4559 Z0.3009
G01 X17.9438 Y-1.4636 Z0.2986
G01 X17.6219 Y-1.4716 Z0.2957
G01 X17.6214 Y-1.4716 Z0.2957
G01 X17.5433 Y-1.4735 Z0.2950
G01 X17.1511 Y-1.4835 Z0.2911
G01 X16.9877 Y-1.4877 Z0.2892
G01 X16.9871 Y-1.4877 Z0.2892
G01 X16.7669 Y-1.4935 Z0.2868
G01 X16.3903 Y-1.5034 Z0.2821
G01 X16.3534 Y-1.5044 Z0.2816
G01 X16.3529 Y-1.5044 Z0.2816
G01 X16.0210 Y-1.5133 Z0.2772
G01 X15.7192 Y-1.5214 Z0.2729
G01 X15.7187 Y-1.5214 Z0.2729
G01 X15.6585 Y-1.5231 Z0.2720
G01 X15.3024 Y-1.5329 Z0.2665
G01 X15.0850 Y-1.5389 Z0.2629
G01 X15.0845 Y-1.5390 Z0.2629
G01 X14.9525 Y-1.5427 Z0.2607
G01 X14.6082 Y-1.5524 Z0.2548
G01 X14.4508 Y-1.5569 Z0.2520
G01 X14.4503 Y-1.5569 Z0.2519
G01 X14.2693 Y-1.5622 Z0.2486
G01 X13.9353 Y-1.5718 Z0.2423
G01 X13.8166 Y-1.5753 Z0.2400
G01 X13.8161 Y-1.5753 Z0.2400
G01 X13.6059 Y-1.5815 Z0.2358
G01 X13.2807 Y-1.5912 Z0.2292
G01 X13.1825 Y-1.5942 Z0.2271
G01 X13.1819 Y-1.5942 Z0.2271
G01 X12.9592 Y-1.6010 Z0.2224
G01 X12.6412 Y-1.6107 Z0.2156
G01 X12.5483 Y-1.6135 Z0.2136
G01 X12.5478 Y-1.6135 Z0.2136
G01 X12.3263 Y-1.6204 Z0.2087
G01 X12.0140 Y-1.6301 Z0.2017
G01 X11.9150 Y-1.6333 Z0.1995
G01 X11.9135 Y-1.6333 Z0.1995
G01 X11.7040 Y-1.6400 Z0.1948
G01 X11.3959 Y-1.6498 Z0.1879
G01 X11.2800 Y-1.6535 Z0.1852
G01 X11.2795 Y-1.6535 Z0.1852
G01 X11.0892 Y-1.6597 Z0.1809
G01 X10.7838 Y-1.6697 Z0.1740
G01 X10.6459 Y-1.6742 Z0.1709
G01 X10.6453 Y-1.6742 Z0.1709
G01 X10.4791 Y-1.6798 Z0.1672
G01 X10.1748 Y-1.6899 Z0.1604
G01 X10.0118 Y-1.6954 Z0.1569
G01 X10.0113 Y-1.6954 Z0.1568
G01 X9.8705 Y-1.7001 Z0.1538
G01 X9.5658 Y-1.7105 Z0.1473
G01 X9.3777 Y-1.7170 Z0.1434
G01 X9.3772 Y-1.7170 Z0.1434
G01 X9.2603 Y-1.7210 Z0.1409
G01 X8.9537 Y-1.7317 Z0.1348
G01 X8.7437 Y-1.7390 Z0.1307
G01 X8.7431 Y-1.7390 Z0.1307
G01 X8.6456 Y-1.7425 Z0.1288
G01 X8.3356 Y-1.7535 Z0.1231
G01 X8.1096 Y-1.7615 Z0.1191
G01 X8.1091 Y-1.7615 Z0.1191
G01 X8.0233 Y-1.7646 Z0.1176
G01 X7.7083 Y-1.7760 Z0.1124
G01 X7.4756 Y-1.7845 Z0.1088
G01 X7.4751 Y-1.7845 Z0.1088
G01 X7.3903 Y-1.7876 Z0.1075
G01 X7.0689 Y-1.7995 Z0.1028
G01 X6.8416 Y-1.8079 Z0.0998
G01 X6.8411 Y-1.8079 Z0.0998
G01 X6.7437 Y-1.8116 Z0.0985
G01 X6.4142 Y-1.8240 Z0.0946
G01 X6.2075 Y-1.8318 Z0.0924
G01 X6.2070 Y-1.8318 Z0.0924
G01 X6.0802 Y-1.8366 Z0.0911
G01 X5.7413 Y-1.8496 Z0.0879
G01 X5.5736 Y-1.8561 Z0.0866
G01 X5.5731 Y-1.8561 Z0.0866
G01 X5.3971 Y-1.8630 Z0.0852
G01 X5.0471 Y-1.8767 Z0.0829
G01 X4.9396 Y-1.8809 Z0.0824
G01 X4.9390 Y-1.8809 Z0.0824
G01 X4.6911 Y-1.8907 Z0.0811
G01 X4.3286 Y-1.9052 Z0.0797
G01 X4.3205 Y-1.9055 Z0.0797
G01 X4.1511 Y-1.9042 Z0.0793
G01 X3.9683 Y-1.8998 Z0.0789
G01 X3.9592 Y-1.8994 Z0.0789
G01 X3.8017 Y-1.8930 Z0.0788
G01 X3.6346 Y-1.8833 Z0.0787
G01 X3.5827 Y-1.8794 Z0.0787
G01 X3.4722 Y-1.8710 Z0.0787
G01 X3.3199 Y-1.8566 Z0.0787
G01 X3.1683 Y-1.8393 Z0.0787
G01 X3.0236 Y-1.8199 Z0.0787
G01 X2.8848 Y-1.7983 Z0.0787
G01 X2.7480 Y-1.7742 Z0.0787
G01 X2.6201 Y-1.7487 Z0.0787
G01 X2.4964 Y-1.7210 Z0.0787
G01 X2.3772 Y-1.6914 Z0.0787
G01 X2.2622 Y-1.6598 Z0.0787
G01 X2.1524 Y-1.6266 Z0.0787
G01 X2.0485 Y-1.5923 Z0.0787
G01 X1.9473 Y-1.5558 Z0.0787
G01 X1.8531 Y-1.5188 Z0.0787
G01 X1.7624 Y-1.4802 Z0.0787
G01 X1.6763 Y-1.4404 Z0.0787
G01 X1.5941 Y-1.3994 Z0.0787
G01 X1.5171 Y-1.3578 Z0.0787
G01 X1.4435 Y-1.3150 Z0.0787
G01 X1.3754 Y-1.2722 Z0.0787
G01 X1.3087 Y-1.2271 Z0.0787
G01 X1.2486 Y-1.1832 Z0.0787
G01 X1.1906 Y-1.1376 Z0.0787
G01 X1.1372 Y-1.0924 Z0.0787
G01 X1.0872 Y-1.0467 Z0.0787
G01 X1.0395 Y-0.9997 Z0.0787
G01 X0.9962 Y-0.9537 Z0.0787
G01 X0.9551 Y-0.9062 Z0.0787
G01 X0.9180 Y-0.8599 Z0.0787
G01 X0.8827 Y-0.8119 Z0.0787
G01 X0.8502 Y-0.7640 Z0.0787
G01 X0.8207 Y-0.7162 Z0.0787
G01 X0.7931 Y-0.6674 Z0.0787
G01 X0.7687 Y-0.6197 Z0.0787
G01 X0.7458 Y-0.5703 Z0.0787
G01 X0.7254 Y-0.5212 Z0.0787
G01 X0.7068 Y-0.4707 Z0.0787
G01 X0.6906 Y-0.4208 Z0.0787
G01 X0.6762 Y-0.3697 Z0.0787
G01 X0.6640 Y-0.3188 Z0.0787
G01 X0.6533 Y-0.2655 Z0.0787
G01 X0.6451 Y-0.2153 Z0.0787
G01 X0.6383 Y-0.1606 Z0.0787
G01 X0.6338 Y-0.1096 Z0.0787
G01 X0.6309 Y-0.0533 Z0.0787
G01 X0.6300 Y0.0000 Z0.0787
M05
G00 X0.6300 Y0.0000 Z0.6000
G00 X0.0000 Y0.0000 Z0.6000
G49
G01 G55 Z0 F20
G00 G55 X0 Y0 Z0
M30
