( Sample-snowboard-core-insert-holes.nc                                        )
( Generated by MonkeyCAM v4.0.3 at 2014-10-11 23:44:03 PDT                     )
(                                                                              )
( This GCode program is provided on an "AS IS" BASIS WITHOUT WARRANTIES OR     )
( CONDITIONS OF ANY KIND, either express or implied. You should inspect this   )
( program very carefully to confirm you understand its operation. YOU ARE      )
( RESPONSIBLE FOR ENSURING THIS PROGRAM WILL NOT DAMAGE YOUR MACHINE OR        )
( MATERIALS.                                                                   )
(                                                                              )
( See http://www.github.com/mikemag/MonkeyCAM for License and documentation.   )
(                                                                              )
( * Rapid height: 0.1000" [0.2540cm]                                           )
( * Tool: T1, Quarter Inch Upcut Spiral, diameter 0.2469" [0.6273cm]           )
( * Height baseline [Z=0.0] is the top of the material.                        )
( * XY origin is the left side of the table, Y is center of the part.          )
( * Requires G54 to be the part work coordinate offsets [WCO]. [0, 0] is the   )
(   center of the nose, with the board extending to positive X. The cutter may )
(   move to negative values of X.                                              )
( * Requires G55 to be the machine WCO, with Z above the rapid height.         )
( * Units are inches                                                           )
( * Center of the board in G54:                                                )
(     X=33.8582 Y=0.0000 Z=0.0000                                              )
( * Cutter bounding box in G54:                                                )
(     X0.0000 Y-1.0388 Z-0.4200 to X47.4955 Y1.0388 Z0.1000                    )

G90 G20 G17 G40 G49
G43 H1 T1
G00 G54 X0 Y0 Z0.1000

M03
G04 P5
G00 X22.0472 Y-0.7874 Z0.1000
( A single insert                                                              )
(   Outer rim diameter = 0.7500"                                               )
(   Outer rim depth    = -0.0450"                                              )
(   Shaft diameter      = 0.3729"                                              )
(   Shaft depth         = -0.4200"                                             )
G01 X22.0472 Y-0.7874 Z0.0000 F70
G91
G01 X0.0000 Y0.2514 Z-0.0450
G02 X0.2514 Y-0.2514 Z0.0000 R0.2514
G02 X-0.2514 Y-0.2514 Z0.0000 R0.2514
G02 X-0.2514 Y0.2514 Z0.0000 R0.2514
G02 X0.2514 Y0.2514 Z0.0000 R0.2514
G01 X0.0000 Y-0.0285 Z-0.0069
G02 X0.2229 Y-0.2229 Z0.0000 R0.2229
G02 X-0.2229 Y-0.2229 Z0.0000 R0.2229
G02 X-0.2229 Y0.2229 Z0.0000 R0.2229
G02 X0.2229 Y0.2229 Z0.0000 R0.2229
G01 X0.0000 Y-0.0261 Z-0.0064
G02 X0.1966 Y-0.1966 Z0.0000 R0.1966
G02 X-0.1966 Y-0.1966 Z0.0000 R0.1966
G02 X-0.1966 Y0.1966 Z0.0000 R0.1966
G02 X0.1966 Y0.1966 Z0.0000 R0.1966
G01 X0.0000 Y-0.0262 Z-0.0058
G02 X0.1703 Y-0.1703 Z0.0000 R0.1703
G02 X-0.1703 Y-0.1703 Z0.0000 R0.1703
G02 X-0.1703 Y0.1703 Z0.0000 R0.1703
G02 X0.1703 Y0.1703 Z0.0000 R0.1703
G01 X0.0000 Y-0.0264 Z-0.0053
G02 X0.1438 Y-0.1438 Z0.0000 R0.1438
G02 X-0.1438 Y-0.1438 Z0.0000 R0.1438
G02 X-0.1438 Y0.1438 Z0.0000 R0.1438
G02 X0.1438 Y0.1438 Z0.0000 R0.1438
G01 X0.0000 Y-0.0264 Z-0.0048
G02 X0.1174 Y-0.1174 Z0.0000 R0.1174
G02 X-0.1174 Y-0.1174 Z0.0000 R0.1174
G02 X-0.1174 Y0.1174 Z0.0000 R0.1174
G02 X0.1174 Y0.1174 Z0.0000 R0.1174
G01 X0.0000 Y-0.0266 Z-0.0043
G02 X0.0907 Y-0.0907 Z0.0000 R0.0907
G02 X-0.0907 Y-0.0907 Z0.0000 R0.0907
G02 X-0.0907 Y0.0907 Z0.0000 R0.0907
G02 X0.0907 Y0.0907 Z0.0000 R0.0907
G01 X0.0000 Y-0.0266 Z-0.0038
G02 X0.0640 Y-0.0640 Z0.0000 R0.0640
G02 X-0.0640 Y-0.0640 Z0.0000 R0.0640
G02 X-0.0640 Y0.0640 Z0.0000 R0.0640
G02 X0.0640 Y0.0640 Z0.0000 R0.0640
G90
G01 X22.0472 Y-0.7874 Z0.0000
( Incremental hole: depth = -0.4200, diameter = 0.3729                         )
G91
G01 X0.0000 Y0.0629 Z0.0000
G01 X0.0000 Y0.0000 Z-0.1400
G02 X0.0629 Y-0.0629 Z0.0000 R0.0629
G02 X-0.0629 Y-0.0629 Z0.0000 R0.0629
G02 X-0.0629 Y0.0629 Z0.0000 R0.0629
G02 X0.0629 Y0.0629 Z0.0000 R0.0629
G01 X0.0000 Y0.0000 Z-0.1400
G02 X0.0629 Y-0.0629 Z0.0000 R0.0629
G02 X-0.0629 Y-0.0629 Z0.0000 R0.0629
G02 X-0.0629 Y0.0629 Z0.0000 R0.0629
G02 X0.0629 Y0.0629 Z0.0000 R0.0629
G01 X0.0000 Y0.0000 Z-0.1400
G02 X0.0629 Y-0.0629 Z0.0000 R0.0629
G02 X-0.0629 Y-0.0629 Z0.0000 R0.0629
G02 X-0.0629 Y0.0629 Z0.0000 R0.0629
G02 X0.0629 Y0.0629 Z0.0000 R0.0629
G02 X0.0629 Y-0.0629 Z0.0000 R0.0629
G02 X-0.0629 Y-0.0629 Z0.0000 R0.0629
G02 X-0.0629 Y0.0629 Z0.0000 R0.0629
G02 X0.0629 Y0.0629 Z0.0000 R0.0629
G02 X0.0629 Y-0.0629 Z0.0000 R0.0629
G02 X-0.0629 Y-0.0629 Z0.0000 R0.0629
G02 X-0.0629 Y0.0629 Z0.0000 R0.0629
G02 X0.0629 Y0.0629 Z0.0000 R0.0629
G02 X0.0629 Y-0.0629 Z0.0000 R0.0629
G02 X-0.0629 Y-0.0629 Z0.0000 R0.0629
G02 X-0.0629 Y0.0629 Z0.0000 R0.0629
G02 X0.0629 Y0.0629 Z0.0000 R0.0629
G01 X0.0000 Y-0.0629 Z0.0000
G90
G01 X22.0472 Y-0.7874 Z0.0000
G91
G01 X0.0000 Y0.2514 Z-0.0450
G02 X0.2514 Y-0.2514 Z0.0000 R0.2514
G02 X-0.2514 Y-0.2514 Z0.0000 R0.2514
G02 X-0.2514 Y0.2514 Z0.0000 R0.2514
G02 X0.2514 Y0.2514 Z0.0000 R0.2514
G01 X0.0000 Y-0.0285 Z-0.0069
G02 X0.2229 Y-0.2229 Z0.0000 R0.2229
G02 X-0.2229 Y-0.2229 Z0.0000 R0.2229
G02 X-0.2229 Y0.2229 Z0.0000 R0.2229
G02 X0.2229 Y0.2229 Z0.0000 R0.2229
G01 X0.0000 Y-0.0261 Z-0.0064
G02 X0.1966 Y-0.1966 Z0.0000 R0.1966
G02 X-0.1966 Y-0.1966 Z0.0000 R0.1966
G02 X-0.1966 Y0.1966 Z0.0000 R0.1966
G02 X0.1966 Y0.1966 Z0.0000 R0.1966
G01 X0.0000 Y-0.0262 Z-0.0058
G02 X0.1703 Y-0.1703 Z0.0000 R0.1703
G02 X-0.1703 Y-0.1703 Z0.0000 R0.1703
G02 X-0.1703 Y0.1703 Z0.0000 R0.1703
G02 X0.1703 Y0.1703 Z0.0000 R0.1703
G01 X0.0000 Y-0.0264 Z-0.0053
G02 X0.1438 Y-0.1438 Z0.0000 R0.1438
G02 X-0.1438 Y-0.1438 Z0.0000 R0.1438
G02 X-0.1438 Y0.1438 Z0.0000 R0.1438
G02 X0.1438 Y0.1438 Z0.0000 R0.1438
G01 X0.0000 Y-0.0264 Z-0.0048
G02 X0.1174 Y-0.1174 Z0.0000 R0.1174
G02 X-0.1174 Y-0.1174 Z0.0000 R0.1174
G02 X-0.1174 Y0.1174 Z0.0000 R0.1174
G02 X0.1174 Y0.1174 Z0.0000 R0.1174
G01 X0.0000 Y-0.0266 Z-0.0043
G02 X0.0907 Y-0.0907 Z0.0000 R0.0907
G02 X-0.0907 Y-0.0907 Z0.0000 R0.0907
G02 X-0.0907 Y0.0907 Z0.0000 R0.0907
G02 X0.0907 Y0.0907 Z0.0000 R0.0907
G01 X0.0000 Y-0.0266 Z-0.0038
G02 X0.0640 Y-0.0640 Z0.0000 R0.0640
G02 X-0.0640 Y-0.0640 Z0.0000 R0.0640
G02 X-0.0640 Y0.0640 Z0.0000 R0.0640
G02 X0.0640 Y0.0640 Z0.0000 R0.0640
G90
G00 X22.0472 Y-0.7233 Z0.1000
G00 X22.0472 Y-0.7874 Z0.1000
G00 X22.0472 Y0.7874 Z0.1000
( A single insert                                                              )
(   Outer rim diameter = 0.7500"                                               )
(   Outer rim depth    = -0.0450"                                              )
(   Shaft diameter      = 0.3729"                                              )
(   Shaft depth         = -0.4200"                                             )
G01 X22.0472 Y0.7874 Z0.0000
G91
G01 X0.0000 Y0.2514 Z-0.0450
G02 X0.2514 Y-0.2514 Z0.0000 R0.2514
G02 X-0.2514 Y-0.2514 Z0.0000 R0.2514
G02 X-0.2514 Y0.2514 Z0.0000 R0.2514
G02 X0.2514 Y0.2514 Z0.0000 R0.2514
G01 X0.0000 Y-0.0285 Z-0.0069
G02 X0.2229 Y-0.2229 Z0.0000 R0.2229
G02 X-0.2229 Y-0.2229 Z0.0000 R0.2229
G02 X-0.2229 Y0.2229 Z0.0000 R0.2229
G02 X0.2229 Y0.2229 Z0.0000 R0.2229
G01 X0.0000 Y-0.0261 Z-0.0064
G02 X0.1966 Y-0.1966 Z0.0000 R0.1966
G02 X-0.1966 Y-0.1966 Z0.0000 R0.1966
G02 X-0.1966 Y0.1966 Z0.0000 R0.1966
G02 X0.1966 Y0.1966 Z0.0000 R0.1966
G01 X0.0000 Y-0.0262 Z-0.0058
G02 X0.1703 Y-0.1703 Z0.0000 R0.1703
G02 X-0.1703 Y-0.1703 Z0.0000 R0.1703
G02 X-0.1703 Y0.1703 Z0.0000 R0.1703
G02 X0.1703 Y0.1703 Z0.0000 R0.1703
G01 X0.0000 Y-0.0264 Z-0.0053
G02 X0.1438 Y-0.1438 Z0.0000 R0.1438
G02 X-0.1438 Y-0.1438 Z0.0000 R0.1438
G02 X-0.1438 Y0.1438 Z0.0000 R0.1438
G02 X0.1438 Y0.1438 Z0.0000 R0.1438
G01 X0.0000 Y-0.0264 Z-0.0048
G02 X0.1174 Y-0.1174 Z0.0000 R0.1174
G02 X-0.1174 Y-0.1174 Z0.0000 R0.1174
G02 X-0.1174 Y0.1174 Z0.0000 R0.1174
G02 X0.1174 Y0.1174 Z0.0000 R0.1174
G01 X0.0000 Y-0.0266 Z-0.0043
G02 X0.0907 Y-0.0907 Z0.0000 R0.0907
G02 X-0.0907 Y-0.0907 Z0.0000 R0.0907
G02 X-0.0907 Y0.0907 Z0.0000 R0.0907
G02 X0.0907 Y0.0907 Z0.0000 R0.0907
G01 X0.0000 Y-0.0266 Z-0.0038
G02 X0.0640 Y-0.0640 Z0.0000 R0.0640
G02 X-0.0640 Y-0.0640 Z0.0000 R0.0640
G02 X-0.0640 Y0.0640 Z0.0000 R0.0640
G02 X0.0640 Y0.0640 Z0.0000 R0.0640
G90
G01 X22.0472 Y0.7874 Z0.0000
( Incremental hole: depth = -0.4200, diameter = 0.3729                         )
G91
G01 X0.0000 Y0.0629 Z0.0000
G01 X0.0000 Y0.0000 Z-0.1400
G02 X0.0629 Y-0.0629 Z0.0000 R0.0629
G02 X-0.0629 Y-0.0629 Z0.0000 R0.0629
G02 X-0.0629 Y0.0629 Z0.0000 R0.0629
G02 X0.0629 Y0.0629 Z0.0000 R0.0629
G01 X0.0000 Y0.0000 Z-0.1400
G02 X0.0629 Y-0.0629 Z0.0000 R0.0629
G02 X-0.0629 Y-0.0629 Z0.0000 R0.0629
G02 X-0.0629 Y0.0629 Z0.0000 R0.0629
G02 X0.0629 Y0.0629 Z0.0000 R0.0629
G01 X0.0000 Y0.0000 Z-0.1400
G02 X0.0629 Y-0.0629 Z0.0000 R0.0629
G02 X-0.0629 Y-0.0629 Z0.0000 R0.0629
G02 X-0.0629 Y0.0629 Z0.0000 R0.0629
G02 X0.0629 Y0.0629 Z0.0000 R0.0629
G02 X0.0629 Y-0.0629 Z0.0000 R0.0629
G02 X-0.0629 Y-0.0629 Z0.0000 R0.0629
G02 X-0.0629 Y0.0629 Z0.0000 R0.0629
G02 X0.0629 Y0.0629 Z0.0000 R0.0629
G02 X0.0629 Y-0.0629 Z0.0000 R0.0629
G02 X-0.0629 Y-0.0629 Z0.0000 R0.0629
G02 X-0.0629 Y0.0629 Z0.0000 R0.0629
G02 X0.0629 Y0.0629 Z0.0000 R0.0629
G02 X0.0629 Y-0.0629 Z0.0000 R0.0629
G02 X-0.0629 Y-0.0629 Z0.0000 R0.0629
G02 X-0.0629 Y0.0629 Z0.0000 R0.0629
G02 X0.0629 Y0.0629 Z0.0000 R0.0629
G01 X0.0000 Y-0.0629 Z0.0000
G90
G01 X22.0472 Y0.7874 Z0.0000
G91
G01 X0.0000 Y0.2514 Z-0.0450
G02 X0.2514 Y-0.2514 Z0.0000 R0.2514
G02 X-0.2514 Y-0.2514 Z0.0000 R0.2514
G02 X-0.2514 Y0.2514 Z0.0000 R0.2514
G02 X0.2514 Y0.2514 Z0.0000 R0.2514
G01 X0.0000 Y-0.0285 Z-0.0069
G02 X0.2229 Y-0.2229 Z0.0000 R0.2229
G02 X-0.2229 Y-0.2229 Z0.0000 R0.2229
G02 X-0.2229 Y0.2229 Z0.0000 R0.2229
G02 X0.2229 Y0.2229 Z0.0000 R0.2229
G01 X0.0000 Y-0.0261 Z-0.0064
G02 X0.1966 Y-0.1966 Z0.0000 R0.1966
G02 X-0.1966 Y-0.1966 Z0.0000 R0.1966
G02 X-0.1966 Y0.1966 Z0.0000 R0.1966
G02 X0.1966 Y0.1966 Z0.0000 R0.1966
G01 X0.0000 Y-0.0262 Z-0.0058
G02 X0.1703 Y-0.1703 Z0.0000 R0.1703
G02 X-0.1703 Y-0.1703 Z0.0000 R0.1703
G02 X-0.1703 Y0.1703 Z0.0000 R0.1703
G02 X0.1703 Y0.1703 Z0.0000 R0.1703
G01 X0.0000 Y-0.0264 Z-0.0053
G02 X0.1438 Y-0.1438 Z0.0000 R0.1438
G02 X-0.1438 Y-0.1438 Z0.0000 R0.1438
G02 X-0.1438 Y0.1438 Z0.0000 R0.1438
G02 X0.1438 Y0.1438 Z0.0000 R0.1438
G01 X0.0000 Y-0.0264 Z-0.0048
G02 X0.1174 Y-0.1174 Z0.0000 R0.1174
G02 X-0.1174 Y-0.1174 Z0.0000 R0.1174
G02 X-0.1174 Y0.1174 Z0.0000 R0.1174
G02 X0.1174 Y0.1174 Z0.0000 R0.1174
G01 X0.0000 Y-0.0266 Z-0.0043
G02 X0.0907 Y-0.0907 Z0.0000 R0.0907
G02 X-0.0907 Y-0.0907 Z0.0000 R0.0907
G02 X-0.0907 Y0.0907 Z0.0000 R0.0907
G02 X0.0907 Y0.0907 Z0.0000 R0.0907
G01 X0.0000 Y-0.0266 Z-0.0038
G02 X0.0640 Y-0.0640 Z0.0000 R0.0640
G02 X-0.0640 Y-0.0640 Z0.0000 R0.0640
G02 X-0.0640 Y0.0640 Z0.0000 R0.0640
G02 X0.0640 Y0.0640 Z0.0000 R0.0640
G90
G00 X22.0472 Y0.8514 Z0.1000
G00 X22.0472 Y0.7874 Z0.1000
G00 X23.6220 Y-0.7874 Z0.1000
( A single insert                                                              )
(   Outer rim diameter = 0.7500"                                               )
(   Outer rim depth    = -0.0450"                                              )
(   Shaft diameter      = 0.3729"                                              )
(   Shaft depth         = -0.4200"                                             )
G01 X23.6220 Y-0.7874 Z0.0000
G91
G01 X0.0000 Y0.2514 Z-0.0450
G02 X0.2514 Y-0.2514 Z0.0000 R0.2514
G02 X-0.2514 Y-0.2514 Z0.0000 R0.2514
G02 X-0.2514 Y0.2514 Z0.0000 R0.2514
G02 X0.2514 Y0.2514 Z0.0000 R0.2514
G01 X0.0000 Y-0.0285 Z-0.0069
G02 X0.2229 Y-0.2229 Z0.0000 R0.2229
G02 X-0.2229 Y-0.2229 Z0.0000 R0.2229
G02 X-0.2229 Y0.2229 Z0.0000 R0.2229
G02 X0.2229 Y0.2229 Z0.0000 R0.2229
G01 X0.0000 Y-0.0261 Z-0.0064
G02 X0.1966 Y-0.1966 Z0.0000 R0.1966
G02 X-0.1966 Y-0.1966 Z0.0000 R0.1966
G02 X-0.1966 Y0.1966 Z0.0000 R0.1966
G02 X0.1966 Y0.1966 Z0.0000 R0.1966
G01 X0.0000 Y-0.0262 Z-0.0058
G02 X0.1703 Y-0.1703 Z0.0000 R0.1703
G02 X-0.1703 Y-0.1703 Z0.0000 R0.1703
G02 X-0.1703 Y0.1703 Z0.0000 R0.1703
G02 X0.1703 Y0.1703 Z0.0000 R0.1703
G01 X0.0000 Y-0.0264 Z-0.0053
G02 X0.1438 Y-0.1438 Z0.0000 R0.1438
G02 X-0.1438 Y-0.1438 Z0.0000 R0.1438
G02 X-0.1438 Y0.1438 Z0.0000 R0.1438
G02 X0.1438 Y0.1438 Z0.0000 R0.1438
G01 X0.0000 Y-0.0264 Z-0.0048
G02 X0.1174 Y-0.1174 Z0.0000 R0.1174
G02 X-0.1174 Y-0.1174 Z0.0000 R0.1174
G02 X-0.1174 Y0.1174 Z0.0000 R0.1174
G02 X0.1174 Y0.1174 Z0.0000 R0.1174
G01 X0.0000 Y-0.0266 Z-0.0043
G02 X0.0907 Y-0.0907 Z0.0000 R0.0907
G02 X-0.0907 Y-0.0907 Z0.0000 R0.0907
G02 X-0.0907 Y0.0907 Z0.0000 R0.0907
G02 X0.0907 Y0.0907 Z0.0000 R0.0907
G01 X0.0000 Y-0.0266 Z-0.0038
G02 X0.0640 Y-0.0640 Z0.0000 R0.0640
G02 X-0.0640 Y-0.0640 Z0.0000 R0.0640
G02 X-0.0640 Y0.0640 Z0.0000 R0.0640
G02 X0.0640 Y0.0640 Z0.0000 R0.0640
G90
G01 X23.6220 Y-0.7874 Z0.0000
( Incremental hole: depth = -0.4200, diameter = 0.3729                         )
G91
G01 X0.0000 Y0.0629 Z0.0000
G01 X0.0000 Y0.0000 Z-0.1400
G02 X0.0629 Y-0.0629 Z0.0000 R0.0629
G02 X-0.0629 Y-0.0629 Z0.0000 R0.0629
G02 X-0.0629 Y0.0629 Z0.0000 R0.0629
G02 X0.0629 Y0.0629 Z0.0000 R0.0629
G01 X0.0000 Y0.0000 Z-0.1400
G02 X0.0629 Y-0.0629 Z0.0000 R0.0629
G02 X-0.0629 Y-0.0629 Z0.0000 R0.0629
G02 X-0.0629 Y0.0629 Z0.0000 R0.0629
G02 X0.0629 Y0.0629 Z0.0000 R0.0629
G01 X0.0000 Y0.0000 Z-0.1400
G02 X0.0629 Y-0.0629 Z0.0000 R0.0629
G02 X-0.0629 Y-0.0629 Z0.0000 R0.0629
G02 X-0.0629 Y0.0629 Z0.0000 R0.0629
G02 X0.0629 Y0.0629 Z0.0000 R0.0629
G02 X0.0629 Y-0.0629 Z0.0000 R0.0629
G02 X-0.0629 Y-0.0629 Z0.0000 R0.0629
G02 X-0.0629 Y0.0629 Z0.0000 R0.0629
G02 X0.0629 Y0.0629 Z0.0000 R0.0629
G02 X0.0629 Y-0.0629 Z0.0000 R0.0629
G02 X-0.0629 Y-0.0629 Z0.0000 R0.0629
G02 X-0.0629 Y0.0629 Z0.0000 R0.0629
G02 X0.0629 Y0.0629 Z0.0000 R0.0629
G02 X0.0629 Y-0.0629 Z0.0000 R0.0629
G02 X-0.0629 Y-0.0629 Z0.0000 R0.0629
G02 X-0.0629 Y0.0629 Z0.0000 R0.0629
G02 X0.0629 Y0.0629 Z0.0000 R0.0629
G01 X0.0000 Y-0.0629 Z0.0000
G90
G01 X23.6220 Y-0.7874 Z0.0000
G91
G01 X0.0000 Y0.2514 Z-0.0450
G02 X0.2514 Y-0.2514 Z0.0000 R0.2514
G02 X-0.2514 Y-0.2514 Z0.0000 R0.2514
G02 X-0.2514 Y0.2514 Z0.0000 R0.2514
G02 X0.2514 Y0.2514 Z0.0000 R0.2514
G01 X0.0000 Y-0.0285 Z-0.0069
G02 X0.2229 Y-0.2229 Z0.0000 R0.2229
G02 X-0.2229 Y-0.2229 Z0.0000 R0.2229
G02 X-0.2229 Y0.2229 Z0.0000 R0.2229
G02 X0.2229 Y0.2229 Z0.0000 R0.2229
G01 X0.0000 Y-0.0261 Z-0.0064
G02 X0.1966 Y-0.1966 Z0.0000 R0.1966
G02 X-0.1966 Y-0.1966 Z0.0000 R0.1966
G02 X-0.1966 Y0.1966 Z0.0000 R0.1966
G02 X0.1966 Y0.1966 Z0.0000 R0.1966
G01 X0.0000 Y-0.0262 Z-0.0058
G02 X0.1703 Y-0.1703 Z0.0000 R0.1703
G02 X-0.1703 Y-0.1703 Z0.0000 R0.1703
G02 X-0.1703 Y0.1703 Z0.0000 R0.1703
G02 X0.1703 Y0.1703 Z0.0000 R0.1703
G01 X0.0000 Y-0.0264 Z-0.0053
G02 X0.1438 Y-0.1438 Z0.0000 R0.1438
G02 X-0.1438 Y-0.1438 Z0.0000 R0.1438
G02 X-0.1438 Y0.1438 Z0.0000 R0.1438
G02 X0.1438 Y0.1438 Z0.0000 R0.1438
G01 X0.0000 Y-0.0264 Z-0.0048
G02 X0.1174 Y-0.1174 Z0.0000 R0.1174
G02 X-0.1174 Y-0.1174 Z0.0000 R0.1174
G02 X-0.1174 Y0.1174 Z0.0000 R0.1174
G02 X0.1174 Y0.1174 Z0.0000 R0.1174
G01 X0.0000 Y-0.0266 Z-0.0043
G02 X0.0907 Y-0.0907 Z0.0000 R0.0907
G02 X-0.0907 Y-0.0907 Z0.0000 R0.0907
G02 X-0.0907 Y0.0907 Z0.0000 R0.0907
G02 X0.0907 Y0.0907 Z0.0000 R0.0907
G01 X0.0000 Y-0.0266 Z-0.0038
G02 X0.0640 Y-0.0640 Z0.0000 R0.0640
G02 X-0.0640 Y-0.0640 Z0.0000 R0.0640
G02 X-0.0640 Y0.0640 Z0.0000 R0.0640
G02 X0.0640 Y0.0640 Z0.0000 R0.0640
G90
G00 X23.6220 Y-0.7233 Z0.1000
G00 X23.6220 Y-0.7874 Z0.1000
G00 X23.6220 Y0.7874 Z0.1000
( A single insert                                                              )
(   Outer rim diameter = 0.7500"                                               )
(   Outer rim depth    = -0.0450"                                              )
(   Shaft diameter      = 0.3729"                                              )
(   Shaft depth         = -0.4200"                                             )
G01 X23.6220 Y0.7874 Z0.0000
G91
G01 X0.0000 Y0.2514 Z-0.0450
G02 X0.2514 Y-0.2514 Z0.0000 R0.2514
G02 X-0.2514 Y-0.2514 Z0.0000 R0.2514
G02 X-0.2514 Y0.2514 Z0.0000 R0.2514
G02 X0.2514 Y0.2514 Z0.0000 R0.2514
G01 X0.0000 Y-0.0285 Z-0.0069
G02 X0.2229 Y-0.2229 Z0.0000 R0.2229
G02 X-0.2229 Y-0.2229 Z0.0000 R0.2229
G02 X-0.2229 Y0.2229 Z0.0000 R0.2229
G02 X0.2229 Y0.2229 Z0.0000 R0.2229
G01 X0.0000 Y-0.0261 Z-0.0064
G02 X0.1966 Y-0.1966 Z0.0000 R0.1966
G02 X-0.1966 Y-0.1966 Z0.0000 R0.1966
G02 X-0.1966 Y0.1966 Z0.0000 R0.1966
G02 X0.1966 Y0.1966 Z0.0000 R0.1966
G01 X0.0000 Y-0.0262 Z-0.0058
G02 X0.1703 Y-0.1703 Z0.0000 R0.1703
G02 X-0.1703 Y-0.1703 Z0.0000 R0.1703
G02 X-0.1703 Y0.1703 Z0.0000 R0.1703
G02 X0.1703 Y0.1703 Z0.0000 R0.1703
G01 X0.0000 Y-0.0264 Z-0.0053
G02 X0.1438 Y-0.1438 Z0.0000 R0.1438
G02 X-0.1438 Y-0.1438 Z0.0000 R0.1438
G02 X-0.1438 Y0.1438 Z0.0000 R0.1438
G02 X0.1438 Y0.1438 Z0.0000 R0.1438
G01 X0.0000 Y-0.0264 Z-0.0048
G02 X0.1174 Y-0.1174 Z0.0000 R0.1174
G02 X-0.1174 Y-0.1174 Z0.0000 R0.1174
G02 X-0.1174 Y0.1174 Z0.0000 R0.1174
G02 X0.1174 Y0.1174 Z0.0000 R0.1174
G01 X0.0000 Y-0.0266 Z-0.0043
G02 X0.0907 Y-0.0907 Z0.0000 R0.0907
G02 X-0.0907 Y-0.0907 Z0.0000 R0.0907
G02 X-0.0907 Y0.0907 Z0.0000 R0.0907
G02 X0.0907 Y0.0907 Z0.0000 R0.0907
G01 X0.0000 Y-0.0266 Z-0.0038
G02 X0.0640 Y-0.0640 Z0.0000 R0.0640
G02 X-0.0640 Y-0.0640 Z0.0000 R0.0640
G02 X-0.0640 Y0.0640 Z0.0000 R0.0640
G02 X0.0640 Y0.0640 Z0.0000 R0.0640
G90
G01 X23.6220 Y0.7874 Z0.0000
( Incremental hole: depth = -0.4200, diameter = 0.3729                         )
G91
G01 X0.0000 Y0.0629 Z0.0000
G01 X0.0000 Y0.0000 Z-0.1400
G02 X0.0629 Y-0.0629 Z0.0000 R0.0629
G02 X-0.0629 Y-0.0629 Z0.0000 R0.0629
G02 X-0.0629 Y0.0629 Z0.0000 R0.0629
G02 X0.0629 Y0.0629 Z0.0000 R0.0629
G01 X0.0000 Y0.0000 Z-0.1400
G02 X0.0629 Y-0.0629 Z0.0000 R0.0629
G02 X-0.0629 Y-0.0629 Z0.0000 R0.0629
G02 X-0.0629 Y0.0629 Z0.0000 R0.0629
G02 X0.0629 Y0.0629 Z0.0000 R0.0629
G01 X0.0000 Y0.0000 Z-0.1400
G02 X0.0629 Y-0.0629 Z0.0000 R0.0629
G02 X-0.0629 Y-0.0629 Z0.0000 R0.0629
G02 X-0.0629 Y0.0629 Z0.0000 R0.0629
G02 X0.0629 Y0.0629 Z0.0000 R0.0629
G02 X0.0629 Y-0.0629 Z0.0000 R0.0629
G02 X-0.0629 Y-0.0629 Z0.0000 R0.0629
G02 X-0.0629 Y0.0629 Z0.0000 R0.0629
G02 X0.0629 Y0.0629 Z0.0000 R0.0629
G02 X0.0629 Y-0.0629 Z0.0000 R0.0629
G02 X-0.0629 Y-0.0629 Z0.0000 R0.0629
G02 X-0.0629 Y0.0629 Z0.0000 R0.0629
G02 X0.0629 Y0.0629 Z0.0000 R0.0629
G02 X0.0629 Y-0.0629 Z0.0000 R0.0629
G02 X-0.0629 Y-0.0629 Z0.0000 R0.0629
G02 X-0.0629 Y0.0629 Z0.0000 R0.0629
G02 X0.0629 Y0.0629 Z0.0000 R0.0629
G01 X0.0000 Y-0.0629 Z0.0000
G90
G01 X23.6220 Y0.7874 Z0.0000
G91
G01 X0.0000 Y0.2514 Z-0.0450
G02 X0.2514 Y-0.2514 Z0.0000 R0.2514
G02 X-0.2514 Y-0.2514 Z0.0000 R0.2514
G02 X-0.2514 Y0.2514 Z0.0000 R0.2514
G02 X0.2514 Y0.2514 Z0.0000 R0.2514
G01 X0.0000 Y-0.0285 Z-0.0069
G02 X0.2229 Y-0.2229 Z0.0000 R0.2229
G02 X-0.2229 Y-0.2229 Z0.0000 R0.2229
G02 X-0.2229 Y0.2229 Z0.0000 R0.2229
G02 X0.2229 Y0.2229 Z0.0000 R0.2229
G01 X0.0000 Y-0.0261 Z-0.0064
G02 X0.1966 Y-0.1966 Z0.0000 R0.1966
G02 X-0.1966 Y-0.1966 Z0.0000 R0.1966
G02 X-0.1966 Y0.1966 Z0.0000 R0.1966
G02 X0.1966 Y0.1966 Z0.0000 R0.1966
G01 X0.0000 Y-0.0262 Z-0.0058
G02 X0.1703 Y-0.1703 Z0.0000 R0.1703
G02 X-0.1703 Y-0.1703 Z0.0000 R0.1703
G02 X-0.1703 Y0.1703 Z0.0000 R0.1703
G02 X0.1703 Y0.1703 Z0.0000 R0.1703
G01 X0.0000 Y-0.0264 Z-0.0053
G02 X0.1438 Y-0.1438 Z0.0000 R0.1438
G02 X-0.1438 Y-0.1438 Z0.0000 R0.1438
G02 X-0.1438 Y0.1438 Z0.0000 R0.1438
G02 X0.1438 Y0.1438 Z0.0000 R0.1438
G01 X0.0000 Y-0.0264 Z-0.0048
G02 X0.1174 Y-0.1174 Z0.0000 R0.1174
G02 X-0.1174 Y-0.1174 Z0.0000 R0.1174
G02 X-0.1174 Y0.1174 Z0.0000 R0.1174
G02 X0.1174 Y0.1174 Z0.0000 R0.1174
G01 X0.0000 Y-0.0266 Z-0.0043
G02 X0.0907 Y-0.0907 Z0.0000 R0.0907
G02 X-0.0907 Y-0.0907 Z0.0000 R0.0907
G02 X-0.0907 Y0.0907 Z0.0000 R0.0907
G02 X0.0907 Y0.0907 Z0.0000 R0.0907
G01 X0.0000 Y-0.0266 Z-0.0038
G02 X0.0640 Y-0.0640 Z0.0000 R0.0640
G02 X-0.0640 Y-0.0640 Z0.0000 R0.0640
G02 X-0.0640 Y0.0640 Z0.0000 R0.0640
G02 X0.0640 Y0.0640 Z0.0000 R0.0640
G90
G00 X23.6220 Y0.8514 Z0.1000
G00 X23.6220 Y0.7874 Z0.1000
G00 X25.1968 Y-0.7874 Z0.1000
( A single insert                                                              )
(   Outer rim diameter = 0.7500"                                               )
(   Outer rim depth    = -0.0450"                                              )
(   Shaft diameter      = 0.3729"                                              )
(   Shaft depth         = -0.4200"                                             )
G01 X25.1968 Y-0.7874 Z0.0000
G91
G01 X0.0000 Y0.2514 Z-0.0450
G02 X0.2514 Y-0.2514 Z0.0000 R0.2514
G02 X-0.2514 Y-0.2514 Z0.0000 R0.2514
G02 X-0.2514 Y0.2514 Z0.0000 R0.2514
G02 X0.2514 Y0.2514 Z0.0000 R0.2514
G01 X0.0000 Y-0.0285 Z-0.0069
G02 X0.2229 Y-0.2229 Z0.0000 R0.2229
G02 X-0.2229 Y-0.2229 Z0.0000 R0.2229
G02 X-0.2229 Y0.2229 Z0.0000 R0.2229
G02 X0.2229 Y0.2229 Z0.0000 R0.2229
G01 X0.0000 Y-0.0261 Z-0.0064
G02 X0.1966 Y-0.1966 Z0.0000 R0.1966
G02 X-0.1966 Y-0.1966 Z0.0000 R0.1966
G02 X-0.1966 Y0.1966 Z0.0000 R0.1966
G02 X0.1966 Y0.1966 Z0.0000 R0.1966
G01 X0.0000 Y-0.0262 Z-0.0058
G02 X0.1703 Y-0.1703 Z0.0000 R0.1703
G02 X-0.1703 Y-0.1703 Z0.0000 R0.1703
G02 X-0.1703 Y0.1703 Z0.0000 R0.1703
G02 X0.1703 Y0.1703 Z0.0000 R0.1703
G01 X0.0000 Y-0.0264 Z-0.0053
G02 X0.1438 Y-0.1438 Z0.0000 R0.1438
G02 X-0.1438 Y-0.1438 Z0.0000 R0.1438
G02 X-0.1438 Y0.1438 Z0.0000 R0.1438
G02 X0.1438 Y0.1438 Z0.0000 R0.1438
G01 X0.0000 Y-0.0264 Z-0.0048
G02 X0.1174 Y-0.1174 Z0.0000 R0.1174
G02 X-0.1174 Y-0.1174 Z0.0000 R0.1174
G02 X-0.1174 Y0.1174 Z0.0000 R0.1174
G02 X0.1174 Y0.1174 Z0.0000 R0.1174
G01 X0.0000 Y-0.0266 Z-0.0043
G02 X0.0907 Y-0.0907 Z0.0000 R0.0907
G02 X-0.0907 Y-0.0907 Z0.0000 R0.0907
G02 X-0.0907 Y0.0907 Z0.0000 R0.0907
G02 X0.0907 Y0.0907 Z0.0000 R0.0907
G01 X0.0000 Y-0.0266 Z-0.0038
G02 X0.0640 Y-0.0640 Z0.0000 R0.0640
G02 X-0.0640 Y-0.0640 Z0.0000 R0.0640
G02 X-0.0640 Y0.0640 Z0.0000 R0.0640
G02 X0.0640 Y0.0640 Z0.0000 R0.0640
G90
G01 X25.1968 Y-0.7874 Z0.0000
( Incremental hole: depth = -0.4200, diameter = 0.3729                         )
G91
G01 X0.0000 Y0.0629 Z0.0000
G01 X0.0000 Y0.0000 Z-0.1400
G02 X0.0629 Y-0.0629 Z0.0000 R0.0629
G02 X-0.0629 Y-0.0629 Z0.0000 R0.0629
G02 X-0.0629 Y0.0629 Z0.0000 R0.0629
G02 X0.0629 Y0.0629 Z0.0000 R0.0629
G01 X0.0000 Y0.0000 Z-0.1400
G02 X0.0629 Y-0.0629 Z0.0000 R0.0629
G02 X-0.0629 Y-0.0629 Z0.0000 R0.0629
G02 X-0.0629 Y0.0629 Z0.0000 R0.0629
G02 X0.0629 Y0.0629 Z0.0000 R0.0629
G01 X0.0000 Y0.0000 Z-0.1400
G02 X0.0629 Y-0.0629 Z0.0000 R0.0629
G02 X-0.0629 Y-0.0629 Z0.0000 R0.0629
G02 X-0.0629 Y0.0629 Z0.0000 R0.0629
G02 X0.0629 Y0.0629 Z0.0000 R0.0629
G02 X0.0629 Y-0.0629 Z0.0000 R0.0629
G02 X-0.0629 Y-0.0629 Z0.0000 R0.0629
G02 X-0.0629 Y0.0629 Z0.0000 R0.0629
G02 X0.0629 Y0.0629 Z0.0000 R0.0629
G02 X0.0629 Y-0.0629 Z0.0000 R0.0629
G02 X-0.0629 Y-0.0629 Z0.0000 R0.0629
G02 X-0.0629 Y0.0629 Z0.0000 R0.0629
G02 X0.0629 Y0.0629 Z0.0000 R0.0629
G02 X0.0629 Y-0.0629 Z0.0000 R0.0629
G02 X-0.0629 Y-0.0629 Z0.0000 R0.0629
G02 X-0.0629 Y0.0629 Z0.0000 R0.0629
G02 X0.0629 Y0.0629 Z0.0000 R0.0629
G01 X0.0000 Y-0.0629 Z0.0000
G90
G01 X25.1968 Y-0.7874 Z0.0000
G91
G01 X0.0000 Y0.2514 Z-0.0450
G02 X0.2514 Y-0.2514 Z0.0000 R0.2514
G02 X-0.2514 Y-0.2514 Z0.0000 R0.2514
G02 X-0.2514 Y0.2514 Z0.0000 R0.2514
G02 X0.2514 Y0.2514 Z0.0000 R0.2514
G01 X0.0000 Y-0.0285 Z-0.0069
G02 X0.2229 Y-0.2229 Z0.0000 R0.2229
G02 X-0.2229 Y-0.2229 Z0.0000 R0.2229
G02 X-0.2229 Y0.2229 Z0.0000 R0.2229
G02 X0.2229 Y0.2229 Z0.0000 R0.2229
G01 X0.0000 Y-0.0261 Z-0.0064
G02 X0.1966 Y-0.1966 Z0.0000 R0.1966
G02 X-0.1966 Y-0.1966 Z0.0000 R0.1966
G02 X-0.1966 Y0.1966 Z0.0000 R0.1966
G02 X0.1966 Y0.1966 Z0.0000 R0.1966
G01 X0.0000 Y-0.0262 Z-0.0058
G02 X0.1703 Y-0.1703 Z0.0000 R0.1703
G02 X-0.1703 Y-0.1703 Z0.0000 R0.1703
G02 X-0.1703 Y0.1703 Z0.0000 R0.1703
G02 X0.1703 Y0.1703 Z0.0000 R0.1703
G01 X0.0000 Y-0.0264 Z-0.0053
G02 X0.1438 Y-0.1438 Z0.0000 R0.1438
G02 X-0.1438 Y-0.1438 Z0.0000 R0.1438
G02 X-0.1438 Y0.1438 Z0.0000 R0.1438
G02 X0.1438 Y0.1438 Z0.0000 R0.1438
G01 X0.0000 Y-0.0264 Z-0.0048
G02 X0.1174 Y-0.1174 Z0.0000 R0.1174
G02 X-0.1174 Y-0.1174 Z0.0000 R0.1174
G02 X-0.1174 Y0.1174 Z0.0000 R0.1174
G02 X0.1174 Y0.1174 Z0.0000 R0.1174
G01 X0.0000 Y-0.0266 Z-0.0043
G02 X0.0907 Y-0.0907 Z0.0000 R0.0907
G02 X-0.0907 Y-0.0907 Z0.0000 R0.0907
G02 X-0.0907 Y0.0907 Z0.0000 R0.0907
G02 X0.0907 Y0.0907 Z0.0000 R0.0907
G01 X0.0000 Y-0.0266 Z-0.0038
G02 X0.0640 Y-0.0640 Z0.0000 R0.0640
G02 X-0.0640 Y-0.0640 Z0.0000 R0.0640
G02 X-0.0640 Y0.0640 Z0.0000 R0.0640
G02 X0.0640 Y0.0640 Z0.0000 R0.0640
G90
G00 X25.1968 Y-0.7233 Z0.1000
G00 X25.1968 Y-0.7874 Z0.1000
G00 X25.1968 Y0.7874 Z0.1000
( A single insert                                                              )
(   Outer rim diameter = 0.7500"                                               )
(   Outer rim depth    = -0.0450"                                              )
(   Shaft diameter      = 0.3729"                                              )
(   Shaft depth         = -0.4200"                                             )
G01 X25.1968 Y0.7874 Z0.0000
G91
G01 X0.0000 Y0.2514 Z-0.0450
G02 X0.2514 Y-0.2514 Z0.0000 R0.2514
G02 X-0.2514 Y-0.2514 Z0.0000 R0.2514
G02 X-0.2514 Y0.2514 Z0.0000 R0.2514
G02 X0.2514 Y0.2514 Z0.0000 R0.2514
G01 X0.0000 Y-0.0285 Z-0.0069
G02 X0.2229 Y-0.2229 Z0.0000 R0.2229
G02 X-0.2229 Y-0.2229 Z0.0000 R0.2229
G02 X-0.2229 Y0.2229 Z0.0000 R0.2229
G02 X0.2229 Y0.2229 Z0.0000 R0.2229
G01 X0.0000 Y-0.0261 Z-0.0064
G02 X0.1966 Y-0.1966 Z0.0000 R0.1966
G02 X-0.1966 Y-0.1966 Z0.0000 R0.1966
G02 X-0.1966 Y0.1966 Z0.0000 R0.1966
G02 X0.1966 Y0.1966 Z0.0000 R0.1966
G01 X0.0000 Y-0.0262 Z-0.0058
G02 X0.1703 Y-0.1703 Z0.0000 R0.1703
G02 X-0.1703 Y-0.1703 Z0.0000 R0.1703
G02 X-0.1703 Y0.1703 Z0.0000 R0.1703
G02 X0.1703 Y0.1703 Z0.0000 R0.1703
G01 X0.0000 Y-0.0264 Z-0.0053
G02 X0.1438 Y-0.1438 Z0.0000 R0.1438
G02 X-0.1438 Y-0.1438 Z0.0000 R0.1438
G02 X-0.1438 Y0.1438 Z0.0000 R0.1438
G02 X0.1438 Y0.1438 Z0.0000 R0.1438
G01 X0.0000 Y-0.0264 Z-0.0048
G02 X0.1174 Y-0.1174 Z0.0000 R0.1174
G02 X-0.1174 Y-0.1174 Z0.0000 R0.1174
G02 X-0.1174 Y0.1174 Z0.0000 R0.1174
G02 X0.1174 Y0.1174 Z0.0000 R0.1174
G01 X0.0000 Y-0.0266 Z-0.0043
G02 X0.0907 Y-0.0907 Z0.0000 R0.0907
G02 X-0.0907 Y-0.0907 Z0.0000 R0.0907
G02 X-0.0907 Y0.0907 Z0.0000 R0.0907
G02 X0.0907 Y0.0907 Z0.0000 R0.0907
G01 X0.0000 Y-0.0266 Z-0.0038
G02 X0.0640 Y-0.0640 Z0.0000 R0.0640
G02 X-0.0640 Y-0.0640 Z0.0000 R0.0640
G02 X-0.0640 Y0.0640 Z0.0000 R0.0640
G02 X0.0640 Y0.0640 Z0.0000 R0.0640
G90
G01 X25.1968 Y0.7874 Z0.0000
( Incremental hole: depth = -0.4200, diameter = 0.3729                         )
G91
G01 X0.0000 Y0.0629 Z0.0000
G01 X0.0000 Y0.0000 Z-0.1400
G02 X0.0629 Y-0.0629 Z0.0000 R0.0629
G02 X-0.0629 Y-0.0629 Z0.0000 R0.0629
G02 X-0.0629 Y0.0629 Z0.0000 R0.0629
G02 X0.0629 Y0.0629 Z0.0000 R0.0629
G01 X0.0000 Y0.0000 Z-0.1400
G02 X0.0629 Y-0.0629 Z0.0000 R0.0629
G02 X-0.0629 Y-0.0629 Z0.0000 R0.0629
G02 X-0.0629 Y0.0629 Z0.0000 R0.0629
G02 X0.0629 Y0.0629 Z0.0000 R0.0629
G01 X0.0000 Y0.0000 Z-0.1400
G02 X0.0629 Y-0.0629 Z0.0000 R0.0629
G02 X-0.0629 Y-0.0629 Z0.0000 R0.0629
G02 X-0.0629 Y0.0629 Z0.0000 R0.0629
G02 X0.0629 Y0.0629 Z0.0000 R0.0629
G02 X0.0629 Y-0.0629 Z0.0000 R0.0629
G02 X-0.0629 Y-0.0629 Z0.0000 R0.0629
G02 X-0.0629 Y0.0629 Z0.0000 R0.0629
G02 X0.0629 Y0.0629 Z0.0000 R0.0629
G02 X0.0629 Y-0.0629 Z0.0000 R0.0629
G02 X-0.0629 Y-0.0629 Z0.0000 R0.0629
G02 X-0.0629 Y0.0629 Z0.0000 R0.0629
G02 X0.0629 Y0.0629 Z0.0000 R0.0629
G02 X0.0629 Y-0.0629 Z0.0000 R0.0629
G02 X-0.0629 Y-0.0629 Z0.0000 R0.0629
G02 X-0.0629 Y0.0629 Z0.0000 R0.0629
G02 X0.0629 Y0.0629 Z0.0000 R0.0629
G01 X0.0000 Y-0.0629 Z0.0000
G90
G01 X25.1968 Y0.7874 Z0.0000
G91
G01 X0.0000 Y0.2514 Z-0.0450
G02 X0.2514 Y-0.2514 Z0.0000 R0.2514
G02 X-0.2514 Y-0.2514 Z0.0000 R0.2514
G02 X-0.2514 Y0.2514 Z0.0000 R0.2514
G02 X0.2514 Y0.2514 Z0.0000 R0.2514
G01 X0.0000 Y-0.0285 Z-0.0069
G02 X0.2229 Y-0.2229 Z0.0000 R0.2229
G02 X-0.2229 Y-0.2229 Z0.0000 R0.2229
G02 X-0.2229 Y0.2229 Z0.0000 R0.2229
G02 X0.2229 Y0.2229 Z0.0000 R0.2229
G01 X0.0000 Y-0.0261 Z-0.0064
G02 X0.1966 Y-0.1966 Z0.0000 R0.1966
G02 X-0.1966 Y-0.1966 Z0.0000 R0.1966
G02 X-0.1966 Y0.1966 Z0.0000 R0.1966
G02 X0.1966 Y0.1966 Z0.0000 R0.1966
G01 X0.0000 Y-0.0262 Z-0.0058
G02 X0.1703 Y-0.1703 Z0.0000 R0.1703
G02 X-0.1703 Y-0.1703 Z0.0000 R0.1703
G02 X-0.1703 Y0.1703 Z0.0000 R0.1703
G02 X0.1703 Y0.1703 Z0.0000 R0.1703
G01 X0.0000 Y-0.0264 Z-0.0053
G02 X0.1438 Y-0.1438 Z0.0000 R0.1438
G02 X-0.1438 Y-0.1438 Z0.0000 R0.1438
G02 X-0.1438 Y0.1438 Z0.0000 R0.1438
G02 X0.1438 Y0.1438 Z0.0000 R0.1438
G01 X0.0000 Y-0.0264 Z-0.0048
G02 X0.1174 Y-0.1174 Z0.0000 R0.1174
G02 X-0.1174 Y-0.1174 Z0.0000 R0.1174
G02 X-0.1174 Y0.1174 Z0.0000 R0.1174
G02 X0.1174 Y0.1174 Z0.0000 R0.1174
G01 X0.0000 Y-0.0266 Z-0.0043
G02 X0.0907 Y-0.0907 Z0.0000 R0.0907
G02 X-0.0907 Y-0.0907 Z0.0000 R0.0907
G02 X-0.0907 Y0.0907 Z0.0000 R0.0907
G02 X0.0907 Y0.0907 Z0.0000 R0.0907
G01 X0.0000 Y-0.0266 Z-0.0038
G02 X0.0640 Y-0.0640 Z0.0000 R0.0640
G02 X-0.0640 Y-0.0640 Z0.0000 R0.0640
G02 X-0.0640 Y0.0640 Z0.0000 R0.0640
G02 X0.0640 Y0.0640 Z0.0000 R0.0640
G90
G00 X25.1968 Y0.8514 Z0.1000
G00 X25.1968 Y0.7874 Z0.1000
G00 X26.7716 Y-0.7874 Z0.1000
( A single insert                                                              )
(   Outer rim diameter = 0.7500"                                               )
(   Outer rim depth    = -0.0450"                                              )
(   Shaft diameter      = 0.3729"                                              )
(   Shaft depth         = -0.4200"                                             )
G01 X26.7716 Y-0.7874 Z0.0000
G91
G01 X0.0000 Y0.2514 Z-0.0450
G02 X0.2514 Y-0.2514 Z0.0000 R0.2514
G02 X-0.2514 Y-0.2514 Z0.0000 R0.2514
G02 X-0.2514 Y0.2514 Z0.0000 R0.2514
G02 X0.2514 Y0.2514 Z0.0000 R0.2514
G01 X0.0000 Y-0.0285 Z-0.0069
G02 X0.2229 Y-0.2229 Z0.0000 R0.2229
G02 X-0.2229 Y-0.2229 Z0.0000 R0.2229
G02 X-0.2229 Y0.2229 Z0.0000 R0.2229
G02 X0.2229 Y0.2229 Z0.0000 R0.2229
G01 X0.0000 Y-0.0261 Z-0.0064
G02 X0.1966 Y-0.1966 Z0.0000 R0.1966
G02 X-0.1966 Y-0.1966 Z0.0000 R0.1966
G02 X-0.1966 Y0.1966 Z0.0000 R0.1966
G02 X0.1966 Y0.1966 Z0.0000 R0.1966
G01 X0.0000 Y-0.0262 Z-0.0058
G02 X0.1703 Y-0.1703 Z0.0000 R0.1703
G02 X-0.1703 Y-0.1703 Z0.0000 R0.1703
G02 X-0.1703 Y0.1703 Z0.0000 R0.1703
G02 X0.1703 Y0.1703 Z0.0000 R0.1703
G01 X0.0000 Y-0.0264 Z-0.0053
G02 X0.1438 Y-0.1438 Z0.0000 R0.1438
G02 X-0.1438 Y-0.1438 Z0.0000 R0.1438
G02 X-0.1438 Y0.1438 Z0.0000 R0.1438
G02 X0.1438 Y0.1438 Z0.0000 R0.1438
G01 X0.0000 Y-0.0264 Z-0.0048
G02 X0.1174 Y-0.1174 Z0.0000 R0.1174
G02 X-0.1174 Y-0.1174 Z0.0000 R0.1174
G02 X-0.1174 Y0.1174 Z0.0000 R0.1174
G02 X0.1174 Y0.1174 Z0.0000 R0.1174
G01 X0.0000 Y-0.0266 Z-0.0043
G02 X0.0907 Y-0.0907 Z0.0000 R0.0907
G02 X-0.0907 Y-0.0907 Z0.0000 R0.0907
G02 X-0.0907 Y0.0907 Z0.0000 R0.0907
G02 X0.0907 Y0.0907 Z0.0000 R0.0907
G01 X0.0000 Y-0.0266 Z-0.0038
G02 X0.0640 Y-0.0640 Z0.0000 R0.0640
G02 X-0.0640 Y-0.0640 Z0.0000 R0.0640
G02 X-0.0640 Y0.0640 Z0.0000 R0.0640
G02 X0.0640 Y0.0640 Z0.0000 R0.0640
G90
G01 X26.7716 Y-0.7874 Z0.0000
( Incremental hole: depth = -0.4200, diameter = 0.3729                         )
G91
G01 X0.0000 Y0.0629 Z0.0000
G01 X0.0000 Y0.0000 Z-0.1400
G02 X0.0629 Y-0.0629 Z0.0000 R0.0629
G02 X-0.0629 Y-0.0629 Z0.0000 R0.0629
G02 X-0.0629 Y0.0629 Z0.0000 R0.0629
G02 X0.0629 Y0.0629 Z0.0000 R0.0629
G01 X0.0000 Y0.0000 Z-0.1400
G02 X0.0629 Y-0.0629 Z0.0000 R0.0629
G02 X-0.0629 Y-0.0629 Z0.0000 R0.0629
G02 X-0.0629 Y0.0629 Z0.0000 R0.0629
G02 X0.0629 Y0.0629 Z0.0000 R0.0629
G01 X0.0000 Y0.0000 Z-0.1400
G02 X0.0629 Y-0.0629 Z0.0000 R0.0629
G02 X-0.0629 Y-0.0629 Z0.0000 R0.0629
G02 X-0.0629 Y0.0629 Z0.0000 R0.0629
G02 X0.0629 Y0.0629 Z0.0000 R0.0629
G02 X0.0629 Y-0.0629 Z0.0000 R0.0629
G02 X-0.0629 Y-0.0629 Z0.0000 R0.0629
G02 X-0.0629 Y0.0629 Z0.0000 R0.0629
G02 X0.0629 Y0.0629 Z0.0000 R0.0629
G02 X0.0629 Y-0.0629 Z0.0000 R0.0629
G02 X-0.0629 Y-0.0629 Z0.0000 R0.0629
G02 X-0.0629 Y0.0629 Z0.0000 R0.0629
G02 X0.0629 Y0.0629 Z0.0000 R0.0629
G02 X0.0629 Y-0.0629 Z0.0000 R0.0629
G02 X-0.0629 Y-0.0629 Z0.0000 R0.0629
G02 X-0.0629 Y0.0629 Z0.0000 R0.0629
G02 X0.0629 Y0.0629 Z0.0000 R0.0629
G01 X0.0000 Y-0.0629 Z0.0000
G90
G01 X26.7716 Y-0.7874 Z0.0000
G91
G01 X0.0000 Y0.2514 Z-0.0450
G02 X0.2514 Y-0.2514 Z0.0000 R0.2514
G02 X-0.2514 Y-0.2514 Z0.0000 R0.2514
G02 X-0.2514 Y0.2514 Z0.0000 R0.2514
G02 X0.2514 Y0.2514 Z0.0000 R0.2514
G01 X0.0000 Y-0.0285 Z-0.0069
G02 X0.2229 Y-0.2229 Z0.0000 R0.2229
G02 X-0.2229 Y-0.2229 Z0.0000 R0.2229
G02 X-0.2229 Y0.2229 Z0.0000 R0.2229
G02 X0.2229 Y0.2229 Z0.0000 R0.2229
G01 X0.0000 Y-0.0261 Z-0.0064
G02 X0.1966 Y-0.1966 Z0.0000 R0.1966
G02 X-0.1966 Y-0.1966 Z0.0000 R0.1966
G02 X-0.1966 Y0.1966 Z0.0000 R0.1966
G02 X0.1966 Y0.1966 Z0.0000 R0.1966
G01 X0.0000 Y-0.0262 Z-0.0058
G02 X0.1703 Y-0.1703 Z0.0000 R0.1703
G02 X-0.1703 Y-0.1703 Z0.0000 R0.1703
G02 X-0.1703 Y0.1703 Z0.0000 R0.1703
G02 X0.1703 Y0.1703 Z0.0000 R0.1703
G01 X0.0000 Y-0.0264 Z-0.0053
G02 X0.1438 Y-0.1438 Z0.0000 R0.1438
G02 X-0.1438 Y-0.1438 Z0.0000 R0.1438
G02 X-0.1438 Y0.1438 Z0.0000 R0.1438
G02 X0.1438 Y0.1438 Z0.0000 R0.1438
G01 X0.0000 Y-0.0264 Z-0.0048
G02 X0.1174 Y-0.1174 Z0.0000 R0.1174
G02 X-0.1174 Y-0.1174 Z0.0000 R0.1174
G02 X-0.1174 Y0.1174 Z0.0000 R0.1174
G02 X0.1174 Y0.1174 Z0.0000 R0.1174
G01 X0.0000 Y-0.0266 Z-0.0043
G02 X0.0907 Y-0.0907 Z0.0000 R0.0907
G02 X-0.0907 Y-0.0907 Z0.0000 R0.0907
G02 X-0.0907 Y0.0907 Z0.0000 R0.0907
G02 X0.0907 Y0.0907 Z0.0000 R0.0907
G01 X0.0000 Y-0.0266 Z-0.0038
G02 X0.0640 Y-0.0640 Z0.0000 R0.0640
G02 X-0.0640 Y-0.0640 Z0.0000 R0.0640
G02 X-0.0640 Y0.0640 Z0.0000 R0.0640
G02 X0.0640 Y0.0640 Z0.0000 R0.0640
G90
G00 X26.7716 Y-0.7233 Z0.1000
G00 X26.7716 Y-0.7874 Z0.1000
G00 X26.7716 Y0.7874 Z0.1000
( A single insert                                                              )
(   Outer rim diameter = 0.7500"                                               )
(   Outer rim depth    = -0.0450"                                              )
(   Shaft diameter      = 0.3729"                                              )
(   Shaft depth         = -0.4200"                                             )
G01 X26.7716 Y0.7874 Z0.0000
G91
G01 X0.0000 Y0.2514 Z-0.0450
G02 X0.2514 Y-0.2514 Z0.0000 R0.2514
G02 X-0.2514 Y-0.2514 Z0.0000 R0.2514
G02 X-0.2514 Y0.2514 Z0.0000 R0.2514
G02 X0.2514 Y0.2514 Z0.0000 R0.2514
G01 X0.0000 Y-0.0285 Z-0.0069
G02 X0.2229 Y-0.2229 Z0.0000 R0.2229
G02 X-0.2229 Y-0.2229 Z0.0000 R0.2229
G02 X-0.2229 Y0.2229 Z0.0000 R0.2229
G02 X0.2229 Y0.2229 Z0.0000 R0.2229
G01 X0.0000 Y-0.0261 Z-0.0064
G02 X0.1966 Y-0.1966 Z0.0000 R0.1966
G02 X-0.1966 Y-0.1966 Z0.0000 R0.1966
G02 X-0.1966 Y0.1966 Z0.0000 R0.1966
G02 X0.1966 Y0.1966 Z0.0000 R0.1966
G01 X0.0000 Y-0.0262 Z-0.0058
G02 X0.1703 Y-0.1703 Z0.0000 R0.1703
G02 X-0.1703 Y-0.1703 Z0.0000 R0.1703
G02 X-0.1703 Y0.1703 Z0.0000 R0.1703
G02 X0.1703 Y0.1703 Z0.0000 R0.1703
G01 X0.0000 Y-0.0264 Z-0.0053
G02 X0.1438 Y-0.1438 Z0.0000 R0.1438
G02 X-0.1438 Y-0.1438 Z0.0000 R0.1438
G02 X-0.1438 Y0.1438 Z0.0000 R0.1438
G02 X0.1438 Y0.1438 Z0.0000 R0.1438
G01 X0.0000 Y-0.0264 Z-0.0048
G02 X0.1174 Y-0.1174 Z0.0000 R0.1174
G02 X-0.1174 Y-0.1174 Z0.0000 R0.1174
G02 X-0.1174 Y0.1174 Z0.0000 R0.1174
G02 X0.1174 Y0.1174 Z0.0000 R0.1174
G01 X0.0000 Y-0.0266 Z-0.0043
G02 X0.0907 Y-0.0907 Z0.0000 R0.0907
G02 X-0.0907 Y-0.0907 Z0.0000 R0.0907
G02 X-0.0907 Y0.0907 Z0.0000 R0.0907
G02 X0.0907 Y0.0907 Z0.0000 R0.0907
G01 X0.0000 Y-0.0266 Z-0.0038
G02 X0.0640 Y-0.0640 Z0.0000 R0.0640
G02 X-0.0640 Y-0.0640 Z0.0000 R0.0640
G02 X-0.0640 Y0.0640 Z0.0000 R0.0640
G02 X0.0640 Y0.0640 Z0.0000 R0.0640
G90
G01 X26.7716 Y0.7874 Z0.0000
( Incremental hole: depth = -0.4200, diameter = 0.3729                         )
G91
G01 X0.0000 Y0.0629 Z0.0000
G01 X0.0000 Y0.0000 Z-0.1400
G02 X0.0629 Y-0.0629 Z0.0000 R0.0629
G02 X-0.0629 Y-0.0629 Z0.0000 R0.0629
G02 X-0.0629 Y0.0629 Z0.0000 R0.0629
G02 X0.0629 Y0.0629 Z0.0000 R0.0629
G01 X0.0000 Y0.0000 Z-0.1400
G02 X0.0629 Y-0.0629 Z0.0000 R0.0629
G02 X-0.0629 Y-0.0629 Z0.0000 R0.0629
G02 X-0.0629 Y0.0629 Z0.0000 R0.0629
G02 X0.0629 Y0.0629 Z0.0000 R0.0629
G01 X0.0000 Y0.0000 Z-0.1400
G02 X0.0629 Y-0.0629 Z0.0000 R0.0629
G02 X-0.0629 Y-0.0629 Z0.0000 R0.0629
G02 X-0.0629 Y0.0629 Z0.0000 R0.0629
G02 X0.0629 Y0.0629 Z0.0000 R0.0629
G02 X0.0629 Y-0.0629 Z0.0000 R0.0629
G02 X-0.0629 Y-0.0629 Z0.0000 R0.0629
G02 X-0.0629 Y0.0629 Z0.0000 R0.0629
G02 X0.0629 Y0.0629 Z0.0000 R0.0629
G02 X0.0629 Y-0.0629 Z0.0000 R0.0629
G02 X-0.0629 Y-0.0629 Z0.0000 R0.0629
G02 X-0.0629 Y0.0629 Z0.0000 R0.0629
G02 X0.0629 Y0.0629 Z0.0000 R0.0629
G02 X0.0629 Y-0.0629 Z0.0000 R0.0629
G02 X-0.0629 Y-0.0629 Z0.0000 R0.0629
G02 X-0.0629 Y0.0629 Z0.0000 R0.0629
G02 X0.0629 Y0.0629 Z0.0000 R0.0629
G01 X0.0000 Y-0.0629 Z0.0000
G90
G01 X26.7716 Y0.7874 Z0.0000
G91
G01 X0.0000 Y0.2514 Z-0.0450
G02 X0.2514 Y-0.2514 Z0.0000 R0.2514
G02 X-0.2514 Y-0.2514 Z0.0000 R0.2514
G02 X-0.2514 Y0.2514 Z0.0000 R0.2514
G02 X0.2514 Y0.2514 Z0.0000 R0.2514
G01 X0.0000 Y-0.0285 Z-0.0069
G02 X0.2229 Y-0.2229 Z0.0000 R0.2229
G02 X-0.2229 Y-0.2229 Z0.0000 R0.2229
G02 X-0.2229 Y0.2229 Z0.0000 R0.2229
G02 X0.2229 Y0.2229 Z0.0000 R0.2229
G01 X0.0000 Y-0.0261 Z-0.0064
G02 X0.1966 Y-0.1966 Z0.0000 R0.1966
G02 X-0.1966 Y-0.1966 Z0.0000 R0.1966
G02 X-0.1966 Y0.1966 Z0.0000 R0.1966
G02 X0.1966 Y0.1966 Z0.0000 R0.1966
G01 X0.0000 Y-0.0262 Z-0.0058
G02 X0.1703 Y-0.1703 Z0.0000 R0.1703
G02 X-0.1703 Y-0.1703 Z0.0000 R0.1703
G02 X-0.1703 Y0.1703 Z0.0000 R0.1703
G02 X0.1703 Y0.1703 Z0.0000 R0.1703
G01 X0.0000 Y-0.0264 Z-0.0053
G02 X0.1438 Y-0.1438 Z0.0000 R0.1438
G02 X-0.1438 Y-0.1438 Z0.0000 R0.1438
G02 X-0.1438 Y0.1438 Z0.0000 R0.1438
G02 X0.1438 Y0.1438 Z0.0000 R0.1438
G01 X0.0000 Y-0.0264 Z-0.0048
G02 X0.1174 Y-0.1174 Z0.0000 R0.1174
G02 X-0.1174 Y-0.1174 Z0.0000 R0.1174
G02 X-0.1174 Y0.1174 Z0.0000 R0.1174
G02 X0.1174 Y0.1174 Z0.0000 R0.1174
G01 X0.0000 Y-0.0266 Z-0.0043
G02 X0.0907 Y-0.0907 Z0.0000 R0.0907
G02 X-0.0907 Y-0.0907 Z0.0000 R0.0907
G02 X-0.0907 Y0.0907 Z0.0000 R0.0907
G02 X0.0907 Y0.0907 Z0.0000 R0.0907
G01 X0.0000 Y-0.0266 Z-0.0038
G02 X0.0640 Y-0.0640 Z0.0000 R0.0640
G02 X-0.0640 Y-0.0640 Z0.0000 R0.0640
G02 X-0.0640 Y0.0640 Z0.0000 R0.0640
G02 X0.0640 Y0.0640 Z0.0000 R0.0640
G90
G00 X26.7716 Y0.8514 Z0.1000
G00 X26.7716 Y0.7874 Z0.1000
G00 X28.3464 Y0.0000 Z0.1000
( A single insert                                                              )
(   Outer rim diameter = 0.7500"                                               )
(   Outer rim depth    = -0.0450"                                              )
(   Shaft diameter      = 0.3729"                                              )
(   Shaft depth         = -0.4200"                                             )
G01 X28.3464 Y0.0000 Z0.0000
G91
G01 X0.0000 Y0.2514 Z-0.0450
G02 X0.2514 Y-0.2514 Z0.0000 R0.2514
G02 X-0.2514 Y-0.2514 Z0.0000 R0.2514
G02 X-0.2514 Y0.2514 Z0.0000 R0.2514
G02 X0.2514 Y0.2514 Z0.0000 R0.2514
G01 X0.0000 Y-0.0285 Z-0.0069
G02 X0.2229 Y-0.2229 Z0.0000 R0.2229
G02 X-0.2229 Y-0.2229 Z0.0000 R0.2229
G02 X-0.2229 Y0.2229 Z0.0000 R0.2229
G02 X0.2229 Y0.2229 Z0.0000 R0.2229
G01 X0.0000 Y-0.0261 Z-0.0064
G02 X0.1966 Y-0.1966 Z0.0000 R0.1966
G02 X-0.1966 Y-0.1966 Z0.0000 R0.1966
G02 X-0.1966 Y0.1966 Z0.0000 R0.1966
G02 X0.1966 Y0.1966 Z0.0000 R0.1966
G01 X0.0000 Y-0.0262 Z-0.0058
G02 X0.1703 Y-0.1703 Z0.0000 R0.1703
G02 X-0.1703 Y-0.1703 Z0.0000 R0.1703
G02 X-0.1703 Y0.1703 Z0.0000 R0.1703
G02 X0.1703 Y0.1703 Z0.0000 R0.1703
G01 X0.0000 Y-0.0264 Z-0.0053
G02 X0.1438 Y-0.1438 Z0.0000 R0.1438
G02 X-0.1438 Y-0.1438 Z0.0000 R0.1438
G02 X-0.1438 Y0.1438 Z0.0000 R0.1438
G02 X0.1438 Y0.1438 Z0.0000 R0.1438
G01 X0.0000 Y-0.0264 Z-0.0048
G02 X0.1174 Y-0.1174 Z0.0000 R0.1174
G02 X-0.1174 Y-0.1174 Z0.0000 R0.1174
G02 X-0.1174 Y0.1174 Z0.0000 R0.1174
G02 X0.1174 Y0.1174 Z0.0000 R0.1174
G01 X0.0000 Y-0.0266 Z-0.0043
G02 X0.0907 Y-0.0907 Z0.0000 R0.0907
G02 X-0.0907 Y-0.0907 Z0.0000 R0.0907
G02 X-0.0907 Y0.0907 Z0.0000 R0.0907
G02 X0.0907 Y0.0907 Z0.0000 R0.0907
G01 X0.0000 Y-0.0266 Z-0.0038
G02 X0.0640 Y-0.0640 Z0.0000 R0.0640
G02 X-0.0640 Y-0.0640 Z0.0000 R0.0640
G02 X-0.0640 Y0.0640 Z0.0000 R0.0640
G02 X0.0640 Y0.0640 Z0.0000 R0.0640
G90
G01 X28.3464 Y0.0000 Z0.0000
( Incremental hole: depth = -0.4200, diameter = 0.3729                         )
G91
G01 X0.0000 Y0.0629 Z0.0000
G01 X0.0000 Y0.0000 Z-0.1400
G02 X0.0629 Y-0.0629 Z0.0000 R0.0629
G02 X-0.0629 Y-0.0629 Z0.0000 R0.0629
G02 X-0.0629 Y0.0629 Z0.0000 R0.0629
G02 X0.0629 Y0.0629 Z0.0000 R0.0629
G01 X0.0000 Y0.0000 Z-0.1400
G02 X0.0629 Y-0.0629 Z0.0000 R0.0629
G02 X-0.0629 Y-0.0629 Z0.0000 R0.0629
G02 X-0.0629 Y0.0629 Z0.0000 R0.0629
G02 X0.0629 Y0.0629 Z0.0000 R0.0629
G01 X0.0000 Y0.0000 Z-0.1400
G02 X0.0629 Y-0.0629 Z0.0000 R0.0629
G02 X-0.0629 Y-0.0629 Z0.0000 R0.0629
G02 X-0.0629 Y0.0629 Z0.0000 R0.0629
G02 X0.0629 Y0.0629 Z0.0000 R0.0629
G02 X0.0629 Y-0.0629 Z0.0000 R0.0629
G02 X-0.0629 Y-0.0629 Z0.0000 R0.0629
G02 X-0.0629 Y0.0629 Z0.0000 R0.0629
G02 X0.0629 Y0.0629 Z0.0000 R0.0629
G02 X0.0629 Y-0.0629 Z0.0000 R0.0629
G02 X-0.0629 Y-0.0629 Z0.0000 R0.0629
G02 X-0.0629 Y0.0629 Z0.0000 R0.0629
G02 X0.0629 Y0.0629 Z0.0000 R0.0629
G02 X0.0629 Y-0.0629 Z0.0000 R0.0629
G02 X-0.0629 Y-0.0629 Z0.0000 R0.0629
G02 X-0.0629 Y0.0629 Z0.0000 R0.0629
G02 X0.0629 Y0.0629 Z0.0000 R0.0629
G01 X0.0000 Y-0.0629 Z0.0000
G90
G01 X28.3464 Y0.0000 Z0.0000
G91
G01 X0.0000 Y0.2514 Z-0.0450
G02 X0.2514 Y-0.2514 Z0.0000 R0.2514
G02 X-0.2514 Y-0.2514 Z0.0000 R0.2514
G02 X-0.2514 Y0.2514 Z0.0000 R0.2514
G02 X0.2514 Y0.2514 Z0.0000 R0.2514
G01 X0.0000 Y-0.0285 Z-0.0069
G02 X0.2229 Y-0.2229 Z0.0000 R0.2229
G02 X-0.2229 Y-0.2229 Z0.0000 R0.2229
G02 X-0.2229 Y0.2229 Z0.0000 R0.2229
G02 X0.2229 Y0.2229 Z0.0000 R0.2229
G01 X0.0000 Y-0.0261 Z-0.0064
G02 X0.1966 Y-0.1966 Z0.0000 R0.1966
G02 X-0.1966 Y-0.1966 Z0.0000 R0.1966
G02 X-0.1966 Y0.1966 Z0.0000 R0.1966
G02 X0.1966 Y0.1966 Z0.0000 R0.1966
G01 X0.0000 Y-0.0262 Z-0.0058
G02 X0.1703 Y-0.1703 Z0.0000 R0.1703
G02 X-0.1703 Y-0.1703 Z0.0000 R0.1703
G02 X-0.1703 Y0.1703 Z0.0000 R0.1703
G02 X0.1703 Y0.1703 Z0.0000 R0.1703
G01 X0.0000 Y-0.0264 Z-0.0053
G02 X0.1438 Y-0.1438 Z0.0000 R0.1438
G02 X-0.1438 Y-0.1438 Z0.0000 R0.1438
G02 X-0.1438 Y0.1438 Z0.0000 R0.1438
G02 X0.1438 Y0.1438 Z0.0000 R0.1438
G01 X0.0000 Y-0.0264 Z-0.0048
G02 X0.1174 Y-0.1174 Z0.0000 R0.1174
G02 X-0.1174 Y-0.1174 Z0.0000 R0.1174
G02 X-0.1174 Y0.1174 Z0.0000 R0.1174
G02 X0.1174 Y0.1174 Z0.0000 R0.1174
G01 X0.0000 Y-0.0266 Z-0.0043
G02 X0.0907 Y-0.0907 Z0.0000 R0.0907
G02 X-0.0907 Y-0.0907 Z0.0000 R0.0907
G02 X-0.0907 Y0.0907 Z0.0000 R0.0907
G02 X0.0907 Y0.0907 Z0.0000 R0.0907
G01 X0.0000 Y-0.0266 Z-0.0038
G02 X0.0640 Y-0.0640 Z0.0000 R0.0640
G02 X-0.0640 Y-0.0640 Z0.0000 R0.0640
G02 X-0.0640 Y0.0640 Z0.0000 R0.0640
G02 X0.0640 Y0.0640 Z0.0000 R0.0640
G90
G00 X28.3464 Y0.0640 Z0.1000
G00 X28.3464 Y0.0000 Z0.1000
G00 X40.9448 Y0.0000 Z0.1000
( A single insert                                                              )
(   Outer rim diameter = 0.7500"                                               )
(   Outer rim depth    = -0.0450"                                              )
(   Shaft diameter      = 0.3729"                                              )
(   Shaft depth         = -0.4200"                                             )
G01 X40.9448 Y0.0000 Z0.0000
G91
G01 X0.0000 Y0.2514 Z-0.0450
G02 X0.2514 Y-0.2514 Z0.0000 R0.2514
G02 X-0.2514 Y-0.2514 Z0.0000 R0.2514
G02 X-0.2514 Y0.2514 Z0.0000 R0.2514
G02 X0.2514 Y0.2514 Z0.0000 R0.2514
G01 X0.0000 Y-0.0285 Z-0.0069
G02 X0.2229 Y-0.2229 Z0.0000 R0.2229
G02 X-0.2229 Y-0.2229 Z0.0000 R0.2229
G02 X-0.2229 Y0.2229 Z0.0000 R0.2229
G02 X0.2229 Y0.2229 Z0.0000 R0.2229
G01 X0.0000 Y-0.0261 Z-0.0064
G02 X0.1966 Y-0.1966 Z0.0000 R0.1966
G02 X-0.1966 Y-0.1966 Z0.0000 R0.1966
G02 X-0.1966 Y0.1966 Z0.0000 R0.1966
G02 X0.1966 Y0.1966 Z0.0000 R0.1966
G01 X0.0000 Y-0.0262 Z-0.0058
G02 X0.1703 Y-0.1703 Z0.0000 R0.1703
G02 X-0.1703 Y-0.1703 Z0.0000 R0.1703
G02 X-0.1703 Y0.1703 Z0.0000 R0.1703
G02 X0.1703 Y0.1703 Z0.0000 R0.1703
G01 X0.0000 Y-0.0264 Z-0.0053
G02 X0.1438 Y-0.1438 Z0.0000 R0.1438
G02 X-0.1438 Y-0.1438 Z0.0000 R0.1438
G02 X-0.1438 Y0.1438 Z0.0000 R0.1438
G02 X0.1438 Y0.1438 Z0.0000 R0.1438
G01 X0.0000 Y-0.0264 Z-0.0048
G02 X0.1174 Y-0.1174 Z0.0000 R0.1174
G02 X-0.1174 Y-0.1174 Z0.0000 R0.1174
G02 X-0.1174 Y0.1174 Z0.0000 R0.1174
G02 X0.1174 Y0.1174 Z0.0000 R0.1174
G01 X0.0000 Y-0.0266 Z-0.0043
G02 X0.0907 Y-0.0907 Z0.0000 R0.0907
G02 X-0.0907 Y-0.0907 Z0.0000 R0.0907
G02 X-0.0907 Y0.0907 Z0.0000 R0.0907
G02 X0.0907 Y0.0907 Z0.0000 R0.0907
G01 X0.0000 Y-0.0266 Z-0.0038
G02 X0.0640 Y-0.0640 Z0.0000 R0.0640
G02 X-0.0640 Y-0.0640 Z0.0000 R0.0640
G02 X-0.0640 Y0.0640 Z0.0000 R0.0640
G02 X0.0640 Y0.0640 Z0.0000 R0.0640
G90
G01 X40.9448 Y0.0000 Z0.0000
( Incremental hole: depth = -0.4200, diameter = 0.3729                         )
G91
G01 X0.0000 Y0.0629 Z0.0000
G01 X0.0000 Y0.0000 Z-0.1400
G02 X0.0629 Y-0.0629 Z0.0000 R0.0629
G02 X-0.0629 Y-0.0629 Z0.0000 R0.0629
G02 X-0.0629 Y0.0629 Z0.0000 R0.0629
G02 X0.0629 Y0.0629 Z0.0000 R0.0629
G01 X0.0000 Y0.0000 Z-0.1400
G02 X0.0629 Y-0.0629 Z0.0000 R0.0629
G02 X-0.0629 Y-0.0629 Z0.0000 R0.0629
G02 X-0.0629 Y0.0629 Z0.0000 R0.0629
G02 X0.0629 Y0.0629 Z0.0000 R0.0629
G01 X0.0000 Y0.0000 Z-0.1400
G02 X0.0629 Y-0.0629 Z0.0000 R0.0629
G02 X-0.0629 Y-0.0629 Z0.0000 R0.0629
G02 X-0.0629 Y0.0629 Z0.0000 R0.0629
G02 X0.0629 Y0.0629 Z0.0000 R0.0629
G02 X0.0629 Y-0.0629 Z0.0000 R0.0629
G02 X-0.0629 Y-0.0629 Z0.0000 R0.0629
G02 X-0.0629 Y0.0629 Z0.0000 R0.0629
G02 X0.0629 Y0.0629 Z0.0000 R0.0629
G02 X0.0629 Y-0.0629 Z0.0000 R0.0629
G02 X-0.0629 Y-0.0629 Z0.0000 R0.0629
G02 X-0.0629 Y0.0629 Z0.0000 R0.0629
G02 X0.0629 Y0.0629 Z0.0000 R0.0629
G02 X0.0629 Y-0.0629 Z0.0000 R0.0629
G02 X-0.0629 Y-0.0629 Z0.0000 R0.0629
G02 X-0.0629 Y0.0629 Z0.0000 R0.0629
G02 X0.0629 Y0.0629 Z0.0000 R0.0629
G01 X0.0000 Y-0.0629 Z0.0000
G90
G01 X40.9448 Y0.0000 Z0.0000
G91
G01 X0.0000 Y0.2514 Z-0.0450
G02 X0.2514 Y-0.2514 Z0.0000 R0.2514
G02 X-0.2514 Y-0.2514 Z0.0000 R0.2514
G02 X-0.2514 Y0.2514 Z0.0000 R0.2514
G02 X0.2514 Y0.2514 Z0.0000 R0.2514
G01 X0.0000 Y-0.0285 Z-0.0069
G02 X0.2229 Y-0.2229 Z0.0000 R0.2229
G02 X-0.2229 Y-0.2229 Z0.0000 R0.2229
G02 X-0.2229 Y0.2229 Z0.0000 R0.2229
G02 X0.2229 Y0.2229 Z0.0000 R0.2229
G01 X0.0000 Y-0.0261 Z-0.0064
G02 X0.1966 Y-0.1966 Z0.0000 R0.1966
G02 X-0.1966 Y-0.1966 Z0.0000 R0.1966
G02 X-0.1966 Y0.1966 Z0.0000 R0.1966
G02 X0.1966 Y0.1966 Z0.0000 R0.1966
G01 X0.0000 Y-0.0262 Z-0.0058
G02 X0.1703 Y-0.1703 Z0.0000 R0.1703
G02 X-0.1703 Y-0.1703 Z0.0000 R0.1703
G02 X-0.1703 Y0.1703 Z0.0000 R0.1703
G02 X0.1703 Y0.1703 Z0.0000 R0.1703
G01 X0.0000 Y-0.0264 Z-0.0053
G02 X0.1438 Y-0.1438 Z0.0000 R0.1438
G02 X-0.1438 Y-0.1438 Z0.0000 R0.1438
G02 X-0.1438 Y0.1438 Z0.0000 R0.1438
G02 X0.1438 Y0.1438 Z0.0000 R0.1438
G01 X0.0000 Y-0.0264 Z-0.0048
G02 X0.1174 Y-0.1174 Z0.0000 R0.1174
G02 X-0.1174 Y-0.1174 Z0.0000 R0.1174
G02 X-0.1174 Y0.1174 Z0.0000 R0.1174
G02 X0.1174 Y0.1174 Z0.0000 R0.1174
G01 X0.0000 Y-0.0266 Z-0.0043
G02 X0.0907 Y-0.0907 Z0.0000 R0.0907
G02 X-0.0907 Y-0.0907 Z0.0000 R0.0907
G02 X-0.0907 Y0.0907 Z0.0000 R0.0907
G02 X0.0907 Y0.0907 Z0.0000 R0.0907
G01 X0.0000 Y-0.0266 Z-0.0038
G02 X0.0640 Y-0.0640 Z0.0000 R0.0640
G02 X-0.0640 Y-0.0640 Z0.0000 R0.0640
G02 X-0.0640 Y0.0640 Z0.0000 R0.0640
G02 X0.0640 Y0.0640 Z0.0000 R0.0640
G90
G00 X40.9448 Y0.0640 Z0.1000
G00 X40.9448 Y0.0000 Z0.1000
G00 X42.5196 Y-0.7874 Z0.1000
( A single insert                                                              )
(   Outer rim diameter = 0.7500"                                               )
(   Outer rim depth    = -0.0450"                                              )
(   Shaft diameter      = 0.3729"                                              )
(   Shaft depth         = -0.4200"                                             )
G01 X42.5196 Y-0.7874 Z0.0000
G91
G01 X0.0000 Y0.2514 Z-0.0450
G02 X0.2514 Y-0.2514 Z0.0000 R0.2514
G02 X-0.2514 Y-0.2514 Z0.0000 R0.2514
G02 X-0.2514 Y0.2514 Z0.0000 R0.2514
G02 X0.2514 Y0.2514 Z0.0000 R0.2514
G01 X0.0000 Y-0.0285 Z-0.0069
G02 X0.2229 Y-0.2229 Z0.0000 R0.2229
G02 X-0.2229 Y-0.2229 Z0.0000 R0.2229
G02 X-0.2229 Y0.2229 Z0.0000 R0.2229
G02 X0.2229 Y0.2229 Z0.0000 R0.2229
G01 X0.0000 Y-0.0261 Z-0.0064
G02 X0.1966 Y-0.1966 Z0.0000 R0.1966
G02 X-0.1966 Y-0.1966 Z0.0000 R0.1966
G02 X-0.1966 Y0.1966 Z0.0000 R0.1966
G02 X0.1966 Y0.1966 Z0.0000 R0.1966
G01 X0.0000 Y-0.0262 Z-0.0058
G02 X0.1703 Y-0.1703 Z0.0000 R0.1703
G02 X-0.1703 Y-0.1703 Z0.0000 R0.1703
G02 X-0.1703 Y0.1703 Z0.0000 R0.1703
G02 X0.1703 Y0.1703 Z0.0000 R0.1703
G01 X0.0000 Y-0.0264 Z-0.0053
G02 X0.1438 Y-0.1438 Z0.0000 R0.1438
G02 X-0.1438 Y-0.1438 Z0.0000 R0.1438
G02 X-0.1438 Y0.1438 Z0.0000 R0.1438
G02 X0.1438 Y0.1438 Z0.0000 R0.1438
G01 X0.0000 Y-0.0264 Z-0.0048
G02 X0.1174 Y-0.1174 Z0.0000 R0.1174
G02 X-0.1174 Y-0.1174 Z0.0000 R0.1174
G02 X-0.1174 Y0.1174 Z0.0000 R0.1174
G02 X0.1174 Y0.1174 Z0.0000 R0.1174
G01 X0.0000 Y-0.0266 Z-0.0043
G02 X0.0907 Y-0.0907 Z0.0000 R0.0907
G02 X-0.0907 Y-0.0907 Z0.0000 R0.0907
G02 X-0.0907 Y0.0907 Z0.0000 R0.0907
G02 X0.0907 Y0.0907 Z0.0000 R0.0907
G01 X0.0000 Y-0.0266 Z-0.0038
G02 X0.0640 Y-0.0640 Z0.0000 R0.0640
G02 X-0.0640 Y-0.0640 Z0.0000 R0.0640
G02 X-0.0640 Y0.0640 Z0.0000 R0.0640
G02 X0.0640 Y0.0640 Z0.0000 R0.0640
G90
G01 X42.5196 Y-0.7874 Z0.0000
( Incremental hole: depth = -0.4200, diameter = 0.3729                         )
G91
G01 X0.0000 Y0.0629 Z0.0000
G01 X0.0000 Y0.0000 Z-0.1400
G02 X0.0629 Y-0.0629 Z0.0000 R0.0629
G02 X-0.0629 Y-0.0629 Z0.0000 R0.0629
G02 X-0.0629 Y0.0629 Z0.0000 R0.0629
G02 X0.0629 Y0.0629 Z0.0000 R0.0629
G01 X0.0000 Y0.0000 Z-0.1400
G02 X0.0629 Y-0.0629 Z0.0000 R0.0629
G02 X-0.0629 Y-0.0629 Z0.0000 R0.0629
G02 X-0.0629 Y0.0629 Z0.0000 R0.0629
G02 X0.0629 Y0.0629 Z0.0000 R0.0629
G01 X0.0000 Y0.0000 Z-0.1400
G02 X0.0629 Y-0.0629 Z0.0000 R0.0629
G02 X-0.0629 Y-0.0629 Z0.0000 R0.0629
G02 X-0.0629 Y0.0629 Z0.0000 R0.0629
G02 X0.0629 Y0.0629 Z0.0000 R0.0629
G02 X0.0629 Y-0.0629 Z0.0000 R0.0629
G02 X-0.0629 Y-0.0629 Z0.0000 R0.0629
G02 X-0.0629 Y0.0629 Z0.0000 R0.0629
G02 X0.0629 Y0.0629 Z0.0000 R0.0629
G02 X0.0629 Y-0.0629 Z0.0000 R0.0629
G02 X-0.0629 Y-0.0629 Z0.0000 R0.0629
G02 X-0.0629 Y0.0629 Z0.0000 R0.0629
G02 X0.0629 Y0.0629 Z0.0000 R0.0629
G02 X0.0629 Y-0.0629 Z0.0000 R0.0629
G02 X-0.0629 Y-0.0629 Z0.0000 R0.0629
G02 X-0.0629 Y0.0629 Z0.0000 R0.0629
G02 X0.0629 Y0.0629 Z0.0000 R0.0629
G01 X0.0000 Y-0.0629 Z0.0000
G90
G01 X42.5196 Y-0.7874 Z0.0000
G91
G01 X0.0000 Y0.2514 Z-0.0450
G02 X0.2514 Y-0.2514 Z0.0000 R0.2514
G02 X-0.2514 Y-0.2514 Z0.0000 R0.2514
G02 X-0.2514 Y0.2514 Z0.0000 R0.2514
G02 X0.2514 Y0.2514 Z0.0000 R0.2514
G01 X0.0000 Y-0.0285 Z-0.0069
G02 X0.2229 Y-0.2229 Z0.0000 R0.2229
G02 X-0.2229 Y-0.2229 Z0.0000 R0.2229
G02 X-0.2229 Y0.2229 Z0.0000 R0.2229
G02 X0.2229 Y0.2229 Z0.0000 R0.2229
G01 X0.0000 Y-0.0261 Z-0.0064
G02 X0.1966 Y-0.1966 Z0.0000 R0.1966
G02 X-0.1966 Y-0.1966 Z0.0000 R0.1966
G02 X-0.1966 Y0.1966 Z0.0000 R0.1966
G02 X0.1966 Y0.1966 Z0.0000 R0.1966
G01 X0.0000 Y-0.0262 Z-0.0058
G02 X0.1703 Y-0.1703 Z0.0000 R0.1703
G02 X-0.1703 Y-0.1703 Z0.0000 R0.1703
G02 X-0.1703 Y0.1703 Z0.0000 R0.1703
G02 X0.1703 Y0.1703 Z0.0000 R0.1703
G01 X0.0000 Y-0.0264 Z-0.0053
G02 X0.1438 Y-0.1438 Z0.0000 R0.1438
G02 X-0.1438 Y-0.1438 Z0.0000 R0.1438
G02 X-0.1438 Y0.1438 Z0.0000 R0.1438
G02 X0.1438 Y0.1438 Z0.0000 R0.1438
G01 X0.0000 Y-0.0264 Z-0.0048
G02 X0.1174 Y-0.1174 Z0.0000 R0.1174
G02 X-0.1174 Y-0.1174 Z0.0000 R0.1174
G02 X-0.1174 Y0.1174 Z0.0000 R0.1174
G02 X0.1174 Y0.1174 Z0.0000 R0.1174
G01 X0.0000 Y-0.0266 Z-0.0043
G02 X0.0907 Y-0.0907 Z0.0000 R0.0907
G02 X-0.0907 Y-0.0907 Z0.0000 R0.0907
G02 X-0.0907 Y0.0907 Z0.0000 R0.0907
G02 X0.0907 Y0.0907 Z0.0000 R0.0907
G01 X0.0000 Y-0.0266 Z-0.0038
G02 X0.0640 Y-0.0640 Z0.0000 R0.0640
G02 X-0.0640 Y-0.0640 Z0.0000 R0.0640
G02 X-0.0640 Y0.0640 Z0.0000 R0.0640
G02 X0.0640 Y0.0640 Z0.0000 R0.0640
G90
G00 X42.5196 Y-0.7233 Z0.1000
G00 X42.5196 Y-0.7874 Z0.1000
G00 X42.5196 Y0.7874 Z0.1000
( A single insert                                                              )
(   Outer rim diameter = 0.7500"                                               )
(   Outer rim depth    = -0.0450"                                              )
(   Shaft diameter      = 0.3729"                                              )
(   Shaft depth         = -0.4200"                                             )
G01 X42.5196 Y0.7874 Z0.0000
G91
G01 X0.0000 Y0.2514 Z-0.0450
G02 X0.2514 Y-0.2514 Z0.0000 R0.2514
G02 X-0.2514 Y-0.2514 Z0.0000 R0.2514
G02 X-0.2514 Y0.2514 Z0.0000 R0.2514
G02 X0.2514 Y0.2514 Z0.0000 R0.2514
G01 X0.0000 Y-0.0285 Z-0.0069
G02 X0.2229 Y-0.2229 Z0.0000 R0.2229
G02 X-0.2229 Y-0.2229 Z0.0000 R0.2229
G02 X-0.2229 Y0.2229 Z0.0000 R0.2229
G02 X0.2229 Y0.2229 Z0.0000 R0.2229
G01 X0.0000 Y-0.0261 Z-0.0064
G02 X0.1966 Y-0.1966 Z0.0000 R0.1966
G02 X-0.1966 Y-0.1966 Z0.0000 R0.1966
G02 X-0.1966 Y0.1966 Z0.0000 R0.1966
G02 X0.1966 Y0.1966 Z0.0000 R0.1966
G01 X0.0000 Y-0.0262 Z-0.0058
G02 X0.1703 Y-0.1703 Z0.0000 R0.1703
G02 X-0.1703 Y-0.1703 Z0.0000 R0.1703
G02 X-0.1703 Y0.1703 Z0.0000 R0.1703
G02 X0.1703 Y0.1703 Z0.0000 R0.1703
G01 X0.0000 Y-0.0264 Z-0.0053
G02 X0.1438 Y-0.1438 Z0.0000 R0.1438
G02 X-0.1438 Y-0.1438 Z0.0000 R0.1438
G02 X-0.1438 Y0.1438 Z0.0000 R0.1438
G02 X0.1438 Y0.1438 Z0.0000 R0.1438
G01 X0.0000 Y-0.0264 Z-0.0048
G02 X0.1174 Y-0.1174 Z0.0000 R0.1174
G02 X-0.1174 Y-0.1174 Z0.0000 R0.1174
G02 X-0.1174 Y0.1174 Z0.0000 R0.1174
G02 X0.1174 Y0.1174 Z0.0000 R0.1174
G01 X0.0000 Y-0.0266 Z-0.0043
G02 X0.0907 Y-0.0907 Z0.0000 R0.0907
G02 X-0.0907 Y-0.0907 Z0.0000 R0.0907
G02 X-0.0907 Y0.0907 Z0.0000 R0.0907
G02 X0.0907 Y0.0907 Z0.0000 R0.0907
G01 X0.0000 Y-0.0266 Z-0.0038
G02 X0.0640 Y-0.0640 Z0.0000 R0.0640
G02 X-0.0640 Y-0.0640 Z0.0000 R0.0640
G02 X-0.0640 Y0.0640 Z0.0000 R0.0640
G02 X0.0640 Y0.0640 Z0.0000 R0.0640
G90
G01 X42.5196 Y0.7874 Z0.0000
( Incremental hole: depth = -0.4200, diameter = 0.3729                         )
G91
G01 X0.0000 Y0.0629 Z0.0000
G01 X0.0000 Y0.0000 Z-0.1400
G02 X0.0629 Y-0.0629 Z0.0000 R0.0629
G02 X-0.0629 Y-0.0629 Z0.0000 R0.0629
G02 X-0.0629 Y0.0629 Z0.0000 R0.0629
G02 X0.0629 Y0.0629 Z0.0000 R0.0629
G01 X0.0000 Y0.0000 Z-0.1400
G02 X0.0629 Y-0.0629 Z0.0000 R0.0629
G02 X-0.0629 Y-0.0629 Z0.0000 R0.0629
G02 X-0.0629 Y0.0629 Z0.0000 R0.0629
G02 X0.0629 Y0.0629 Z0.0000 R0.0629
G01 X0.0000 Y0.0000 Z-0.1400
G02 X0.0629 Y-0.0629 Z0.0000 R0.0629
G02 X-0.0629 Y-0.0629 Z0.0000 R0.0629
G02 X-0.0629 Y0.0629 Z0.0000 R0.0629
G02 X0.0629 Y0.0629 Z0.0000 R0.0629
G02 X0.0629 Y-0.0629 Z0.0000 R0.0629
G02 X-0.0629 Y-0.0629 Z0.0000 R0.0629
G02 X-0.0629 Y0.0629 Z0.0000 R0.0629
G02 X0.0629 Y0.0629 Z0.0000 R0.0629
G02 X0.0629 Y-0.0629 Z0.0000 R0.0629
G02 X-0.0629 Y-0.0629 Z0.0000 R0.0629
G02 X-0.0629 Y0.0629 Z0.0000 R0.0629
G02 X0.0629 Y0.0629 Z0.0000 R0.0629
G02 X0.0629 Y-0.0629 Z0.0000 R0.0629
G02 X-0.0629 Y-0.0629 Z0.0000 R0.0629
G02 X-0.0629 Y0.0629 Z0.0000 R0.0629
G02 X0.0629 Y0.0629 Z0.0000 R0.0629
G01 X0.0000 Y-0.0629 Z0.0000
G90
G01 X42.5196 Y0.7874 Z0.0000
G91
G01 X0.0000 Y0.2514 Z-0.0450
G02 X0.2514 Y-0.2514 Z0.0000 R0.2514
G02 X-0.2514 Y-0.2514 Z0.0000 R0.2514
G02 X-0.2514 Y0.2514 Z0.0000 R0.2514
G02 X0.2514 Y0.2514 Z0.0000 R0.2514
G01 X0.0000 Y-0.0285 Z-0.0069
G02 X0.2229 Y-0.2229 Z0.0000 R0.2229
G02 X-0.2229 Y-0.2229 Z0.0000 R0.2229
G02 X-0.2229 Y0.2229 Z0.0000 R0.2229
G02 X0.2229 Y0.2229 Z0.0000 R0.2229
G01 X0.0000 Y-0.0261 Z-0.0064
G02 X0.1966 Y-0.1966 Z0.0000 R0.1966
G02 X-0.1966 Y-0.1966 Z0.0000 R0.1966
G02 X-0.1966 Y0.1966 Z0.0000 R0.1966
G02 X0.1966 Y0.1966 Z0.0000 R0.1966
G01 X0.0000 Y-0.0262 Z-0.0058
G02 X0.1703 Y-0.1703 Z0.0000 R0.1703
G02 X-0.1703 Y-0.1703 Z0.0000 R0.1703
G02 X-0.1703 Y0.1703 Z0.0000 R0.1703
G02 X0.1703 Y0.1703 Z0.0000 R0.1703
G01 X0.0000 Y-0.0264 Z-0.0053
G02 X0.1438 Y-0.1438 Z0.0000 R0.1438
G02 X-0.1438 Y-0.1438 Z0.0000 R0.1438
G02 X-0.1438 Y0.1438 Z0.0000 R0.1438
G02 X0.1438 Y0.1438 Z0.0000 R0.1438
G01 X0.0000 Y-0.0264 Z-0.0048
G02 X0.1174 Y-0.1174 Z0.0000 R0.1174
G02 X-0.1174 Y-0.1174 Z0.0000 R0.1174
G02 X-0.1174 Y0.1174 Z0.0000 R0.1174
G02 X0.1174 Y0.1174 Z0.0000 R0.1174
G01 X0.0000 Y-0.0266 Z-0.0043
G02 X0.0907 Y-0.0907 Z0.0000 R0.0907
G02 X-0.0907 Y-0.0907 Z0.0000 R0.0907
G02 X-0.0907 Y0.0907 Z0.0000 R0.0907
G02 X0.0907 Y0.0907 Z0.0000 R0.0907
G01 X0.0000 Y-0.0266 Z-0.0038
G02 X0.0640 Y-0.0640 Z0.0000 R0.0640
G02 X-0.0640 Y-0.0640 Z0.0000 R0.0640
G02 X-0.0640 Y0.0640 Z0.0000 R0.0640
G02 X0.0640 Y0.0640 Z0.0000 R0.0640
G90
G00 X42.5196 Y0.8514 Z0.1000
G00 X42.5196 Y0.7874 Z0.1000
G00 X44.0944 Y-0.7874 Z0.1000
( A single insert                                                              )
(   Outer rim diameter = 0.7500"                                               )
(   Outer rim depth    = -0.0450"                                              )
(   Shaft diameter      = 0.3729"                                              )
(   Shaft depth         = -0.4200"                                             )
G01 X44.0944 Y-0.7874 Z0.0000
G91
G01 X0.0000 Y0.2514 Z-0.0450
G02 X0.2514 Y-0.2514 Z0.0000 R0.2514
G02 X-0.2514 Y-0.2514 Z0.0000 R0.2514
G02 X-0.2514 Y0.2514 Z0.0000 R0.2514
G02 X0.2514 Y0.2514 Z0.0000 R0.2514
G01 X0.0000 Y-0.0285 Z-0.0069
G02 X0.2229 Y-0.2229 Z0.0000 R0.2229
G02 X-0.2229 Y-0.2229 Z0.0000 R0.2229
G02 X-0.2229 Y0.2229 Z0.0000 R0.2229
G02 X0.2229 Y0.2229 Z0.0000 R0.2229
G01 X0.0000 Y-0.0261 Z-0.0064
G02 X0.1966 Y-0.1966 Z0.0000 R0.1966
G02 X-0.1966 Y-0.1966 Z0.0000 R0.1966
G02 X-0.1966 Y0.1966 Z0.0000 R0.1966
G02 X0.1966 Y0.1966 Z0.0000 R0.1966
G01 X0.0000 Y-0.0262 Z-0.0058
G02 X0.1703 Y-0.1703 Z0.0000 R0.1703
G02 X-0.1703 Y-0.1703 Z0.0000 R0.1703
G02 X-0.1703 Y0.1703 Z0.0000 R0.1703
G02 X0.1703 Y0.1703 Z0.0000 R0.1703
G01 X0.0000 Y-0.0264 Z-0.0053
G02 X0.1438 Y-0.1438 Z0.0000 R0.1438
G02 X-0.1438 Y-0.1438 Z0.0000 R0.1438
G02 X-0.1438 Y0.1438 Z0.0000 R0.1438
G02 X0.1438 Y0.1438 Z0.0000 R0.1438
G01 X0.0000 Y-0.0264 Z-0.0048
G02 X0.1174 Y-0.1174 Z0.0000 R0.1174
G02 X-0.1174 Y-0.1174 Z0.0000 R0.1174
G02 X-0.1174 Y0.1174 Z0.0000 R0.1174
G02 X0.1174 Y0.1174 Z0.0000 R0.1174
G01 X0.0000 Y-0.0266 Z-0.0043
G02 X0.0907 Y-0.0907 Z0.0000 R0.0907
G02 X-0.0907 Y-0.0907 Z0.0000 R0.0907
G02 X-0.0907 Y0.0907 Z0.0000 R0.0907
G02 X0.0907 Y0.0907 Z0.0000 R0.0907
G01 X0.0000 Y-0.0266 Z-0.0038
G02 X0.0640 Y-0.0640 Z0.0000 R0.0640
G02 X-0.0640 Y-0.0640 Z0.0000 R0.0640
G02 X-0.0640 Y0.0640 Z0.0000 R0.0640
G02 X0.0640 Y0.0640 Z0.0000 R0.0640
G90
G01 X44.0944 Y-0.7874 Z0.0000
( Incremental hole: depth = -0.4200, diameter = 0.3729                         )
G91
G01 X0.0000 Y0.0629 Z0.0000
G01 X0.0000 Y0.0000 Z-0.1400
G02 X0.0629 Y-0.0629 Z0.0000 R0.0629
G02 X-0.0629 Y-0.0629 Z0.0000 R0.0629
G02 X-0.0629 Y0.0629 Z0.0000 R0.0629
G02 X0.0629 Y0.0629 Z0.0000 R0.0629
G01 X0.0000 Y0.0000 Z-0.1400
G02 X0.0629 Y-0.0629 Z0.0000 R0.0629
G02 X-0.0629 Y-0.0629 Z0.0000 R0.0629
G02 X-0.0629 Y0.0629 Z0.0000 R0.0629
G02 X0.0629 Y0.0629 Z0.0000 R0.0629
G01 X0.0000 Y0.0000 Z-0.1400
G02 X0.0629 Y-0.0629 Z0.0000 R0.0629
G02 X-0.0629 Y-0.0629 Z0.0000 R0.0629
G02 X-0.0629 Y0.0629 Z0.0000 R0.0629
G02 X0.0629 Y0.0629 Z0.0000 R0.0629
G02 X0.0629 Y-0.0629 Z0.0000 R0.0629
G02 X-0.0629 Y-0.0629 Z0.0000 R0.0629
G02 X-0.0629 Y0.0629 Z0.0000 R0.0629
G02 X0.0629 Y0.0629 Z0.0000 R0.0629
G02 X0.0629 Y-0.0629 Z0.0000 R0.0629
G02 X-0.0629 Y-0.0629 Z0.0000 R0.0629
G02 X-0.0629 Y0.0629 Z0.0000 R0.0629
G02 X0.0629 Y0.0629 Z0.0000 R0.0629
G02 X0.0629 Y-0.0629 Z0.0000 R0.0629
G02 X-0.0629 Y-0.0629 Z0.0000 R0.0629
G02 X-0.0629 Y0.0629 Z0.0000 R0.0629
G02 X0.0629 Y0.0629 Z0.0000 R0.0629
G01 X0.0000 Y-0.0629 Z0.0000
G90
G01 X44.0944 Y-0.7874 Z0.0000
G91
G01 X0.0000 Y0.2514 Z-0.0450
G02 X0.2514 Y-0.2514 Z0.0000 R0.2514
G02 X-0.2514 Y-0.2514 Z0.0000 R0.2514
G02 X-0.2514 Y0.2514 Z0.0000 R0.2514
G02 X0.2514 Y0.2514 Z0.0000 R0.2514
G01 X0.0000 Y-0.0285 Z-0.0069
G02 X0.2229 Y-0.2229 Z0.0000 R0.2229
G02 X-0.2229 Y-0.2229 Z0.0000 R0.2229
G02 X-0.2229 Y0.2229 Z0.0000 R0.2229
G02 X0.2229 Y0.2229 Z0.0000 R0.2229
G01 X0.0000 Y-0.0261 Z-0.0064
G02 X0.1966 Y-0.1966 Z0.0000 R0.1966
G02 X-0.1966 Y-0.1966 Z0.0000 R0.1966
G02 X-0.1966 Y0.1966 Z0.0000 R0.1966
G02 X0.1966 Y0.1966 Z0.0000 R0.1966
G01 X0.0000 Y-0.0262 Z-0.0058
G02 X0.1703 Y-0.1703 Z0.0000 R0.1703
G02 X-0.1703 Y-0.1703 Z0.0000 R0.1703
G02 X-0.1703 Y0.1703 Z0.0000 R0.1703
G02 X0.1703 Y0.1703 Z0.0000 R0.1703
G01 X0.0000 Y-0.0264 Z-0.0053
G02 X0.1438 Y-0.1438 Z0.0000 R0.1438
G02 X-0.1438 Y-0.1438 Z0.0000 R0.1438
G02 X-0.1438 Y0.1438 Z0.0000 R0.1438
G02 X0.1438 Y0.1438 Z0.0000 R0.1438
G01 X0.0000 Y-0.0264 Z-0.0048
G02 X0.1174 Y-0.1174 Z0.0000 R0.1174
G02 X-0.1174 Y-0.1174 Z0.0000 R0.1174
G02 X-0.1174 Y0.1174 Z0.0000 R0.1174
G02 X0.1174 Y0.1174 Z0.0000 R0.1174
G01 X0.0000 Y-0.0266 Z-0.0043
G02 X0.0907 Y-0.0907 Z0.0000 R0.0907
G02 X-0.0907 Y-0.0907 Z0.0000 R0.0907
G02 X-0.0907 Y0.0907 Z0.0000 R0.0907
G02 X0.0907 Y0.0907 Z0.0000 R0.0907
G01 X0.0000 Y-0.0266 Z-0.0038
G02 X0.0640 Y-0.0640 Z0.0000 R0.0640
G02 X-0.0640 Y-0.0640 Z0.0000 R0.0640
G02 X-0.0640 Y0.0640 Z0.0000 R0.0640
G02 X0.0640 Y0.0640 Z0.0000 R0.0640
G90
G00 X44.0944 Y-0.7233 Z0.1000
G00 X44.0944 Y-0.7874 Z0.1000
G00 X44.0944 Y0.7874 Z0.1000
( A single insert                                                              )
(   Outer rim diameter = 0.7500"                                               )
(   Outer rim depth    = -0.0450"                                              )
(   Shaft diameter      = 0.3729"                                              )
(   Shaft depth         = -0.4200"                                             )
G01 X44.0944 Y0.7874 Z0.0000
G91
G01 X0.0000 Y0.2514 Z-0.0450
G02 X0.2514 Y-0.2514 Z0.0000 R0.2514
G02 X-0.2514 Y-0.2514 Z0.0000 R0.2514
G02 X-0.2514 Y0.2514 Z0.0000 R0.2514
G02 X0.2514 Y0.2514 Z0.0000 R0.2514
G01 X0.0000 Y-0.0285 Z-0.0069
G02 X0.2229 Y-0.2229 Z0.0000 R0.2229
G02 X-0.2229 Y-0.2229 Z0.0000 R0.2229
G02 X-0.2229 Y0.2229 Z0.0000 R0.2229
G02 X0.2229 Y0.2229 Z0.0000 R0.2229
G01 X0.0000 Y-0.0261 Z-0.0064
G02 X0.1966 Y-0.1966 Z0.0000 R0.1966
G02 X-0.1966 Y-0.1966 Z0.0000 R0.1966
G02 X-0.1966 Y0.1966 Z0.0000 R0.1966
G02 X0.1966 Y0.1966 Z0.0000 R0.1966
G01 X0.0000 Y-0.0262 Z-0.0058
G02 X0.1703 Y-0.1703 Z0.0000 R0.1703
G02 X-0.1703 Y-0.1703 Z0.0000 R0.1703
G02 X-0.1703 Y0.1703 Z0.0000 R0.1703
G02 X0.1703 Y0.1703 Z0.0000 R0.1703
G01 X0.0000 Y-0.0264 Z-0.0053
G02 X0.1438 Y-0.1438 Z0.0000 R0.1438
G02 X-0.1438 Y-0.1438 Z0.0000 R0.1438
G02 X-0.1438 Y0.1438 Z0.0000 R0.1438
G02 X0.1438 Y0.1438 Z0.0000 R0.1438
G01 X0.0000 Y-0.0264 Z-0.0048
G02 X0.1174 Y-0.1174 Z0.0000 R0.1174
G02 X-0.1174 Y-0.1174 Z0.0000 R0.1174
G02 X-0.1174 Y0.1174 Z0.0000 R0.1174
G02 X0.1174 Y0.1174 Z0.0000 R0.1174
G01 X0.0000 Y-0.0266 Z-0.0043
G02 X0.0907 Y-0.0907 Z0.0000 R0.0907
G02 X-0.0907 Y-0.0907 Z0.0000 R0.0907
G02 X-0.0907 Y0.0907 Z0.0000 R0.0907
G02 X0.0907 Y0.0907 Z0.0000 R0.0907
G01 X0.0000 Y-0.0266 Z-0.0038
G02 X0.0640 Y-0.0640 Z0.0000 R0.0640
G02 X-0.0640 Y-0.0640 Z0.0000 R0.0640
G02 X-0.0640 Y0.0640 Z0.0000 R0.0640
G02 X0.0640 Y0.0640 Z0.0000 R0.0640
G90
G01 X44.0944 Y0.7874 Z0.0000
( Incremental hole: depth = -0.4200, diameter = 0.3729                         )
G91
G01 X0.0000 Y0.0629 Z0.0000
G01 X0.0000 Y0.0000 Z-0.1400
G02 X0.0629 Y-0.0629 Z0.0000 R0.0629
G02 X-0.0629 Y-0.0629 Z0.0000 R0.0629
G02 X-0.0629 Y0.0629 Z0.0000 R0.0629
G02 X0.0629 Y0.0629 Z0.0000 R0.0629
G01 X0.0000 Y0.0000 Z-0.1400
G02 X0.0629 Y-0.0629 Z0.0000 R0.0629
G02 X-0.0629 Y-0.0629 Z0.0000 R0.0629
G02 X-0.0629 Y0.0629 Z0.0000 R0.0629
G02 X0.0629 Y0.0629 Z0.0000 R0.0629
G01 X0.0000 Y0.0000 Z-0.1400
G02 X0.0629 Y-0.0629 Z0.0000 R0.0629
G02 X-0.0629 Y-0.0629 Z0.0000 R0.0629
G02 X-0.0629 Y0.0629 Z0.0000 R0.0629
G02 X0.0629 Y0.0629 Z0.0000 R0.0629
G02 X0.0629 Y-0.0629 Z0.0000 R0.0629
G02 X-0.0629 Y-0.0629 Z0.0000 R0.0629
G02 X-0.0629 Y0.0629 Z0.0000 R0.0629
G02 X0.0629 Y0.0629 Z0.0000 R0.0629
G02 X0.0629 Y-0.0629 Z0.0000 R0.0629
G02 X-0.0629 Y-0.0629 Z0.0000 R0.0629
G02 X-0.0629 Y0.0629 Z0.0000 R0.0629
G02 X0.0629 Y0.0629 Z0.0000 R0.0629
G02 X0.0629 Y-0.0629 Z0.0000 R0.0629
G02 X-0.0629 Y-0.0629 Z0.0000 R0.0629
G02 X-0.0629 Y0.0629 Z0.0000 R0.0629
G02 X0.0629 Y0.0629 Z0.0000 R0.0629
G01 X0.0000 Y-0.0629 Z0.0000
G90
G01 X44.0944 Y0.7874 Z0.0000
G91
G01 X0.0000 Y0.2514 Z-0.0450
G02 X0.2514 Y-0.2514 Z0.0000 R0.2514
G02 X-0.2514 Y-0.2514 Z0.0000 R0.2514
G02 X-0.2514 Y0.2514 Z0.0000 R0.2514
G02 X0.2514 Y0.2514 Z0.0000 R0.2514
G01 X0.0000 Y-0.0285 Z-0.0069
G02 X0.2229 Y-0.2229 Z0.0000 R0.2229
G02 X-0.2229 Y-0.2229 Z0.0000 R0.2229
G02 X-0.2229 Y0.2229 Z0.0000 R0.2229
G02 X0.2229 Y0.2229 Z0.0000 R0.2229
G01 X0.0000 Y-0.0261 Z-0.0064
G02 X0.1966 Y-0.1966 Z0.0000 R0.1966
G02 X-0.1966 Y-0.1966 Z0.0000 R0.1966
G02 X-0.1966 Y0.1966 Z0.0000 R0.1966
G02 X0.1966 Y0.1966 Z0.0000 R0.1966
G01 X0.0000 Y-0.0262 Z-0.0058
G02 X0.1703 Y-0.1703 Z0.0000 R0.1703
G02 X-0.1703 Y-0.1703 Z0.0000 R0.1703
G02 X-0.1703 Y0.1703 Z0.0000 R0.1703
G02 X0.1703 Y0.1703 Z0.0000 R0.1703
G01 X0.0000 Y-0.0264 Z-0.0053
G02 X0.1438 Y-0.1438 Z0.0000 R0.1438
G02 X-0.1438 Y-0.1438 Z0.0000 R0.1438
G02 X-0.1438 Y0.1438 Z0.0000 R0.1438
G02 X0.1438 Y0.1438 Z0.0000 R0.1438
G01 X0.0000 Y-0.0264 Z-0.0048
G02 X0.1174 Y-0.1174 Z0.0000 R0.1174
G02 X-0.1174 Y-0.1174 Z0.0000 R0.1174
G02 X-0.1174 Y0.1174 Z0.0000 R0.1174
G02 X0.1174 Y0.1174 Z0.0000 R0.1174
G01 X0.0000 Y-0.0266 Z-0.0043
G02 X0.0907 Y-0.0907 Z0.0000 R0.0907
G02 X-0.0907 Y-0.0907 Z0.0000 R0.0907
G02 X-0.0907 Y0.0907 Z0.0000 R0.0907
G02 X0.0907 Y0.0907 Z0.0000 R0.0907
G01 X0.0000 Y-0.0266 Z-0.0038
G02 X0.0640 Y-0.0640 Z0.0000 R0.0640
G02 X-0.0640 Y-0.0640 Z0.0000 R0.0640
G02 X-0.0640 Y0.0640 Z0.0000 R0.0640
G02 X0.0640 Y0.0640 Z0.0000 R0.0640
G90
G00 X44.0944 Y0.8514 Z0.1000
G00 X44.0944 Y0.7874 Z0.1000
G00 X45.6692 Y-0.7874 Z0.1000
( A single insert                                                              )
(   Outer rim diameter = 0.7500"                                               )
(   Outer rim depth    = -0.0450"                                              )
(   Shaft diameter      = 0.3729"                                              )
(   Shaft depth         = -0.4200"                                             )
G01 X45.6692 Y-0.7874 Z0.0000
G91
G01 X0.0000 Y0.2514 Z-0.0450
G02 X0.2514 Y-0.2514 Z0.0000 R0.2514
G02 X-0.2514 Y-0.2514 Z0.0000 R0.2514
G02 X-0.2514 Y0.2514 Z0.0000 R0.2514
G02 X0.2514 Y0.2514 Z0.0000 R0.2514
G01 X0.0000 Y-0.0285 Z-0.0069
G02 X0.2229 Y-0.2229 Z0.0000 R0.2229
G02 X-0.2229 Y-0.2229 Z0.0000 R0.2229
G02 X-0.2229 Y0.2229 Z0.0000 R0.2229
G02 X0.2229 Y0.2229 Z0.0000 R0.2229
G01 X0.0000 Y-0.0261 Z-0.0064
G02 X0.1966 Y-0.1966 Z0.0000 R0.1966
G02 X-0.1966 Y-0.1966 Z0.0000 R0.1966
G02 X-0.1966 Y0.1966 Z0.0000 R0.1966
G02 X0.1966 Y0.1966 Z0.0000 R0.1966
G01 X0.0000 Y-0.0262 Z-0.0058
G02 X0.1703 Y-0.1703 Z0.0000 R0.1703
G02 X-0.1703 Y-0.1703 Z0.0000 R0.1703
G02 X-0.1703 Y0.1703 Z0.0000 R0.1703
G02 X0.1703 Y0.1703 Z0.0000 R0.1703
G01 X0.0000 Y-0.0264 Z-0.0053
G02 X0.1438 Y-0.1438 Z0.0000 R0.1438
G02 X-0.1438 Y-0.1438 Z0.0000 R0.1438
G02 X-0.1438 Y0.1438 Z0.0000 R0.1438
G02 X0.1438 Y0.1438 Z0.0000 R0.1438
G01 X0.0000 Y-0.0264 Z-0.0048
G02 X0.1174 Y-0.1174 Z0.0000 R0.1174
G02 X-0.1174 Y-0.1174 Z0.0000 R0.1174
G02 X-0.1174 Y0.1174 Z0.0000 R0.1174
G02 X0.1174 Y0.1174 Z0.0000 R0.1174
G01 X0.0000 Y-0.0266 Z-0.0043
G02 X0.0907 Y-0.0907 Z0.0000 R0.0907
G02 X-0.0907 Y-0.0907 Z0.0000 R0.0907
G02 X-0.0907 Y0.0907 Z0.0000 R0.0907
G02 X0.0907 Y0.0907 Z0.0000 R0.0907
G01 X0.0000 Y-0.0266 Z-0.0038
G02 X0.0640 Y-0.0640 Z0.0000 R0.0640
G02 X-0.0640 Y-0.0640 Z0.0000 R0.0640
G02 X-0.0640 Y0.0640 Z0.0000 R0.0640
G02 X0.0640 Y0.0640 Z0.0000 R0.0640
G90
G01 X45.6692 Y-0.7874 Z0.0000
( Incremental hole: depth = -0.4200, diameter = 0.3729                         )
G91
G01 X0.0000 Y0.0629 Z0.0000
G01 X0.0000 Y0.0000 Z-0.1400
G02 X0.0629 Y-0.0629 Z0.0000 R0.0629
G02 X-0.0629 Y-0.0629 Z0.0000 R0.0629
G02 X-0.0629 Y0.0629 Z0.0000 R0.0629
G02 X0.0629 Y0.0629 Z0.0000 R0.0629
G01 X0.0000 Y0.0000 Z-0.1400
G02 X0.0629 Y-0.0629 Z0.0000 R0.0629
G02 X-0.0629 Y-0.0629 Z0.0000 R0.0629
G02 X-0.0629 Y0.0629 Z0.0000 R0.0629
G02 X0.0629 Y0.0629 Z0.0000 R0.0629
G01 X0.0000 Y0.0000 Z-0.1400
G02 X0.0629 Y-0.0629 Z0.0000 R0.0629
G02 X-0.0629 Y-0.0629 Z0.0000 R0.0629
G02 X-0.0629 Y0.0629 Z0.0000 R0.0629
G02 X0.0629 Y0.0629 Z0.0000 R0.0629
G02 X0.0629 Y-0.0629 Z0.0000 R0.0629
G02 X-0.0629 Y-0.0629 Z0.0000 R0.0629
G02 X-0.0629 Y0.0629 Z0.0000 R0.0629
G02 X0.0629 Y0.0629 Z0.0000 R0.0629
G02 X0.0629 Y-0.0629 Z0.0000 R0.0629
G02 X-0.0629 Y-0.0629 Z0.0000 R0.0629
G02 X-0.0629 Y0.0629 Z0.0000 R0.0629
G02 X0.0629 Y0.0629 Z0.0000 R0.0629
G02 X0.0629 Y-0.0629 Z0.0000 R0.0629
G02 X-0.0629 Y-0.0629 Z0.0000 R0.0629
G02 X-0.0629 Y0.0629 Z0.0000 R0.0629
G02 X0.0629 Y0.0629 Z0.0000 R0.0629
G01 X0.0000 Y-0.0629 Z0.0000
G90
G01 X45.6692 Y-0.7874 Z0.0000
G91
G01 X0.0000 Y0.2514 Z-0.0450
G02 X0.2514 Y-0.2514 Z0.0000 R0.2514
G02 X-0.2514 Y-0.2514 Z0.0000 R0.2514
G02 X-0.2514 Y0.2514 Z0.0000 R0.2514
G02 X0.2514 Y0.2514 Z0.0000 R0.2514
G01 X0.0000 Y-0.0285 Z-0.0069
G02 X0.2229 Y-0.2229 Z0.0000 R0.2229
G02 X-0.2229 Y-0.2229 Z0.0000 R0.2229
G02 X-0.2229 Y0.2229 Z0.0000 R0.2229
G02 X0.2229 Y0.2229 Z0.0000 R0.2229
G01 X0.0000 Y-0.0261 Z-0.0064
G02 X0.1966 Y-0.1966 Z0.0000 R0.1966
G02 X-0.1966 Y-0.1966 Z0.0000 R0.1966
G02 X-0.1966 Y0.1966 Z0.0000 R0.1966
G02 X0.1966 Y0.1966 Z0.0000 R0.1966
G01 X0.0000 Y-0.0262 Z-0.0058
G02 X0.1703 Y-0.1703 Z0.0000 R0.1703
G02 X-0.1703 Y-0.1703 Z0.0000 R0.1703
G02 X-0.1703 Y0.1703 Z0.0000 R0.1703
G02 X0.1703 Y0.1703 Z0.0000 R0.1703
G01 X0.0000 Y-0.0264 Z-0.0053
G02 X0.1438 Y-0.1438 Z0.0000 R0.1438
G02 X-0.1438 Y-0.1438 Z0.0000 R0.1438
G02 X-0.1438 Y0.1438 Z0.0000 R0.1438
G02 X0.1438 Y0.1438 Z0.0000 R0.1438
G01 X0.0000 Y-0.0264 Z-0.0048
G02 X0.1174 Y-0.1174 Z0.0000 R0.1174
G02 X-0.1174 Y-0.1174 Z0.0000 R0.1174
G02 X-0.1174 Y0.1174 Z0.0000 R0.1174
G02 X0.1174 Y0.1174 Z0.0000 R0.1174
G01 X0.0000 Y-0.0266 Z-0.0043
G02 X0.0907 Y-0.0907 Z0.0000 R0.0907
G02 X-0.0907 Y-0.0907 Z0.0000 R0.0907
G02 X-0.0907 Y0.0907 Z0.0000 R0.0907
G02 X0.0907 Y0.0907 Z0.0000 R0.0907
G01 X0.0000 Y-0.0266 Z-0.0038
G02 X0.0640 Y-0.0640 Z0.0000 R0.0640
G02 X-0.0640 Y-0.0640 Z0.0000 R0.0640
G02 X-0.0640 Y0.0640 Z0.0000 R0.0640
G02 X0.0640 Y0.0640 Z0.0000 R0.0640
G90
G00 X45.6692 Y-0.7233 Z0.1000
G00 X45.6692 Y-0.7874 Z0.1000
G00 X45.6692 Y0.7874 Z0.1000
( A single insert                                                              )
(   Outer rim diameter = 0.7500"                                               )
(   Outer rim depth    = -0.0450"                                              )
(   Shaft diameter      = 0.3729"                                              )
(   Shaft depth         = -0.4200"                                             )
G01 X45.6692 Y0.7874 Z0.0000
G91
G01 X0.0000 Y0.2514 Z-0.0450
G02 X0.2514 Y-0.2514 Z0.0000 R0.2514
G02 X-0.2514 Y-0.2514 Z0.0000 R0.2514
G02 X-0.2514 Y0.2514 Z0.0000 R0.2514
G02 X0.2514 Y0.2514 Z0.0000 R0.2514
G01 X0.0000 Y-0.0285 Z-0.0069
G02 X0.2229 Y-0.2229 Z0.0000 R0.2229
G02 X-0.2229 Y-0.2229 Z0.0000 R0.2229
G02 X-0.2229 Y0.2229 Z0.0000 R0.2229
G02 X0.2229 Y0.2229 Z0.0000 R0.2229
G01 X0.0000 Y-0.0261 Z-0.0064
G02 X0.1966 Y-0.1966 Z0.0000 R0.1966
G02 X-0.1966 Y-0.1966 Z0.0000 R0.1966
G02 X-0.1966 Y0.1966 Z0.0000 R0.1966
G02 X0.1966 Y0.1966 Z0.0000 R0.1966
G01 X0.0000 Y-0.0262 Z-0.0058
G02 X0.1703 Y-0.1703 Z0.0000 R0.1703
G02 X-0.1703 Y-0.1703 Z0.0000 R0.1703
G02 X-0.1703 Y0.1703 Z0.0000 R0.1703
G02 X0.1703 Y0.1703 Z0.0000 R0.1703
G01 X0.0000 Y-0.0264 Z-0.0053
G02 X0.1438 Y-0.1438 Z0.0000 R0.1438
G02 X-0.1438 Y-0.1438 Z0.0000 R0.1438
G02 X-0.1438 Y0.1438 Z0.0000 R0.1438
G02 X0.1438 Y0.1438 Z0.0000 R0.1438
G01 X0.0000 Y-0.0264 Z-0.0048
G02 X0.1174 Y-0.1174 Z0.0000 R0.1174
G02 X-0.1174 Y-0.1174 Z0.0000 R0.1174
G02 X-0.1174 Y0.1174 Z0.0000 R0.1174
G02 X0.1174 Y0.1174 Z0.0000 R0.1174
G01 X0.0000 Y-0.0266 Z-0.0043
G02 X0.0907 Y-0.0907 Z0.0000 R0.0907
G02 X-0.0907 Y-0.0907 Z0.0000 R0.0907
G02 X-0.0907 Y0.0907 Z0.0000 R0.0907
G02 X0.0907 Y0.0907 Z0.0000 R0.0907
G01 X0.0000 Y-0.0266 Z-0.0038
G02 X0.0640 Y-0.0640 Z0.0000 R0.0640
G02 X-0.0640 Y-0.0640 Z0.0000 R0.0640
G02 X-0.0640 Y0.0640 Z0.0000 R0.0640
G02 X0.0640 Y0.0640 Z0.0000 R0.0640
G90
G01 X45.6692 Y0.7874 Z0.0000
( Incremental hole: depth = -0.4200, diameter = 0.3729                         )
G91
G01 X0.0000 Y0.0629 Z0.0000
G01 X0.0000 Y0.0000 Z-0.1400
G02 X0.0629 Y-0.0629 Z0.0000 R0.0629
G02 X-0.0629 Y-0.0629 Z0.0000 R0.0629
G02 X-0.0629 Y0.0629 Z0.0000 R0.0629
G02 X0.0629 Y0.0629 Z0.0000 R0.0629
G01 X0.0000 Y0.0000 Z-0.1400
G02 X0.0629 Y-0.0629 Z0.0000 R0.0629
G02 X-0.0629 Y-0.0629 Z0.0000 R0.0629
G02 X-0.0629 Y0.0629 Z0.0000 R0.0629
G02 X0.0629 Y0.0629 Z0.0000 R0.0629
G01 X0.0000 Y0.0000 Z-0.1400
G02 X0.0629 Y-0.0629 Z0.0000 R0.0629
G02 X-0.0629 Y-0.0629 Z0.0000 R0.0629
G02 X-0.0629 Y0.0629 Z0.0000 R0.0629
G02 X0.0629 Y0.0629 Z0.0000 R0.0629
G02 X0.0629 Y-0.0629 Z0.0000 R0.0629
G02 X-0.0629 Y-0.0629 Z0.0000 R0.0629
G02 X-0.0629 Y0.0629 Z0.0000 R0.0629
G02 X0.0629 Y0.0629 Z0.0000 R0.0629
G02 X0.0629 Y-0.0629 Z0.0000 R0.0629
G02 X-0.0629 Y-0.0629 Z0.0000 R0.0629
G02 X-0.0629 Y0.0629 Z0.0000 R0.0629
G02 X0.0629 Y0.0629 Z0.0000 R0.0629
G02 X0.0629 Y-0.0629 Z0.0000 R0.0629
G02 X-0.0629 Y-0.0629 Z0.0000 R0.0629
G02 X-0.0629 Y0.0629 Z0.0000 R0.0629
G02 X0.0629 Y0.0629 Z0.0000 R0.0629
G01 X0.0000 Y-0.0629 Z0.0000
G90
G01 X45.6692 Y0.7874 Z0.0000
G91
G01 X0.0000 Y0.2514 Z-0.0450
G02 X0.2514 Y-0.2514 Z0.0000 R0.2514
G02 X-0.2514 Y-0.2514 Z0.0000 R0.2514
G02 X-0.2514 Y0.2514 Z0.0000 R0.2514
G02 X0.2514 Y0.2514 Z0.0000 R0.2514
G01 X0.0000 Y-0.0285 Z-0.0069
G02 X0.2229 Y-0.2229 Z0.0000 R0.2229
G02 X-0.2229 Y-0.2229 Z0.0000 R0.2229
G02 X-0.2229 Y0.2229 Z0.0000 R0.2229
G02 X0.2229 Y0.2229 Z0.0000 R0.2229
G01 X0.0000 Y-0.0261 Z-0.0064
G02 X0.1966 Y-0.1966 Z0.0000 R0.1966
G02 X-0.1966 Y-0.1966 Z0.0000 R0.1966
G02 X-0.1966 Y0.1966 Z0.0000 R0.1966
G02 X0.1966 Y0.1966 Z0.0000 R0.1966
G01 X0.0000 Y-0.0262 Z-0.0058
G02 X0.1703 Y-0.1703 Z0.0000 R0.1703
G02 X-0.1703 Y-0.1703 Z0.0000 R0.1703
G02 X-0.1703 Y0.1703 Z0.0000 R0.1703
G02 X0.1703 Y0.1703 Z0.0000 R0.1703
G01 X0.0000 Y-0.0264 Z-0.0053
G02 X0.1438 Y-0.1438 Z0.0000 R0.1438
G02 X-0.1438 Y-0.1438 Z0.0000 R0.1438
G02 X-0.1438 Y0.1438 Z0.0000 R0.1438
G02 X0.1438 Y0.1438 Z0.0000 R0.1438
G01 X0.0000 Y-0.0264 Z-0.0048
G02 X0.1174 Y-0.1174 Z0.0000 R0.1174
G02 X-0.1174 Y-0.1174 Z0.0000 R0.1174
G02 X-0.1174 Y0.1174 Z0.0000 R0.1174
G02 X0.1174 Y0.1174 Z0.0000 R0.1174
G01 X0.0000 Y-0.0266 Z-0.0043
G02 X0.0907 Y-0.0907 Z0.0000 R0.0907
G02 X-0.0907 Y-0.0907 Z0.0000 R0.0907
G02 X-0.0907 Y0.0907 Z0.0000 R0.0907
G02 X0.0907 Y0.0907 Z0.0000 R0.0907
G01 X0.0000 Y-0.0266 Z-0.0038
G02 X0.0640 Y-0.0640 Z0.0000 R0.0640
G02 X-0.0640 Y-0.0640 Z0.0000 R0.0640
G02 X-0.0640 Y0.0640 Z0.0000 R0.0640
G02 X0.0640 Y0.0640 Z0.0000 R0.0640
G90
G00 X45.6692 Y0.8514 Z0.1000
G00 X45.6692 Y0.7874 Z0.1000
G00 X47.2440 Y-0.7874 Z0.1000
( A single insert                                                              )
(   Outer rim diameter = 0.7500"                                               )
(   Outer rim depth    = -0.0450"                                              )
(   Shaft diameter      = 0.3729"                                              )
(   Shaft depth         = -0.4200"                                             )
G01 X47.2440 Y-0.7874 Z0.0000
G91
G01 X0.0000 Y0.2514 Z-0.0450
G02 X0.2514 Y-0.2514 Z0.0000 R0.2514
G02 X-0.2514 Y-0.2514 Z0.0000 R0.2514
G02 X-0.2514 Y0.2514 Z0.0000 R0.2514
G02 X0.2514 Y0.2514 Z0.0000 R0.2514
G01 X0.0000 Y-0.0285 Z-0.0069
G02 X0.2229 Y-0.2229 Z0.0000 R0.2229
G02 X-0.2229 Y-0.2229 Z0.0000 R0.2229
G02 X-0.2229 Y0.2229 Z0.0000 R0.2229
G02 X0.2229 Y0.2229 Z0.0000 R0.2229
G01 X0.0000 Y-0.0261 Z-0.0064
G02 X0.1966 Y-0.1966 Z0.0000 R0.1966
G02 X-0.1966 Y-0.1966 Z0.0000 R0.1966
G02 X-0.1966 Y0.1966 Z0.0000 R0.1966
G02 X0.1966 Y0.1966 Z0.0000 R0.1966
G01 X0.0000 Y-0.0262 Z-0.0058
G02 X0.1703 Y-0.1703 Z0.0000 R0.1703
G02 X-0.1703 Y-0.1703 Z0.0000 R0.1703
G02 X-0.1703 Y0.1703 Z0.0000 R0.1703
G02 X0.1703 Y0.1703 Z0.0000 R0.1703
G01 X0.0000 Y-0.0264 Z-0.0053
G02 X0.1438 Y-0.1438 Z0.0000 R0.1438
G02 X-0.1438 Y-0.1438 Z0.0000 R0.1438
G02 X-0.1438 Y0.1438 Z0.0000 R0.1438
G02 X0.1438 Y0.1438 Z0.0000 R0.1438
G01 X0.0000 Y-0.0264 Z-0.0048
G02 X0.1174 Y-0.1174 Z0.0000 R0.1174
G02 X-0.1174 Y-0.1174 Z0.0000 R0.1174
G02 X-0.1174 Y0.1174 Z0.0000 R0.1174
G02 X0.1174 Y0.1174 Z0.0000 R0.1174
G01 X0.0000 Y-0.0266 Z-0.0043
G02 X0.0907 Y-0.0907 Z0.0000 R0.0907
G02 X-0.0907 Y-0.0907 Z0.0000 R0.0907
G02 X-0.0907 Y0.0907 Z0.0000 R0.0907
G02 X0.0907 Y0.0907 Z0.0000 R0.0907
G01 X0.0000 Y-0.0266 Z-0.0038
G02 X0.0640 Y-0.0640 Z0.0000 R0.0640
G02 X-0.0640 Y-0.0640 Z0.0000 R0.0640
G02 X-0.0640 Y0.0640 Z0.0000 R0.0640
G02 X0.0640 Y0.0640 Z0.0000 R0.0640
G90
G01 X47.2440 Y-0.7874 Z0.0000
( Incremental hole: depth = -0.4200, diameter = 0.3729                         )
G91
G01 X0.0000 Y0.0629 Z0.0000
G01 X0.0000 Y0.0000 Z-0.1400
G02 X0.0629 Y-0.0629 Z0.0000 R0.0629
G02 X-0.0629 Y-0.0629 Z0.0000 R0.0629
G02 X-0.0629 Y0.0629 Z0.0000 R0.0629
G02 X0.0629 Y0.0629 Z0.0000 R0.0629
G01 X0.0000 Y0.0000 Z-0.1400
G02 X0.0629 Y-0.0629 Z0.0000 R0.0629
G02 X-0.0629 Y-0.0629 Z0.0000 R0.0629
G02 X-0.0629 Y0.0629 Z0.0000 R0.0629
G02 X0.0629 Y0.0629 Z0.0000 R0.0629
G01 X0.0000 Y0.0000 Z-0.1400
G02 X0.0629 Y-0.0629 Z0.0000 R0.0629
G02 X-0.0629 Y-0.0629 Z0.0000 R0.0629
G02 X-0.0629 Y0.0629 Z0.0000 R0.0629
G02 X0.0629 Y0.0629 Z0.0000 R0.0629
G02 X0.0629 Y-0.0629 Z0.0000 R0.0629
G02 X-0.0629 Y-0.0629 Z0.0000 R0.0629
G02 X-0.0629 Y0.0629 Z0.0000 R0.0629
G02 X0.0629 Y0.0629 Z0.0000 R0.0629
G02 X0.0629 Y-0.0629 Z0.0000 R0.0629
G02 X-0.0629 Y-0.0629 Z0.0000 R0.0629
G02 X-0.0629 Y0.0629 Z0.0000 R0.0629
G02 X0.0629 Y0.0629 Z0.0000 R0.0629
G02 X0.0629 Y-0.0629 Z0.0000 R0.0629
G02 X-0.0629 Y-0.0629 Z0.0000 R0.0629
G02 X-0.0629 Y0.0629 Z0.0000 R0.0629
G02 X0.0629 Y0.0629 Z0.0000 R0.0629
G01 X0.0000 Y-0.0629 Z0.0000
G90
G01 X47.2440 Y-0.7874 Z0.0000
G91
G01 X0.0000 Y0.2514 Z-0.0450
G02 X0.2514 Y-0.2514 Z0.0000 R0.2514
G02 X-0.2514 Y-0.2514 Z0.0000 R0.2514
G02 X-0.2514 Y0.2514 Z0.0000 R0.2514
G02 X0.2514 Y0.2514 Z0.0000 R0.2514
G01 X0.0000 Y-0.0285 Z-0.0069
G02 X0.2229 Y-0.2229 Z0.0000 R0.2229
G02 X-0.2229 Y-0.2229 Z0.0000 R0.2229
G02 X-0.2229 Y0.2229 Z0.0000 R0.2229
G02 X0.2229 Y0.2229 Z0.0000 R0.2229
G01 X0.0000 Y-0.0261 Z-0.0064
G02 X0.1966 Y-0.1966 Z0.0000 R0.1966
G02 X-0.1966 Y-0.1966 Z0.0000 R0.1966
G02 X-0.1966 Y0.1966 Z0.0000 R0.1966
G02 X0.1966 Y0.1966 Z0.0000 R0.1966
G01 X0.0000 Y-0.0262 Z-0.0058
G02 X0.1703 Y-0.1703 Z0.0000 R0.1703
G02 X-0.1703 Y-0.1703 Z0.0000 R0.1703
G02 X-0.1703 Y0.1703 Z0.0000 R0.1703
G02 X0.1703 Y0.1703 Z0.0000 R0.1703
G01 X0.0000 Y-0.0264 Z-0.0053
G02 X0.1438 Y-0.1438 Z0.0000 R0.1438
G02 X-0.1438 Y-0.1438 Z0.0000 R0.1438
G02 X-0.1438 Y0.1438 Z0.0000 R0.1438
G02 X0.1438 Y0.1438 Z0.0000 R0.1438
G01 X0.0000 Y-0.0264 Z-0.0048
G02 X0.1174 Y-0.1174 Z0.0000 R0.1174
G02 X-0.1174 Y-0.1174 Z0.0000 R0.1174
G02 X-0.1174 Y0.1174 Z0.0000 R0.1174
G02 X0.1174 Y0.1174 Z0.0000 R0.1174
G01 X0.0000 Y-0.0266 Z-0.0043
G02 X0.0907 Y-0.0907 Z0.0000 R0.0907
G02 X-0.0907 Y-0.0907 Z0.0000 R0.0907
G02 X-0.0907 Y0.0907 Z0.0000 R0.0907
G02 X0.0907 Y0.0907 Z0.0000 R0.0907
G01 X0.0000 Y-0.0266 Z-0.0038
G02 X0.0640 Y-0.0640 Z0.0000 R0.0640
G02 X-0.0640 Y-0.0640 Z0.0000 R0.0640
G02 X-0.0640 Y0.0640 Z0.0000 R0.0640
G02 X0.0640 Y0.0640 Z0.0000 R0.0640
G90
G00 X47.2440 Y-0.7233 Z0.1000
G00 X47.2440 Y-0.7874 Z0.1000
G00 X47.2440 Y0.7874 Z0.1000
( A single insert                                                              )
(   Outer rim diameter = 0.7500"                                               )
(   Outer rim depth    = -0.0450"                                              )
(   Shaft diameter      = 0.3729"                                              )
(   Shaft depth         = -0.4200"                                             )
G01 X47.2440 Y0.7874 Z0.0000
G91
G01 X0.0000 Y0.2514 Z-0.0450
G02 X0.2514 Y-0.2514 Z0.0000 R0.2514
G02 X-0.2514 Y-0.2514 Z0.0000 R0.2514
G02 X-0.2514 Y0.2514 Z0.0000 R0.2514
G02 X0.2514 Y0.2514 Z0.0000 R0.2514
G01 X0.0000 Y-0.0285 Z-0.0069
G02 X0.2229 Y-0.2229 Z0.0000 R0.2229
G02 X-0.2229 Y-0.2229 Z0.0000 R0.2229
G02 X-0.2229 Y0.2229 Z0.0000 R0.2229
G02 X0.2229 Y0.2229 Z0.0000 R0.2229
G01 X0.0000 Y-0.0261 Z-0.0064
G02 X0.1966 Y-0.1966 Z0.0000 R0.1966
G02 X-0.1966 Y-0.1966 Z0.0000 R0.1966
G02 X-0.1966 Y0.1966 Z0.0000 R0.1966
G02 X0.1966 Y0.1966 Z0.0000 R0.1966
G01 X0.0000 Y-0.0262 Z-0.0058
G02 X0.1703 Y-0.1703 Z0.0000 R0.1703
G02 X-0.1703 Y-0.1703 Z0.0000 R0.1703
G02 X-0.1703 Y0.1703 Z0.0000 R0.1703
G02 X0.1703 Y0.1703 Z0.0000 R0.1703
G01 X0.0000 Y-0.0264 Z-0.0053
G02 X0.1438 Y-0.1438 Z0.0000 R0.1438
G02 X-0.1438 Y-0.1438 Z0.0000 R0.1438
G02 X-0.1438 Y0.1438 Z0.0000 R0.1438
G02 X0.1438 Y0.1438 Z0.0000 R0.1438
G01 X0.0000 Y-0.0264 Z-0.0048
G02 X0.1174 Y-0.1174 Z0.0000 R0.1174
G02 X-0.1174 Y-0.1174 Z0.0000 R0.1174
G02 X-0.1174 Y0.1174 Z0.0000 R0.1174
G02 X0.1174 Y0.1174 Z0.0000 R0.1174
G01 X0.0000 Y-0.0266 Z-0.0043
G02 X0.0907 Y-0.0907 Z0.0000 R0.0907
G02 X-0.0907 Y-0.0907 Z0.0000 R0.0907
G02 X-0.0907 Y0.0907 Z0.0000 R0.0907
G02 X0.0907 Y0.0907 Z0.0000 R0.0907
G01 X0.0000 Y-0.0266 Z-0.0038
G02 X0.0640 Y-0.0640 Z0.0000 R0.0640
G02 X-0.0640 Y-0.0640 Z0.0000 R0.0640
G02 X-0.0640 Y0.0640 Z0.0000 R0.0640
G02 X0.0640 Y0.0640 Z0.0000 R0.0640
G90
G01 X47.2440 Y0.7874 Z0.0000
( Incremental hole: depth = -0.4200, diameter = 0.3729                         )
G91
G01 X0.0000 Y0.0629 Z0.0000
G01 X0.0000 Y0.0000 Z-0.1400
G02 X0.0629 Y-0.0629 Z0.0000 R0.0629
G02 X-0.0629 Y-0.0629 Z0.0000 R0.0629
G02 X-0.0629 Y0.0629 Z0.0000 R0.0629
G02 X0.0629 Y0.0629 Z0.0000 R0.0629
G01 X0.0000 Y0.0000 Z-0.1400
G02 X0.0629 Y-0.0629 Z0.0000 R0.0629
G02 X-0.0629 Y-0.0629 Z0.0000 R0.0629
G02 X-0.0629 Y0.0629 Z0.0000 R0.0629
G02 X0.0629 Y0.0629 Z0.0000 R0.0629
G01 X0.0000 Y0.0000 Z-0.1400
G02 X0.0629 Y-0.0629 Z0.0000 R0.0629
G02 X-0.0629 Y-0.0629 Z0.0000 R0.0629
G02 X-0.0629 Y0.0629 Z0.0000 R0.0629
G02 X0.0629 Y0.0629 Z0.0000 R0.0629
G02 X0.0629 Y-0.0629 Z0.0000 R0.0629
G02 X-0.0629 Y-0.0629 Z0.0000 R0.0629
G02 X-0.0629 Y0.0629 Z0.0000 R0.0629
G02 X0.0629 Y0.0629 Z0.0000 R0.0629
G02 X0.0629 Y-0.0629 Z0.0000 R0.0629
G02 X-0.0629 Y-0.0629 Z0.0000 R0.0629
G02 X-0.0629 Y0.0629 Z0.0000 R0.0629
G02 X0.0629 Y0.0629 Z0.0000 R0.0629
G02 X0.0629 Y-0.0629 Z0.0000 R0.0629
G02 X-0.0629 Y-0.0629 Z0.0000 R0.0629
G02 X-0.0629 Y0.0629 Z0.0000 R0.0629
G02 X0.0629 Y0.0629 Z0.0000 R0.0629
G01 X0.0000 Y-0.0629 Z0.0000
G90
G01 X47.2440 Y0.7874 Z0.0000
G91
G01 X0.0000 Y0.2514 Z-0.0450
G02 X0.2514 Y-0.2514 Z0.0000 R0.2514
G02 X-0.2514 Y-0.2514 Z0.0000 R0.2514
G02 X-0.2514 Y0.2514 Z0.0000 R0.2514
G02 X0.2514 Y0.2514 Z0.0000 R0.2514
G01 X0.0000 Y-0.0285 Z-0.0069
G02 X0.2229 Y-0.2229 Z0.0000 R0.2229
G02 X-0.2229 Y-0.2229 Z0.0000 R0.2229
G02 X-0.2229 Y0.2229 Z0.0000 R0.2229
G02 X0.2229 Y0.2229 Z0.0000 R0.2229
G01 X0.0000 Y-0.0261 Z-0.0064
G02 X0.1966 Y-0.1966 Z0.0000 R0.1966
G02 X-0.1966 Y-0.1966 Z0.0000 R0.1966
G02 X-0.1966 Y0.1966 Z0.0000 R0.1966
G02 X0.1966 Y0.1966 Z0.0000 R0.1966
G01 X0.0000 Y-0.0262 Z-0.0058
G02 X0.1703 Y-0.1703 Z0.0000 R0.1703
G02 X-0.1703 Y-0.1703 Z0.0000 R0.1703
G02 X-0.1703 Y0.1703 Z0.0000 R0.1703
G02 X0.1703 Y0.1703 Z0.0000 R0.1703
G01 X0.0000 Y-0.0264 Z-0.0053
G02 X0.1438 Y-0.1438 Z0.0000 R0.1438
G02 X-0.1438 Y-0.1438 Z0.0000 R0.1438
G02 X-0.1438 Y0.1438 Z0.0000 R0.1438
G02 X0.1438 Y0.1438 Z0.0000 R0.1438
G01 X0.0000 Y-0.0264 Z-0.0048
G02 X0.1174 Y-0.1174 Z0.0000 R0.1174
G02 X-0.1174 Y-0.1174 Z0.0000 R0.1174
G02 X-0.1174 Y0.1174 Z0.0000 R0.1174
G02 X0.1174 Y0.1174 Z0.0000 R0.1174
G01 X0.0000 Y-0.0266 Z-0.0043
G02 X0.0907 Y-0.0907 Z0.0000 R0.0907
G02 X-0.0907 Y-0.0907 Z0.0000 R0.0907
G02 X-0.0907 Y0.0907 Z0.0000 R0.0907
G02 X0.0907 Y0.0907 Z0.0000 R0.0907
G01 X0.0000 Y-0.0266 Z-0.0038
G02 X0.0640 Y-0.0640 Z0.0000 R0.0640
G02 X-0.0640 Y-0.0640 Z0.0000 R0.0640
G02 X-0.0640 Y0.0640 Z0.0000 R0.0640
G02 X0.0640 Y0.0640 Z0.0000 R0.0640
G90
G00 X47.2440 Y0.8514 Z0.1000
G00 X47.2440 Y0.7874 Z0.1000
M05
G00 X0.0000 Y0.0000 Z0.1000
G49
G01 G55 Z0 F20
G00 G55 X0 Y0 Z0
M30
