( Sample-snowboard-edge-trench.nc                                              )
( Generated by MonkeyCAM v4.0 at 2013-11-16 21:43:23                           )
(                                                                              )
( This GCode program is provided on an "AS IS" BASIS WITHOUT WARRANTIES OR     )
( CONDITIONS OF ANY KIND, either express or implied. You should inspect this   )
( program very carefully to confirm you understand its operation. YOU ARE      )
( RESPONSIBLE FOR ENSURING THIS PROGRAM WILL NOT DAMAGE YOUR MACHINE OR        )
( MATERIALS.                                                                   )
(                                                                              )
( See http://www.github.com/MonkeyCAM for License and documentation.           )
(                                                                              )
( * Rapid height: 0.6000" [1.5240cm]                                           )
( * Tool: T1, Quarter Inch Upcut Spiral, diameter 0.2469" [0.6273cm]           )
( * Height basline [Z=0.0] is the top of the table.                            )
( * XY origin is the left side of the table, Y is center of the part.          )
( * Requires G54 to be the part work coordinate offsets [WCO]. [0, 0] is the   )
(   center of the nose, with the board extending to positive X. The cutter may )
(   move to negative values of X.                                              )
( * Requires G55 to be the machine WCO, with Z above the rapid height.         )
( * Units are inches                                                           )
( * Cutter bounding box in G54:                                                )
(     X0.0000 Y-5.8743 Z0.0000 to X64.0254 Y5.8743 Z0.6000                     )

G90 G20 G17 G40 G49
G43 H1 T1
G00 G54 X0 Y0 Z0.6000

G00 X3.6901 Y4.8360 Z0.6000
M03
G04 P5
G01 X3.6901 Y4.8360 Z0.2800 F70
G01 X7.5532 Y4.5935 Z0.2800
G01 X7.5570 Y4.5933 Z0.2800
G01 X7.5577 Y4.5932 Z0.2800
G01 X7.5584 Y4.5932 Z0.2800
G01 X8.0894 Y4.5605 Z0.2800
G01 X8.0901 Y4.5605 Z0.2800
G01 X8.0907 Y4.5604 Z0.2800
G01 X8.0914 Y4.5604 Z0.2800
G01 X8.0919 Y4.5603 Z0.2800
G01 X8.6246 Y4.5282 Z0.2800
G01 X8.6256 Y4.5281 Z0.2800
G01 X8.6292 Y4.5279 Z0.2800
G01 X9.1616 Y4.4965 Z0.2800
G01 X9.1625 Y4.4964 Z0.2800
G01 X9.1629 Y4.4964 Z0.2800
G01 X9.6979 Y4.4655 Z0.2800
G01 X9.6988 Y4.4654 Z0.2800
G01 X9.6998 Y4.4653 Z0.2800
G01 X10.2341 Y4.4351 Z0.2800
G01 X10.2351 Y4.4351 Z0.2800
G01 X10.7703 Y4.4054 Z0.2800
G01 X10.7711 Y4.4054 Z0.2800
G01 X10.7718 Y4.4053 Z0.2800
G01 X11.3055 Y4.3764 Z0.2800
G01 X11.3072 Y4.3764 Z0.2800
G01 X11.3081 Y4.3764 Z0.2800
G01 X11.8394 Y4.3483 Z0.2800
G01 X11.8401 Y4.3483 Z0.2800
G01 X11.8408 Y4.3482 Z0.2800
G01 X11.8445 Y4.3480 Z0.2800
G01 X12.3770 Y4.3205 Z0.2800
G01 X12.3775 Y4.3205 Z0.2800
G01 X12.3782 Y4.3204 Z0.2800
G01 X12.3805 Y4.3203 Z0.2800
G01 X12.9127 Y4.2935 Z0.2800
G01 X12.9133 Y4.2935 Z0.2800
G01 X12.9140 Y4.2934 Z0.2800
G01 X12.9172 Y4.2933 Z0.2800
G01 X13.4503 Y4.2671 Z0.2800
G01 X13.4508 Y4.2671 Z0.2800
G01 X13.4545 Y4.2669 Z0.2800
G01 X13.9868 Y4.2414 Z0.2800
G01 X13.9878 Y4.2413 Z0.2800
G01 X13.9903 Y4.2412 Z0.2800
G01 X14.5224 Y4.2164 Z0.2800
G01 X14.5230 Y4.2164 Z0.2800
G01 X14.5269 Y4.2162 Z0.2800
G01 X15.0607 Y4.1920 Z0.2800
G01 X15.0618 Y4.1919 Z0.2800
G01 X15.0634 Y4.1918 Z0.2800
G01 X15.5974 Y4.1682 Z0.2800
G01 X15.6000 Y4.1681 Z0.2800
G01 X16.1346 Y4.1451 Z0.2800
G01 X16.1357 Y4.1451 Z0.2800
G01 X16.1380 Y4.1450 Z0.2800
G01 X16.6701 Y4.1228 Z0.2800
G01 X16.6715 Y4.1227 Z0.2800
G01 X16.6733 Y4.1227 Z0.2800
G01 X17.2053 Y4.1011 Z0.2800
G01 X17.2070 Y4.1011 Z0.2800
G01 X17.2099 Y4.1010 Z0.2800
G01 X17.7446 Y4.0800 Z0.2800
G01 X17.7461 Y4.0800 Z0.2800
G01 X17.7474 Y4.0799 Z0.2800
G01 X18.2817 Y4.0596 Z0.2800
G01 X18.2823 Y4.0596 Z0.2800
G01 X18.2834 Y4.0596 Z0.2800
G01 X18.8179 Y4.0399 Z0.2800
G01 X18.8194 Y4.0398 Z0.2800
G01 X18.8202 Y4.0398 Z0.2800
G01 X19.3530 Y4.0209 Z0.2800
G01 X19.3542 Y4.0209 Z0.2800
G01 X19.3577 Y4.0207 Z0.2800
G01 X19.3592 Y4.0207 Z0.2800
G01 X19.8913 Y4.0024 Z0.2800
G01 X19.8929 Y4.0024 Z0.2800
G01 X19.8938 Y4.0024 Z0.2800
G01 X20.4285 Y3.9847 Z0.2800
G01 X20.4310 Y3.9846 Z0.2800
G01 X20.4332 Y3.9845 Z0.2800
G01 X20.9636 Y3.9676 Z0.2800
G01 X20.9668 Y3.9676 Z0.2800
G01 X20.9690 Y3.9675 Z0.2800
G01 X21.5018 Y3.9513 Z0.2800
G01 X21.5037 Y3.9512 Z0.2800
G01 X21.5050 Y3.9512 Z0.2800
G01 X22.0398 Y3.9355 Z0.2800
G01 X22.0409 Y3.9354 Z0.2800
G01 X22.5748 Y3.9204 Z0.2800
G01 X22.5761 Y3.9204 Z0.2800
G01 X22.5796 Y3.9203 Z0.2800
G01 X23.1137 Y3.9060 Z0.2800
G01 X23.1151 Y3.9059 Z0.2800
G01 X23.6506 Y3.8922 Z0.2800
G01 X23.6523 Y3.8922 Z0.2800
G01 X24.1875 Y3.8791 Z0.2800
G01 X24.1891 Y3.8791 Z0.2800
G01 X24.7246 Y3.8667 Z0.2800
G01 X24.7252 Y3.8667 Z0.2800
G01 X24.7266 Y3.8667 Z0.2800
G01 X25.2597 Y3.8550 Z0.2800
G01 X25.2603 Y3.8550 Z0.2800
G01 X25.2638 Y3.8550 Z0.2800
G01 X25.2663 Y3.8548 Z0.2800
G01 X25.7977 Y3.8438 Z0.2800
G01 X25.8005 Y3.8438 Z0.2800
G01 X25.8012 Y3.8438 Z0.2800
G01 X26.3356 Y3.8335 Z0.2800
G01 X26.3367 Y3.8335 Z0.2800
G01 X26.3381 Y3.8334 Z0.2800
G01 X26.8703 Y3.8237 Z0.2800
G01 X26.8718 Y3.8237 Z0.2800
G01 X26.8754 Y3.8237 Z0.2800
G01 X26.8762 Y3.8236 Z0.2800
G01 X27.4096 Y3.8146 Z0.2800
G01 X27.4121 Y3.8146 Z0.2800
G01 X27.9466 Y3.8062 Z0.2800
G01 X27.9494 Y3.8061 Z0.2800
G01 X28.4825 Y3.7984 Z0.2800
G01 X28.4842 Y3.7984 Z0.2800
G01 X28.4860 Y3.7983 Z0.2800
G01 X29.0209 Y3.7913 Z0.2800
G01 X29.0229 Y3.7913 Z0.2800
G01 X29.5578 Y3.7848 Z0.2800
G01 X29.5607 Y3.7848 Z0.2800
G01 X30.0950 Y3.7791 Z0.2800
G01 X30.0988 Y3.7790 Z0.2800
G01 X30.6321 Y3.7740 Z0.2800
G01 X30.6344 Y3.7740 Z0.2800
G01 X31.1691 Y3.7695 Z0.2800
G01 X31.1696 Y3.7695 Z0.2800
G01 X31.1732 Y3.7695 Z0.2800
G01 X31.1737 Y3.7694 Z0.2800
G01 X31.7062 Y3.7657 Z0.2800
G01 X31.7076 Y3.7657 Z0.2800
G01 X32.2434 Y3.7626 Z0.2800
G01 X32.2448 Y3.7626 Z0.2800
G01 X32.7805 Y3.7601 Z0.2800
G01 X32.7818 Y3.7601 Z0.2800
G01 X33.3176 Y3.7584 Z0.2800
G01 X33.3189 Y3.7584 Z0.2800
G01 X33.8547 Y3.7573 Z0.2800
G01 X33.8561 Y3.7573 Z0.2800
G01 X34.3918 Y3.7568 Z0.2800
G01 X34.3931 Y3.7568 Z0.2800
G01 X34.9289 Y3.7570 Z0.2800
G01 X34.9303 Y3.7570 Z0.2800
G01 X35.4661 Y3.7579 Z0.2800
G01 X35.4674 Y3.7579 Z0.2800
G01 X36.0032 Y3.7594 Z0.2800
G01 X36.0045 Y3.7594 Z0.2800
G01 X36.5403 Y3.7616 Z0.2800
G01 X36.5417 Y3.7616 Z0.2800
G01 X37.0774 Y3.7645 Z0.2800
G01 X37.0787 Y3.7645 Z0.2800
G01 X37.6145 Y3.7680 Z0.2800
G01 X37.6159 Y3.7680 Z0.2800
G01 X38.1501 Y3.7722 Z0.2800
G01 X38.1520 Y3.7722 Z0.2800
G01 X38.1543 Y3.7722 Z0.2800
G01 X38.6859 Y3.7770 Z0.2800
G01 X38.6901 Y3.7771 Z0.2800
G01 X39.2242 Y3.7826 Z0.2800
G01 X39.2272 Y3.7826 Z0.2800
G01 X39.7619 Y3.7888 Z0.2800
G01 X39.7642 Y3.7888 Z0.2800
G01 X40.2972 Y3.7956 Z0.2800
G01 X40.2980 Y3.7956 Z0.2800
G01 X40.3012 Y3.7957 Z0.2800
G01 X40.8370 Y3.8031 Z0.2800
G01 X40.8383 Y3.8032 Z0.2800
G01 X41.3726 Y3.8113 Z0.2800
G01 X41.3754 Y3.8113 Z0.2800
G01 X41.9087 Y3.8201 Z0.2800
G01 X41.9096 Y3.8201 Z0.2800
G01 X41.9125 Y3.8202 Z0.2800
G01 X42.4481 Y3.8297 Z0.2800
G01 X42.4495 Y3.8297 Z0.2800
G01 X42.9838 Y3.8398 Z0.2800
G01 X42.9845 Y3.8398 Z0.2800
G01 X42.9874 Y3.8399 Z0.2800
G01 X43.5187 Y3.8506 Z0.2800
G01 X43.5212 Y3.8507 Z0.2800
G01 X43.5247 Y3.8507 Z0.2800
G01 X43.5254 Y3.8507 Z0.2800
G01 X44.0586 Y3.8622 Z0.2800
G01 X44.0601 Y3.8622 Z0.2800
G01 X44.5959 Y3.8743 Z0.2800
G01 X44.5975 Y3.8744 Z0.2800
G01 X45.1327 Y3.8872 Z0.2800
G01 X45.1342 Y3.8872 Z0.2800
G01 X45.6698 Y3.9007 Z0.2800
G01 X45.6712 Y3.9007 Z0.2800
G01 X46.2053 Y3.9148 Z0.2800
G01 X46.2070 Y3.9148 Z0.2800
G01 X46.2094 Y3.9149 Z0.2800
G01 X46.7428 Y3.9296 Z0.2800
G01 X46.7444 Y3.9297 Z0.2800
G01 X46.7464 Y3.9298 Z0.2800
G01 X47.2808 Y3.9451 Z0.2800
G01 X47.2834 Y3.9452 Z0.2800
G01 X47.8178 Y3.9613 Z0.2800
G01 X47.8195 Y3.9614 Z0.2800
G01 X48.3535 Y3.9781 Z0.2800
G01 X48.3562 Y3.9782 Z0.2800
G01 X48.3573 Y3.9782 Z0.2800
G01 X48.8900 Y3.9956 Z0.2800
G01 X48.8922 Y3.9957 Z0.2800
G01 X48.8949 Y3.9957 Z0.2800
G01 X49.4277 Y4.0137 Z0.2800
G01 X49.4298 Y4.0138 Z0.2800
G01 X49.9650 Y4.0325 Z0.2800
G01 X49.9659 Y4.0326 Z0.2800
G01 X49.9673 Y4.0326 Z0.2800
G01 X50.5006 Y4.0520 Z0.2800
G01 X50.5014 Y4.0520 Z0.2800
G01 X50.5049 Y4.0521 Z0.2800
G01 X51.0385 Y4.0721 Z0.2800
G01 X51.0394 Y4.0722 Z0.2800
G01 X51.0401 Y4.0722 Z0.2800
G01 X51.5753 Y4.0930 Z0.2800
G01 X51.5764 Y4.0930 Z0.2800
G01 X52.1118 Y4.1144 Z0.2800
G01 X52.1123 Y4.1144 Z0.2800
G01 X52.1133 Y4.1144 Z0.2800
G01 X52.6477 Y4.1365 Z0.2800
G01 X52.6509 Y4.1366 Z0.2800
G01 X52.6517 Y4.1367 Z0.2800
G01 X53.1832 Y4.1593 Z0.2800
G01 X53.1852 Y4.1594 Z0.2800
G01 X53.1871 Y4.1595 Z0.2800
G01 X53.7203 Y4.1827 Z0.2800
G01 X53.7224 Y4.1828 Z0.2800
G01 X53.7240 Y4.1829 Z0.2800
G01 X54.2574 Y4.2068 Z0.2800
G01 X54.2589 Y4.2069 Z0.2800
G01 X54.2597 Y4.2070 Z0.2800
G01 X54.7949 Y4.2317 Z0.2800
G01 X54.7958 Y4.2317 Z0.2800
G01 X54.7962 Y4.2317 Z0.2800
G01 X55.3314 Y4.2571 Z0.2800
G01 X55.3319 Y4.2572 Z0.2800
G01 X55.3337 Y4.2572 Z0.2800
G01 X55.8652 Y4.2831 Z0.2800
G01 X55.8664 Y4.2832 Z0.2800
G01 X55.8700 Y4.2834 Z0.2800
G01 X55.8729 Y4.2835 Z0.2800
G01 X56.4044 Y4.3100 Z0.2800
G01 X56.4051 Y4.3101 Z0.2800
G01 X56.4057 Y4.3101 Z0.2800
G01 X56.9406 Y4.3375 Z0.2800
G01 X56.9421 Y4.3375 Z0.2800
G01 X57.4772 Y4.3656 Z0.2800
G01 X57.4788 Y4.3657 Z0.2800
G01 X58.0115 Y4.3942 Z0.2800
G01 X58.0153 Y4.3945 Z0.2800
G01 X58.5498 Y4.4238 Z0.2800
G01 X58.5508 Y4.4239 Z0.2800
G01 X58.5519 Y4.4239 Z0.2800
G01 X58.5529 Y4.4240 Z0.2800
G01 X59.0861 Y4.4539 Z0.2800
G01 X59.0875 Y4.4540 Z0.2800
G01 X59.0881 Y4.4540 Z0.2800
G01 X59.6217 Y4.4846 Z0.2800
G01 X59.6237 Y4.4847 Z0.2800
G01 X60.1586 Y4.5161 Z0.2800
G01 X60.1600 Y4.5162 Z0.2800
G01 X64.0254 Y4.7475 Z0.2800
G01 X63.9632 Y5.7861 Z0.2800
G01 X60.0977 Y5.5547 Z0.2800
G01 X59.5628 Y5.5233 Z0.2800
G01 X59.0278 Y5.4926 Z0.2800
G01 X59.0260 Y5.4925 Z0.2800
G01 X58.4929 Y5.4626 Z0.2800
G01 X58.4916 Y5.4625 Z0.2800
G01 X58.4903 Y5.4625 Z0.2800
G01 X57.9579 Y5.4333 Z0.2800
G01 X57.9544 Y5.4331 Z0.2800
G01 X57.4255 Y5.4048 Z0.2800
G01 X57.4221 Y5.4045 Z0.2800
G01 X56.8877 Y5.3765 Z0.2800
G01 X56.8869 Y5.3765 Z0.2800
G01 X56.3535 Y5.3492 Z0.2800
G01 X56.3528 Y5.3492 Z0.2800
G01 X56.3517 Y5.3491 Z0.2800
G01 X55.8174 Y5.3224 Z0.2800
G01 X55.8164 Y5.3224 Z0.2800
G01 X55.2827 Y5.2964 Z0.2800
G01 X55.2815 Y5.2964 Z0.2800
G01 X54.7473 Y5.2710 Z0.2800
G01 X54.7465 Y5.2710 Z0.2800
G01 X54.7460 Y5.2709 Z0.2800
G01 X54.2117 Y5.2462 Z0.2800
G01 X54.2111 Y5.2462 Z0.2800
G01 X53.6764 Y5.2222 Z0.2800
G01 X53.1429 Y5.1989 Z0.2800
G01 X53.1422 Y5.1988 Z0.2800
G01 X53.1402 Y5.1988 Z0.2800
G01 X52.6059 Y5.1761 Z0.2800
G01 X52.6051 Y5.1760 Z0.2800
G01 X52.0721 Y5.1540 Z0.2800
G01 X52.0696 Y5.1539 Z0.2800
G01 X51.5368 Y5.1326 Z0.2800
G01 X51.5350 Y5.1326 Z0.2800
G01 X50.9996 Y5.1118 Z0.2800
G01 X50.9988 Y5.1118 Z0.2800
G01 X50.4645 Y5.0917 Z0.2800
G01 X50.4619 Y5.0916 Z0.2800
G01 X50.4600 Y5.0915 Z0.2800
G01 X49.9306 Y5.0724 Z0.2800
G01 X49.9284 Y5.0723 Z0.2800
G01 X49.3931 Y5.0535 Z0.2800
G01 X49.3920 Y5.0535 Z0.2800
G01 X48.8576 Y5.0355 Z0.2800
G01 X48.3220 Y5.0180 Z0.2800
G01 X48.3210 Y5.0180 Z0.2800
G01 X47.7887 Y5.0013 Z0.2800
G01 X47.7871 Y5.0013 Z0.2800
G01 X47.7864 Y5.0013 Z0.2800
G01 X47.2508 Y4.9851 Z0.2800
G01 X47.2493 Y4.9851 Z0.2800
G01 X47.2478 Y4.9850 Z0.2800
G01 X46.7152 Y4.9696 Z0.2800
G01 X46.7148 Y4.9696 Z0.2800
G01 X46.1796 Y4.9548 Z0.2800
G01 X45.6467 Y4.9408 Z0.2800
G01 X45.6453 Y4.9408 Z0.2800
G01 X45.6427 Y4.9407 Z0.2800
G01 X45.1083 Y4.9273 Z0.2800
G01 X45.1072 Y4.9273 Z0.2800
G01 X45.1059 Y4.9272 Z0.2800
G01 X44.5755 Y4.9145 Z0.2800
G01 X44.5743 Y4.9145 Z0.2800
G01 X44.5715 Y4.9144 Z0.2800
G01 X44.0376 Y4.9024 Z0.2800
G01 X44.0360 Y4.9023 Z0.2800
G01 X44.0345 Y4.9023 Z0.2800
G01 X43.5044 Y4.8909 Z0.2800
G01 X43.5033 Y4.8909 Z0.2800
G01 X43.5003 Y4.8909 Z0.2800
G01 X42.9655 Y4.8801 Z0.2800
G01 X42.4320 Y4.8700 Z0.2800
G01 X42.4299 Y4.8699 Z0.2800
G01 X42.4275 Y4.8698 Z0.2800
G01 X41.8977 Y4.8604 Z0.2800
G01 X41.8969 Y4.8604 Z0.2800
G01 X41.8940 Y4.8604 Z0.2800
G01 X41.3583 Y4.8516 Z0.2800
G01 X40.8225 Y4.8434 Z0.2800
G01 X40.8204 Y4.8433 Z0.2800
G01 X40.2910 Y4.8360 Z0.2800
G01 X40.2904 Y4.8360 Z0.2800
G01 X40.2866 Y4.8359 Z0.2800
G01 X39.7509 Y4.8291 Z0.2800
G01 X39.2151 Y4.8229 Z0.2800
G01 X38.6794 Y4.8174 Z0.2800
G01 X38.1435 Y4.8125 Z0.2800
G01 X37.6077 Y4.8084 Z0.2800
G01 X37.0719 Y4.8049 Z0.2800
G01 X36.5361 Y4.8020 Z0.2800
G01 X36.0003 Y4.7998 Z0.2800
G01 X35.4644 Y4.7983 Z0.2800
G01 X34.9286 Y4.7974 Z0.2800
G01 X34.3928 Y4.7972 Z0.2800
G01 X33.8570 Y4.7977 Z0.2800
G01 X33.3212 Y4.7988 Z0.2800
G01 X32.7854 Y4.8005 Z0.2800
G01 X32.2496 Y4.8030 Z0.2800
G01 X31.7137 Y4.8061 Z0.2800
G01 X31.1778 Y4.8099 Z0.2800
G01 X31.1731 Y4.8099 Z0.2800
G01 X30.6437 Y4.8143 Z0.2800
G01 X30.6416 Y4.8143 Z0.2800
G01 X30.1063 Y4.8194 Z0.2800
G01 X29.5705 Y4.8251 Z0.2800
G01 X29.0347 Y4.8316 Z0.2800
G01 X28.4990 Y4.8387 Z0.2800
G01 X27.9631 Y4.8464 Z0.2800
G01 X27.4274 Y4.8548 Z0.2800
G01 X26.8915 Y4.8639 Z0.2800
G01 X26.8888 Y4.8639 Z0.2800
G01 X26.8879 Y4.8640 Z0.2800
G01 X26.3577 Y4.8736 Z0.2800
G01 X26.3546 Y4.8737 Z0.2800
G01 X26.3537 Y4.8737 Z0.2800
G01 X25.8202 Y4.8841 Z0.2800
G01 X25.2852 Y4.8951 Z0.2800
G01 X25.2824 Y4.8951 Z0.2800
G01 X25.2813 Y4.8952 Z0.2800
G01 X24.7509 Y4.9068 Z0.2800
G01 X24.7490 Y4.9068 Z0.2800
G01 X24.7469 Y4.9069 Z0.2800
G01 X24.2140 Y4.9192 Z0.2800
G01 X24.2113 Y4.9192 Z0.2800
G01 X24.2101 Y4.9193 Z0.2800
G01 X23.6796 Y4.9322 Z0.2800
G01 X23.6784 Y4.9323 Z0.2800
G01 X23.6772 Y4.9323 Z0.2800
G01 X23.1429 Y4.9460 Z0.2800
G01 X23.1403 Y4.9460 Z0.2800
G01 X23.1390 Y4.9461 Z0.2800
G01 X22.6088 Y4.9603 Z0.2800
G01 X22.6068 Y4.9603 Z0.2800
G01 X22.6057 Y4.9604 Z0.2800
G01 X22.0717 Y4.9754 Z0.2800
G01 X22.0694 Y4.9754 Z0.2800
G01 X22.0679 Y4.9755 Z0.2800
G01 X21.5353 Y4.9911 Z0.2800
G01 X21.5347 Y4.9911 Z0.2800
G01 X20.9992 Y5.0074 Z0.2800
G01 X20.4645 Y5.0245 Z0.2800
G01 X20.4636 Y5.0245 Z0.2800
G01 X19.9286 Y5.0422 Z0.2800
G01 X19.9277 Y5.0422 Z0.2800
G01 X19.9259 Y5.0422 Z0.2800
G01 X19.3963 Y5.0604 Z0.2800
G01 X19.3952 Y5.0604 Z0.2800
G01 X19.3921 Y5.0605 Z0.2800
G01 X18.8581 Y5.0796 Z0.2800
G01 X18.8571 Y5.0796 Z0.2800
G01 X18.3216 Y5.0992 Z0.2800
G01 X18.3196 Y5.0993 Z0.2800
G01 X17.7868 Y5.1195 Z0.2800
G01 X17.7861 Y5.1195 Z0.2800
G01 X17.2548 Y5.1404 Z0.2800
G01 X17.2534 Y5.1405 Z0.2800
G01 X17.2495 Y5.1407 Z0.2800
G01 X16.7172 Y5.1622 Z0.2800
G01 X16.7157 Y5.1622 Z0.2800
G01 X16.7135 Y5.1623 Z0.2800
G01 X16.1808 Y5.1845 Z0.2800
G01 X16.1799 Y5.1846 Z0.2800
G01 X15.6453 Y5.2075 Z0.2800
G01 X15.6446 Y5.2075 Z0.2800
G01 X15.1100 Y5.2312 Z0.2800
G01 X15.1093 Y5.2312 Z0.2800
G01 X14.5760 Y5.2554 Z0.2800
G01 X14.5745 Y5.2555 Z0.2800
G01 X14.5740 Y5.2555 Z0.2800
G01 X14.0388 Y5.2805 Z0.2800
G01 X14.0372 Y5.2805 Z0.2800
G01 X13.5062 Y5.3060 Z0.2800
G01 X13.5038 Y5.3061 Z0.2800
G01 X12.9725 Y5.3322 Z0.2800
G01 X12.9718 Y5.3322 Z0.2800
G01 X12.9711 Y5.3323 Z0.2800
G01 X12.9687 Y5.3324 Z0.2800
G01 X12.4366 Y5.3592 Z0.2800
G01 X12.4338 Y5.3593 Z0.2800
G01 X12.4332 Y5.3594 Z0.2800
G01 X11.9027 Y5.3868 Z0.2800
G01 X11.9019 Y5.3868 Z0.2800
G01 X11.9012 Y5.3868 Z0.2800
G01 X11.8983 Y5.3870 Z0.2800
G01 X11.3648 Y5.4152 Z0.2800
G01 X11.3638 Y5.4153 Z0.2800
G01 X11.3630 Y5.4153 Z0.2800
G01 X10.8290 Y5.4442 Z0.2800
G01 X10.8282 Y5.4442 Z0.2800
G01 X10.2931 Y5.4738 Z0.2800
G01 X10.2924 Y5.4739 Z0.2800
G01 X9.7581 Y5.5041 Z0.2800
G01 X9.2231 Y5.5351 Z0.2800
G01 X8.6881 Y5.5666 Z0.2800
G01 X8.6873 Y5.5667 Z0.2800
G01 X8.6853 Y5.5668 Z0.2800
G01 X8.1534 Y5.5989 Z0.2800
G01 X8.1529 Y5.5990 Z0.2800
G01 X8.1518 Y5.5990 Z0.2800
G01 X7.6185 Y5.6318 Z0.2800
G01 X3.7553 Y5.8743 Z0.2800
G01 X3.6901 Y4.8360 Z0.2800
G01 X3.6901 Y4.8360 Z0.1400
G01 X7.5532 Y4.5935 Z0.1400
G01 X7.5570 Y4.5933 Z0.1400
G01 X7.5577 Y4.5932 Z0.1400
G01 X7.5584 Y4.5932 Z0.1400
G01 X8.0894 Y4.5605 Z0.1400
G01 X8.0901 Y4.5605 Z0.1400
G01 X8.0907 Y4.5604 Z0.1400
G01 X8.0914 Y4.5604 Z0.1400
G01 X8.0919 Y4.5603 Z0.1400
G01 X8.6246 Y4.5282 Z0.1400
G01 X8.6256 Y4.5281 Z0.1400
G01 X8.6292 Y4.5279 Z0.1400
G01 X9.1616 Y4.4965 Z0.1400
G01 X9.1625 Y4.4964 Z0.1400
G01 X9.1629 Y4.4964 Z0.1400
G01 X9.6979 Y4.4655 Z0.1400
G01 X9.6988 Y4.4654 Z0.1400
G01 X9.6998 Y4.4653 Z0.1400
G01 X10.2341 Y4.4351 Z0.1400
G01 X10.2351 Y4.4351 Z0.1400
G01 X10.7703 Y4.4054 Z0.1400
G01 X10.7711 Y4.4054 Z0.1400
G01 X10.7718 Y4.4053 Z0.1400
G01 X11.3055 Y4.3764 Z0.1400
G01 X11.3072 Y4.3764 Z0.1400
G01 X11.3081 Y4.3764 Z0.1400
G01 X11.8394 Y4.3483 Z0.1400
G01 X11.8401 Y4.3483 Z0.1400
G01 X11.8408 Y4.3482 Z0.1400
G01 X11.8445 Y4.3480 Z0.1400
G01 X12.3770 Y4.3205 Z0.1400
G01 X12.3775 Y4.3205 Z0.1400
G01 X12.3782 Y4.3204 Z0.1400
G01 X12.3805 Y4.3203 Z0.1400
G01 X12.9127 Y4.2935 Z0.1400
G01 X12.9133 Y4.2935 Z0.1400
G01 X12.9140 Y4.2934 Z0.1400
G01 X12.9172 Y4.2933 Z0.1400
G01 X13.4503 Y4.2671 Z0.1400
G01 X13.4508 Y4.2671 Z0.1400
G01 X13.4545 Y4.2669 Z0.1400
G01 X13.9868 Y4.2414 Z0.1400
G01 X13.9878 Y4.2413 Z0.1400
G01 X13.9903 Y4.2412 Z0.1400
G01 X14.5224 Y4.2164 Z0.1400
G01 X14.5230 Y4.2164 Z0.1400
G01 X14.5269 Y4.2162 Z0.1400
G01 X15.0607 Y4.1920 Z0.1400
G01 X15.0618 Y4.1919 Z0.1400
G01 X15.0634 Y4.1918 Z0.1400
G01 X15.5974 Y4.1682 Z0.1400
G01 X15.6000 Y4.1681 Z0.1400
G01 X16.1346 Y4.1451 Z0.1400
G01 X16.1357 Y4.1451 Z0.1400
G01 X16.1380 Y4.1450 Z0.1400
G01 X16.6701 Y4.1228 Z0.1400
G01 X16.6715 Y4.1227 Z0.1400
G01 X16.6733 Y4.1227 Z0.1400
G01 X17.2053 Y4.1011 Z0.1400
G01 X17.2070 Y4.1011 Z0.1400
G01 X17.2099 Y4.1010 Z0.1400
G01 X17.7446 Y4.0800 Z0.1400
G01 X17.7461 Y4.0800 Z0.1400
G01 X17.7474 Y4.0799 Z0.1400
G01 X18.2817 Y4.0596 Z0.1400
G01 X18.2823 Y4.0596 Z0.1400
G01 X18.2834 Y4.0596 Z0.1400
G01 X18.8179 Y4.0399 Z0.1400
G01 X18.8194 Y4.0398 Z0.1400
G01 X18.8202 Y4.0398 Z0.1400
G01 X19.3530 Y4.0209 Z0.1400
G01 X19.3542 Y4.0209 Z0.1400
G01 X19.3577 Y4.0207 Z0.1400
G01 X19.3592 Y4.0207 Z0.1400
G01 X19.8913 Y4.0024 Z0.1400
G01 X19.8929 Y4.0024 Z0.1400
G01 X19.8938 Y4.0024 Z0.1400
G01 X20.4285 Y3.9847 Z0.1400
G01 X20.4310 Y3.9846 Z0.1400
G01 X20.4332 Y3.9845 Z0.1400
G01 X20.9636 Y3.9676 Z0.1400
G01 X20.9668 Y3.9676 Z0.1400
G01 X20.9690 Y3.9675 Z0.1400
G01 X21.5018 Y3.9513 Z0.1400
G01 X21.5037 Y3.9512 Z0.1400
G01 X21.5050 Y3.9512 Z0.1400
G01 X22.0398 Y3.9355 Z0.1400
G01 X22.0409 Y3.9354 Z0.1400
G01 X22.5748 Y3.9204 Z0.1400
G01 X22.5761 Y3.9204 Z0.1400
G01 X22.5796 Y3.9203 Z0.1400
G01 X23.1137 Y3.9060 Z0.1400
G01 X23.1151 Y3.9059 Z0.1400
G01 X23.6506 Y3.8922 Z0.1400
G01 X23.6523 Y3.8922 Z0.1400
G01 X24.1875 Y3.8791 Z0.1400
G01 X24.1891 Y3.8791 Z0.1400
G01 X24.7246 Y3.8667 Z0.1400
G01 X24.7252 Y3.8667 Z0.1400
G01 X24.7266 Y3.8667 Z0.1400
G01 X25.2597 Y3.8550 Z0.1400
G01 X25.2603 Y3.8550 Z0.1400
G01 X25.2638 Y3.8550 Z0.1400
G01 X25.2663 Y3.8548 Z0.1400
G01 X25.7977 Y3.8438 Z0.1400
G01 X25.8005 Y3.8438 Z0.1400
G01 X25.8012 Y3.8438 Z0.1400
G01 X26.3356 Y3.8335 Z0.1400
G01 X26.3367 Y3.8335 Z0.1400
G01 X26.3381 Y3.8334 Z0.1400
G01 X26.8703 Y3.8237 Z0.1400
G01 X26.8718 Y3.8237 Z0.1400
G01 X26.8754 Y3.8237 Z0.1400
G01 X26.8762 Y3.8236 Z0.1400
G01 X27.4096 Y3.8146 Z0.1400
G01 X27.4121 Y3.8146 Z0.1400
G01 X27.9466 Y3.8062 Z0.1400
G01 X27.9494 Y3.8061 Z0.1400
G01 X28.4825 Y3.7984 Z0.1400
G01 X28.4842 Y3.7984 Z0.1400
G01 X28.4860 Y3.7983 Z0.1400
G01 X29.0209 Y3.7913 Z0.1400
G01 X29.0229 Y3.7913 Z0.1400
G01 X29.5578 Y3.7848 Z0.1400
G01 X29.5607 Y3.7848 Z0.1400
G01 X30.0950 Y3.7791 Z0.1400
G01 X30.0988 Y3.7790 Z0.1400
G01 X30.6321 Y3.7740 Z0.1400
G01 X30.6344 Y3.7740 Z0.1400
G01 X31.1691 Y3.7695 Z0.1400
G01 X31.1696 Y3.7695 Z0.1400
G01 X31.1732 Y3.7695 Z0.1400
G01 X31.1737 Y3.7694 Z0.1400
G01 X31.7062 Y3.7657 Z0.1400
G01 X31.7076 Y3.7657 Z0.1400
G01 X32.2434 Y3.7626 Z0.1400
G01 X32.2448 Y3.7626 Z0.1400
G01 X32.7805 Y3.7601 Z0.1400
G01 X32.7818 Y3.7601 Z0.1400
G01 X33.3176 Y3.7584 Z0.1400
G01 X33.3189 Y3.7584 Z0.1400
G01 X33.8547 Y3.7573 Z0.1400
G01 X33.8561 Y3.7573 Z0.1400
G01 X34.3918 Y3.7568 Z0.1400
G01 X34.3931 Y3.7568 Z0.1400
G01 X34.9289 Y3.7570 Z0.1400
G01 X34.9303 Y3.7570 Z0.1400
G01 X35.4661 Y3.7579 Z0.1400
G01 X35.4674 Y3.7579 Z0.1400
G01 X36.0032 Y3.7594 Z0.1400
G01 X36.0045 Y3.7594 Z0.1400
G01 X36.5403 Y3.7616 Z0.1400
G01 X36.5417 Y3.7616 Z0.1400
G01 X37.0774 Y3.7645 Z0.1400
G01 X37.0787 Y3.7645 Z0.1400
G01 X37.6145 Y3.7680 Z0.1400
G01 X37.6159 Y3.7680 Z0.1400
G01 X38.1501 Y3.7722 Z0.1400
G01 X38.1520 Y3.7722 Z0.1400
G01 X38.1543 Y3.7722 Z0.1400
G01 X38.6859 Y3.7770 Z0.1400
G01 X38.6901 Y3.7771 Z0.1400
G01 X39.2242 Y3.7826 Z0.1400
G01 X39.2272 Y3.7826 Z0.1400
G01 X39.7619 Y3.7888 Z0.1400
G01 X39.7642 Y3.7888 Z0.1400
G01 X40.2972 Y3.7956 Z0.1400
G01 X40.2980 Y3.7956 Z0.1400
G01 X40.3012 Y3.7957 Z0.1400
G01 X40.8370 Y3.8031 Z0.1400
G01 X40.8383 Y3.8032 Z0.1400
G01 X41.3726 Y3.8113 Z0.1400
G01 X41.3754 Y3.8113 Z0.1400
G01 X41.9087 Y3.8201 Z0.1400
G01 X41.9096 Y3.8201 Z0.1400
G01 X41.9125 Y3.8202 Z0.1400
G01 X42.4481 Y3.8297 Z0.1400
G01 X42.4495 Y3.8297 Z0.1400
G01 X42.9838 Y3.8398 Z0.1400
G01 X42.9845 Y3.8398 Z0.1400
G01 X42.9874 Y3.8399 Z0.1400
G01 X43.5187 Y3.8506 Z0.1400
G01 X43.5212 Y3.8507 Z0.1400
G01 X43.5247 Y3.8507 Z0.1400
G01 X43.5254 Y3.8507 Z0.1400
G01 X44.0586 Y3.8622 Z0.1400
G01 X44.0601 Y3.8622 Z0.1400
G01 X44.5959 Y3.8743 Z0.1400
G01 X44.5975 Y3.8744 Z0.1400
G01 X45.1327 Y3.8872 Z0.1400
G01 X45.1342 Y3.8872 Z0.1400
G01 X45.6698 Y3.9007 Z0.1400
G01 X45.6712 Y3.9007 Z0.1400
G01 X46.2053 Y3.9148 Z0.1400
G01 X46.2070 Y3.9148 Z0.1400
G01 X46.2094 Y3.9149 Z0.1400
G01 X46.7428 Y3.9296 Z0.1400
G01 X46.7444 Y3.9297 Z0.1400
G01 X46.7464 Y3.9298 Z0.1400
G01 X47.2808 Y3.9451 Z0.1400
G01 X47.2834 Y3.9452 Z0.1400
G01 X47.8178 Y3.9613 Z0.1400
G01 X47.8195 Y3.9614 Z0.1400
G01 X48.3535 Y3.9781 Z0.1400
G01 X48.3562 Y3.9782 Z0.1400
G01 X48.3573 Y3.9782 Z0.1400
G01 X48.8900 Y3.9956 Z0.1400
G01 X48.8922 Y3.9957 Z0.1400
G01 X48.8949 Y3.9957 Z0.1400
G01 X49.4277 Y4.0137 Z0.1400
G01 X49.4298 Y4.0138 Z0.1400
G01 X49.9650 Y4.0325 Z0.1400
G01 X49.9659 Y4.0326 Z0.1400
G01 X49.9673 Y4.0326 Z0.1400
G01 X50.5006 Y4.0520 Z0.1400
G01 X50.5014 Y4.0520 Z0.1400
G01 X50.5049 Y4.0521 Z0.1400
G01 X51.0385 Y4.0721 Z0.1400
G01 X51.0394 Y4.0722 Z0.1400
G01 X51.0401 Y4.0722 Z0.1400
G01 X51.5753 Y4.0930 Z0.1400
G01 X51.5764 Y4.0930 Z0.1400
G01 X52.1118 Y4.1144 Z0.1400
G01 X52.1123 Y4.1144 Z0.1400
G01 X52.1133 Y4.1144 Z0.1400
G01 X52.6477 Y4.1365 Z0.1400
G01 X52.6509 Y4.1366 Z0.1400
G01 X52.6517 Y4.1367 Z0.1400
G01 X53.1832 Y4.1593 Z0.1400
G01 X53.1852 Y4.1594 Z0.1400
G01 X53.1871 Y4.1595 Z0.1400
G01 X53.7203 Y4.1827 Z0.1400
G01 X53.7224 Y4.1828 Z0.1400
G01 X53.7240 Y4.1829 Z0.1400
G01 X54.2574 Y4.2068 Z0.1400
G01 X54.2589 Y4.2069 Z0.1400
G01 X54.2597 Y4.2070 Z0.1400
G01 X54.7949 Y4.2317 Z0.1400
G01 X54.7958 Y4.2317 Z0.1400
G01 X54.7962 Y4.2317 Z0.1400
G01 X55.3314 Y4.2571 Z0.1400
G01 X55.3319 Y4.2572 Z0.1400
G01 X55.3337 Y4.2572 Z0.1400
G01 X55.8652 Y4.2831 Z0.1400
G01 X55.8664 Y4.2832 Z0.1400
G01 X55.8700 Y4.2834 Z0.1400
G01 X55.8729 Y4.2835 Z0.1400
G01 X56.4044 Y4.3100 Z0.1400
G01 X56.4051 Y4.3101 Z0.1400
G01 X56.4057 Y4.3101 Z0.1400
G01 X56.9406 Y4.3375 Z0.1400
G01 X56.9421 Y4.3375 Z0.1400
G01 X57.4772 Y4.3656 Z0.1400
G01 X57.4788 Y4.3657 Z0.1400
G01 X58.0115 Y4.3942 Z0.1400
G01 X58.0153 Y4.3945 Z0.1400
G01 X58.5498 Y4.4238 Z0.1400
G01 X58.5508 Y4.4239 Z0.1400
G01 X58.5519 Y4.4239 Z0.1400
G01 X58.5529 Y4.4240 Z0.1400
G01 X59.0861 Y4.4539 Z0.1400
G01 X59.0875 Y4.4540 Z0.1400
G01 X59.0881 Y4.4540 Z0.1400
G01 X59.6217 Y4.4846 Z0.1400
G01 X59.6237 Y4.4847 Z0.1400
G01 X60.1586 Y4.5161 Z0.1400
G01 X60.1600 Y4.5162 Z0.1400
G01 X64.0254 Y4.7475 Z0.1400
G01 X63.9632 Y5.7861 Z0.1400
G01 X60.0977 Y5.5547 Z0.1400
G01 X59.5628 Y5.5233 Z0.1400
G01 X59.0278 Y5.4926 Z0.1400
G01 X59.0260 Y5.4925 Z0.1400
G01 X58.4929 Y5.4626 Z0.1400
G01 X58.4916 Y5.4625 Z0.1400
G01 X58.4903 Y5.4625 Z0.1400
G01 X57.9579 Y5.4333 Z0.1400
G01 X57.9544 Y5.4331 Z0.1400
G01 X57.4255 Y5.4048 Z0.1400
G01 X57.4221 Y5.4045 Z0.1400
G01 X56.8877 Y5.3765 Z0.1400
G01 X56.8869 Y5.3765 Z0.1400
G01 X56.3535 Y5.3492 Z0.1400
G01 X56.3528 Y5.3492 Z0.1400
G01 X56.3517 Y5.3491 Z0.1400
G01 X55.8174 Y5.3224 Z0.1400
G01 X55.8164 Y5.3224 Z0.1400
G01 X55.2827 Y5.2964 Z0.1400
G01 X55.2815 Y5.2964 Z0.1400
G01 X54.7473 Y5.2710 Z0.1400
G01 X54.7465 Y5.2710 Z0.1400
G01 X54.7460 Y5.2709 Z0.1400
G01 X54.2117 Y5.2462 Z0.1400
G01 X54.2111 Y5.2462 Z0.1400
G01 X53.6764 Y5.2222 Z0.1400
G01 X53.1429 Y5.1989 Z0.1400
G01 X53.1422 Y5.1988 Z0.1400
G01 X53.1402 Y5.1988 Z0.1400
G01 X52.6059 Y5.1761 Z0.1400
G01 X52.6051 Y5.1760 Z0.1400
G01 X52.0721 Y5.1540 Z0.1400
G01 X52.0696 Y5.1539 Z0.1400
G01 X51.5368 Y5.1326 Z0.1400
G01 X51.5350 Y5.1326 Z0.1400
G01 X50.9996 Y5.1118 Z0.1400
G01 X50.9988 Y5.1118 Z0.1400
G01 X50.4645 Y5.0917 Z0.1400
G01 X50.4619 Y5.0916 Z0.1400
G01 X50.4600 Y5.0915 Z0.1400
G01 X49.9306 Y5.0724 Z0.1400
G01 X49.9284 Y5.0723 Z0.1400
G01 X49.3931 Y5.0535 Z0.1400
G01 X49.3920 Y5.0535 Z0.1400
G01 X48.8576 Y5.0355 Z0.1400
G01 X48.3220 Y5.0180 Z0.1400
G01 X48.3210 Y5.0180 Z0.1400
G01 X47.7887 Y5.0013 Z0.1400
G01 X47.7871 Y5.0013 Z0.1400
G01 X47.7864 Y5.0013 Z0.1400
G01 X47.2508 Y4.9851 Z0.1400
G01 X47.2493 Y4.9851 Z0.1400
G01 X47.2478 Y4.9850 Z0.1400
G01 X46.7152 Y4.9696 Z0.1400
G01 X46.7148 Y4.9696 Z0.1400
G01 X46.1796 Y4.9548 Z0.1400
G01 X45.6467 Y4.9408 Z0.1400
G01 X45.6453 Y4.9408 Z0.1400
G01 X45.6427 Y4.9407 Z0.1400
G01 X45.1083 Y4.9273 Z0.1400
G01 X45.1072 Y4.9273 Z0.1400
G01 X45.1059 Y4.9272 Z0.1400
G01 X44.5755 Y4.9145 Z0.1400
G01 X44.5743 Y4.9145 Z0.1400
G01 X44.5715 Y4.9144 Z0.1400
G01 X44.0376 Y4.9024 Z0.1400
G01 X44.0360 Y4.9023 Z0.1400
G01 X44.0345 Y4.9023 Z0.1400
G01 X43.5044 Y4.8909 Z0.1400
G01 X43.5033 Y4.8909 Z0.1400
G01 X43.5003 Y4.8909 Z0.1400
G01 X42.9655 Y4.8801 Z0.1400
G01 X42.4320 Y4.8700 Z0.1400
G01 X42.4299 Y4.8699 Z0.1400
G01 X42.4275 Y4.8698 Z0.1400
G01 X41.8977 Y4.8604 Z0.1400
G01 X41.8969 Y4.8604 Z0.1400
G01 X41.8940 Y4.8604 Z0.1400
G01 X41.3583 Y4.8516 Z0.1400
G01 X40.8225 Y4.8434 Z0.1400
G01 X40.8204 Y4.8433 Z0.1400
G01 X40.2910 Y4.8360 Z0.1400
G01 X40.2904 Y4.8360 Z0.1400
G01 X40.2866 Y4.8359 Z0.1400
G01 X39.7509 Y4.8291 Z0.1400
G01 X39.2151 Y4.8229 Z0.1400
G01 X38.6794 Y4.8174 Z0.1400
G01 X38.1435 Y4.8125 Z0.1400
G01 X37.6077 Y4.8084 Z0.1400
G01 X37.0719 Y4.8049 Z0.1400
G01 X36.5361 Y4.8020 Z0.1400
G01 X36.0003 Y4.7998 Z0.1400
G01 X35.4644 Y4.7983 Z0.1400
G01 X34.9286 Y4.7974 Z0.1400
G01 X34.3928 Y4.7972 Z0.1400
G01 X33.8570 Y4.7977 Z0.1400
G01 X33.3212 Y4.7988 Z0.1400
G01 X32.7854 Y4.8005 Z0.1400
G01 X32.2496 Y4.8030 Z0.1400
G01 X31.7137 Y4.8061 Z0.1400
G01 X31.1778 Y4.8099 Z0.1400
G01 X31.1731 Y4.8099 Z0.1400
G01 X30.6437 Y4.8143 Z0.1400
G01 X30.6416 Y4.8143 Z0.1400
G01 X30.1063 Y4.8194 Z0.1400
G01 X29.5705 Y4.8251 Z0.1400
G01 X29.0347 Y4.8316 Z0.1400
G01 X28.4990 Y4.8387 Z0.1400
G01 X27.9631 Y4.8464 Z0.1400
G01 X27.4274 Y4.8548 Z0.1400
G01 X26.8915 Y4.8639 Z0.1400
G01 X26.8888 Y4.8639 Z0.1400
G01 X26.8879 Y4.8640 Z0.1400
G01 X26.3577 Y4.8736 Z0.1400
G01 X26.3546 Y4.8737 Z0.1400
G01 X26.3537 Y4.8737 Z0.1400
G01 X25.8202 Y4.8841 Z0.1400
G01 X25.2852 Y4.8951 Z0.1400
G01 X25.2824 Y4.8951 Z0.1400
G01 X25.2813 Y4.8952 Z0.1400
G01 X24.7509 Y4.9068 Z0.1400
G01 X24.7490 Y4.9068 Z0.1400
G01 X24.7469 Y4.9069 Z0.1400
G01 X24.2140 Y4.9192 Z0.1400
G01 X24.2113 Y4.9192 Z0.1400
G01 X24.2101 Y4.9193 Z0.1400
G01 X23.6796 Y4.9322 Z0.1400
G01 X23.6784 Y4.9323 Z0.1400
G01 X23.6772 Y4.9323 Z0.1400
G01 X23.1429 Y4.9460 Z0.1400
G01 X23.1403 Y4.9460 Z0.1400
G01 X23.1390 Y4.9461 Z0.1400
G01 X22.6088 Y4.9603 Z0.1400
G01 X22.6068 Y4.9603 Z0.1400
G01 X22.6057 Y4.9604 Z0.1400
G01 X22.0717 Y4.9754 Z0.1400
G01 X22.0694 Y4.9754 Z0.1400
G01 X22.0679 Y4.9755 Z0.1400
G01 X21.5353 Y4.9911 Z0.1400
G01 X21.5347 Y4.9911 Z0.1400
G01 X20.9992 Y5.0074 Z0.1400
G01 X20.4645 Y5.0245 Z0.1400
G01 X20.4636 Y5.0245 Z0.1400
G01 X19.9286 Y5.0422 Z0.1400
G01 X19.9277 Y5.0422 Z0.1400
G01 X19.9259 Y5.0422 Z0.1400
G01 X19.3963 Y5.0604 Z0.1400
G01 X19.3952 Y5.0604 Z0.1400
G01 X19.3921 Y5.0605 Z0.1400
G01 X18.8581 Y5.0796 Z0.1400
G01 X18.8571 Y5.0796 Z0.1400
G01 X18.3216 Y5.0992 Z0.1400
G01 X18.3196 Y5.0993 Z0.1400
G01 X17.7868 Y5.1195 Z0.1400
G01 X17.7861 Y5.1195 Z0.1400
G01 X17.2548 Y5.1404 Z0.1400
G01 X17.2534 Y5.1405 Z0.1400
G01 X17.2495 Y5.1407 Z0.1400
G01 X16.7172 Y5.1622 Z0.1400
G01 X16.7157 Y5.1622 Z0.1400
G01 X16.7135 Y5.1623 Z0.1400
G01 X16.1808 Y5.1845 Z0.1400
G01 X16.1799 Y5.1846 Z0.1400
G01 X15.6453 Y5.2075 Z0.1400
G01 X15.6446 Y5.2075 Z0.1400
G01 X15.1100 Y5.2312 Z0.1400
G01 X15.1093 Y5.2312 Z0.1400
G01 X14.5760 Y5.2554 Z0.1400
G01 X14.5745 Y5.2555 Z0.1400
G01 X14.5740 Y5.2555 Z0.1400
G01 X14.0388 Y5.2805 Z0.1400
G01 X14.0372 Y5.2805 Z0.1400
G01 X13.5062 Y5.3060 Z0.1400
G01 X13.5038 Y5.3061 Z0.1400
G01 X12.9725 Y5.3322 Z0.1400
G01 X12.9718 Y5.3322 Z0.1400
G01 X12.9711 Y5.3323 Z0.1400
G01 X12.9687 Y5.3324 Z0.1400
G01 X12.4366 Y5.3592 Z0.1400
G01 X12.4338 Y5.3593 Z0.1400
G01 X12.4332 Y5.3594 Z0.1400
G01 X11.9027 Y5.3868 Z0.1400
G01 X11.9019 Y5.3868 Z0.1400
G01 X11.9012 Y5.3868 Z0.1400
G01 X11.8983 Y5.3870 Z0.1400
G01 X11.3648 Y5.4152 Z0.1400
G01 X11.3638 Y5.4153 Z0.1400
G01 X11.3630 Y5.4153 Z0.1400
G01 X10.8290 Y5.4442 Z0.1400
G01 X10.8282 Y5.4442 Z0.1400
G01 X10.2931 Y5.4738 Z0.1400
G01 X10.2924 Y5.4739 Z0.1400
G01 X9.7581 Y5.5041 Z0.1400
G01 X9.2231 Y5.5351 Z0.1400
G01 X8.6881 Y5.5666 Z0.1400
G01 X8.6873 Y5.5667 Z0.1400
G01 X8.6853 Y5.5668 Z0.1400
G01 X8.1534 Y5.5989 Z0.1400
G01 X8.1529 Y5.5990 Z0.1400
G01 X8.1518 Y5.5990 Z0.1400
G01 X7.6185 Y5.6318 Z0.1400
G01 X3.7553 Y5.8743 Z0.1400
G01 X3.6901 Y4.8360 Z0.1400
G01 X3.6901 Y4.8360 Z0.0000
G01 X7.5532 Y4.5935 Z0.0000
G01 X7.5570 Y4.5933 Z0.0000
G01 X7.5577 Y4.5932 Z0.0000
G01 X7.5584 Y4.5932 Z0.0000
G01 X8.0894 Y4.5605 Z0.0000
G01 X8.0901 Y4.5605 Z0.0000
G01 X8.0907 Y4.5604 Z0.0000
G01 X8.0914 Y4.5604 Z0.0000
G01 X8.0919 Y4.5603 Z0.0000
G01 X8.6246 Y4.5282 Z0.0000
G01 X8.6256 Y4.5281 Z0.0000
G01 X8.6292 Y4.5279 Z0.0000
G01 X9.1616 Y4.4965 Z0.0000
G01 X9.1625 Y4.4964 Z0.0000
G01 X9.1629 Y4.4964 Z0.0000
G01 X9.6979 Y4.4655 Z0.0000
G01 X9.6988 Y4.4654 Z0.0000
G01 X9.6998 Y4.4653 Z0.0000
G01 X10.2341 Y4.4351 Z0.0000
G01 X10.2351 Y4.4351 Z0.0000
G01 X10.7703 Y4.4054 Z0.0000
G01 X10.7711 Y4.4054 Z0.0000
G01 X10.7718 Y4.4053 Z0.0000
G01 X11.3055 Y4.3764 Z0.0000
G01 X11.3072 Y4.3764 Z0.0000
G01 X11.3081 Y4.3764 Z0.0000
G01 X11.8394 Y4.3483 Z0.0000
G01 X11.8401 Y4.3483 Z0.0000
G01 X11.8408 Y4.3482 Z0.0000
G01 X11.8445 Y4.3480 Z0.0000
G01 X12.3770 Y4.3205 Z0.0000
G01 X12.3775 Y4.3205 Z0.0000
G01 X12.3782 Y4.3204 Z0.0000
G01 X12.3805 Y4.3203 Z0.0000
G01 X12.9127 Y4.2935 Z0.0000
G01 X12.9133 Y4.2935 Z0.0000
G01 X12.9140 Y4.2934 Z0.0000
G01 X12.9172 Y4.2933 Z0.0000
G01 X13.4503 Y4.2671 Z0.0000
G01 X13.4508 Y4.2671 Z0.0000
G01 X13.4545 Y4.2669 Z0.0000
G01 X13.9868 Y4.2414 Z0.0000
G01 X13.9878 Y4.2413 Z0.0000
G01 X13.9903 Y4.2412 Z0.0000
G01 X14.5224 Y4.2164 Z0.0000
G01 X14.5230 Y4.2164 Z0.0000
G01 X14.5269 Y4.2162 Z0.0000
G01 X15.0607 Y4.1920 Z0.0000
G01 X15.0618 Y4.1919 Z0.0000
G01 X15.0634 Y4.1918 Z0.0000
G01 X15.5974 Y4.1682 Z0.0000
G01 X15.6000 Y4.1681 Z0.0000
G01 X16.1346 Y4.1451 Z0.0000
G01 X16.1357 Y4.1451 Z0.0000
G01 X16.1380 Y4.1450 Z0.0000
G01 X16.6701 Y4.1228 Z0.0000
G01 X16.6715 Y4.1227 Z0.0000
G01 X16.6733 Y4.1227 Z0.0000
G01 X17.2053 Y4.1011 Z0.0000
G01 X17.2070 Y4.1011 Z0.0000
G01 X17.2099 Y4.1010 Z0.0000
G01 X17.7446 Y4.0800 Z0.0000
G01 X17.7461 Y4.0800 Z0.0000
G01 X17.7474 Y4.0799 Z0.0000
G01 X18.2817 Y4.0596 Z0.0000
G01 X18.2823 Y4.0596 Z0.0000
G01 X18.2834 Y4.0596 Z0.0000
G01 X18.8179 Y4.0399 Z0.0000
G01 X18.8194 Y4.0398 Z0.0000
G01 X18.8202 Y4.0398 Z0.0000
G01 X19.3530 Y4.0209 Z0.0000
G01 X19.3542 Y4.0209 Z0.0000
G01 X19.3577 Y4.0207 Z0.0000
G01 X19.3592 Y4.0207 Z0.0000
G01 X19.8913 Y4.0024 Z0.0000
G01 X19.8929 Y4.0024 Z0.0000
G01 X19.8938 Y4.0024 Z0.0000
G01 X20.4285 Y3.9847 Z0.0000
G01 X20.4310 Y3.9846 Z0.0000
G01 X20.4332 Y3.9845 Z0.0000
G01 X20.9636 Y3.9676 Z0.0000
G01 X20.9668 Y3.9676 Z0.0000
G01 X20.9690 Y3.9675 Z0.0000
G01 X21.5018 Y3.9513 Z0.0000
G01 X21.5037 Y3.9512 Z0.0000
G01 X21.5050 Y3.9512 Z0.0000
G01 X22.0398 Y3.9355 Z0.0000
G01 X22.0409 Y3.9354 Z0.0000
G01 X22.5748 Y3.9204 Z0.0000
G01 X22.5761 Y3.9204 Z0.0000
G01 X22.5796 Y3.9203 Z0.0000
G01 X23.1137 Y3.9060 Z0.0000
G01 X23.1151 Y3.9059 Z0.0000
G01 X23.6506 Y3.8922 Z0.0000
G01 X23.6523 Y3.8922 Z0.0000
G01 X24.1875 Y3.8791 Z0.0000
G01 X24.1891 Y3.8791 Z0.0000
G01 X24.7246 Y3.8667 Z0.0000
G01 X24.7252 Y3.8667 Z0.0000
G01 X24.7266 Y3.8667 Z0.0000
G01 X25.2597 Y3.8550 Z0.0000
G01 X25.2603 Y3.8550 Z0.0000
G01 X25.2638 Y3.8550 Z0.0000
G01 X25.2663 Y3.8548 Z0.0000
G01 X25.7977 Y3.8438 Z0.0000
G01 X25.8005 Y3.8438 Z0.0000
G01 X25.8012 Y3.8438 Z0.0000
G01 X26.3356 Y3.8335 Z0.0000
G01 X26.3367 Y3.8335 Z0.0000
G01 X26.3381 Y3.8334 Z0.0000
G01 X26.8703 Y3.8237 Z0.0000
G01 X26.8718 Y3.8237 Z0.0000
G01 X26.8754 Y3.8237 Z0.0000
G01 X26.8762 Y3.8236 Z0.0000
G01 X27.4096 Y3.8146 Z0.0000
G01 X27.4121 Y3.8146 Z0.0000
G01 X27.9466 Y3.8062 Z0.0000
G01 X27.9494 Y3.8061 Z0.0000
G01 X28.4825 Y3.7984 Z0.0000
G01 X28.4842 Y3.7984 Z0.0000
G01 X28.4860 Y3.7983 Z0.0000
G01 X29.0209 Y3.7913 Z0.0000
G01 X29.0229 Y3.7913 Z0.0000
G01 X29.5578 Y3.7848 Z0.0000
G01 X29.5607 Y3.7848 Z0.0000
G01 X30.0950 Y3.7791 Z0.0000
G01 X30.0988 Y3.7790 Z0.0000
G01 X30.6321 Y3.7740 Z0.0000
G01 X30.6344 Y3.7740 Z0.0000
G01 X31.1691 Y3.7695 Z0.0000
G01 X31.1696 Y3.7695 Z0.0000
G01 X31.1732 Y3.7695 Z0.0000
G01 X31.1737 Y3.7694 Z0.0000
G01 X31.7062 Y3.7657 Z0.0000
G01 X31.7076 Y3.7657 Z0.0000
G01 X32.2434 Y3.7626 Z0.0000
G01 X32.2448 Y3.7626 Z0.0000
G01 X32.7805 Y3.7601 Z0.0000
G01 X32.7818 Y3.7601 Z0.0000
G01 X33.3176 Y3.7584 Z0.0000
G01 X33.3189 Y3.7584 Z0.0000
G01 X33.8547 Y3.7573 Z0.0000
G01 X33.8561 Y3.7573 Z0.0000
G01 X34.3918 Y3.7568 Z0.0000
G01 X34.3931 Y3.7568 Z0.0000
G01 X34.9289 Y3.7570 Z0.0000
G01 X34.9303 Y3.7570 Z0.0000
G01 X35.4661 Y3.7579 Z0.0000
G01 X35.4674 Y3.7579 Z0.0000
G01 X36.0032 Y3.7594 Z0.0000
G01 X36.0045 Y3.7594 Z0.0000
G01 X36.5403 Y3.7616 Z0.0000
G01 X36.5417 Y3.7616 Z0.0000
G01 X37.0774 Y3.7645 Z0.0000
G01 X37.0787 Y3.7645 Z0.0000
G01 X37.6145 Y3.7680 Z0.0000
G01 X37.6159 Y3.7680 Z0.0000
G01 X38.1501 Y3.7722 Z0.0000
G01 X38.1520 Y3.7722 Z0.0000
G01 X38.1543 Y3.7722 Z0.0000
G01 X38.6859 Y3.7770 Z0.0000
G01 X38.6901 Y3.7771 Z0.0000
G01 X39.2242 Y3.7826 Z0.0000
G01 X39.2272 Y3.7826 Z0.0000
G01 X39.7619 Y3.7888 Z0.0000
G01 X39.7642 Y3.7888 Z0.0000
G01 X40.2972 Y3.7956 Z0.0000
G01 X40.2980 Y3.7956 Z0.0000
G01 X40.3012 Y3.7957 Z0.0000
G01 X40.8370 Y3.8031 Z0.0000
G01 X40.8383 Y3.8032 Z0.0000
G01 X41.3726 Y3.8113 Z0.0000
G01 X41.3754 Y3.8113 Z0.0000
G01 X41.9087 Y3.8201 Z0.0000
G01 X41.9096 Y3.8201 Z0.0000
G01 X41.9125 Y3.8202 Z0.0000
G01 X42.4481 Y3.8297 Z0.0000
G01 X42.4495 Y3.8297 Z0.0000
G01 X42.9838 Y3.8398 Z0.0000
G01 X42.9845 Y3.8398 Z0.0000
G01 X42.9874 Y3.8399 Z0.0000
G01 X43.5187 Y3.8506 Z0.0000
G01 X43.5212 Y3.8507 Z0.0000
G01 X43.5247 Y3.8507 Z0.0000
G01 X43.5254 Y3.8507 Z0.0000
G01 X44.0586 Y3.8622 Z0.0000
G01 X44.0601 Y3.8622 Z0.0000
G01 X44.5959 Y3.8743 Z0.0000
G01 X44.5975 Y3.8744 Z0.0000
G01 X45.1327 Y3.8872 Z0.0000
G01 X45.1342 Y3.8872 Z0.0000
G01 X45.6698 Y3.9007 Z0.0000
G01 X45.6712 Y3.9007 Z0.0000
G01 X46.2053 Y3.9148 Z0.0000
G01 X46.2070 Y3.9148 Z0.0000
G01 X46.2094 Y3.9149 Z0.0000
G01 X46.7428 Y3.9296 Z0.0000
G01 X46.7444 Y3.9297 Z0.0000
G01 X46.7464 Y3.9298 Z0.0000
G01 X47.2808 Y3.9451 Z0.0000
G01 X47.2834 Y3.9452 Z0.0000
G01 X47.8178 Y3.9613 Z0.0000
G01 X47.8195 Y3.9614 Z0.0000
G01 X48.3535 Y3.9781 Z0.0000
G01 X48.3562 Y3.9782 Z0.0000
G01 X48.3573 Y3.9782 Z0.0000
G01 X48.8900 Y3.9956 Z0.0000
G01 X48.8922 Y3.9957 Z0.0000
G01 X48.8949 Y3.9957 Z0.0000
G01 X49.4277 Y4.0137 Z0.0000
G01 X49.4298 Y4.0138 Z0.0000
G01 X49.9650 Y4.0325 Z0.0000
G01 X49.9659 Y4.0326 Z0.0000
G01 X49.9673 Y4.0326 Z0.0000
G01 X50.5006 Y4.0520 Z0.0000
G01 X50.5014 Y4.0520 Z0.0000
G01 X50.5049 Y4.0521 Z0.0000
G01 X51.0385 Y4.0721 Z0.0000
G01 X51.0394 Y4.0722 Z0.0000
G01 X51.0401 Y4.0722 Z0.0000
G01 X51.5753 Y4.0930 Z0.0000
G01 X51.5764 Y4.0930 Z0.0000
G01 X52.1118 Y4.1144 Z0.0000
G01 X52.1123 Y4.1144 Z0.0000
G01 X52.1133 Y4.1144 Z0.0000
G01 X52.6477 Y4.1365 Z0.0000
G01 X52.6509 Y4.1366 Z0.0000
G01 X52.6517 Y4.1367 Z0.0000
G01 X53.1832 Y4.1593 Z0.0000
G01 X53.1852 Y4.1594 Z0.0000
G01 X53.1871 Y4.1595 Z0.0000
G01 X53.7203 Y4.1827 Z0.0000
G01 X53.7224 Y4.1828 Z0.0000
G01 X53.7240 Y4.1829 Z0.0000
G01 X54.2574 Y4.2068 Z0.0000
G01 X54.2589 Y4.2069 Z0.0000
G01 X54.2597 Y4.2070 Z0.0000
G01 X54.7949 Y4.2317 Z0.0000
G01 X54.7958 Y4.2317 Z0.0000
G01 X54.7962 Y4.2317 Z0.0000
G01 X55.3314 Y4.2571 Z0.0000
G01 X55.3319 Y4.2572 Z0.0000
G01 X55.3337 Y4.2572 Z0.0000
G01 X55.8652 Y4.2831 Z0.0000
G01 X55.8664 Y4.2832 Z0.0000
G01 X55.8700 Y4.2834 Z0.0000
G01 X55.8729 Y4.2835 Z0.0000
G01 X56.4044 Y4.3100 Z0.0000
G01 X56.4051 Y4.3101 Z0.0000
G01 X56.4057 Y4.3101 Z0.0000
G01 X56.9406 Y4.3375 Z0.0000
G01 X56.9421 Y4.3375 Z0.0000
G01 X57.4772 Y4.3656 Z0.0000
G01 X57.4788 Y4.3657 Z0.0000
G01 X58.0115 Y4.3942 Z0.0000
G01 X58.0153 Y4.3945 Z0.0000
G01 X58.5498 Y4.4238 Z0.0000
G01 X58.5508 Y4.4239 Z0.0000
G01 X58.5519 Y4.4239 Z0.0000
G01 X58.5529 Y4.4240 Z0.0000
G01 X59.0861 Y4.4539 Z0.0000
G01 X59.0875 Y4.4540 Z0.0000
G01 X59.0881 Y4.4540 Z0.0000
G01 X59.6217 Y4.4846 Z0.0000
G01 X59.6237 Y4.4847 Z0.0000
G01 X60.1586 Y4.5161 Z0.0000
G01 X60.1600 Y4.5162 Z0.0000
G01 X64.0254 Y4.7475 Z0.0000
G01 X63.9632 Y5.7861 Z0.0000
G01 X60.0977 Y5.5547 Z0.0000
G01 X59.5628 Y5.5233 Z0.0000
G01 X59.0278 Y5.4926 Z0.0000
G01 X59.0260 Y5.4925 Z0.0000
G01 X58.4929 Y5.4626 Z0.0000
G01 X58.4916 Y5.4625 Z0.0000
G01 X58.4903 Y5.4625 Z0.0000
G01 X57.9579 Y5.4333 Z0.0000
G01 X57.9544 Y5.4331 Z0.0000
G01 X57.4255 Y5.4048 Z0.0000
G01 X57.4221 Y5.4045 Z0.0000
G01 X56.8877 Y5.3765 Z0.0000
G01 X56.8869 Y5.3765 Z0.0000
G01 X56.3535 Y5.3492 Z0.0000
G01 X56.3528 Y5.3492 Z0.0000
G01 X56.3517 Y5.3491 Z0.0000
G01 X55.8174 Y5.3224 Z0.0000
G01 X55.8164 Y5.3224 Z0.0000
G01 X55.2827 Y5.2964 Z0.0000
G01 X55.2815 Y5.2964 Z0.0000
G01 X54.7473 Y5.2710 Z0.0000
G01 X54.7465 Y5.2710 Z0.0000
G01 X54.7460 Y5.2709 Z0.0000
G01 X54.2117 Y5.2462 Z0.0000
G01 X54.2111 Y5.2462 Z0.0000
G01 X53.6764 Y5.2222 Z0.0000
G01 X53.1429 Y5.1989 Z0.0000
G01 X53.1422 Y5.1988 Z0.0000
G01 X53.1402 Y5.1988 Z0.0000
G01 X52.6059 Y5.1761 Z0.0000
G01 X52.6051 Y5.1760 Z0.0000
G01 X52.0721 Y5.1540 Z0.0000
G01 X52.0696 Y5.1539 Z0.0000
G01 X51.5368 Y5.1326 Z0.0000
G01 X51.5350 Y5.1326 Z0.0000
G01 X50.9996 Y5.1118 Z0.0000
G01 X50.9988 Y5.1118 Z0.0000
G01 X50.4645 Y5.0917 Z0.0000
G01 X50.4619 Y5.0916 Z0.0000
G01 X50.4600 Y5.0915 Z0.0000
G01 X49.9306 Y5.0724 Z0.0000
G01 X49.9284 Y5.0723 Z0.0000
G01 X49.3931 Y5.0535 Z0.0000
G01 X49.3920 Y5.0535 Z0.0000
G01 X48.8576 Y5.0355 Z0.0000
G01 X48.3220 Y5.0180 Z0.0000
G01 X48.3210 Y5.0180 Z0.0000
G01 X47.7887 Y5.0013 Z0.0000
G01 X47.7871 Y5.0013 Z0.0000
G01 X47.7864 Y5.0013 Z0.0000
G01 X47.2508 Y4.9851 Z0.0000
G01 X47.2493 Y4.9851 Z0.0000
G01 X47.2478 Y4.9850 Z0.0000
G01 X46.7152 Y4.9696 Z0.0000
G01 X46.7148 Y4.9696 Z0.0000
G01 X46.1796 Y4.9548 Z0.0000
G01 X45.6467 Y4.9408 Z0.0000
G01 X45.6453 Y4.9408 Z0.0000
G01 X45.6427 Y4.9407 Z0.0000
G01 X45.1083 Y4.9273 Z0.0000
G01 X45.1072 Y4.9273 Z0.0000
G01 X45.1059 Y4.9272 Z0.0000
G01 X44.5755 Y4.9145 Z0.0000
G01 X44.5743 Y4.9145 Z0.0000
G01 X44.5715 Y4.9144 Z0.0000
G01 X44.0376 Y4.9024 Z0.0000
G01 X44.0360 Y4.9023 Z0.0000
G01 X44.0345 Y4.9023 Z0.0000
G01 X43.5044 Y4.8909 Z0.0000
G01 X43.5033 Y4.8909 Z0.0000
G01 X43.5003 Y4.8909 Z0.0000
G01 X42.9655 Y4.8801 Z0.0000
G01 X42.4320 Y4.8700 Z0.0000
G01 X42.4299 Y4.8699 Z0.0000
G01 X42.4275 Y4.8698 Z0.0000
G01 X41.8977 Y4.8604 Z0.0000
G01 X41.8969 Y4.8604 Z0.0000
G01 X41.8940 Y4.8604 Z0.0000
G01 X41.3583 Y4.8516 Z0.0000
G01 X40.8225 Y4.8434 Z0.0000
G01 X40.8204 Y4.8433 Z0.0000
G01 X40.2910 Y4.8360 Z0.0000
G01 X40.2904 Y4.8360 Z0.0000
G01 X40.2866 Y4.8359 Z0.0000
G01 X39.7509 Y4.8291 Z0.0000
G01 X39.2151 Y4.8229 Z0.0000
G01 X38.6794 Y4.8174 Z0.0000
G01 X38.1435 Y4.8125 Z0.0000
G01 X37.6077 Y4.8084 Z0.0000
G01 X37.0719 Y4.8049 Z0.0000
G01 X36.5361 Y4.8020 Z0.0000
G01 X36.0003 Y4.7998 Z0.0000
G01 X35.4644 Y4.7983 Z0.0000
G01 X34.9286 Y4.7974 Z0.0000
G01 X34.3928 Y4.7972 Z0.0000
G01 X33.8570 Y4.7977 Z0.0000
G01 X33.3212 Y4.7988 Z0.0000
G01 X32.7854 Y4.8005 Z0.0000
G01 X32.2496 Y4.8030 Z0.0000
G01 X31.7137 Y4.8061 Z0.0000
G01 X31.1778 Y4.8099 Z0.0000
G01 X31.1731 Y4.8099 Z0.0000
G01 X30.6437 Y4.8143 Z0.0000
G01 X30.6416 Y4.8143 Z0.0000
G01 X30.1063 Y4.8194 Z0.0000
G01 X29.5705 Y4.8251 Z0.0000
G01 X29.0347 Y4.8316 Z0.0000
G01 X28.4990 Y4.8387 Z0.0000
G01 X27.9631 Y4.8464 Z0.0000
G01 X27.4274 Y4.8548 Z0.0000
G01 X26.8915 Y4.8639 Z0.0000
G01 X26.8888 Y4.8639 Z0.0000
G01 X26.8879 Y4.8640 Z0.0000
G01 X26.3577 Y4.8736 Z0.0000
G01 X26.3546 Y4.8737 Z0.0000
G01 X26.3537 Y4.8737 Z0.0000
G01 X25.8202 Y4.8841 Z0.0000
G01 X25.2852 Y4.8951 Z0.0000
G01 X25.2824 Y4.8951 Z0.0000
G01 X25.2813 Y4.8952 Z0.0000
G01 X24.7509 Y4.9068 Z0.0000
G01 X24.7490 Y4.9068 Z0.0000
G01 X24.7469 Y4.9069 Z0.0000
G01 X24.2140 Y4.9192 Z0.0000
G01 X24.2113 Y4.9192 Z0.0000
G01 X24.2101 Y4.9193 Z0.0000
G01 X23.6796 Y4.9322 Z0.0000
G01 X23.6784 Y4.9323 Z0.0000
G01 X23.6772 Y4.9323 Z0.0000
G01 X23.1429 Y4.9460 Z0.0000
G01 X23.1403 Y4.9460 Z0.0000
G01 X23.1390 Y4.9461 Z0.0000
G01 X22.6088 Y4.9603 Z0.0000
G01 X22.6068 Y4.9603 Z0.0000
G01 X22.6057 Y4.9604 Z0.0000
G01 X22.0717 Y4.9754 Z0.0000
G01 X22.0694 Y4.9754 Z0.0000
G01 X22.0679 Y4.9755 Z0.0000
G01 X21.5353 Y4.9911 Z0.0000
G01 X21.5347 Y4.9911 Z0.0000
G01 X20.9992 Y5.0074 Z0.0000
G01 X20.4645 Y5.0245 Z0.0000
G01 X20.4636 Y5.0245 Z0.0000
G01 X19.9286 Y5.0422 Z0.0000
G01 X19.9277 Y5.0422 Z0.0000
G01 X19.9259 Y5.0422 Z0.0000
G01 X19.3963 Y5.0604 Z0.0000
G01 X19.3952 Y5.0604 Z0.0000
G01 X19.3921 Y5.0605 Z0.0000
G01 X18.8581 Y5.0796 Z0.0000
G01 X18.8571 Y5.0796 Z0.0000
G01 X18.3216 Y5.0992 Z0.0000
G01 X18.3196 Y5.0993 Z0.0000
G01 X17.7868 Y5.1195 Z0.0000
G01 X17.7861 Y5.1195 Z0.0000
G01 X17.2548 Y5.1404 Z0.0000
G01 X17.2534 Y5.1405 Z0.0000
G01 X17.2495 Y5.1407 Z0.0000
G01 X16.7172 Y5.1622 Z0.0000
G01 X16.7157 Y5.1622 Z0.0000
G01 X16.7135 Y5.1623 Z0.0000
G01 X16.1808 Y5.1845 Z0.0000
G01 X16.1799 Y5.1846 Z0.0000
G01 X15.6453 Y5.2075 Z0.0000
G01 X15.6446 Y5.2075 Z0.0000
G01 X15.1100 Y5.2312 Z0.0000
G01 X15.1093 Y5.2312 Z0.0000
G01 X14.5760 Y5.2554 Z0.0000
G01 X14.5745 Y5.2555 Z0.0000
G01 X14.5740 Y5.2555 Z0.0000
G01 X14.0388 Y5.2805 Z0.0000
G01 X14.0372 Y5.2805 Z0.0000
G01 X13.5062 Y5.3060 Z0.0000
G01 X13.5038 Y5.3061 Z0.0000
G01 X12.9725 Y5.3322 Z0.0000
G01 X12.9718 Y5.3322 Z0.0000
G01 X12.9711 Y5.3323 Z0.0000
G01 X12.9687 Y5.3324 Z0.0000
G01 X12.4366 Y5.3592 Z0.0000
G01 X12.4338 Y5.3593 Z0.0000
G01 X12.4332 Y5.3594 Z0.0000
G01 X11.9027 Y5.3868 Z0.0000
G01 X11.9019 Y5.3868 Z0.0000
G01 X11.9012 Y5.3868 Z0.0000
G01 X11.8983 Y5.3870 Z0.0000
G01 X11.3648 Y5.4152 Z0.0000
G01 X11.3638 Y5.4153 Z0.0000
G01 X11.3630 Y5.4153 Z0.0000
G01 X10.8290 Y5.4442 Z0.0000
G01 X10.8282 Y5.4442 Z0.0000
G01 X10.2931 Y5.4738 Z0.0000
G01 X10.2924 Y5.4739 Z0.0000
G01 X9.7581 Y5.5041 Z0.0000
G01 X9.2231 Y5.5351 Z0.0000
G01 X8.6881 Y5.5666 Z0.0000
G01 X8.6873 Y5.5667 Z0.0000
G01 X8.6853 Y5.5668 Z0.0000
G01 X8.1534 Y5.5989 Z0.0000
G01 X8.1529 Y5.5990 Z0.0000
G01 X8.1518 Y5.5990 Z0.0000
G01 X7.6185 Y5.6318 Z0.0000
G01 X3.7553 Y5.8743 Z0.0000
G01 X3.6901 Y4.8360 Z0.0000
G00 X3.6901 Y4.8360 Z0.6000
G00 X3.6901 Y-4.8360 Z0.6000
G01 X3.6901 Y-4.8360 Z0.2800
G01 X3.7553 Y-5.8743 Z0.2800
G01 X7.6184 Y-5.6318 Z0.2800
G01 X8.1515 Y-5.5990 Z0.2800
G01 X8.1525 Y-5.5990 Z0.2800
G01 X8.1534 Y-5.5989 Z0.2800
G01 X8.6853 Y-5.5668 Z0.2800
G01 X8.6873 Y-5.5667 Z0.2800
G01 X8.6881 Y-5.5666 Z0.2800
G01 X9.2230 Y-5.5351 Z0.2800
G01 X9.7579 Y-5.5041 Z0.2800
G01 X10.2923 Y-5.4739 Z0.2800
G01 X10.2931 Y-5.4738 Z0.2800
G01 X10.8279 Y-5.4442 Z0.2800
G01 X10.8288 Y-5.4442 Z0.2800
G01 X11.3630 Y-5.4153 Z0.2800
G01 X11.3638 Y-5.4153 Z0.2800
G01 X11.3645 Y-5.4152 Z0.2800
G01 X11.8981 Y-5.3870 Z0.2800
G01 X11.9012 Y-5.3868 Z0.2800
G01 X11.9019 Y-5.3868 Z0.2800
G01 X11.9027 Y-5.3868 Z0.2800
G01 X12.4332 Y-5.3594 Z0.2800
G01 X12.4338 Y-5.3593 Z0.2800
G01 X12.4363 Y-5.3592 Z0.2800
G01 X12.9684 Y-5.3324 Z0.2800
G01 X12.9711 Y-5.3323 Z0.2800
G01 X12.9718 Y-5.3322 Z0.2800
G01 X12.9725 Y-5.3322 Z0.2800
G01 X13.5036 Y-5.3061 Z0.2800
G01 X13.5062 Y-5.3060 Z0.2800
G01 X14.0372 Y-5.2805 Z0.2800
G01 X14.0388 Y-5.2805 Z0.2800
G01 X14.5740 Y-5.2555 Z0.2800
G01 X14.5745 Y-5.2555 Z0.2800
G01 X14.5760 Y-5.2554 Z0.2800
G01 X15.1093 Y-5.2312 Z0.2800
G01 X15.1100 Y-5.2312 Z0.2800
G01 X15.6445 Y-5.2075 Z0.2800
G01 X15.6453 Y-5.2075 Z0.2800
G01 X16.1799 Y-5.1846 Z0.2800
G01 X16.1808 Y-5.1845 Z0.2800
G01 X16.7135 Y-5.1623 Z0.2800
G01 X16.7157 Y-5.1622 Z0.2800
G01 X16.7172 Y-5.1622 Z0.2800
G01 X17.2495 Y-5.1407 Z0.2800
G01 X17.2534 Y-5.1405 Z0.2800
G01 X17.2548 Y-5.1404 Z0.2800
G01 X17.7861 Y-5.1195 Z0.2800
G01 X17.7868 Y-5.1195 Z0.2800
G01 X18.3196 Y-5.0993 Z0.2800
G01 X18.3216 Y-5.0992 Z0.2800
G01 X18.8571 Y-5.0796 Z0.2800
G01 X18.8581 Y-5.0796 Z0.2800
G01 X19.3921 Y-5.0605 Z0.2800
G01 X19.3952 Y-5.0604 Z0.2800
G01 X19.3963 Y-5.0604 Z0.2800
G01 X19.9259 Y-5.0422 Z0.2800
G01 X19.9277 Y-5.0422 Z0.2800
G01 X19.9286 Y-5.0422 Z0.2800
G01 X20.4636 Y-5.0245 Z0.2800
G01 X20.4645 Y-5.0245 Z0.2800
G01 X20.9991 Y-5.0075 Z0.2800
G01 X21.5347 Y-4.9911 Z0.2800
G01 X21.5353 Y-4.9911 Z0.2800
G01 X22.0679 Y-4.9755 Z0.2800
G01 X22.0694 Y-4.9754 Z0.2800
G01 X22.0717 Y-4.9754 Z0.2800
G01 X22.6057 Y-4.9604 Z0.2800
G01 X22.6068 Y-4.9603 Z0.2800
G01 X22.6088 Y-4.9603 Z0.2800
G01 X23.1390 Y-4.9461 Z0.2800
G01 X23.1403 Y-4.9460 Z0.2800
G01 X23.1429 Y-4.9460 Z0.2800
G01 X23.6772 Y-4.9323 Z0.2800
G01 X23.6784 Y-4.9323 Z0.2800
G01 X23.6796 Y-4.9322 Z0.2800
G01 X24.2101 Y-4.9193 Z0.2800
G01 X24.2113 Y-4.9192 Z0.2800
G01 X24.2140 Y-4.9192 Z0.2800
G01 X24.7469 Y-4.9069 Z0.2800
G01 X24.7490 Y-4.9068 Z0.2800
G01 X24.7509 Y-4.9068 Z0.2800
G01 X25.2813 Y-4.8952 Z0.2800
G01 X25.2824 Y-4.8951 Z0.2800
G01 X25.2852 Y-4.8951 Z0.2800
G01 X25.8200 Y-4.8841 Z0.2800
G01 X26.3537 Y-4.8737 Z0.2800
G01 X26.3546 Y-4.8737 Z0.2800
G01 X26.3577 Y-4.8736 Z0.2800
G01 X26.8879 Y-4.8640 Z0.2800
G01 X26.8888 Y-4.8639 Z0.2800
G01 X26.8915 Y-4.8639 Z0.2800
G01 X27.4272 Y-4.8548 Z0.2800
G01 X27.9630 Y-4.8464 Z0.2800
G01 X28.4988 Y-4.8387 Z0.2800
G01 X29.0346 Y-4.8316 Z0.2800
G01 X29.5703 Y-4.8251 Z0.2800
G01 X30.1061 Y-4.8194 Z0.2800
G01 X30.6414 Y-4.8143 Z0.2800
G01 X30.6437 Y-4.8143 Z0.2800
G01 X31.1731 Y-4.8099 Z0.2800
G01 X31.1778 Y-4.8099 Z0.2800
G01 X31.7136 Y-4.8061 Z0.2800
G01 X32.2494 Y-4.8030 Z0.2800
G01 X32.7852 Y-4.8005 Z0.2800
G01 X33.3211 Y-4.7988 Z0.2800
G01 X33.8569 Y-4.7977 Z0.2800
G01 X34.3926 Y-4.7972 Z0.2800
G01 X34.9285 Y-4.7974 Z0.2800
G01 X35.4643 Y-4.7983 Z0.2800
G01 X36.0001 Y-4.7998 Z0.2800
G01 X36.5359 Y-4.8020 Z0.2800
G01 X37.0718 Y-4.8049 Z0.2800
G01 X37.6076 Y-4.8084 Z0.2800
G01 X38.1433 Y-4.8125 Z0.2800
G01 X38.6792 Y-4.8174 Z0.2800
G01 X39.2150 Y-4.8229 Z0.2800
G01 X39.7508 Y-4.8291 Z0.2800
G01 X40.2866 Y-4.8359 Z0.2800
G01 X40.2904 Y-4.8360 Z0.2800
G01 X40.2910 Y-4.8360 Z0.2800
G01 X40.8204 Y-4.8433 Z0.2800
G01 X40.8225 Y-4.8434 Z0.2800
G01 X41.3581 Y-4.8516 Z0.2800
G01 X41.8940 Y-4.8604 Z0.2800
G01 X41.8969 Y-4.8604 Z0.2800
G01 X41.8977 Y-4.8604 Z0.2800
G01 X42.4275 Y-4.8698 Z0.2800
G01 X42.4299 Y-4.8699 Z0.2800
G01 X42.4320 Y-4.8700 Z0.2800
G01 X42.9654 Y-4.8801 Z0.2800
G01 X43.5003 Y-4.8909 Z0.2800
G01 X43.5033 Y-4.8909 Z0.2800
G01 X43.5044 Y-4.8909 Z0.2800
G01 X44.0345 Y-4.9023 Z0.2800
G01 X44.0360 Y-4.9023 Z0.2800
G01 X44.0376 Y-4.9024 Z0.2800
G01 X44.5715 Y-4.9144 Z0.2800
G01 X44.5743 Y-4.9145 Z0.2800
G01 X44.5755 Y-4.9145 Z0.2800
G01 X45.1059 Y-4.9272 Z0.2800
G01 X45.1072 Y-4.9273 Z0.2800
G01 X45.1083 Y-4.9273 Z0.2800
G01 X45.6427 Y-4.9407 Z0.2800
G01 X45.6453 Y-4.9408 Z0.2800
G01 X45.6467 Y-4.9408 Z0.2800
G01 X46.1794 Y-4.9548 Z0.2800
G01 X46.7148 Y-4.9696 Z0.2800
G01 X46.7152 Y-4.9696 Z0.2800
G01 X47.2478 Y-4.9850 Z0.2800
G01 X47.2493 Y-4.9851 Z0.2800
G01 X47.2508 Y-4.9851 Z0.2800
G01 X47.7864 Y-5.0012 Z0.2800
G01 X47.7871 Y-5.0013 Z0.2800
G01 X47.7887 Y-5.0013 Z0.2800
G01 X48.3210 Y-5.0180 Z0.2800
G01 X48.3220 Y-5.0180 Z0.2800
G01 X48.8574 Y-5.0355 Z0.2800
G01 X49.3920 Y-5.0535 Z0.2800
G01 X49.3931 Y-5.0535 Z0.2800
G01 X49.9284 Y-5.0723 Z0.2800
G01 X49.9306 Y-5.0724 Z0.2800
G01 X50.4600 Y-5.0915 Z0.2800
G01 X50.4619 Y-5.0916 Z0.2800
G01 X50.4645 Y-5.0917 Z0.2800
G01 X50.9988 Y-5.1118 Z0.2800
G01 X50.9996 Y-5.1118 Z0.2800
G01 X51.5350 Y-5.1326 Z0.2800
G01 X51.5368 Y-5.1326 Z0.2800
G01 X52.0696 Y-5.1539 Z0.2800
G01 X52.0721 Y-5.1540 Z0.2800
G01 X52.6051 Y-5.1760 Z0.2800
G01 X52.6059 Y-5.1761 Z0.2800
G01 X53.1402 Y-5.1988 Z0.2800
G01 X53.1422 Y-5.1988 Z0.2800
G01 X53.1429 Y-5.1989 Z0.2800
G01 X53.6762 Y-5.2222 Z0.2800
G01 X54.2111 Y-5.2462 Z0.2800
G01 X54.2117 Y-5.2462 Z0.2800
G01 X54.7460 Y-5.2709 Z0.2800
G01 X54.7465 Y-5.2710 Z0.2800
G01 X54.7473 Y-5.2710 Z0.2800
G01 X55.2815 Y-5.2964 Z0.2800
G01 X55.2827 Y-5.2964 Z0.2800
G01 X55.8164 Y-5.3224 Z0.2800
G01 X55.8174 Y-5.3224 Z0.2800
G01 X56.3517 Y-5.3491 Z0.2800
G01 X56.3528 Y-5.3492 Z0.2800
G01 X56.3535 Y-5.3492 Z0.2800
G01 X56.8869 Y-5.3765 Z0.2800
G01 X56.8877 Y-5.3765 Z0.2800
G01 X57.4221 Y-5.4045 Z0.2800
G01 X57.4251 Y-5.4047 Z0.2800
G01 X57.9540 Y-5.4331 Z0.2800
G01 X57.9579 Y-5.4333 Z0.2800
G01 X58.4903 Y-5.4625 Z0.2800
G01 X58.4916 Y-5.4625 Z0.2800
G01 X58.4929 Y-5.4626 Z0.2800
G01 X59.0260 Y-5.4925 Z0.2800
G01 X59.0277 Y-5.4926 Z0.2800
G01 X59.5626 Y-5.5233 Z0.2800
G01 X60.0975 Y-5.5547 Z0.2800
G01 X60.0982 Y-5.5547 Z0.2800
G01 X63.9632 Y-5.7861 Z0.2800
G01 X64.0254 Y-4.7475 Z0.2800
G01 X60.1600 Y-4.5161 Z0.2800
G01 X60.1587 Y-4.5161 Z0.2800
G01 X59.6237 Y-4.4847 Z0.2800
G01 X59.6217 Y-4.4846 Z0.2800
G01 X59.0883 Y-4.4540 Z0.2800
G01 X59.0875 Y-4.4540 Z0.2800
G01 X59.0861 Y-4.4539 Z0.2800
G01 X58.5529 Y-4.4240 Z0.2800
G01 X58.5519 Y-4.4239 Z0.2800
G01 X58.5508 Y-4.4239 Z0.2800
G01 X58.5498 Y-4.4238 Z0.2800
G01 X58.0153 Y-4.3945 Z0.2800
G01 X58.0118 Y-4.3942 Z0.2800
G01 X57.4788 Y-4.3656 Z0.2800
G01 X57.4773 Y-4.3656 Z0.2800
G01 X56.9421 Y-4.3375 Z0.2800
G01 X56.9406 Y-4.3375 Z0.2800
G01 X56.4057 Y-4.3101 Z0.2800
G01 X56.4051 Y-4.3101 Z0.2800
G01 X56.4044 Y-4.3100 Z0.2800
G01 X55.8729 Y-4.2835 Z0.2800
G01 X55.8700 Y-4.2834 Z0.2800
G01 X55.8664 Y-4.2832 Z0.2800
G01 X55.8652 Y-4.2831 Z0.2800
G01 X55.3337 Y-4.2572 Z0.2800
G01 X55.3319 Y-4.2572 Z0.2800
G01 X55.3314 Y-4.2571 Z0.2800
G01 X54.7962 Y-4.2317 Z0.2800
G01 X54.7958 Y-4.2317 Z0.2800
G01 X54.7949 Y-4.2317 Z0.2800
G01 X54.2597 Y-4.2070 Z0.2800
G01 X54.2589 Y-4.2069 Z0.2800
G01 X54.2574 Y-4.2068 Z0.2800
G01 X53.7240 Y-4.1829 Z0.2800
G01 X53.7224 Y-4.1828 Z0.2800
G01 X53.7203 Y-4.1827 Z0.2800
G01 X53.1871 Y-4.1595 Z0.2800
G01 X53.1852 Y-4.1594 Z0.2800
G01 X53.1832 Y-4.1593 Z0.2800
G01 X52.6517 Y-4.1367 Z0.2800
G01 X52.6509 Y-4.1366 Z0.2800
G01 X52.6477 Y-4.1365 Z0.2800
G01 X52.1133 Y-4.1144 Z0.2800
G01 X52.1123 Y-4.1144 Z0.2800
G01 X52.1118 Y-4.1144 Z0.2800
G01 X51.5766 Y-4.0930 Z0.2800
G01 X51.5753 Y-4.0930 Z0.2800
G01 X51.0401 Y-4.0722 Z0.2800
G01 X51.0394 Y-4.0722 Z0.2800
G01 X51.0385 Y-4.0721 Z0.2800
G01 X50.5053 Y-4.0521 Z0.2800
G01 X50.5014 Y-4.0520 Z0.2800
G01 X50.5006 Y-4.0520 Z0.2800
G01 X49.9673 Y-4.0326 Z0.2800
G01 X49.9659 Y-4.0326 Z0.2800
G01 X49.9650 Y-4.0325 Z0.2800
G01 X49.4301 Y-4.0138 Z0.2800
G01 X49.4277 Y-4.0137 Z0.2800
G01 X48.8949 Y-3.9957 Z0.2800
G01 X48.8922 Y-3.9957 Z0.2800
G01 X48.8900 Y-3.9956 Z0.2800
G01 X48.3573 Y-3.9782 Z0.2800
G01 X48.3562 Y-3.9782 Z0.2800
G01 X48.3535 Y-3.9781 Z0.2800
G01 X47.8195 Y-3.9613 Z0.2800
G01 X47.8181 Y-3.9613 Z0.2800
G01 X47.2836 Y-3.9452 Z0.2800
G01 X47.2808 Y-3.9451 Z0.2800
G01 X46.7464 Y-3.9298 Z0.2800
G01 X46.7444 Y-3.9297 Z0.2800
G01 X46.7428 Y-3.9296 Z0.2800
G01 X46.2094 Y-3.9149 Z0.2800
G01 X46.2070 Y-3.9148 Z0.2800
G01 X46.2053 Y-3.9148 Z0.2800
G01 X45.6713 Y-3.9007 Z0.2800
G01 X45.6698 Y-3.9007 Z0.2800
G01 X45.1345 Y-3.8872 Z0.2800
G01 X45.1327 Y-3.8872 Z0.2800
G01 X44.5976 Y-3.8744 Z0.2800
G01 X44.5959 Y-3.8743 Z0.2800
G01 X44.0605 Y-3.8622 Z0.2800
G01 X44.0586 Y-3.8622 Z0.2800
G01 X43.5254 Y-3.8507 Z0.2800
G01 X43.5247 Y-3.8507 Z0.2800
G01 X43.5212 Y-3.8507 Z0.2800
G01 X43.5187 Y-3.8506 Z0.2800
G01 X42.9874 Y-3.8398 Z0.2800
G01 X42.9845 Y-3.8398 Z0.2800
G01 X42.9838 Y-3.8398 Z0.2800
G01 X42.4495 Y-3.8297 Z0.2800
G01 X42.4481 Y-3.8297 Z0.2800
G01 X41.9125 Y-3.8202 Z0.2800
G01 X41.9096 Y-3.8201 Z0.2800
G01 X41.9087 Y-3.8201 Z0.2800
G01 X41.3754 Y-3.8113 Z0.2800
G01 X41.3729 Y-3.8113 Z0.2800
G01 X40.8383 Y-3.8032 Z0.2800
G01 X40.8371 Y-3.8031 Z0.2800
G01 X40.3012 Y-3.7957 Z0.2800
G01 X40.2980 Y-3.7956 Z0.2800
G01 X40.2972 Y-3.7956 Z0.2800
G01 X39.7642 Y-3.7888 Z0.2800
G01 X39.7619 Y-3.7888 Z0.2800
G01 X39.2272 Y-3.7826 Z0.2800
G01 X39.2242 Y-3.7826 Z0.2800
G01 X38.6901 Y-3.7771 Z0.2800
G01 X38.6859 Y-3.7770 Z0.2800
G01 X38.1543 Y-3.7722 Z0.2800
G01 X38.1520 Y-3.7722 Z0.2800
G01 X38.1501 Y-3.7722 Z0.2800
G01 X37.6159 Y-3.7680 Z0.2800
G01 X37.6145 Y-3.7680 Z0.2800
G01 X37.0787 Y-3.7645 Z0.2800
G01 X37.0774 Y-3.7645 Z0.2800
G01 X36.5417 Y-3.7616 Z0.2800
G01 X36.5403 Y-3.7616 Z0.2800
G01 X36.0045 Y-3.7594 Z0.2800
G01 X36.0032 Y-3.7594 Z0.2800
G01 X35.4674 Y-3.7579 Z0.2800
G01 X35.4661 Y-3.7579 Z0.2800
G01 X34.9303 Y-3.7570 Z0.2800
G01 X34.9289 Y-3.7570 Z0.2800
G01 X34.3931 Y-3.7568 Z0.2800
G01 X34.3918 Y-3.7568 Z0.2800
G01 X33.8561 Y-3.7573 Z0.2800
G01 X33.8547 Y-3.7573 Z0.2800
G01 X33.3189 Y-3.7584 Z0.2800
G01 X33.3176 Y-3.7584 Z0.2800
G01 X32.7818 Y-3.7601 Z0.2800
G01 X32.7805 Y-3.7601 Z0.2800
G01 X32.2448 Y-3.7626 Z0.2800
G01 X32.2434 Y-3.7626 Z0.2800
G01 X31.7076 Y-3.7657 Z0.2800
G01 X31.7062 Y-3.7657 Z0.2800
G01 X31.1737 Y-3.7694 Z0.2800
G01 X31.1732 Y-3.7695 Z0.2800
G01 X31.1696 Y-3.7695 Z0.2800
G01 X31.1691 Y-3.7695 Z0.2800
G01 X30.6348 Y-3.7740 Z0.2800
G01 X30.6321 Y-3.7740 Z0.2800
G01 X30.0988 Y-3.7790 Z0.2800
G01 X30.0950 Y-3.7791 Z0.2800
G01 X29.5607 Y-3.7848 Z0.2800
G01 X29.5578 Y-3.7848 Z0.2800
G01 X29.0229 Y-3.7913 Z0.2800
G01 X29.0209 Y-3.7913 Z0.2800
G01 X28.4860 Y-3.7983 Z0.2800
G01 X28.4842 Y-3.7984 Z0.2800
G01 X28.4825 Y-3.7984 Z0.2800
G01 X27.9497 Y-3.8061 Z0.2800
G01 X27.9466 Y-3.8062 Z0.2800
G01 X27.4121 Y-3.8146 Z0.2800
G01 X27.4096 Y-3.8146 Z0.2800
G01 X26.8762 Y-3.8236 Z0.2800
G01 X26.8754 Y-3.8237 Z0.2800
G01 X26.8718 Y-3.8237 Z0.2800
G01 X26.8703 Y-3.8237 Z0.2800
G01 X26.3381 Y-3.8334 Z0.2800
G01 X26.3367 Y-3.8335 Z0.2800
G01 X26.3356 Y-3.8335 Z0.2800
G01 X25.8012 Y-3.8438 Z0.2800
G01 X25.8005 Y-3.8438 Z0.2800
G01 X25.7977 Y-3.8439 Z0.2800
G01 X25.2663 Y-3.8548 Z0.2800
G01 X25.2638 Y-3.8550 Z0.2800
G01 X25.2603 Y-3.8550 Z0.2800
G01 X25.2597 Y-3.8550 Z0.2800
G01 X24.7266 Y-3.8667 Z0.2800
G01 X24.7252 Y-3.8667 Z0.2800
G01 X24.7246 Y-3.8667 Z0.2800
G01 X24.1891 Y-3.8791 Z0.2800
G01 X24.1875 Y-3.8791 Z0.2800
G01 X23.6523 Y-3.8922 Z0.2800
G01 X23.6509 Y-3.8922 Z0.2800
G01 X23.1151 Y-3.9059 Z0.2800
G01 X23.1137 Y-3.9060 Z0.2800
G01 X22.5796 Y-3.9203 Z0.2800
G01 X22.5761 Y-3.9204 Z0.2800
G01 X22.5748 Y-3.9204 Z0.2800
G01 X22.0412 Y-3.9354 Z0.2800
G01 X22.0398 Y-3.9355 Z0.2800
G01 X21.5050 Y-3.9512 Z0.2800
G01 X21.5037 Y-3.9512 Z0.2800
G01 X21.5018 Y-3.9513 Z0.2800
G01 X20.9690 Y-3.9675 Z0.2800
G01 X20.9668 Y-3.9676 Z0.2800
G01 X20.9636 Y-3.9676 Z0.2800
G01 X20.4332 Y-3.9845 Z0.2800
G01 X20.4310 Y-3.9846 Z0.2800
G01 X20.4285 Y-3.9847 Z0.2800
G01 X19.8938 Y-4.0024 Z0.2800
G01 X19.8929 Y-4.0024 Z0.2800
G01 X19.8913 Y-4.0024 Z0.2800
G01 X19.3592 Y-4.0207 Z0.2800
G01 X19.3577 Y-4.0207 Z0.2800
G01 X19.3542 Y-4.0209 Z0.2800
G01 X19.3530 Y-4.0209 Z0.2800
G01 X18.8202 Y-4.0398 Z0.2800
G01 X18.8194 Y-4.0398 Z0.2800
G01 X18.8179 Y-4.0399 Z0.2800
G01 X18.2834 Y-4.0596 Z0.2800
G01 X18.2823 Y-4.0596 Z0.2800
G01 X18.2817 Y-4.0596 Z0.2800
G01 X17.7474 Y-4.0799 Z0.2800
G01 X17.7461 Y-4.0800 Z0.2800
G01 X17.7446 Y-4.0800 Z0.2800
G01 X17.2099 Y-4.1010 Z0.2800
G01 X17.2070 Y-4.1011 Z0.2800
G01 X17.2053 Y-4.1011 Z0.2800
G01 X16.6733 Y-4.1227 Z0.2800
G01 X16.6715 Y-4.1227 Z0.2800
G01 X16.6701 Y-4.1228 Z0.2800
G01 X16.1380 Y-4.1450 Z0.2800
G01 X16.1357 Y-4.1451 Z0.2800
G01 X16.1346 Y-4.1451 Z0.2800
G01 X15.6000 Y-4.1681 Z0.2800
G01 X15.5974 Y-4.1682 Z0.2800
G01 X15.0634 Y-4.1918 Z0.2800
G01 X15.0618 Y-4.1919 Z0.2800
G01 X15.0607 Y-4.1920 Z0.2800
G01 X14.5269 Y-4.2162 Z0.2800
G01 X14.5230 Y-4.2164 Z0.2800
G01 X14.5224 Y-4.2164 Z0.2800
G01 X13.9903 Y-4.2412 Z0.2800
G01 X13.9878 Y-4.2413 Z0.2800
G01 X13.9868 Y-4.2414 Z0.2800
G01 X13.4545 Y-4.2668 Z0.2800
G01 X13.4508 Y-4.2671 Z0.2800
G01 X13.4503 Y-4.2671 Z0.2800
G01 X12.9174 Y-4.2933 Z0.2800
G01 X12.9140 Y-4.2934 Z0.2800
G01 X12.9133 Y-4.2935 Z0.2800
G01 X12.9127 Y-4.2935 Z0.2800
G01 X12.3809 Y-4.3203 Z0.2800
G01 X12.3782 Y-4.3204 Z0.2800
G01 X12.3775 Y-4.3205 Z0.2800
G01 X12.3770 Y-4.3205 Z0.2800
G01 X11.8445 Y-4.3480 Z0.2800
G01 X11.8408 Y-4.3482 Z0.2800
G01 X11.8401 Y-4.3483 Z0.2800
G01 X11.8394 Y-4.3483 Z0.2800
G01 X11.3081 Y-4.3764 Z0.2800
G01 X11.3072 Y-4.3764 Z0.2800
G01 X11.3055 Y-4.3765 Z0.2800
G01 X10.7718 Y-4.4053 Z0.2800
G01 X10.7711 Y-4.4054 Z0.2800
G01 X10.7703 Y-4.4054 Z0.2800
G01 X10.2355 Y-4.4350 Z0.2800
G01 X10.2344 Y-4.4351 Z0.2800
G01 X9.6999 Y-4.4653 Z0.2800
G01 X9.6990 Y-4.4654 Z0.2800
G01 X9.6979 Y-4.4654 Z0.2800
G01 X9.1630 Y-4.4964 Z0.2800
G01 X9.1625 Y-4.4964 Z0.2800
G01 X9.1618 Y-4.4965 Z0.2800
G01 X8.6296 Y-4.5279 Z0.2800
G01 X8.6256 Y-4.5281 Z0.2800
G01 X8.6246 Y-4.5282 Z0.2800
G01 X8.0919 Y-4.5603 Z0.2800
G01 X8.0914 Y-4.5604 Z0.2800
G01 X8.0907 Y-4.5604 Z0.2800
G01 X8.0901 Y-4.5605 Z0.2800
G01 X8.0894 Y-4.5605 Z0.2800
G01 X7.5584 Y-4.5932 Z0.2800
G01 X7.5577 Y-4.5932 Z0.2800
G01 X7.5570 Y-4.5933 Z0.2800
G01 X7.5532 Y-4.5935 Z0.2800
G01 X3.6901 Y-4.8360 Z0.2800
G01 X3.6901 Y-4.8360 Z0.1400
G01 X3.7553 Y-5.8743 Z0.1400
G01 X7.6184 Y-5.6318 Z0.1400
G01 X8.1515 Y-5.5990 Z0.1400
G01 X8.1525 Y-5.5990 Z0.1400
G01 X8.1534 Y-5.5989 Z0.1400
G01 X8.6853 Y-5.5668 Z0.1400
G01 X8.6873 Y-5.5667 Z0.1400
G01 X8.6881 Y-5.5666 Z0.1400
G01 X9.2230 Y-5.5351 Z0.1400
G01 X9.7579 Y-5.5041 Z0.1400
G01 X10.2923 Y-5.4739 Z0.1400
G01 X10.2931 Y-5.4738 Z0.1400
G01 X10.8279 Y-5.4442 Z0.1400
G01 X10.8288 Y-5.4442 Z0.1400
G01 X11.3630 Y-5.4153 Z0.1400
G01 X11.3638 Y-5.4153 Z0.1400
G01 X11.3645 Y-5.4152 Z0.1400
G01 X11.8981 Y-5.3870 Z0.1400
G01 X11.9012 Y-5.3868 Z0.1400
G01 X11.9019 Y-5.3868 Z0.1400
G01 X11.9027 Y-5.3868 Z0.1400
G01 X12.4332 Y-5.3594 Z0.1400
G01 X12.4338 Y-5.3593 Z0.1400
G01 X12.4363 Y-5.3592 Z0.1400
G01 X12.9684 Y-5.3324 Z0.1400
G01 X12.9711 Y-5.3323 Z0.1400
G01 X12.9718 Y-5.3322 Z0.1400
G01 X12.9725 Y-5.3322 Z0.1400
G01 X13.5036 Y-5.3061 Z0.1400
G01 X13.5062 Y-5.3060 Z0.1400
G01 X14.0372 Y-5.2805 Z0.1400
G01 X14.0388 Y-5.2805 Z0.1400
G01 X14.5740 Y-5.2555 Z0.1400
G01 X14.5745 Y-5.2555 Z0.1400
G01 X14.5760 Y-5.2554 Z0.1400
G01 X15.1093 Y-5.2312 Z0.1400
G01 X15.1100 Y-5.2312 Z0.1400
G01 X15.6445 Y-5.2075 Z0.1400
G01 X15.6453 Y-5.2075 Z0.1400
G01 X16.1799 Y-5.1846 Z0.1400
G01 X16.1808 Y-5.1845 Z0.1400
G01 X16.7135 Y-5.1623 Z0.1400
G01 X16.7157 Y-5.1622 Z0.1400
G01 X16.7172 Y-5.1622 Z0.1400
G01 X17.2495 Y-5.1407 Z0.1400
G01 X17.2534 Y-5.1405 Z0.1400
G01 X17.2548 Y-5.1404 Z0.1400
G01 X17.7861 Y-5.1195 Z0.1400
G01 X17.7868 Y-5.1195 Z0.1400
G01 X18.3196 Y-5.0993 Z0.1400
G01 X18.3216 Y-5.0992 Z0.1400
G01 X18.8571 Y-5.0796 Z0.1400
G01 X18.8581 Y-5.0796 Z0.1400
G01 X19.3921 Y-5.0605 Z0.1400
G01 X19.3952 Y-5.0604 Z0.1400
G01 X19.3963 Y-5.0604 Z0.1400
G01 X19.9259 Y-5.0422 Z0.1400
G01 X19.9277 Y-5.0422 Z0.1400
G01 X19.9286 Y-5.0422 Z0.1400
G01 X20.4636 Y-5.0245 Z0.1400
G01 X20.4645 Y-5.0245 Z0.1400
G01 X20.9991 Y-5.0075 Z0.1400
G01 X21.5347 Y-4.9911 Z0.1400
G01 X21.5353 Y-4.9911 Z0.1400
G01 X22.0679 Y-4.9755 Z0.1400
G01 X22.0694 Y-4.9754 Z0.1400
G01 X22.0717 Y-4.9754 Z0.1400
G01 X22.6057 Y-4.9604 Z0.1400
G01 X22.6068 Y-4.9603 Z0.1400
G01 X22.6088 Y-4.9603 Z0.1400
G01 X23.1390 Y-4.9461 Z0.1400
G01 X23.1403 Y-4.9460 Z0.1400
G01 X23.1429 Y-4.9460 Z0.1400
G01 X23.6772 Y-4.9323 Z0.1400
G01 X23.6784 Y-4.9323 Z0.1400
G01 X23.6796 Y-4.9322 Z0.1400
G01 X24.2101 Y-4.9193 Z0.1400
G01 X24.2113 Y-4.9192 Z0.1400
G01 X24.2140 Y-4.9192 Z0.1400
G01 X24.7469 Y-4.9069 Z0.1400
G01 X24.7490 Y-4.9068 Z0.1400
G01 X24.7509 Y-4.9068 Z0.1400
G01 X25.2813 Y-4.8952 Z0.1400
G01 X25.2824 Y-4.8951 Z0.1400
G01 X25.2852 Y-4.8951 Z0.1400
G01 X25.8200 Y-4.8841 Z0.1400
G01 X26.3537 Y-4.8737 Z0.1400
G01 X26.3546 Y-4.8737 Z0.1400
G01 X26.3577 Y-4.8736 Z0.1400
G01 X26.8879 Y-4.8640 Z0.1400
G01 X26.8888 Y-4.8639 Z0.1400
G01 X26.8915 Y-4.8639 Z0.1400
G01 X27.4272 Y-4.8548 Z0.1400
G01 X27.9630 Y-4.8464 Z0.1400
G01 X28.4988 Y-4.8387 Z0.1400
G01 X29.0346 Y-4.8316 Z0.1400
G01 X29.5703 Y-4.8251 Z0.1400
G01 X30.1061 Y-4.8194 Z0.1400
G01 X30.6414 Y-4.8143 Z0.1400
G01 X30.6437 Y-4.8143 Z0.1400
G01 X31.1731 Y-4.8099 Z0.1400
G01 X31.1778 Y-4.8099 Z0.1400
G01 X31.7136 Y-4.8061 Z0.1400
G01 X32.2494 Y-4.8030 Z0.1400
G01 X32.7852 Y-4.8005 Z0.1400
G01 X33.3211 Y-4.7988 Z0.1400
G01 X33.8569 Y-4.7977 Z0.1400
G01 X34.3926 Y-4.7972 Z0.1400
G01 X34.9285 Y-4.7974 Z0.1400
G01 X35.4643 Y-4.7983 Z0.1400
G01 X36.0001 Y-4.7998 Z0.1400
G01 X36.5359 Y-4.8020 Z0.1400
G01 X37.0718 Y-4.8049 Z0.1400
G01 X37.6076 Y-4.8084 Z0.1400
G01 X38.1433 Y-4.8125 Z0.1400
G01 X38.6792 Y-4.8174 Z0.1400
G01 X39.2150 Y-4.8229 Z0.1400
G01 X39.7508 Y-4.8291 Z0.1400
G01 X40.2866 Y-4.8359 Z0.1400
G01 X40.2904 Y-4.8360 Z0.1400
G01 X40.2910 Y-4.8360 Z0.1400
G01 X40.8204 Y-4.8433 Z0.1400
G01 X40.8225 Y-4.8434 Z0.1400
G01 X41.3581 Y-4.8516 Z0.1400
G01 X41.8940 Y-4.8604 Z0.1400
G01 X41.8969 Y-4.8604 Z0.1400
G01 X41.8977 Y-4.8604 Z0.1400
G01 X42.4275 Y-4.8698 Z0.1400
G01 X42.4299 Y-4.8699 Z0.1400
G01 X42.4320 Y-4.8700 Z0.1400
G01 X42.9654 Y-4.8801 Z0.1400
G01 X43.5003 Y-4.8909 Z0.1400
G01 X43.5033 Y-4.8909 Z0.1400
G01 X43.5044 Y-4.8909 Z0.1400
G01 X44.0345 Y-4.9023 Z0.1400
G01 X44.0360 Y-4.9023 Z0.1400
G01 X44.0376 Y-4.9024 Z0.1400
G01 X44.5715 Y-4.9144 Z0.1400
G01 X44.5743 Y-4.9145 Z0.1400
G01 X44.5755 Y-4.9145 Z0.1400
G01 X45.1059 Y-4.9272 Z0.1400
G01 X45.1072 Y-4.9273 Z0.1400
G01 X45.1083 Y-4.9273 Z0.1400
G01 X45.6427 Y-4.9407 Z0.1400
G01 X45.6453 Y-4.9408 Z0.1400
G01 X45.6467 Y-4.9408 Z0.1400
G01 X46.1794 Y-4.9548 Z0.1400
G01 X46.7148 Y-4.9696 Z0.1400
G01 X46.7152 Y-4.9696 Z0.1400
G01 X47.2478 Y-4.9850 Z0.1400
G01 X47.2493 Y-4.9851 Z0.1400
G01 X47.2508 Y-4.9851 Z0.1400
G01 X47.7864 Y-5.0012 Z0.1400
G01 X47.7871 Y-5.0013 Z0.1400
G01 X47.7887 Y-5.0013 Z0.1400
G01 X48.3210 Y-5.0180 Z0.1400
G01 X48.3220 Y-5.0180 Z0.1400
G01 X48.8574 Y-5.0355 Z0.1400
G01 X49.3920 Y-5.0535 Z0.1400
G01 X49.3931 Y-5.0535 Z0.1400
G01 X49.9284 Y-5.0723 Z0.1400
G01 X49.9306 Y-5.0724 Z0.1400
G01 X50.4600 Y-5.0915 Z0.1400
G01 X50.4619 Y-5.0916 Z0.1400
G01 X50.4645 Y-5.0917 Z0.1400
G01 X50.9988 Y-5.1118 Z0.1400
G01 X50.9996 Y-5.1118 Z0.1400
G01 X51.5350 Y-5.1326 Z0.1400
G01 X51.5368 Y-5.1326 Z0.1400
G01 X52.0696 Y-5.1539 Z0.1400
G01 X52.0721 Y-5.1540 Z0.1400
G01 X52.6051 Y-5.1760 Z0.1400
G01 X52.6059 Y-5.1761 Z0.1400
G01 X53.1402 Y-5.1988 Z0.1400
G01 X53.1422 Y-5.1988 Z0.1400
G01 X53.1429 Y-5.1989 Z0.1400
G01 X53.6762 Y-5.2222 Z0.1400
G01 X54.2111 Y-5.2462 Z0.1400
G01 X54.2117 Y-5.2462 Z0.1400
G01 X54.7460 Y-5.2709 Z0.1400
G01 X54.7465 Y-5.2710 Z0.1400
G01 X54.7473 Y-5.2710 Z0.1400
G01 X55.2815 Y-5.2964 Z0.1400
G01 X55.2827 Y-5.2964 Z0.1400
G01 X55.8164 Y-5.3224 Z0.1400
G01 X55.8174 Y-5.3224 Z0.1400
G01 X56.3517 Y-5.3491 Z0.1400
G01 X56.3528 Y-5.3492 Z0.1400
G01 X56.3535 Y-5.3492 Z0.1400
G01 X56.8869 Y-5.3765 Z0.1400
G01 X56.8877 Y-5.3765 Z0.1400
G01 X57.4221 Y-5.4045 Z0.1400
G01 X57.4251 Y-5.4047 Z0.1400
G01 X57.9540 Y-5.4331 Z0.1400
G01 X57.9579 Y-5.4333 Z0.1400
G01 X58.4903 Y-5.4625 Z0.1400
G01 X58.4916 Y-5.4625 Z0.1400
G01 X58.4929 Y-5.4626 Z0.1400
G01 X59.0260 Y-5.4925 Z0.1400
G01 X59.0277 Y-5.4926 Z0.1400
G01 X59.5626 Y-5.5233 Z0.1400
G01 X60.0975 Y-5.5547 Z0.1400
G01 X60.0982 Y-5.5547 Z0.1400
G01 X63.9632 Y-5.7861 Z0.1400
G01 X64.0254 Y-4.7475 Z0.1400
G01 X60.1600 Y-4.5161 Z0.1400
G01 X60.1587 Y-4.5161 Z0.1400
G01 X59.6237 Y-4.4847 Z0.1400
G01 X59.6217 Y-4.4846 Z0.1400
G01 X59.0883 Y-4.4540 Z0.1400
G01 X59.0875 Y-4.4540 Z0.1400
G01 X59.0861 Y-4.4539 Z0.1400
G01 X58.5529 Y-4.4240 Z0.1400
G01 X58.5519 Y-4.4239 Z0.1400
G01 X58.5508 Y-4.4239 Z0.1400
G01 X58.5498 Y-4.4238 Z0.1400
G01 X58.0153 Y-4.3945 Z0.1400
G01 X58.0118 Y-4.3942 Z0.1400
G01 X57.4788 Y-4.3656 Z0.1400
G01 X57.4773 Y-4.3656 Z0.1400
G01 X56.9421 Y-4.3375 Z0.1400
G01 X56.9406 Y-4.3375 Z0.1400
G01 X56.4057 Y-4.3101 Z0.1400
G01 X56.4051 Y-4.3101 Z0.1400
G01 X56.4044 Y-4.3100 Z0.1400
G01 X55.8729 Y-4.2835 Z0.1400
G01 X55.8700 Y-4.2834 Z0.1400
G01 X55.8664 Y-4.2832 Z0.1400
G01 X55.8652 Y-4.2831 Z0.1400
G01 X55.3337 Y-4.2572 Z0.1400
G01 X55.3319 Y-4.2572 Z0.1400
G01 X55.3314 Y-4.2571 Z0.1400
G01 X54.7962 Y-4.2317 Z0.1400
G01 X54.7958 Y-4.2317 Z0.1400
G01 X54.7949 Y-4.2317 Z0.1400
G01 X54.2597 Y-4.2070 Z0.1400
G01 X54.2589 Y-4.2069 Z0.1400
G01 X54.2574 Y-4.2068 Z0.1400
G01 X53.7240 Y-4.1829 Z0.1400
G01 X53.7224 Y-4.1828 Z0.1400
G01 X53.7203 Y-4.1827 Z0.1400
G01 X53.1871 Y-4.1595 Z0.1400
G01 X53.1852 Y-4.1594 Z0.1400
G01 X53.1832 Y-4.1593 Z0.1400
G01 X52.6517 Y-4.1367 Z0.1400
G01 X52.6509 Y-4.1366 Z0.1400
G01 X52.6477 Y-4.1365 Z0.1400
G01 X52.1133 Y-4.1144 Z0.1400
G01 X52.1123 Y-4.1144 Z0.1400
G01 X52.1118 Y-4.1144 Z0.1400
G01 X51.5766 Y-4.0930 Z0.1400
G01 X51.5753 Y-4.0930 Z0.1400
G01 X51.0401 Y-4.0722 Z0.1400
G01 X51.0394 Y-4.0722 Z0.1400
G01 X51.0385 Y-4.0721 Z0.1400
G01 X50.5053 Y-4.0521 Z0.1400
G01 X50.5014 Y-4.0520 Z0.1400
G01 X50.5006 Y-4.0520 Z0.1400
G01 X49.9673 Y-4.0326 Z0.1400
G01 X49.9659 Y-4.0326 Z0.1400
G01 X49.9650 Y-4.0325 Z0.1400
G01 X49.4301 Y-4.0138 Z0.1400
G01 X49.4277 Y-4.0137 Z0.1400
G01 X48.8949 Y-3.9957 Z0.1400
G01 X48.8922 Y-3.9957 Z0.1400
G01 X48.8900 Y-3.9956 Z0.1400
G01 X48.3573 Y-3.9782 Z0.1400
G01 X48.3562 Y-3.9782 Z0.1400
G01 X48.3535 Y-3.9781 Z0.1400
G01 X47.8195 Y-3.9613 Z0.1400
G01 X47.8181 Y-3.9613 Z0.1400
G01 X47.2836 Y-3.9452 Z0.1400
G01 X47.2808 Y-3.9451 Z0.1400
G01 X46.7464 Y-3.9298 Z0.1400
G01 X46.7444 Y-3.9297 Z0.1400
G01 X46.7428 Y-3.9296 Z0.1400
G01 X46.2094 Y-3.9149 Z0.1400
G01 X46.2070 Y-3.9148 Z0.1400
G01 X46.2053 Y-3.9148 Z0.1400
G01 X45.6713 Y-3.9007 Z0.1400
G01 X45.6698 Y-3.9007 Z0.1400
G01 X45.1345 Y-3.8872 Z0.1400
G01 X45.1327 Y-3.8872 Z0.1400
G01 X44.5976 Y-3.8744 Z0.1400
G01 X44.5959 Y-3.8743 Z0.1400
G01 X44.0605 Y-3.8622 Z0.1400
G01 X44.0586 Y-3.8622 Z0.1400
G01 X43.5254 Y-3.8507 Z0.1400
G01 X43.5247 Y-3.8507 Z0.1400
G01 X43.5212 Y-3.8507 Z0.1400
G01 X43.5187 Y-3.8506 Z0.1400
G01 X42.9874 Y-3.8398 Z0.1400
G01 X42.9845 Y-3.8398 Z0.1400
G01 X42.9838 Y-3.8398 Z0.1400
G01 X42.4495 Y-3.8297 Z0.1400
G01 X42.4481 Y-3.8297 Z0.1400
G01 X41.9125 Y-3.8202 Z0.1400
G01 X41.9096 Y-3.8201 Z0.1400
G01 X41.9087 Y-3.8201 Z0.1400
G01 X41.3754 Y-3.8113 Z0.1400
G01 X41.3729 Y-3.8113 Z0.1400
G01 X40.8383 Y-3.8032 Z0.1400
G01 X40.8371 Y-3.8031 Z0.1400
G01 X40.3012 Y-3.7957 Z0.1400
G01 X40.2980 Y-3.7956 Z0.1400
G01 X40.2972 Y-3.7956 Z0.1400
G01 X39.7642 Y-3.7888 Z0.1400
G01 X39.7619 Y-3.7888 Z0.1400
G01 X39.2272 Y-3.7826 Z0.1400
G01 X39.2242 Y-3.7826 Z0.1400
G01 X38.6901 Y-3.7771 Z0.1400
G01 X38.6859 Y-3.7770 Z0.1400
G01 X38.1543 Y-3.7722 Z0.1400
G01 X38.1520 Y-3.7722 Z0.1400
G01 X38.1501 Y-3.7722 Z0.1400
G01 X37.6159 Y-3.7680 Z0.1400
G01 X37.6145 Y-3.7680 Z0.1400
G01 X37.0787 Y-3.7645 Z0.1400
G01 X37.0774 Y-3.7645 Z0.1400
G01 X36.5417 Y-3.7616 Z0.1400
G01 X36.5403 Y-3.7616 Z0.1400
G01 X36.0045 Y-3.7594 Z0.1400
G01 X36.0032 Y-3.7594 Z0.1400
G01 X35.4674 Y-3.7579 Z0.1400
G01 X35.4661 Y-3.7579 Z0.1400
G01 X34.9303 Y-3.7570 Z0.1400
G01 X34.9289 Y-3.7570 Z0.1400
G01 X34.3931 Y-3.7568 Z0.1400
G01 X34.3918 Y-3.7568 Z0.1400
G01 X33.8561 Y-3.7573 Z0.1400
G01 X33.8547 Y-3.7573 Z0.1400
G01 X33.3189 Y-3.7584 Z0.1400
G01 X33.3176 Y-3.7584 Z0.1400
G01 X32.7818 Y-3.7601 Z0.1400
G01 X32.7805 Y-3.7601 Z0.1400
G01 X32.2448 Y-3.7626 Z0.1400
G01 X32.2434 Y-3.7626 Z0.1400
G01 X31.7076 Y-3.7657 Z0.1400
G01 X31.7062 Y-3.7657 Z0.1400
G01 X31.1737 Y-3.7694 Z0.1400
G01 X31.1732 Y-3.7695 Z0.1400
G01 X31.1696 Y-3.7695 Z0.1400
G01 X31.1691 Y-3.7695 Z0.1400
G01 X30.6348 Y-3.7740 Z0.1400
G01 X30.6321 Y-3.7740 Z0.1400
G01 X30.0988 Y-3.7790 Z0.1400
G01 X30.0950 Y-3.7791 Z0.1400
G01 X29.5607 Y-3.7848 Z0.1400
G01 X29.5578 Y-3.7848 Z0.1400
G01 X29.0229 Y-3.7913 Z0.1400
G01 X29.0209 Y-3.7913 Z0.1400
G01 X28.4860 Y-3.7983 Z0.1400
G01 X28.4842 Y-3.7984 Z0.1400
G01 X28.4825 Y-3.7984 Z0.1400
G01 X27.9497 Y-3.8061 Z0.1400
G01 X27.9466 Y-3.8062 Z0.1400
G01 X27.4121 Y-3.8146 Z0.1400
G01 X27.4096 Y-3.8146 Z0.1400
G01 X26.8762 Y-3.8236 Z0.1400
G01 X26.8754 Y-3.8237 Z0.1400
G01 X26.8718 Y-3.8237 Z0.1400
G01 X26.8703 Y-3.8237 Z0.1400
G01 X26.3381 Y-3.8334 Z0.1400
G01 X26.3367 Y-3.8335 Z0.1400
G01 X26.3356 Y-3.8335 Z0.1400
G01 X25.8012 Y-3.8438 Z0.1400
G01 X25.8005 Y-3.8438 Z0.1400
G01 X25.7977 Y-3.8439 Z0.1400
G01 X25.2663 Y-3.8548 Z0.1400
G01 X25.2638 Y-3.8550 Z0.1400
G01 X25.2603 Y-3.8550 Z0.1400
G01 X25.2597 Y-3.8550 Z0.1400
G01 X24.7266 Y-3.8667 Z0.1400
G01 X24.7252 Y-3.8667 Z0.1400
G01 X24.7246 Y-3.8667 Z0.1400
G01 X24.1891 Y-3.8791 Z0.1400
G01 X24.1875 Y-3.8791 Z0.1400
G01 X23.6523 Y-3.8922 Z0.1400
G01 X23.6509 Y-3.8922 Z0.1400
G01 X23.1151 Y-3.9059 Z0.1400
G01 X23.1137 Y-3.9060 Z0.1400
G01 X22.5796 Y-3.9203 Z0.1400
G01 X22.5761 Y-3.9204 Z0.1400
G01 X22.5748 Y-3.9204 Z0.1400
G01 X22.0412 Y-3.9354 Z0.1400
G01 X22.0398 Y-3.9355 Z0.1400
G01 X21.5050 Y-3.9512 Z0.1400
G01 X21.5037 Y-3.9512 Z0.1400
G01 X21.5018 Y-3.9513 Z0.1400
G01 X20.9690 Y-3.9675 Z0.1400
G01 X20.9668 Y-3.9676 Z0.1400
G01 X20.9636 Y-3.9676 Z0.1400
G01 X20.4332 Y-3.9845 Z0.1400
G01 X20.4310 Y-3.9846 Z0.1400
G01 X20.4285 Y-3.9847 Z0.1400
G01 X19.8938 Y-4.0024 Z0.1400
G01 X19.8929 Y-4.0024 Z0.1400
G01 X19.8913 Y-4.0024 Z0.1400
G01 X19.3592 Y-4.0207 Z0.1400
G01 X19.3577 Y-4.0207 Z0.1400
G01 X19.3542 Y-4.0209 Z0.1400
G01 X19.3530 Y-4.0209 Z0.1400
G01 X18.8202 Y-4.0398 Z0.1400
G01 X18.8194 Y-4.0398 Z0.1400
G01 X18.8179 Y-4.0399 Z0.1400
G01 X18.2834 Y-4.0596 Z0.1400
G01 X18.2823 Y-4.0596 Z0.1400
G01 X18.2817 Y-4.0596 Z0.1400
G01 X17.7474 Y-4.0799 Z0.1400
G01 X17.7461 Y-4.0800 Z0.1400
G01 X17.7446 Y-4.0800 Z0.1400
G01 X17.2099 Y-4.1010 Z0.1400
G01 X17.2070 Y-4.1011 Z0.1400
G01 X17.2053 Y-4.1011 Z0.1400
G01 X16.6733 Y-4.1227 Z0.1400
G01 X16.6715 Y-4.1227 Z0.1400
G01 X16.6701 Y-4.1228 Z0.1400
G01 X16.1380 Y-4.1450 Z0.1400
G01 X16.1357 Y-4.1451 Z0.1400
G01 X16.1346 Y-4.1451 Z0.1400
G01 X15.6000 Y-4.1681 Z0.1400
G01 X15.5974 Y-4.1682 Z0.1400
G01 X15.0634 Y-4.1918 Z0.1400
G01 X15.0618 Y-4.1919 Z0.1400
G01 X15.0607 Y-4.1920 Z0.1400
G01 X14.5269 Y-4.2162 Z0.1400
G01 X14.5230 Y-4.2164 Z0.1400
G01 X14.5224 Y-4.2164 Z0.1400
G01 X13.9903 Y-4.2412 Z0.1400
G01 X13.9878 Y-4.2413 Z0.1400
G01 X13.9868 Y-4.2414 Z0.1400
G01 X13.4545 Y-4.2668 Z0.1400
G01 X13.4508 Y-4.2671 Z0.1400
G01 X13.4503 Y-4.2671 Z0.1400
G01 X12.9174 Y-4.2933 Z0.1400
G01 X12.9140 Y-4.2934 Z0.1400
G01 X12.9133 Y-4.2935 Z0.1400
G01 X12.9127 Y-4.2935 Z0.1400
G01 X12.3809 Y-4.3203 Z0.1400
G01 X12.3782 Y-4.3204 Z0.1400
G01 X12.3775 Y-4.3205 Z0.1400
G01 X12.3770 Y-4.3205 Z0.1400
G01 X11.8445 Y-4.3480 Z0.1400
G01 X11.8408 Y-4.3482 Z0.1400
G01 X11.8401 Y-4.3483 Z0.1400
G01 X11.8394 Y-4.3483 Z0.1400
G01 X11.3081 Y-4.3764 Z0.1400
G01 X11.3072 Y-4.3764 Z0.1400
G01 X11.3055 Y-4.3765 Z0.1400
G01 X10.7718 Y-4.4053 Z0.1400
G01 X10.7711 Y-4.4054 Z0.1400
G01 X10.7703 Y-4.4054 Z0.1400
G01 X10.2355 Y-4.4350 Z0.1400
G01 X10.2344 Y-4.4351 Z0.1400
G01 X9.6999 Y-4.4653 Z0.1400
G01 X9.6990 Y-4.4654 Z0.1400
G01 X9.6979 Y-4.4654 Z0.1400
G01 X9.1630 Y-4.4964 Z0.1400
G01 X9.1625 Y-4.4964 Z0.1400
G01 X9.1618 Y-4.4965 Z0.1400
G01 X8.6296 Y-4.5279 Z0.1400
G01 X8.6256 Y-4.5281 Z0.1400
G01 X8.6246 Y-4.5282 Z0.1400
G01 X8.0919 Y-4.5603 Z0.1400
G01 X8.0914 Y-4.5604 Z0.1400
G01 X8.0907 Y-4.5604 Z0.1400
G01 X8.0901 Y-4.5605 Z0.1400
G01 X8.0894 Y-4.5605 Z0.1400
G01 X7.5584 Y-4.5932 Z0.1400
G01 X7.5577 Y-4.5932 Z0.1400
G01 X7.5570 Y-4.5933 Z0.1400
G01 X7.5532 Y-4.5935 Z0.1400
G01 X3.6901 Y-4.8360 Z0.1400
G01 X3.6901 Y-4.8360 Z0.0000
G01 X3.7553 Y-5.8743 Z0.0000
G01 X7.6184 Y-5.6318 Z0.0000
G01 X8.1515 Y-5.5990 Z0.0000
G01 X8.1525 Y-5.5990 Z0.0000
G01 X8.1534 Y-5.5989 Z0.0000
G01 X8.6853 Y-5.5668 Z0.0000
G01 X8.6873 Y-5.5667 Z0.0000
G01 X8.6881 Y-5.5666 Z0.0000
G01 X9.2230 Y-5.5351 Z0.0000
G01 X9.7579 Y-5.5041 Z0.0000
G01 X10.2923 Y-5.4739 Z0.0000
G01 X10.2931 Y-5.4738 Z0.0000
G01 X10.8279 Y-5.4442 Z0.0000
G01 X10.8288 Y-5.4442 Z0.0000
G01 X11.3630 Y-5.4153 Z0.0000
G01 X11.3638 Y-5.4153 Z0.0000
G01 X11.3645 Y-5.4152 Z0.0000
G01 X11.8981 Y-5.3870 Z0.0000
G01 X11.9012 Y-5.3868 Z0.0000
G01 X11.9019 Y-5.3868 Z0.0000
G01 X11.9027 Y-5.3868 Z0.0000
G01 X12.4332 Y-5.3594 Z0.0000
G01 X12.4338 Y-5.3593 Z0.0000
G01 X12.4363 Y-5.3592 Z0.0000
G01 X12.9684 Y-5.3324 Z0.0000
G01 X12.9711 Y-5.3323 Z0.0000
G01 X12.9718 Y-5.3322 Z0.0000
G01 X12.9725 Y-5.3322 Z0.0000
G01 X13.5036 Y-5.3061 Z0.0000
G01 X13.5062 Y-5.3060 Z0.0000
G01 X14.0372 Y-5.2805 Z0.0000
G01 X14.0388 Y-5.2805 Z0.0000
G01 X14.5740 Y-5.2555 Z0.0000
G01 X14.5745 Y-5.2555 Z0.0000
G01 X14.5760 Y-5.2554 Z0.0000
G01 X15.1093 Y-5.2312 Z0.0000
G01 X15.1100 Y-5.2312 Z0.0000
G01 X15.6445 Y-5.2075 Z0.0000
G01 X15.6453 Y-5.2075 Z0.0000
G01 X16.1799 Y-5.1846 Z0.0000
G01 X16.1808 Y-5.1845 Z0.0000
G01 X16.7135 Y-5.1623 Z0.0000
G01 X16.7157 Y-5.1622 Z0.0000
G01 X16.7172 Y-5.1622 Z0.0000
G01 X17.2495 Y-5.1407 Z0.0000
G01 X17.2534 Y-5.1405 Z0.0000
G01 X17.2548 Y-5.1404 Z0.0000
G01 X17.7861 Y-5.1195 Z0.0000
G01 X17.7868 Y-5.1195 Z0.0000
G01 X18.3196 Y-5.0993 Z0.0000
G01 X18.3216 Y-5.0992 Z0.0000
G01 X18.8571 Y-5.0796 Z0.0000
G01 X18.8581 Y-5.0796 Z0.0000
G01 X19.3921 Y-5.0605 Z0.0000
G01 X19.3952 Y-5.0604 Z0.0000
G01 X19.3963 Y-5.0604 Z0.0000
G01 X19.9259 Y-5.0422 Z0.0000
G01 X19.9277 Y-5.0422 Z0.0000
G01 X19.9286 Y-5.0422 Z0.0000
G01 X20.4636 Y-5.0245 Z0.0000
G01 X20.4645 Y-5.0245 Z0.0000
G01 X20.9991 Y-5.0075 Z0.0000
G01 X21.5347 Y-4.9911 Z0.0000
G01 X21.5353 Y-4.9911 Z0.0000
G01 X22.0679 Y-4.9755 Z0.0000
G01 X22.0694 Y-4.9754 Z0.0000
G01 X22.0717 Y-4.9754 Z0.0000
G01 X22.6057 Y-4.9604 Z0.0000
G01 X22.6068 Y-4.9603 Z0.0000
G01 X22.6088 Y-4.9603 Z0.0000
G01 X23.1390 Y-4.9461 Z0.0000
G01 X23.1403 Y-4.9460 Z0.0000
G01 X23.1429 Y-4.9460 Z0.0000
G01 X23.6772 Y-4.9323 Z0.0000
G01 X23.6784 Y-4.9323 Z0.0000
G01 X23.6796 Y-4.9322 Z0.0000
G01 X24.2101 Y-4.9193 Z0.0000
G01 X24.2113 Y-4.9192 Z0.0000
G01 X24.2140 Y-4.9192 Z0.0000
G01 X24.7469 Y-4.9069 Z0.0000
G01 X24.7490 Y-4.9068 Z0.0000
G01 X24.7509 Y-4.9068 Z0.0000
G01 X25.2813 Y-4.8952 Z0.0000
G01 X25.2824 Y-4.8951 Z0.0000
G01 X25.2852 Y-4.8951 Z0.0000
G01 X25.8200 Y-4.8841 Z0.0000
G01 X26.3537 Y-4.8737 Z0.0000
G01 X26.3546 Y-4.8737 Z0.0000
G01 X26.3577 Y-4.8736 Z0.0000
G01 X26.8879 Y-4.8640 Z0.0000
G01 X26.8888 Y-4.8639 Z0.0000
G01 X26.8915 Y-4.8639 Z0.0000
G01 X27.4272 Y-4.8548 Z0.0000
G01 X27.9630 Y-4.8464 Z0.0000
G01 X28.4988 Y-4.8387 Z0.0000
G01 X29.0346 Y-4.8316 Z0.0000
G01 X29.5703 Y-4.8251 Z0.0000
G01 X30.1061 Y-4.8194 Z0.0000
G01 X30.6414 Y-4.8143 Z0.0000
G01 X30.6437 Y-4.8143 Z0.0000
G01 X31.1731 Y-4.8099 Z0.0000
G01 X31.1778 Y-4.8099 Z0.0000
G01 X31.7136 Y-4.8061 Z0.0000
G01 X32.2494 Y-4.8030 Z0.0000
G01 X32.7852 Y-4.8005 Z0.0000
G01 X33.3211 Y-4.7988 Z0.0000
G01 X33.8569 Y-4.7977 Z0.0000
G01 X34.3926 Y-4.7972 Z0.0000
G01 X34.9285 Y-4.7974 Z0.0000
G01 X35.4643 Y-4.7983 Z0.0000
G01 X36.0001 Y-4.7998 Z0.0000
G01 X36.5359 Y-4.8020 Z0.0000
G01 X37.0718 Y-4.8049 Z0.0000
G01 X37.6076 Y-4.8084 Z0.0000
G01 X38.1433 Y-4.8125 Z0.0000
G01 X38.6792 Y-4.8174 Z0.0000
G01 X39.2150 Y-4.8229 Z0.0000
G01 X39.7508 Y-4.8291 Z0.0000
G01 X40.2866 Y-4.8359 Z0.0000
G01 X40.2904 Y-4.8360 Z0.0000
G01 X40.2910 Y-4.8360 Z0.0000
G01 X40.8204 Y-4.8433 Z0.0000
G01 X40.8225 Y-4.8434 Z0.0000
G01 X41.3581 Y-4.8516 Z0.0000
G01 X41.8940 Y-4.8604 Z0.0000
G01 X41.8969 Y-4.8604 Z0.0000
G01 X41.8977 Y-4.8604 Z0.0000
G01 X42.4275 Y-4.8698 Z0.0000
G01 X42.4299 Y-4.8699 Z0.0000
G01 X42.4320 Y-4.8700 Z0.0000
G01 X42.9654 Y-4.8801 Z0.0000
G01 X43.5003 Y-4.8909 Z0.0000
G01 X43.5033 Y-4.8909 Z0.0000
G01 X43.5044 Y-4.8909 Z0.0000
G01 X44.0345 Y-4.9023 Z0.0000
G01 X44.0360 Y-4.9023 Z0.0000
G01 X44.0376 Y-4.9024 Z0.0000
G01 X44.5715 Y-4.9144 Z0.0000
G01 X44.5743 Y-4.9145 Z0.0000
G01 X44.5755 Y-4.9145 Z0.0000
G01 X45.1059 Y-4.9272 Z0.0000
G01 X45.1072 Y-4.9273 Z0.0000
G01 X45.1083 Y-4.9273 Z0.0000
G01 X45.6427 Y-4.9407 Z0.0000
G01 X45.6453 Y-4.9408 Z0.0000
G01 X45.6467 Y-4.9408 Z0.0000
G01 X46.1794 Y-4.9548 Z0.0000
G01 X46.7148 Y-4.9696 Z0.0000
G01 X46.7152 Y-4.9696 Z0.0000
G01 X47.2478 Y-4.9850 Z0.0000
G01 X47.2493 Y-4.9851 Z0.0000
G01 X47.2508 Y-4.9851 Z0.0000
G01 X47.7864 Y-5.0012 Z0.0000
G01 X47.7871 Y-5.0013 Z0.0000
G01 X47.7887 Y-5.0013 Z0.0000
G01 X48.3210 Y-5.0180 Z0.0000
G01 X48.3220 Y-5.0180 Z0.0000
G01 X48.8574 Y-5.0355 Z0.0000
G01 X49.3920 Y-5.0535 Z0.0000
G01 X49.3931 Y-5.0535 Z0.0000
G01 X49.9284 Y-5.0723 Z0.0000
G01 X49.9306 Y-5.0724 Z0.0000
G01 X50.4600 Y-5.0915 Z0.0000
G01 X50.4619 Y-5.0916 Z0.0000
G01 X50.4645 Y-5.0917 Z0.0000
G01 X50.9988 Y-5.1118 Z0.0000
G01 X50.9996 Y-5.1118 Z0.0000
G01 X51.5350 Y-5.1326 Z0.0000
G01 X51.5368 Y-5.1326 Z0.0000
G01 X52.0696 Y-5.1539 Z0.0000
G01 X52.0721 Y-5.1540 Z0.0000
G01 X52.6051 Y-5.1760 Z0.0000
G01 X52.6059 Y-5.1761 Z0.0000
G01 X53.1402 Y-5.1988 Z0.0000
G01 X53.1422 Y-5.1988 Z0.0000
G01 X53.1429 Y-5.1989 Z0.0000
G01 X53.6762 Y-5.2222 Z0.0000
G01 X54.2111 Y-5.2462 Z0.0000
G01 X54.2117 Y-5.2462 Z0.0000
G01 X54.7460 Y-5.2709 Z0.0000
G01 X54.7465 Y-5.2710 Z0.0000
G01 X54.7473 Y-5.2710 Z0.0000
G01 X55.2815 Y-5.2964 Z0.0000
G01 X55.2827 Y-5.2964 Z0.0000
G01 X55.8164 Y-5.3224 Z0.0000
G01 X55.8174 Y-5.3224 Z0.0000
G01 X56.3517 Y-5.3491 Z0.0000
G01 X56.3528 Y-5.3492 Z0.0000
G01 X56.3535 Y-5.3492 Z0.0000
G01 X56.8869 Y-5.3765 Z0.0000
G01 X56.8877 Y-5.3765 Z0.0000
G01 X57.4221 Y-5.4045 Z0.0000
G01 X57.4251 Y-5.4047 Z0.0000
G01 X57.9540 Y-5.4331 Z0.0000
G01 X57.9579 Y-5.4333 Z0.0000
G01 X58.4903 Y-5.4625 Z0.0000
G01 X58.4916 Y-5.4625 Z0.0000
G01 X58.4929 Y-5.4626 Z0.0000
G01 X59.0260 Y-5.4925 Z0.0000
G01 X59.0277 Y-5.4926 Z0.0000
G01 X59.5626 Y-5.5233 Z0.0000
G01 X60.0975 Y-5.5547 Z0.0000
G01 X60.0982 Y-5.5547 Z0.0000
G01 X63.9632 Y-5.7861 Z0.0000
G01 X64.0254 Y-4.7475 Z0.0000
G01 X60.1600 Y-4.5161 Z0.0000
G01 X60.1587 Y-4.5161 Z0.0000
G01 X59.6237 Y-4.4847 Z0.0000
G01 X59.6217 Y-4.4846 Z0.0000
G01 X59.0883 Y-4.4540 Z0.0000
G01 X59.0875 Y-4.4540 Z0.0000
G01 X59.0861 Y-4.4539 Z0.0000
G01 X58.5529 Y-4.4240 Z0.0000
G01 X58.5519 Y-4.4239 Z0.0000
G01 X58.5508 Y-4.4239 Z0.0000
G01 X58.5498 Y-4.4238 Z0.0000
G01 X58.0153 Y-4.3945 Z0.0000
G01 X58.0118 Y-4.3942 Z0.0000
G01 X57.4788 Y-4.3656 Z0.0000
G01 X57.4773 Y-4.3656 Z0.0000
G01 X56.9421 Y-4.3375 Z0.0000
G01 X56.9406 Y-4.3375 Z0.0000
G01 X56.4057 Y-4.3101 Z0.0000
G01 X56.4051 Y-4.3101 Z0.0000
G01 X56.4044 Y-4.3100 Z0.0000
G01 X55.8729 Y-4.2835 Z0.0000
G01 X55.8700 Y-4.2834 Z0.0000
G01 X55.8664 Y-4.2832 Z0.0000
G01 X55.8652 Y-4.2831 Z0.0000
G01 X55.3337 Y-4.2572 Z0.0000
G01 X55.3319 Y-4.2572 Z0.0000
G01 X55.3314 Y-4.2571 Z0.0000
G01 X54.7962 Y-4.2317 Z0.0000
G01 X54.7958 Y-4.2317 Z0.0000
G01 X54.7949 Y-4.2317 Z0.0000
G01 X54.2597 Y-4.2070 Z0.0000
G01 X54.2589 Y-4.2069 Z0.0000
G01 X54.2574 Y-4.2068 Z0.0000
G01 X53.7240 Y-4.1829 Z0.0000
G01 X53.7224 Y-4.1828 Z0.0000
G01 X53.7203 Y-4.1827 Z0.0000
G01 X53.1871 Y-4.1595 Z0.0000
G01 X53.1852 Y-4.1594 Z0.0000
G01 X53.1832 Y-4.1593 Z0.0000
G01 X52.6517 Y-4.1367 Z0.0000
G01 X52.6509 Y-4.1366 Z0.0000
G01 X52.6477 Y-4.1365 Z0.0000
G01 X52.1133 Y-4.1144 Z0.0000
G01 X52.1123 Y-4.1144 Z0.0000
G01 X52.1118 Y-4.1144 Z0.0000
G01 X51.5766 Y-4.0930 Z0.0000
G01 X51.5753 Y-4.0930 Z0.0000
G01 X51.0401 Y-4.0722 Z0.0000
G01 X51.0394 Y-4.0722 Z0.0000
G01 X51.0385 Y-4.0721 Z0.0000
G01 X50.5053 Y-4.0521 Z0.0000
G01 X50.5014 Y-4.0520 Z0.0000
G01 X50.5006 Y-4.0520 Z0.0000
G01 X49.9673 Y-4.0326 Z0.0000
G01 X49.9659 Y-4.0326 Z0.0000
G01 X49.9650 Y-4.0325 Z0.0000
G01 X49.4301 Y-4.0138 Z0.0000
G01 X49.4277 Y-4.0137 Z0.0000
G01 X48.8949 Y-3.9957 Z0.0000
G01 X48.8922 Y-3.9957 Z0.0000
G01 X48.8900 Y-3.9956 Z0.0000
G01 X48.3573 Y-3.9782 Z0.0000
G01 X48.3562 Y-3.9782 Z0.0000
G01 X48.3535 Y-3.9781 Z0.0000
G01 X47.8195 Y-3.9613 Z0.0000
G01 X47.8181 Y-3.9613 Z0.0000
G01 X47.2836 Y-3.9452 Z0.0000
G01 X47.2808 Y-3.9451 Z0.0000
G01 X46.7464 Y-3.9298 Z0.0000
G01 X46.7444 Y-3.9297 Z0.0000
G01 X46.7428 Y-3.9296 Z0.0000
G01 X46.2094 Y-3.9149 Z0.0000
G01 X46.2070 Y-3.9148 Z0.0000
G01 X46.2053 Y-3.9148 Z0.0000
G01 X45.6713 Y-3.9007 Z0.0000
G01 X45.6698 Y-3.9007 Z0.0000
G01 X45.1345 Y-3.8872 Z0.0000
G01 X45.1327 Y-3.8872 Z0.0000
G01 X44.5976 Y-3.8744 Z0.0000
G01 X44.5959 Y-3.8743 Z0.0000
G01 X44.0605 Y-3.8622 Z0.0000
G01 X44.0586 Y-3.8622 Z0.0000
G01 X43.5254 Y-3.8507 Z0.0000
G01 X43.5247 Y-3.8507 Z0.0000
G01 X43.5212 Y-3.8507 Z0.0000
G01 X43.5187 Y-3.8506 Z0.0000
G01 X42.9874 Y-3.8398 Z0.0000
G01 X42.9845 Y-3.8398 Z0.0000
G01 X42.9838 Y-3.8398 Z0.0000
G01 X42.4495 Y-3.8297 Z0.0000
G01 X42.4481 Y-3.8297 Z0.0000
G01 X41.9125 Y-3.8202 Z0.0000
G01 X41.9096 Y-3.8201 Z0.0000
G01 X41.9087 Y-3.8201 Z0.0000
G01 X41.3754 Y-3.8113 Z0.0000
G01 X41.3729 Y-3.8113 Z0.0000
G01 X40.8383 Y-3.8032 Z0.0000
G01 X40.8371 Y-3.8031 Z0.0000
G01 X40.3012 Y-3.7957 Z0.0000
G01 X40.2980 Y-3.7956 Z0.0000
G01 X40.2972 Y-3.7956 Z0.0000
G01 X39.7642 Y-3.7888 Z0.0000
G01 X39.7619 Y-3.7888 Z0.0000
G01 X39.2272 Y-3.7826 Z0.0000
G01 X39.2242 Y-3.7826 Z0.0000
G01 X38.6901 Y-3.7771 Z0.0000
G01 X38.6859 Y-3.7770 Z0.0000
G01 X38.1543 Y-3.7722 Z0.0000
G01 X38.1520 Y-3.7722 Z0.0000
G01 X38.1501 Y-3.7722 Z0.0000
G01 X37.6159 Y-3.7680 Z0.0000
G01 X37.6145 Y-3.7680 Z0.0000
G01 X37.0787 Y-3.7645 Z0.0000
G01 X37.0774 Y-3.7645 Z0.0000
G01 X36.5417 Y-3.7616 Z0.0000
G01 X36.5403 Y-3.7616 Z0.0000
G01 X36.0045 Y-3.7594 Z0.0000
G01 X36.0032 Y-3.7594 Z0.0000
G01 X35.4674 Y-3.7579 Z0.0000
G01 X35.4661 Y-3.7579 Z0.0000
G01 X34.9303 Y-3.7570 Z0.0000
G01 X34.9289 Y-3.7570 Z0.0000
G01 X34.3931 Y-3.7568 Z0.0000
G01 X34.3918 Y-3.7568 Z0.0000
G01 X33.8561 Y-3.7573 Z0.0000
G01 X33.8547 Y-3.7573 Z0.0000
G01 X33.3189 Y-3.7584 Z0.0000
G01 X33.3176 Y-3.7584 Z0.0000
G01 X32.7818 Y-3.7601 Z0.0000
G01 X32.7805 Y-3.7601 Z0.0000
G01 X32.2448 Y-3.7626 Z0.0000
G01 X32.2434 Y-3.7626 Z0.0000
G01 X31.7076 Y-3.7657 Z0.0000
G01 X31.7062 Y-3.7657 Z0.0000
G01 X31.1737 Y-3.7694 Z0.0000
G01 X31.1732 Y-3.7695 Z0.0000
G01 X31.1696 Y-3.7695 Z0.0000
G01 X31.1691 Y-3.7695 Z0.0000
G01 X30.6348 Y-3.7740 Z0.0000
G01 X30.6321 Y-3.7740 Z0.0000
G01 X30.0988 Y-3.7790 Z0.0000
G01 X30.0950 Y-3.7791 Z0.0000
G01 X29.5607 Y-3.7848 Z0.0000
G01 X29.5578 Y-3.7848 Z0.0000
G01 X29.0229 Y-3.7913 Z0.0000
G01 X29.0209 Y-3.7913 Z0.0000
G01 X28.4860 Y-3.7983 Z0.0000
G01 X28.4842 Y-3.7984 Z0.0000
G01 X28.4825 Y-3.7984 Z0.0000
G01 X27.9497 Y-3.8061 Z0.0000
G01 X27.9466 Y-3.8062 Z0.0000
G01 X27.4121 Y-3.8146 Z0.0000
G01 X27.4096 Y-3.8146 Z0.0000
G01 X26.8762 Y-3.8236 Z0.0000
G01 X26.8754 Y-3.8237 Z0.0000
G01 X26.8718 Y-3.8237 Z0.0000
G01 X26.8703 Y-3.8237 Z0.0000
G01 X26.3381 Y-3.8334 Z0.0000
G01 X26.3367 Y-3.8335 Z0.0000
G01 X26.3356 Y-3.8335 Z0.0000
G01 X25.8012 Y-3.8438 Z0.0000
G01 X25.8005 Y-3.8438 Z0.0000
G01 X25.7977 Y-3.8439 Z0.0000
G01 X25.2663 Y-3.8548 Z0.0000
G01 X25.2638 Y-3.8550 Z0.0000
G01 X25.2603 Y-3.8550 Z0.0000
G01 X25.2597 Y-3.8550 Z0.0000
G01 X24.7266 Y-3.8667 Z0.0000
G01 X24.7252 Y-3.8667 Z0.0000
G01 X24.7246 Y-3.8667 Z0.0000
G01 X24.1891 Y-3.8791 Z0.0000
G01 X24.1875 Y-3.8791 Z0.0000
G01 X23.6523 Y-3.8922 Z0.0000
G01 X23.6509 Y-3.8922 Z0.0000
G01 X23.1151 Y-3.9059 Z0.0000
G01 X23.1137 Y-3.9060 Z0.0000
G01 X22.5796 Y-3.9203 Z0.0000
G01 X22.5761 Y-3.9204 Z0.0000
G01 X22.5748 Y-3.9204 Z0.0000
G01 X22.0412 Y-3.9354 Z0.0000
G01 X22.0398 Y-3.9355 Z0.0000
G01 X21.5050 Y-3.9512 Z0.0000
G01 X21.5037 Y-3.9512 Z0.0000
G01 X21.5018 Y-3.9513 Z0.0000
G01 X20.9690 Y-3.9675 Z0.0000
G01 X20.9668 Y-3.9676 Z0.0000
G01 X20.9636 Y-3.9676 Z0.0000
G01 X20.4332 Y-3.9845 Z0.0000
G01 X20.4310 Y-3.9846 Z0.0000
G01 X20.4285 Y-3.9847 Z0.0000
G01 X19.8938 Y-4.0024 Z0.0000
G01 X19.8929 Y-4.0024 Z0.0000
G01 X19.8913 Y-4.0024 Z0.0000
G01 X19.3592 Y-4.0207 Z0.0000
G01 X19.3577 Y-4.0207 Z0.0000
G01 X19.3542 Y-4.0209 Z0.0000
G01 X19.3530 Y-4.0209 Z0.0000
G01 X18.8202 Y-4.0398 Z0.0000
G01 X18.8194 Y-4.0398 Z0.0000
G01 X18.8179 Y-4.0399 Z0.0000
G01 X18.2834 Y-4.0596 Z0.0000
G01 X18.2823 Y-4.0596 Z0.0000
G01 X18.2817 Y-4.0596 Z0.0000
G01 X17.7474 Y-4.0799 Z0.0000
G01 X17.7461 Y-4.0800 Z0.0000
G01 X17.7446 Y-4.0800 Z0.0000
G01 X17.2099 Y-4.1010 Z0.0000
G01 X17.2070 Y-4.1011 Z0.0000
G01 X17.2053 Y-4.1011 Z0.0000
G01 X16.6733 Y-4.1227 Z0.0000
G01 X16.6715 Y-4.1227 Z0.0000
G01 X16.6701 Y-4.1228 Z0.0000
G01 X16.1380 Y-4.1450 Z0.0000
G01 X16.1357 Y-4.1451 Z0.0000
G01 X16.1346 Y-4.1451 Z0.0000
G01 X15.6000 Y-4.1681 Z0.0000
G01 X15.5974 Y-4.1682 Z0.0000
G01 X15.0634 Y-4.1918 Z0.0000
G01 X15.0618 Y-4.1919 Z0.0000
G01 X15.0607 Y-4.1920 Z0.0000
G01 X14.5269 Y-4.2162 Z0.0000
G01 X14.5230 Y-4.2164 Z0.0000
G01 X14.5224 Y-4.2164 Z0.0000
G01 X13.9903 Y-4.2412 Z0.0000
G01 X13.9878 Y-4.2413 Z0.0000
G01 X13.9868 Y-4.2414 Z0.0000
G01 X13.4545 Y-4.2668 Z0.0000
G01 X13.4508 Y-4.2671 Z0.0000
G01 X13.4503 Y-4.2671 Z0.0000
G01 X12.9174 Y-4.2933 Z0.0000
G01 X12.9140 Y-4.2934 Z0.0000
G01 X12.9133 Y-4.2935 Z0.0000
G01 X12.9127 Y-4.2935 Z0.0000
G01 X12.3809 Y-4.3203 Z0.0000
G01 X12.3782 Y-4.3204 Z0.0000
G01 X12.3775 Y-4.3205 Z0.0000
G01 X12.3770 Y-4.3205 Z0.0000
G01 X11.8445 Y-4.3480 Z0.0000
G01 X11.8408 Y-4.3482 Z0.0000
G01 X11.8401 Y-4.3483 Z0.0000
G01 X11.8394 Y-4.3483 Z0.0000
G01 X11.3081 Y-4.3764 Z0.0000
G01 X11.3072 Y-4.3764 Z0.0000
G01 X11.3055 Y-4.3765 Z0.0000
G01 X10.7718 Y-4.4053 Z0.0000
G01 X10.7711 Y-4.4054 Z0.0000
G01 X10.7703 Y-4.4054 Z0.0000
G01 X10.2355 Y-4.4350 Z0.0000
G01 X10.2344 Y-4.4351 Z0.0000
G01 X9.6999 Y-4.4653 Z0.0000
G01 X9.6990 Y-4.4654 Z0.0000
G01 X9.6979 Y-4.4654 Z0.0000
G01 X9.1630 Y-4.4964 Z0.0000
G01 X9.1625 Y-4.4964 Z0.0000
G01 X9.1618 Y-4.4965 Z0.0000
G01 X8.6296 Y-4.5279 Z0.0000
G01 X8.6256 Y-4.5281 Z0.0000
G01 X8.6246 Y-4.5282 Z0.0000
G01 X8.0919 Y-4.5603 Z0.0000
G01 X8.0914 Y-4.5604 Z0.0000
G01 X8.0907 Y-4.5604 Z0.0000
G01 X8.0901 Y-4.5605 Z0.0000
G01 X8.0894 Y-4.5605 Z0.0000
G01 X7.5584 Y-4.5932 Z0.0000
G01 X7.5577 Y-4.5932 Z0.0000
G01 X7.5570 Y-4.5933 Z0.0000
G01 X7.5532 Y-4.5935 Z0.0000
G01 X3.6901 Y-4.8360 Z0.0000
G00 X3.6901 Y-4.8360 Z0.6000
M05
G00 X0.0000 Y0.0000 Z0.6000
G49
G01 G55 Z0 F20
G00 G55 X0 Y0 Z0
M30
