( Sample-snowboard-top-cutout.nc                                               )
( Generated by MonkeyCAM v4.0.2 at 2014-09-20 14:37:37                         )
(                                                                              )
( This GCode program is provided on an "AS IS" BASIS WITHOUT WARRANTIES OR     )
( CONDITIONS OF ANY KIND, either express or implied. You should inspect this   )
( program very carefully to confirm you understand its operation. YOU ARE      )
( RESPONSIBLE FOR ENSURING THIS PROGRAM WILL NOT DAMAGE YOUR MACHINE OR        )
( MATERIALS.                                                                   )
(                                                                              )
( See http://www.github.com/MonkeyCAM for License and documentation.           )
(                                                                              )
( * Rapid height: 0.6000" [1.5240cm]                                           )
( * Tool: T1, Quarter Inch Upcut Spiral, diameter 0.2469" [0.6273cm]           )
( * Height baseline [Z=0.0] is the top of the table.                           )
( * XY origin is the left side of the table, Y is center of the part.          )
( * Requires G54 to be the part work coordinate offsets [WCO]. [0, 0] is the   )
(   center of the nose, with the board extending to positive X. The cutter may )
(   move to negative values of X.                                              )
( * Requires G55 to be the machine WCO, with Z above the rapid height.         )
( * Units are inches                                                           )
( * Cutter bounding box in G54:                                                )
(     X0.0000 Y-5.9516 Z-0.0100 to X65.4777 Y5.9516 Z0.6000                    )

G90 G20 G17 G40 G49
G43 H1 T1
G00 G54 X0 Y0 Z0.6000

G00 X0.6639 Y-0.0015 Z0.6000
M03
G04 P5
G01 X0.6639 Y-0.0015 Z0.2766 F70
G01 X0.6658 Y-0.1520 Z0.2766
G01 X0.6659 Y-0.1551 Z0.2766
G01 X0.6716 Y-0.3080 Z0.2766
G01 X0.6718 Y-0.3112 Z0.2766
G01 X0.6812 Y-0.4593 Z0.2766
G01 X0.6815 Y-0.4626 Z0.2766
G01 X0.6952 Y-0.6137 Z0.2766
G01 X0.6955 Y-0.6170 Z0.2766
G01 X0.7131 Y-0.7662 Z0.2766
G01 X0.7136 Y-0.7696 Z0.2766
G01 X0.7349 Y-0.9160 Z0.2766
G01 X0.7355 Y-0.9194 Z0.2766
G01 X0.7611 Y-1.0659 Z0.2766
G01 X0.7617 Y-1.0695 Z0.2766
G01 X0.7914 Y-1.2143 Z0.2766
G01 X0.7922 Y-1.2178 Z0.2766
G01 X0.8259 Y-1.3610 Z0.2766
G01 X0.8268 Y-1.3646 Z0.2766
G01 X0.8648 Y-1.5061 Z0.2766
G01 X0.8658 Y-1.5097 Z0.2766
G01 X0.9083 Y-1.6507 Z0.2766
G01 X0.9094 Y-1.6544 Z0.2766
G01 X0.9558 Y-1.7925 Z0.2766
G01 X0.9572 Y-1.7962 Z0.2766
G01 X1.0083 Y-1.9335 Z0.2766
G01 X1.0098 Y-1.9372 Z0.2766
G01 X1.0646 Y-2.0709 Z0.2766
G01 X1.0662 Y-2.0748 Z0.2766
G01 X1.1263 Y-2.2084 Z0.2766
G01 X1.1281 Y-2.2122 Z0.2766
G01 X1.1919 Y-2.3418 Z0.2766
G01 X1.1938 Y-2.3456 Z0.2766
G01 X1.2622 Y-2.4734 Z0.2766
G01 X1.2644 Y-2.4772 Z0.2766
G01 X1.3387 Y-2.6048 Z0.2766
G01 X1.3409 Y-2.6086 Z0.2766
G01 X1.4185 Y-2.7316 Z0.2766
G01 X1.4209 Y-2.7353 Z0.2766
G01 X1.5040 Y-2.8572 Z0.2766
G01 X1.5067 Y-2.8609 Z0.2766
G01 X1.5946 Y-2.9803 Z0.2766
G01 X1.5974 Y-2.9838 Z0.2766
G01 X1.6905 Y-3.1009 Z0.2766
G01 X1.6935 Y-3.1045 Z0.2766
G01 X1.7910 Y-3.2182 Z0.2766
G01 X1.7940 Y-3.2216 Z0.2766
G01 X1.8983 Y-3.3344 Z0.2766
G01 X1.9015 Y-3.3377 Z0.2766
G01 X2.0102 Y-3.4468 Z0.2766
G01 X2.0135 Y-3.4500 Z0.2766
G01 X2.1277 Y-3.5563 Z0.2766
G01 X2.1311 Y-3.5593 Z0.2766
G01 X2.2519 Y-3.6638 Z0.2766
G01 X2.2555 Y-3.6668 Z0.2766
G01 X2.3819 Y-3.7681 Z0.2766
G01 X2.3855 Y-3.7709 Z0.2766
G01 X2.5174 Y-3.8688 Z0.2766
G01 X2.5210 Y-3.8714 Z0.2766
G01 X2.6607 Y-3.9674 Z0.2766
G01 X2.6644 Y-3.9699 Z0.2766
G01 X2.8094 Y-4.0620 Z0.2766
G01 X2.8132 Y-4.0643 Z0.2766
G01 X2.9655 Y-4.1536 Z0.2766
G01 X2.9692 Y-4.1557 Z0.2766
G01 X3.1278 Y-4.2414 Z0.2766
G01 X3.1316 Y-4.2434 Z0.2766
G01 X3.2983 Y-4.3261 Z0.2766
G01 X3.3020 Y-4.3279 Z0.2766
G01 X3.4749 Y-4.4066 Z0.2766
G01 X3.4787 Y-4.4082 Z0.2766
G01 X3.6596 Y-4.4833 Z0.2766
G01 X3.6633 Y-4.4848 Z0.2766
G01 X3.8513 Y-4.5558 Z0.2766
G01 X3.8550 Y-4.5571 Z0.2766
G01 X4.0498 Y-4.6237 Z0.2766
G01 X4.0535 Y-4.6249 Z0.2766
G01 X4.2582 Y-4.6879 Z0.2766
G01 X4.2618 Y-4.6889 Z0.2766
G01 X4.4744 Y-4.7474 Z0.2766
G01 X4.4779 Y-4.7483 Z0.2766
G01 X4.6964 Y-4.8014 Z0.2766
G01 X4.6998 Y-4.8022 Z0.2766
G01 X4.9279 Y-4.8509 Z0.2766
G01 X4.9313 Y-4.8516 Z0.2766
G01 X5.1680 Y-4.8953 Z0.2766
G01 X5.1713 Y-4.8958 Z0.2766
G01 X5.4152 Y-4.9341 Z0.2766
G01 X5.4190 Y-4.9346 Z0.2766
G01 X5.5109 Y-4.9461 Z0.2766
G01 X5.5120 Y-4.9462 Z0.2766
G01 X5.6005 Y-4.9565 Z0.2766
G01 X5.6016 Y-4.9566 Z0.2766
G01 X5.6867 Y-4.9657 Z0.2766
G01 X5.6877 Y-4.9659 Z0.2766
G01 X5.7694 Y-4.9739 Z0.2766
G01 X5.7703 Y-4.9740 Z0.2766
G01 X5.8488 Y-4.9811 Z0.2766
G01 X5.8497 Y-4.9812 Z0.2766
G01 X5.9250 Y-4.9875 Z0.2766
G01 X5.9256 Y-4.9876 Z0.2766
G01 X5.9978 Y-4.9933 Z0.2766
G01 X5.9983 Y-4.9933 Z0.2766
G01 X6.0673 Y-4.9985 Z0.2766
G01 X6.0678 Y-4.9985 Z0.2766
G01 X6.1339 Y-5.0032 Z0.2766
G01 X6.1972 Y-5.0076 Z0.2766
G01 X6.2571 Y-5.0118 Z0.2766
G01 X6.3139 Y-5.0159 Z0.2766
G01 X6.3688 Y-5.0201 Z0.2766
G01 X6.4194 Y-5.0244 Z0.2766
G01 X6.4664 Y-5.0289 Z0.2766
G01 X6.5134 Y-5.0340 Z0.2766
G01 X6.5533 Y-5.0392 Z0.2766
G01 X6.5933 Y-5.0452 Z0.2766
G01 X6.6287 Y-5.0516 Z0.2766
G01 X6.6627 Y-5.0589 Z0.2766
G01 X6.6919 Y-5.0664 Z0.2766
G01 X6.7192 Y-5.0749 Z0.2766
G01 X6.7431 Y-5.0838 Z0.2766
G01 X6.7646 Y-5.0933 Z0.2766
G01 X6.7836 Y-5.1035 Z0.2766
G01 X6.8004 Y-5.1142 Z0.2766
G01 X6.8155 Y-5.1258 Z0.2766
G01 X6.8290 Y-5.1381 Z0.2766
G01 X6.8416 Y-5.1519 Z0.2766
G01 X6.8538 Y-5.1676 Z0.2766
G01 X6.8650 Y-5.1850 Z0.2766
G01 X6.8762 Y-5.2060 Z0.2766
G01 X6.8866 Y-5.2290 Z0.2766
G01 X6.8968 Y-5.2562 Z0.2766
G01 X6.9059 Y-5.2856 Z0.2766
G01 X6.9146 Y-5.3192 Z0.2766
G01 X6.9229 Y-5.3584 Z0.2766
G01 X6.9298 Y-5.3980 Z0.2766
G01 X6.9362 Y-5.4431 Z0.2766
G01 X6.9419 Y-5.4928 Z0.2766
G01 X6.9466 Y-5.5446 Z0.2766
G01 X6.9508 Y-5.6028 Z0.2766
G01 X6.9542 Y-5.6636 Z0.2766
G01 X6.9569 Y-5.7285 Z0.2766
G01 X6.9590 Y-5.7977 Z0.2766
G01 X6.9598 Y-5.8308 Z0.2766
G01 X6.9599 Y-5.8343 Z0.2766
G01 X6.9601 Y-5.8378 Z0.2766
G01 X6.9604 Y-5.8412 Z0.2766
G01 X6.9609 Y-5.8448 Z0.2766
G01 X6.9614 Y-5.8482 Z0.2766
G01 X6.9620 Y-5.8516 Z0.2766
G01 X6.9627 Y-5.8551 Z0.2766
G01 X6.9635 Y-5.8585 Z0.2766
G01 X6.9644 Y-5.8618 Z0.2766
G01 X6.9654 Y-5.8652 Z0.2766
G01 X6.9665 Y-5.8685 Z0.2766
G01 X6.9677 Y-5.8718 Z0.2766
G01 X6.9690 Y-5.8751 Z0.2766
G01 X6.9704 Y-5.8783 Z0.2766
G01 X6.9718 Y-5.8814 Z0.2766
G01 X6.9734 Y-5.8846 Z0.2766
G01 X6.9750 Y-5.8877 Z0.2766
G01 X6.9768 Y-5.8907 Z0.2766
G01 X6.9786 Y-5.8937 Z0.2766
G01 X6.9805 Y-5.8966 Z0.2766
G01 X6.9825 Y-5.8995 Z0.2766
G01 X6.9845 Y-5.9024 Z0.2766
G01 X6.9867 Y-5.9051 Z0.2766
G01 X6.9889 Y-5.9078 Z0.2766
G01 X6.9912 Y-5.9105 Z0.2766
G01 X6.9936 Y-5.9130 Z0.2766
G01 X6.9960 Y-5.9155 Z0.2766
G01 X6.9985 Y-5.9180 Z0.2766
G01 X7.0011 Y-5.9203 Z0.2766
G01 X7.0037 Y-5.9226 Z0.2766
G01 X7.0064 Y-5.9248 Z0.2766
G01 X7.0092 Y-5.9270 Z0.2766
G01 X7.0120 Y-5.9290 Z0.2766
G01 X7.0150 Y-5.9310 Z0.2766
G01 X7.0179 Y-5.9329 Z0.2766
G01 X7.0209 Y-5.9347 Z0.2766
G01 X7.0239 Y-5.9364 Z0.2766
G01 X7.0270 Y-5.9381 Z0.2766
G01 X7.0301 Y-5.9396 Z0.2766
G01 X7.0333 Y-5.9411 Z0.2766
G01 X7.0366 Y-5.9424 Z0.2766
G01 X7.0398 Y-5.9437 Z0.2766
G01 X7.0431 Y-5.9449 Z0.2766
G01 X7.0464 Y-5.9460 Z0.2766
G01 X7.0498 Y-5.9470 Z0.2766
G01 X7.0532 Y-5.9479 Z0.2766
G01 X7.0566 Y-5.9487 Z0.2766
G01 X7.0600 Y-5.9494 Z0.2766
G01 X7.0635 Y-5.9500 Z0.2766
G01 X7.0669 Y-5.9505 Z0.2766
G01 X7.0704 Y-5.9509 Z0.2766
G01 X7.0738 Y-5.9512 Z0.2766
G01 X7.0774 Y-5.9514 Z0.2766
G01 X7.0809 Y-5.9515 Z0.2766
G01 X7.0829 Y-5.9516 Z0.2766
G01 X7.0886 Y-5.9516 Z0.2766
G01 X7.0973 Y-5.9513 Z0.2766
G01 X7.1017 Y-5.9511 Z0.2766
G01 X7.6364 Y-5.9175 Z0.2766
G01 X8.1688 Y-5.8848 Z0.2766
G01 X8.1706 Y-5.8847 Z0.2766
G01 X8.7052 Y-5.8524 Z0.2766
G01 X9.2399 Y-5.8209 Z0.2766
G01 X9.7745 Y-5.7899 Z0.2766
G01 X10.3091 Y-5.7596 Z0.2766
G01 X10.8405 Y-5.7302 Z0.2766
G01 X10.8435 Y-5.7301 Z0.2766
G01 X11.3783 Y-5.7011 Z0.2766
G01 X11.9132 Y-5.6729 Z0.2766
G01 X12.4480 Y-5.6453 Z0.2766
G01 X12.9828 Y-5.6183 Z0.2766
G01 X13.5152 Y-5.5921 Z0.2766
G01 X13.5173 Y-5.5920 Z0.2766
G01 X14.0523 Y-5.5664 Z0.2766
G01 X14.5874 Y-5.5415 Z0.2766
G01 X15.1223 Y-5.5172 Z0.2766
G01 X15.6572 Y-5.4935 Z0.2766
G01 X16.1922 Y-5.4705 Z0.2766
G01 X16.7233 Y-5.4484 Z0.2766
G01 X16.7269 Y-5.4483 Z0.2766
G01 X17.2621 Y-5.4266 Z0.2766
G01 X17.7974 Y-5.4056 Z0.2766
G01 X18.3324 Y-5.3853 Z0.2766
G01 X18.5039 Y-5.3790 Z0.2766
G01 X18.8675 Y-5.3656 Z0.2766
G01 X19.2913 Y-5.3505 Z0.2766
G01 X19.4027 Y-5.3466 Z0.2766
G01 X19.9378 Y-5.3283 Z0.2766
G01 X20.0787 Y-5.3236 Z0.2766
G01 X20.4730 Y-5.3106 Z0.2766
G01 X20.8661 Y-5.2980 Z0.2766
G01 X21.0044 Y-5.2937 Z0.2766
G01 X21.0079 Y-5.2936 Z0.2766
G01 X21.5435 Y-5.2773 Z0.2766
G01 X22.0787 Y-5.2616 Z0.2766
G01 X22.6140 Y-5.2465 Z0.2766
G01 X23.1492 Y-5.2322 Z0.2766
G01 X23.6846 Y-5.2185 Z0.2766
G01 X24.2199 Y-5.2054 Z0.2766
G01 X24.7552 Y-5.1930 Z0.2766
G01 X25.2906 Y-5.1813 Z0.2766
G01 X25.8259 Y-5.1702 Z0.2766
G01 X26.3573 Y-5.1599 Z0.2766
G01 X26.3610 Y-5.1599 Z0.2766
G01 X26.8965 Y-5.1501 Z0.2766
G01 X27.4321 Y-5.1411 Z0.2766
G01 X27.9675 Y-5.1327 Z0.2766
G01 X28.5029 Y-5.1249 Z0.2766
G01 X29.0383 Y-5.1179 Z0.2766
G01 X29.5738 Y-5.1114 Z0.2766
G01 X30.1092 Y-5.1057 Z0.2766
G01 X30.6447 Y-5.1006 Z0.2766
G01 X31.1801 Y-5.0961 Z0.2766
G01 X31.7156 Y-5.0924 Z0.2766
G01 X32.2511 Y-5.0892 Z0.2766
G01 X32.7865 Y-5.0868 Z0.2766
G01 X33.3220 Y-5.0850 Z0.2766
G01 X33.8575 Y-5.0839 Z0.2766
G01 X34.3929 Y-5.0835 Z0.2766
G01 X34.9281 Y-5.0837 Z0.2766
G01 X35.4636 Y-5.0845 Z0.2766
G01 X35.9991 Y-5.0861 Z0.2766
G01 X36.5346 Y-5.0883 Z0.2766
G01 X37.0700 Y-5.0911 Z0.2766
G01 X37.6055 Y-5.0946 Z0.2766
G01 X38.1410 Y-5.0988 Z0.2766
G01 X38.6764 Y-5.1037 Z0.2766
G01 X39.2118 Y-5.1092 Z0.2766
G01 X39.7473 Y-5.1153 Z0.2766
G01 X40.2827 Y-5.1222 Z0.2766
G01 X40.8181 Y-5.1297 Z0.2766
G01 X41.3536 Y-5.1378 Z0.2766
G01 X41.8890 Y-5.1466 Z0.2766
G01 X42.4246 Y-5.1561 Z0.2766
G01 X42.4284 Y-5.1561 Z0.2766
G01 X42.9598 Y-5.1662 Z0.2766
G01 X43.4951 Y-5.1770 Z0.2766
G01 X44.0305 Y-5.1885 Z0.2766
G01 X44.5658 Y-5.2006 Z0.2766
G01 X45.1011 Y-5.2135 Z0.2766
G01 X45.2755 Y-5.2178 Z0.2766
G01 X45.6364 Y-5.2269 Z0.2766
G01 X46.0629 Y-5.2381 Z0.2766
G01 X46.1717 Y-5.2410 Z0.2766
G01 X46.7070 Y-5.2558 Z0.2766
G01 X46.8503 Y-5.2599 Z0.2766
G01 X47.2422 Y-5.2712 Z0.2766
G01 X47.6377 Y-5.2831 Z0.2766
G01 X47.7776 Y-5.2874 Z0.2766
G01 X48.3130 Y-5.3041 Z0.2766
G01 X48.3163 Y-5.3042 Z0.2766
G01 X48.8479 Y-5.3215 Z0.2766
G01 X49.3831 Y-5.3396 Z0.2766
G01 X49.9182 Y-5.3584 Z0.2766
G01 X50.4533 Y-5.3778 Z0.2766
G01 X50.9884 Y-5.3979 Z0.2766
G01 X51.5235 Y-5.4187 Z0.2766
G01 X52.0588 Y-5.4400 Z0.2766
G01 X52.0624 Y-5.4401 Z0.2766
G01 X52.5936 Y-5.4620 Z0.2766
G01 X53.1286 Y-5.4848 Z0.2766
G01 X53.6635 Y-5.5082 Z0.2766
G01 X54.1985 Y-5.5322 Z0.2766
G01 X54.7335 Y-5.5570 Z0.2766
G01 X55.2685 Y-5.5823 Z0.2766
G01 X55.2708 Y-5.5824 Z0.2766
G01 X55.8031 Y-5.6083 Z0.2766
G01 X56.3379 Y-5.6350 Z0.2766
G01 X56.8727 Y-5.6624 Z0.2766
G01 X57.4076 Y-5.6904 Z0.2766
G01 X57.9424 Y-5.7191 Z0.2766
G01 X57.9455 Y-5.7192 Z0.2766
G01 X58.4768 Y-5.7484 Z0.2766
G01 X59.0114 Y-5.7784 Z0.2766
G01 X59.5460 Y-5.8091 Z0.2766
G01 X60.0807 Y-5.8405 Z0.2766
G01 X60.6155 Y-5.8724 Z0.2766
G01 X60.6200 Y-5.8726 Z0.2766
G01 X60.6287 Y-5.8728 Z0.2766
G01 X60.6315 Y-5.8729 Z0.2766
G01 X60.6323 Y-5.8729 Z0.2766
G01 X60.6358 Y-5.8728 Z0.2766
G01 X60.6394 Y-5.8727 Z0.2766
G01 X60.6429 Y-5.8724 Z0.2766
G01 X60.6464 Y-5.8720 Z0.2766
G01 X60.6500 Y-5.8716 Z0.2766
G01 X60.6535 Y-5.8710 Z0.2766
G01 X60.6570 Y-5.8704 Z0.2766
G01 X60.6604 Y-5.8696 Z0.2766
G01 X60.6639 Y-5.8687 Z0.2766
G01 X60.6673 Y-5.8678 Z0.2766
G01 X60.6707 Y-5.8667 Z0.2766
G01 X60.6740 Y-5.8656 Z0.2766
G01 X60.6774 Y-5.8643 Z0.2766
G01 X60.6807 Y-5.8630 Z0.2766
G01 X60.6839 Y-5.8615 Z0.2766
G01 X60.6871 Y-5.8600 Z0.2766
G01 X60.6903 Y-5.8584 Z0.2766
G01 X60.6934 Y-5.8567 Z0.2766
G01 X60.6964 Y-5.8549 Z0.2766
G01 X60.6995 Y-5.8530 Z0.2766
G01 X60.7024 Y-5.8510 Z0.2766
G01 X60.7053 Y-5.8489 Z0.2766
G01 X60.7081 Y-5.8468 Z0.2766
G01 X60.7109 Y-5.8446 Z0.2766
G01 X60.7136 Y-5.8423 Z0.2766
G01 X60.7162 Y-5.8399 Z0.2766
G01 X60.7188 Y-5.8374 Z0.2766
G01 X60.7213 Y-5.8349 Z0.2766
G01 X60.7237 Y-5.8323 Z0.2766
G01 X60.7261 Y-5.8297 Z0.2766
G01 X60.7284 Y-5.8269 Z0.2766
G01 X60.7305 Y-5.8241 Z0.2766
G01 X60.7327 Y-5.8213 Z0.2766
G01 X60.7347 Y-5.8183 Z0.2766
G01 X60.7366 Y-5.8154 Z0.2766
G01 X60.7385 Y-5.8124 Z0.2766
G01 X60.7403 Y-5.8093 Z0.2766
G01 X60.7419 Y-5.8061 Z0.2766
G01 X60.7435 Y-5.8029 Z0.2766
G01 X60.7450 Y-5.7998 Z0.2766
G01 X60.7464 Y-5.7965 Z0.2766
G01 X60.7477 Y-5.7932 Z0.2766
G01 X60.7489 Y-5.7898 Z0.2766
G01 X60.7500 Y-5.7864 Z0.2766
G01 X60.7511 Y-5.7831 Z0.2766
G01 X60.7520 Y-5.7796 Z0.2766
G01 X60.7528 Y-5.7762 Z0.2766
G01 X60.7535 Y-5.7727 Z0.2766
G01 X60.7541 Y-5.7692 Z0.2766
G01 X60.7547 Y-5.7657 Z0.2766
G01 X60.7551 Y-5.7622 Z0.2766
G01 X60.7554 Y-5.7586 Z0.2766
G01 X60.7556 Y-5.7551 Z0.2766
G01 X60.7557 Y-5.7515 Z0.2766
G01 X60.7563 Y-5.7194 Z0.2766
G01 X60.7580 Y-5.6507 Z0.2766
G01 X60.7601 Y-5.5878 Z0.2766
G01 X60.7630 Y-5.5262 Z0.2766
G01 X60.7664 Y-5.4705 Z0.2766
G01 X60.7704 Y-5.4196 Z0.2766
G01 X60.7752 Y-5.3720 Z0.2766
G01 X60.7808 Y-5.3277 Z0.2766
G01 X60.7871 Y-5.2877 Z0.2766
G01 X60.7940 Y-5.2522 Z0.2766
G01 X60.8018 Y-5.2192 Z0.2766
G01 X60.8103 Y-5.1897 Z0.2766
G01 X60.8192 Y-5.1646 Z0.2766
G01 X60.8284 Y-5.1428 Z0.2766
G01 X60.8384 Y-5.1233 Z0.2766
G01 X60.8487 Y-5.1066 Z0.2766
G01 X60.8590 Y-5.0925 Z0.2766
G01 X60.8707 Y-5.0792 Z0.2766
G01 X60.8826 Y-5.0680 Z0.2766
G01 X60.8966 Y-5.0569 Z0.2766
G01 X60.9120 Y-5.0466 Z0.2766
G01 X60.9293 Y-5.0368 Z0.2766
G01 X60.9501 Y-5.0270 Z0.2766
G01 X60.9726 Y-5.0179 Z0.2766
G01 X60.9985 Y-5.0090 Z0.2766
G01 X61.0269 Y-5.0007 Z0.2766
G01 X61.0585 Y-4.9926 Z0.2766
G01 X61.0942 Y-4.9847 Z0.2766
G01 X61.1318 Y-4.9772 Z0.2766
G01 X61.1709 Y-4.9702 Z0.2766
G01 X61.2149 Y-4.9631 Z0.2766
G01 X61.2625 Y-4.9557 Z0.2766
G01 X61.3120 Y-4.9485 Z0.2766
G01 X61.3642 Y-4.9410 Z0.2766
G01 X61.4199 Y-4.9331 Z0.2766
G01 X61.4785 Y-4.9248 Z0.2766
G01 X61.5402 Y-4.9158 Z0.2766
G01 X61.5408 Y-4.9157 Z0.2766
G01 X61.6050 Y-4.9060 Z0.2766
G01 X61.6058 Y-4.9059 Z0.2766
G01 X61.6730 Y-4.8953 Z0.2766
G01 X61.6740 Y-4.8952 Z0.2766
G01 X61.7444 Y-4.8836 Z0.2766
G01 X61.7453 Y-4.8834 Z0.2766
G01 X61.8188 Y-4.8707 Z0.2766
G01 X61.8199 Y-4.8705 Z0.2766
G01 X61.8966 Y-4.8565 Z0.2766
G01 X61.8978 Y-4.8562 Z0.2766
G01 X61.9778 Y-4.8408 Z0.2766
G01 X61.9791 Y-4.8405 Z0.2766
G01 X62.0624 Y-4.8235 Z0.2766
G01 X62.0638 Y-4.8232 Z0.2766
G01 X62.1505 Y-4.8045 Z0.2766
G01 X62.1519 Y-4.8042 Z0.2766
G01 X62.2421 Y-4.7837 Z0.2766
G01 X62.2470 Y-4.7824 Z0.2766
G01 X62.4157 Y-4.7368 Z0.2766
G01 X62.4199 Y-4.7356 Z0.2766
G01 X62.5814 Y-4.6857 Z0.2766
G01 X62.5856 Y-4.6843 Z0.2766
G01 X62.7410 Y-4.6301 Z0.2766
G01 X62.7452 Y-4.6286 Z0.2766
G01 X62.8939 Y-4.5707 Z0.2766
G01 X62.8981 Y-4.5689 Z0.2766
G01 X63.0416 Y-4.5067 Z0.2766
G01 X63.0458 Y-4.5048 Z0.2766
G01 X63.1846 Y-4.4383 Z0.2766
G01 X63.1889 Y-4.4362 Z0.2766
G01 X63.3206 Y-4.3668 Z0.2766
G01 X63.3247 Y-4.3645 Z0.2766
G01 X63.4514 Y-4.2914 Z0.2766
G01 X63.4556 Y-4.2890 Z0.2766
G01 X63.5786 Y-4.2115 Z0.2766
G01 X63.5826 Y-4.2089 Z0.2766
G01 X63.6992 Y-4.1290 Z0.2766
G01 X63.7031 Y-4.1262 Z0.2766
G01 X63.8161 Y-4.0422 Z0.2766
G01 X63.8199 Y-4.0393 Z0.2766
G01 X63.9272 Y-3.9528 Z0.2766
G01 X63.9309 Y-3.9498 Z0.2766
G01 X64.0349 Y-3.8591 Z0.2766
G01 X64.0384 Y-3.8559 Z0.2766
G01 X64.1371 Y-3.7629 Z0.2766
G01 X64.1405 Y-3.7596 Z0.2766
G01 X64.2360 Y-3.6625 Z0.2766
G01 X64.2391 Y-3.6592 Z0.2766
G01 X64.3292 Y-3.5605 Z0.2766
G01 X64.3323 Y-3.5570 Z0.2766
G01 X64.4200 Y-3.4535 Z0.2766
G01 X64.4229 Y-3.4500 Z0.2766
G01 X64.5062 Y-3.3438 Z0.2766
G01 X64.5089 Y-3.3403 Z0.2766
G01 X64.5883 Y-3.2315 Z0.2766
G01 X64.5908 Y-3.2279 Z0.2766
G01 X64.6664 Y-3.1161 Z0.2766
G01 X64.6687 Y-3.1125 Z0.2766
G01 X64.7410 Y-2.9974 Z0.2766
G01 X64.7431 Y-2.9938 Z0.2766
G01 X64.8116 Y-2.8762 Z0.2766
G01 X64.8136 Y-2.8725 Z0.2766
G01 X64.8782 Y-2.7524 Z0.2766
G01 X64.8800 Y-2.7489 Z0.2766
G01 X64.9416 Y-2.6251 Z0.2766
G01 X64.9432 Y-2.6216 Z0.2766
G01 X65.0015 Y-2.4945 Z0.2766
G01 X65.0031 Y-2.4911 Z0.2766
G01 X65.0568 Y-2.3639 Z0.2766
G01 X65.0581 Y-2.3605 Z0.2766
G01 X65.1096 Y-2.2278 Z0.2766
G01 X65.1108 Y-2.2245 Z0.2766
G01 X65.1579 Y-2.0918 Z0.2766
G01 X65.1590 Y-2.0885 Z0.2766
G01 X65.2027 Y-1.9535 Z0.2766
G01 X65.2037 Y-1.9503 Z0.2766
G01 X65.2446 Y-1.8110 Z0.2766
G01 X65.2455 Y-1.8079 Z0.2766
G01 X65.2826 Y-1.6679 Z0.2766
G01 X65.2834 Y-1.6648 Z0.2766
G01 X65.3171 Y-1.5229 Z0.2766
G01 X65.3177 Y-1.5199 Z0.2766
G01 X65.3480 Y-1.3763 Z0.2766
G01 X65.3486 Y-1.3735 Z0.2766
G01 X65.3757 Y-1.2281 Z0.2766
G01 X65.3762 Y-1.2252 Z0.2766
G01 X65.4001 Y-1.0768 Z0.2766
G01 X65.4005 Y-1.0740 Z0.2766
G01 X65.4208 Y-0.9275 Z0.2766
G01 X65.4211 Y-0.9247 Z0.2766
G01 X65.4385 Y-0.7734 Z0.2766
G01 X65.4388 Y-0.7707 Z0.2766
G01 X65.4524 Y-0.6241 Z0.2766
G01 X65.4526 Y-0.6215 Z0.2766
G01 X65.4637 Y-0.4666 Z0.2766
G01 X65.4638 Y-0.4640 Z0.2766
G01 X65.4714 Y-0.3118 Z0.2766
G01 X65.4716 Y-0.3093 Z0.2766
G01 X65.4761 Y-0.1570 Z0.2766
G01 X65.4762 Y-0.1546 Z0.2766
G01 X65.4777 Y-0.0012 Z0.2766
G01 X65.4777 Y0.0012 Z0.2766
G01 X65.4762 Y0.1546 Z0.2766
G01 X65.4761 Y0.1570 Z0.2766
G01 X65.4716 Y0.3093 Z0.2766
G01 X65.4714 Y0.3118 Z0.2766
G01 X65.4638 Y0.4640 Z0.2766
G01 X65.4637 Y0.4666 Z0.2766
G01 X65.4527 Y0.6203 Z0.2766
G01 X65.4525 Y0.6230 Z0.2766
G01 X65.4388 Y0.7707 Z0.2766
G01 X65.4385 Y0.7734 Z0.2766
G01 X65.4211 Y0.9247 Z0.2766
G01 X65.4208 Y0.9275 Z0.2766
G01 X65.4005 Y1.0740 Z0.2766
G01 X65.4001 Y1.0768 Z0.2766
G01 X65.3762 Y1.2252 Z0.2766
G01 X65.3757 Y1.2281 Z0.2766
G01 X65.3486 Y1.3735 Z0.2766
G01 X65.3480 Y1.3763 Z0.2766
G01 X65.3177 Y1.5199 Z0.2766
G01 X65.3171 Y1.5229 Z0.2766
G01 X65.2834 Y1.6648 Z0.2766
G01 X65.2826 Y1.6679 Z0.2766
G01 X65.2455 Y1.8079 Z0.2766
G01 X65.2446 Y1.8110 Z0.2766
G01 X65.2037 Y1.9503 Z0.2766
G01 X65.2027 Y1.9535 Z0.2766
G01 X65.1590 Y2.0885 Z0.2766
G01 X65.1579 Y2.0918 Z0.2766
G01 X65.1108 Y2.2245 Z0.2766
G01 X65.1096 Y2.2278 Z0.2766
G01 X65.0581 Y2.3605 Z0.2766
G01 X65.0568 Y2.3639 Z0.2766
G01 X65.0031 Y2.4911 Z0.2766
G01 X65.0015 Y2.4945 Z0.2766
G01 X64.9432 Y2.6216 Z0.2766
G01 X64.9416 Y2.6251 Z0.2766
G01 X64.8800 Y2.7489 Z0.2766
G01 X64.8782 Y2.7524 Z0.2766
G01 X64.8136 Y2.8725 Z0.2766
G01 X64.8116 Y2.8762 Z0.2766
G01 X64.7431 Y2.9938 Z0.2766
G01 X64.7410 Y2.9974 Z0.2766
G01 X64.6687 Y3.1125 Z0.2766
G01 X64.6664 Y3.1161 Z0.2766
G01 X64.5908 Y3.2279 Z0.2766
G01 X64.5883 Y3.2315 Z0.2766
G01 X64.5089 Y3.3403 Z0.2766
G01 X64.5062 Y3.3438 Z0.2766
G01 X64.4229 Y3.4500 Z0.2766
G01 X64.4200 Y3.4535 Z0.2766
G01 X64.3323 Y3.5570 Z0.2766
G01 X64.3292 Y3.5605 Z0.2766
G01 X64.2391 Y3.6592 Z0.2766
G01 X64.2360 Y3.6625 Z0.2766
G01 X64.1405 Y3.7596 Z0.2766
G01 X64.1371 Y3.7629 Z0.2766
G01 X64.0384 Y3.8559 Z0.2766
G01 X64.0349 Y3.8591 Z0.2766
G01 X63.9309 Y3.9498 Z0.2766
G01 X63.9272 Y3.9528 Z0.2766
G01 X63.8199 Y4.0393 Z0.2766
G01 X63.8161 Y4.0422 Z0.2766
G01 X63.7031 Y4.1262 Z0.2766
G01 X63.6992 Y4.1290 Z0.2766
G01 X63.5826 Y4.2089 Z0.2766
G01 X63.5786 Y4.2115 Z0.2766
G01 X63.4556 Y4.2890 Z0.2766
G01 X63.4514 Y4.2914 Z0.2766
G01 X63.3247 Y4.3645 Z0.2766
G01 X63.3206 Y4.3668 Z0.2766
G01 X63.1889 Y4.4362 Z0.2766
G01 X63.1846 Y4.4383 Z0.2766
G01 X63.0458 Y4.5048 Z0.2766
G01 X63.0416 Y4.5067 Z0.2766
G01 X62.8981 Y4.5689 Z0.2766
G01 X62.8939 Y4.5707 Z0.2766
G01 X62.7452 Y4.6286 Z0.2766
G01 X62.7410 Y4.6301 Z0.2766
G01 X62.5856 Y4.6843 Z0.2766
G01 X62.5814 Y4.6857 Z0.2766
G01 X62.4199 Y4.7356 Z0.2766
G01 X62.4157 Y4.7368 Z0.2766
G01 X62.2470 Y4.7824 Z0.2766
G01 X62.2421 Y4.7837 Z0.2766
G01 X62.1519 Y4.8042 Z0.2766
G01 X62.1505 Y4.8045 Z0.2766
G01 X62.0638 Y4.8232 Z0.2766
G01 X62.0624 Y4.8235 Z0.2766
G01 X61.9791 Y4.8405 Z0.2766
G01 X61.9778 Y4.8408 Z0.2766
G01 X61.8978 Y4.8562 Z0.2766
G01 X61.8966 Y4.8565 Z0.2766
G01 X61.8199 Y4.8705 Z0.2766
G01 X61.8188 Y4.8707 Z0.2766
G01 X61.7453 Y4.8834 Z0.2766
G01 X61.7444 Y4.8836 Z0.2766
G01 X61.6740 Y4.8952 Z0.2766
G01 X61.6730 Y4.8953 Z0.2766
G01 X61.6058 Y4.9059 Z0.2766
G01 X61.6050 Y4.9060 Z0.2766
G01 X61.5408 Y4.9157 Z0.2766
G01 X61.5402 Y4.9158 Z0.2766
G01 X61.4788 Y4.9247 Z0.2766
G01 X61.4201 Y4.9331 Z0.2766
G01 X61.3642 Y4.9410 Z0.2766
G01 X61.3120 Y4.9485 Z0.2766
G01 X61.2625 Y4.9557 Z0.2766
G01 X61.2149 Y4.9631 Z0.2766
G01 X61.1709 Y4.9702 Z0.2766
G01 X61.1318 Y4.9772 Z0.2766
G01 X61.0942 Y4.9847 Z0.2766
G01 X61.0585 Y4.9926 Z0.2766
G01 X61.0269 Y5.0007 Z0.2766
G01 X60.9985 Y5.0090 Z0.2766
G01 X60.9726 Y5.0179 Z0.2766
G01 X60.9501 Y5.0270 Z0.2766
G01 X60.9293 Y5.0368 Z0.2766
G01 X60.9120 Y5.0466 Z0.2766
G01 X60.8966 Y5.0569 Z0.2766
G01 X60.8826 Y5.0680 Z0.2766
G01 X60.8707 Y5.0792 Z0.2766
G01 X60.8590 Y5.0925 Z0.2766
G01 X60.8487 Y5.1066 Z0.2766
G01 X60.8384 Y5.1233 Z0.2766
G01 X60.8284 Y5.1428 Z0.2766
G01 X60.8192 Y5.1646 Z0.2766
G01 X60.8105 Y5.1893 Z0.2766
G01 X60.8018 Y5.2192 Z0.2766
G01 X60.7940 Y5.2521 Z0.2766
G01 X60.7871 Y5.2874 Z0.2766
G01 X60.7809 Y5.3273 Z0.2766
G01 X60.7752 Y5.3720 Z0.2766
G01 X60.7705 Y5.4187 Z0.2766
G01 X60.7664 Y5.4702 Z0.2766
G01 X60.7630 Y5.5262 Z0.2766
G01 X60.7601 Y5.5878 Z0.2766
G01 X60.7580 Y5.6507 Z0.2766
G01 X60.7579 Y5.6519 Z0.2766
G01 X60.7563 Y5.7194 Z0.2766
G01 X60.7557 Y5.7515 Z0.2766
G01 X60.7556 Y5.7551 Z0.2766
G01 X60.7554 Y5.7586 Z0.2766
G01 X60.7551 Y5.7622 Z0.2766
G01 X60.7547 Y5.7657 Z0.2766
G01 X60.7541 Y5.7692 Z0.2766
G01 X60.7535 Y5.7727 Z0.2766
G01 X60.7528 Y5.7762 Z0.2766
G01 X60.7520 Y5.7796 Z0.2766
G01 X60.7511 Y5.7831 Z0.2766
G01 X60.7500 Y5.7864 Z0.2766
G01 X60.7489 Y5.7898 Z0.2766
G01 X60.7477 Y5.7932 Z0.2766
G01 X60.7464 Y5.7965 Z0.2766
G01 X60.7450 Y5.7998 Z0.2766
G01 X60.7435 Y5.8029 Z0.2766
G01 X60.7419 Y5.8061 Z0.2766
G01 X60.7403 Y5.8093 Z0.2766
G01 X60.7385 Y5.8124 Z0.2766
G01 X60.7366 Y5.8154 Z0.2766
G01 X60.7347 Y5.8183 Z0.2766
G01 X60.7327 Y5.8213 Z0.2766
G01 X60.7305 Y5.8241 Z0.2766
G01 X60.7284 Y5.8269 Z0.2766
G01 X60.7261 Y5.8297 Z0.2766
G01 X60.7237 Y5.8323 Z0.2766
G01 X60.7213 Y5.8349 Z0.2766
G01 X60.7188 Y5.8374 Z0.2766
G01 X60.7162 Y5.8399 Z0.2766
G01 X60.7136 Y5.8423 Z0.2766
G01 X60.7109 Y5.8446 Z0.2766
G01 X60.7081 Y5.8468 Z0.2766
G01 X60.7053 Y5.8489 Z0.2766
G01 X60.7024 Y5.8510 Z0.2766
G01 X60.6995 Y5.8530 Z0.2766
G01 X60.6964 Y5.8549 Z0.2766
G01 X60.6934 Y5.8567 Z0.2766
G01 X60.6903 Y5.8584 Z0.2766
G01 X60.6871 Y5.8600 Z0.2766
G01 X60.6839 Y5.8615 Z0.2766
G01 X60.6807 Y5.8630 Z0.2766
G01 X60.6774 Y5.8643 Z0.2766
G01 X60.6740 Y5.8656 Z0.2766
G01 X60.6707 Y5.8667 Z0.2766
G01 X60.6673 Y5.8678 Z0.2766
G01 X60.6639 Y5.8687 Z0.2766
G01 X60.6604 Y5.8696 Z0.2766
G01 X60.6570 Y5.8704 Z0.2766
G01 X60.6535 Y5.8710 Z0.2766
G01 X60.6500 Y5.8716 Z0.2766
G01 X60.6464 Y5.8720 Z0.2766
G01 X60.6429 Y5.8724 Z0.2766
G01 X60.6394 Y5.8727 Z0.2766
G01 X60.6358 Y5.8728 Z0.2766
G01 X60.6323 Y5.8729 Z0.2766
G01 X60.6315 Y5.8729 Z0.2766
G01 X60.6287 Y5.8728 Z0.2766
G01 X60.6200 Y5.8726 Z0.2766
G01 X60.6155 Y5.8724 Z0.2766
G01 X60.0807 Y5.8404 Z0.2766
G01 X59.5460 Y5.8091 Z0.2766
G01 X59.0114 Y5.7784 Z0.2766
G01 X58.4768 Y5.7484 Z0.2766
G01 X57.9455 Y5.7192 Z0.2766
G01 X57.9424 Y5.7191 Z0.2766
G01 X57.4076 Y5.6904 Z0.2766
G01 X56.8727 Y5.6624 Z0.2766
G01 X56.3379 Y5.6350 Z0.2766
G01 X55.8031 Y5.6083 Z0.2766
G01 X55.2708 Y5.5824 Z0.2766
G01 X55.2685 Y5.5823 Z0.2766
G01 X54.7335 Y5.5569 Z0.2766
G01 X54.1985 Y5.5322 Z0.2766
G01 X53.6635 Y5.5082 Z0.2766
G01 X53.1286 Y5.4848 Z0.2766
G01 X52.5936 Y5.4620 Z0.2766
G01 X52.0625 Y5.4401 Z0.2766
G01 X52.0588 Y5.4400 Z0.2766
G01 X51.5235 Y5.4187 Z0.2766
G01 X50.9884 Y5.3979 Z0.2766
G01 X50.4533 Y5.3778 Z0.2766
G01 X49.9182 Y5.3584 Z0.2766
G01 X49.3831 Y5.3396 Z0.2766
G01 X48.8479 Y5.3215 Z0.2766
G01 X48.3163 Y5.3042 Z0.2766
G01 X48.3130 Y5.3041 Z0.2766
G01 X47.7776 Y5.2874 Z0.2766
G01 X47.6377 Y5.2831 Z0.2766
G01 X47.2422 Y5.2712 Z0.2766
G01 X46.8503 Y5.2599 Z0.2766
G01 X46.7070 Y5.2558 Z0.2766
G01 X46.1717 Y5.2410 Z0.2766
G01 X46.0629 Y5.2381 Z0.2766
G01 X45.6364 Y5.2269 Z0.2766
G01 X45.2755 Y5.2178 Z0.2766
G01 X45.1011 Y5.2135 Z0.2766
G01 X44.5658 Y5.2006 Z0.2766
G01 X44.0305 Y5.1885 Z0.2766
G01 X43.4951 Y5.1770 Z0.2766
G01 X42.9598 Y5.1662 Z0.2766
G01 X42.4284 Y5.1561 Z0.2766
G01 X42.4246 Y5.1561 Z0.2766
G01 X41.8890 Y5.1466 Z0.2766
G01 X41.3536 Y5.1378 Z0.2766
G01 X40.8181 Y5.1297 Z0.2766
G01 X40.2827 Y5.1222 Z0.2766
G01 X39.7473 Y5.1153 Z0.2766
G01 X39.2118 Y5.1092 Z0.2766
G01 X38.6764 Y5.1037 Z0.2766
G01 X38.1410 Y5.0988 Z0.2766
G01 X37.6055 Y5.0946 Z0.2766
G01 X37.0700 Y5.0911 Z0.2766
G01 X36.5346 Y5.0883 Z0.2766
G01 X35.9991 Y5.0861 Z0.2766
G01 X35.4636 Y5.0845 Z0.2766
G01 X34.9281 Y5.0837 Z0.2766
G01 X34.3929 Y5.0835 Z0.2766
G01 X33.8575 Y5.0839 Z0.2766
G01 X33.3220 Y5.0850 Z0.2766
G01 X32.7865 Y5.0868 Z0.2766
G01 X32.2511 Y5.0892 Z0.2766
G01 X31.7156 Y5.0924 Z0.2766
G01 X31.1801 Y5.0961 Z0.2766
G01 X30.6447 Y5.1006 Z0.2766
G01 X30.1092 Y5.1057 Z0.2766
G01 X29.5738 Y5.1114 Z0.2766
G01 X29.0383 Y5.1179 Z0.2766
G01 X28.5029 Y5.1249 Z0.2766
G01 X27.9675 Y5.1327 Z0.2766
G01 X27.4321 Y5.1411 Z0.2766
G01 X26.8965 Y5.1501 Z0.2766
G01 X26.3610 Y5.1599 Z0.2766
G01 X26.3575 Y5.1599 Z0.2766
G01 X25.8259 Y5.1702 Z0.2766
G01 X25.2906 Y5.1813 Z0.2766
G01 X24.7552 Y5.1930 Z0.2766
G01 X24.2199 Y5.2054 Z0.2766
G01 X23.6846 Y5.2185 Z0.2766
G01 X23.1492 Y5.2322 Z0.2766
G01 X22.6140 Y5.2465 Z0.2766
G01 X22.0787 Y5.2616 Z0.2766
G01 X21.5435 Y5.2773 Z0.2766
G01 X21.0079 Y5.2936 Z0.2766
G01 X21.0044 Y5.2937 Z0.2766
G01 X20.8661 Y5.2980 Z0.2766
G01 X20.4730 Y5.3106 Z0.2766
G01 X20.0787 Y5.3236 Z0.2766
G01 X19.9378 Y5.3283 Z0.2766
G01 X19.4027 Y5.3466 Z0.2766
G01 X19.2913 Y5.3505 Z0.2766
G01 X18.8675 Y5.3656 Z0.2766
G01 X18.5039 Y5.3790 Z0.2766
G01 X18.3324 Y5.3853 Z0.2766
G01 X17.7974 Y5.4056 Z0.2766
G01 X17.2621 Y5.4266 Z0.2766
G01 X16.7269 Y5.4483 Z0.2766
G01 X16.7234 Y5.4484 Z0.2766
G01 X16.1922 Y5.4705 Z0.2766
G01 X15.6572 Y5.4935 Z0.2766
G01 X15.1223 Y5.5172 Z0.2766
G01 X14.5874 Y5.5415 Z0.2766
G01 X14.0523 Y5.5664 Z0.2766
G01 X13.5173 Y5.5920 Z0.2766
G01 X13.5152 Y5.5921 Z0.2766
G01 X12.9828 Y5.6183 Z0.2766
G01 X12.4480 Y5.6453 Z0.2766
G01 X11.9132 Y5.6729 Z0.2766
G01 X11.3783 Y5.7012 Z0.2766
G01 X10.8435 Y5.7301 Z0.2766
G01 X10.8405 Y5.7302 Z0.2766
G01 X10.3091 Y5.7596 Z0.2766
G01 X9.7745 Y5.7899 Z0.2766
G01 X9.2399 Y5.8209 Z0.2766
G01 X8.7052 Y5.8524 Z0.2766
G01 X8.1706 Y5.8847 Z0.2766
G01 X8.1688 Y5.8848 Z0.2766
G01 X7.6364 Y5.9175 Z0.2766
G01 X7.1017 Y5.9511 Z0.2766
G01 X7.0973 Y5.9513 Z0.2766
G01 X7.0886 Y5.9516 Z0.2766
G01 X7.0829 Y5.9516 Z0.2766
G01 X7.0809 Y5.9515 Z0.2766
G01 X7.0774 Y5.9514 Z0.2766
G01 X7.0738 Y5.9512 Z0.2766
G01 X7.0704 Y5.9509 Z0.2766
G01 X7.0669 Y5.9505 Z0.2766
G01 X7.0635 Y5.9500 Z0.2766
G01 X7.0600 Y5.9494 Z0.2766
G01 X7.0566 Y5.9487 Z0.2766
G01 X7.0532 Y5.9479 Z0.2766
G01 X7.0498 Y5.9470 Z0.2766
G01 X7.0464 Y5.9460 Z0.2766
G01 X7.0431 Y5.9449 Z0.2766
G01 X7.0398 Y5.9437 Z0.2766
G01 X7.0366 Y5.9424 Z0.2766
G01 X7.0333 Y5.9411 Z0.2766
G01 X7.0301 Y5.9396 Z0.2766
G01 X7.0270 Y5.9381 Z0.2766
G01 X7.0239 Y5.9364 Z0.2766
G01 X7.0209 Y5.9347 Z0.2766
G01 X7.0179 Y5.9329 Z0.2766
G01 X7.0150 Y5.9310 Z0.2766
G01 X7.0120 Y5.9290 Z0.2766
G01 X7.0092 Y5.9270 Z0.2766
G01 X7.0064 Y5.9248 Z0.2766
G01 X7.0037 Y5.9226 Z0.2766
G01 X7.0011 Y5.9203 Z0.2766
G01 X6.9985 Y5.9180 Z0.2766
G01 X6.9960 Y5.9155 Z0.2766
G01 X6.9936 Y5.9130 Z0.2766
G01 X6.9912 Y5.9105 Z0.2766
G01 X6.9889 Y5.9078 Z0.2766
G01 X6.9867 Y5.9051 Z0.2766
G01 X6.9845 Y5.9024 Z0.2766
G01 X6.9825 Y5.8995 Z0.2766
G01 X6.9805 Y5.8966 Z0.2766
G01 X6.9786 Y5.8937 Z0.2766
G01 X6.9768 Y5.8907 Z0.2766
G01 X6.9750 Y5.8877 Z0.2766
G01 X6.9734 Y5.8846 Z0.2766
G01 X6.9718 Y5.8814 Z0.2766
G01 X6.9704 Y5.8783 Z0.2766
G01 X6.9690 Y5.8751 Z0.2766
G01 X6.9677 Y5.8718 Z0.2766
G01 X6.9665 Y5.8685 Z0.2766
G01 X6.9654 Y5.8652 Z0.2766
G01 X6.9644 Y5.8618 Z0.2766
G01 X6.9635 Y5.8585 Z0.2766
G01 X6.9627 Y5.8551 Z0.2766
G01 X6.9620 Y5.8516 Z0.2766
G01 X6.9614 Y5.8482 Z0.2766
G01 X6.9609 Y5.8448 Z0.2766
G01 X6.9604 Y5.8412 Z0.2766
G01 X6.9601 Y5.8378 Z0.2766
G01 X6.9599 Y5.8343 Z0.2766
G01 X6.9598 Y5.8308 Z0.2766
G01 X6.9590 Y5.7965 Z0.2766
G01 X6.9568 Y5.7271 Z0.2766
G01 X6.9541 Y5.6630 Z0.2766
G01 X6.9508 Y5.6028 Z0.2766
G01 X6.9465 Y5.5438 Z0.2766
G01 X6.9420 Y5.4936 Z0.2766
G01 X6.9419 Y5.4928 Z0.2766
G01 X6.9361 Y5.4427 Z0.2766
G01 X6.9298 Y5.3979 Z0.2766
G01 X6.9228 Y5.3578 Z0.2766
G01 X6.9146 Y5.3192 Z0.2766
G01 X6.9059 Y5.2856 Z0.2766
G01 X6.8966 Y5.2558 Z0.2766
G01 X6.8866 Y5.2289 Z0.2766
G01 X6.8762 Y5.2060 Z0.2766
G01 X6.8650 Y5.1850 Z0.2766
G01 X6.8538 Y5.1676 Z0.2766
G01 X6.8416 Y5.1519 Z0.2766
G01 X6.8290 Y5.1381 Z0.2766
G01 X6.8155 Y5.1258 Z0.2766
G01 X6.8004 Y5.1142 Z0.2766
G01 X6.7835 Y5.1034 Z0.2766
G01 X6.7646 Y5.0933 Z0.2766
G01 X6.7431 Y5.0838 Z0.2766
G01 X6.7192 Y5.0749 Z0.2766
G01 X6.6919 Y5.0664 Z0.2766
G01 X6.6627 Y5.0589 Z0.2766
G01 X6.6287 Y5.0516 Z0.2766
G01 X6.5933 Y5.0452 Z0.2766
G01 X6.5533 Y5.0392 Z0.2766
G01 X6.5134 Y5.0340 Z0.2766
G01 X6.4664 Y5.0289 Z0.2766
G01 X6.4194 Y5.0244 Z0.2766
G01 X6.3688 Y5.0201 Z0.2766
G01 X6.3140 Y5.0159 Z0.2766
G01 X6.2571 Y5.0118 Z0.2766
G01 X6.1972 Y5.0076 Z0.2766
G01 X6.1340 Y5.0032 Z0.2766
G01 X6.0678 Y4.9985 Z0.2766
G01 X6.0673 Y4.9985 Z0.2766
G01 X5.9983 Y4.9933 Z0.2766
G01 X5.9978 Y4.9933 Z0.2766
G01 X5.9256 Y4.9876 Z0.2766
G01 X5.9250 Y4.9875 Z0.2766
G01 X5.8497 Y4.9812 Z0.2766
G01 X5.8488 Y4.9811 Z0.2766
G01 X5.7703 Y4.9740 Z0.2766
G01 X5.7694 Y4.9739 Z0.2766
G01 X5.6877 Y4.9659 Z0.2766
G01 X5.6867 Y4.9657 Z0.2766
G01 X5.6016 Y4.9566 Z0.2766
G01 X5.6005 Y4.9565 Z0.2766
G01 X5.5120 Y4.9462 Z0.2766
G01 X5.5109 Y4.9461 Z0.2766
G01 X5.4190 Y4.9346 Z0.2766
G01 X5.4152 Y4.9341 Z0.2766
G01 X5.1713 Y4.8958 Z0.2766
G01 X5.1680 Y4.8953 Z0.2766
G01 X4.9313 Y4.8516 Z0.2766
G01 X4.9279 Y4.8509 Z0.2766
G01 X4.6998 Y4.8022 Z0.2766
G01 X4.6964 Y4.8014 Z0.2766
G01 X4.4779 Y4.7483 Z0.2766
G01 X4.4744 Y4.7474 Z0.2766
G01 X4.2618 Y4.6889 Z0.2766
G01 X4.2582 Y4.6879 Z0.2766
G01 X4.0535 Y4.6249 Z0.2766
G01 X4.0498 Y4.6237 Z0.2766
G01 X3.8550 Y4.5571 Z0.2766
G01 X3.8513 Y4.5558 Z0.2766
G01 X3.6633 Y4.4848 Z0.2766
G01 X3.6596 Y4.4833 Z0.2766
G01 X3.4787 Y4.4082 Z0.2766
G01 X3.4749 Y4.4066 Z0.2766
G01 X3.3020 Y4.3279 Z0.2766
G01 X3.2983 Y4.3261 Z0.2766
G01 X3.1316 Y4.2434 Z0.2766
G01 X3.1278 Y4.2414 Z0.2766
G01 X2.9692 Y4.1557 Z0.2766
G01 X2.9655 Y4.1536 Z0.2766
G01 X2.8132 Y4.0643 Z0.2766
G01 X2.8094 Y4.0620 Z0.2766
G01 X2.6644 Y3.9699 Z0.2766
G01 X2.6607 Y3.9674 Z0.2766
G01 X2.5210 Y3.8714 Z0.2766
G01 X2.5174 Y3.8688 Z0.2766
G01 X2.3855 Y3.7709 Z0.2766
G01 X2.3819 Y3.7681 Z0.2766
G01 X2.2555 Y3.6668 Z0.2766
G01 X2.2519 Y3.6638 Z0.2766
G01 X2.1308 Y3.5591 Z0.2766
G01 X2.1274 Y3.5561 Z0.2766
G01 X2.0135 Y3.4500 Z0.2766
G01 X2.0102 Y3.4468 Z0.2766
G01 X1.9015 Y3.3377 Z0.2766
G01 X1.8983 Y3.3344 Z0.2766
G01 X1.7940 Y3.2216 Z0.2766
G01 X1.7910 Y3.2182 Z0.2766
G01 X1.6935 Y3.1045 Z0.2766
G01 X1.6905 Y3.1009 Z0.2766
G01 X1.5974 Y2.9838 Z0.2766
G01 X1.5946 Y2.9803 Z0.2766
G01 X1.5067 Y2.8609 Z0.2766
G01 X1.5040 Y2.8572 Z0.2766
G01 X1.4209 Y2.7353 Z0.2766
G01 X1.4185 Y2.7316 Z0.2766
G01 X1.3409 Y2.6086 Z0.2766
G01 X1.3387 Y2.6048 Z0.2766
G01 X1.2644 Y2.4772 Z0.2766
G01 X1.2622 Y2.4734 Z0.2766
G01 X1.1938 Y2.3456 Z0.2766
G01 X1.1919 Y2.3418 Z0.2766
G01 X1.1281 Y2.2122 Z0.2766
G01 X1.1263 Y2.2084 Z0.2766
G01 X1.0662 Y2.0748 Z0.2766
G01 X1.0646 Y2.0709 Z0.2766
G01 X1.0098 Y1.9372 Z0.2766
G01 X1.0083 Y1.9335 Z0.2766
G01 X0.9572 Y1.7962 Z0.2766
G01 X0.9558 Y1.7925 Z0.2766
G01 X0.9094 Y1.6544 Z0.2766
G01 X0.9083 Y1.6507 Z0.2766
G01 X0.8658 Y1.5097 Z0.2766
G01 X0.8648 Y1.5061 Z0.2766
G01 X0.8268 Y1.3646 Z0.2766
G01 X0.8259 Y1.3610 Z0.2766
G01 X0.7922 Y1.2178 Z0.2766
G01 X0.7914 Y1.2143 Z0.2766
G01 X0.7617 Y1.0695 Z0.2766
G01 X0.7611 Y1.0659 Z0.2766
G01 X0.7355 Y0.9194 Z0.2766
G01 X0.7349 Y0.9160 Z0.2766
G01 X0.7135 Y0.7690 Z0.2766
G01 X0.7130 Y0.7656 Z0.2766
G01 X0.6955 Y0.6170 Z0.2766
G01 X0.6952 Y0.6137 Z0.2766
G01 X0.6815 Y0.4626 Z0.2766
G01 X0.6812 Y0.4593 Z0.2766
G01 X0.6718 Y0.3112 Z0.2766
G01 X0.6716 Y0.3080 Z0.2766
G01 X0.6659 Y0.1551 Z0.2766
G01 X0.6658 Y0.1520 Z0.2766
G01 X0.6639 Y0.0015 Z0.2766
G01 X0.6639 Y-0.0015 Z0.2766
G01 X0.6639 Y-0.0015 Z0.1333
G01 X0.6658 Y-0.1520 Z0.1333
G01 X0.6659 Y-0.1551 Z0.1333
G01 X0.6716 Y-0.3080 Z0.1333
G01 X0.6718 Y-0.3112 Z0.1333
G01 X0.6812 Y-0.4593 Z0.1333
G01 X0.6815 Y-0.4626 Z0.1333
G01 X0.6952 Y-0.6137 Z0.1333
G01 X0.6955 Y-0.6170 Z0.1333
G01 X0.7131 Y-0.7662 Z0.1333
G01 X0.7136 Y-0.7696 Z0.1333
G01 X0.7349 Y-0.9160 Z0.1333
G01 X0.7355 Y-0.9194 Z0.1333
G01 X0.7611 Y-1.0659 Z0.1333
G01 X0.7617 Y-1.0695 Z0.1333
G01 X0.7914 Y-1.2143 Z0.1333
G01 X0.7922 Y-1.2178 Z0.1333
G01 X0.8259 Y-1.3610 Z0.1333
G01 X0.8268 Y-1.3646 Z0.1333
G01 X0.8648 Y-1.5061 Z0.1333
G01 X0.8658 Y-1.5097 Z0.1333
G01 X0.9083 Y-1.6507 Z0.1333
G01 X0.9094 Y-1.6544 Z0.1333
G01 X0.9558 Y-1.7925 Z0.1333
G01 X0.9572 Y-1.7962 Z0.1333
G01 X1.0083 Y-1.9335 Z0.1333
G01 X1.0098 Y-1.9372 Z0.1333
G01 X1.0646 Y-2.0709 Z0.1333
G01 X1.0662 Y-2.0748 Z0.1333
G01 X1.1263 Y-2.2084 Z0.1333
G01 X1.1281 Y-2.2122 Z0.1333
G01 X1.1919 Y-2.3418 Z0.1333
G01 X1.1938 Y-2.3456 Z0.1333
G01 X1.2622 Y-2.4734 Z0.1333
G01 X1.2644 Y-2.4772 Z0.1333
G01 X1.3387 Y-2.6048 Z0.1333
G01 X1.3409 Y-2.6086 Z0.1333
G01 X1.4185 Y-2.7316 Z0.1333
G01 X1.4209 Y-2.7353 Z0.1333
G01 X1.5040 Y-2.8572 Z0.1333
G01 X1.5067 Y-2.8609 Z0.1333
G01 X1.5946 Y-2.9803 Z0.1333
G01 X1.5974 Y-2.9838 Z0.1333
G01 X1.6905 Y-3.1009 Z0.1333
G01 X1.6935 Y-3.1045 Z0.1333
G01 X1.7910 Y-3.2182 Z0.1333
G01 X1.7940 Y-3.2216 Z0.1333
G01 X1.8983 Y-3.3344 Z0.1333
G01 X1.9015 Y-3.3377 Z0.1333
G01 X2.0102 Y-3.4468 Z0.1333
G01 X2.0135 Y-3.4500 Z0.1333
G01 X2.1277 Y-3.5563 Z0.1333
G01 X2.1311 Y-3.5593 Z0.1333
G01 X2.2519 Y-3.6638 Z0.1333
G01 X2.2555 Y-3.6668 Z0.1333
G01 X2.3819 Y-3.7681 Z0.1333
G01 X2.3855 Y-3.7709 Z0.1333
G01 X2.5174 Y-3.8688 Z0.1333
G01 X2.5210 Y-3.8714 Z0.1333
G01 X2.6607 Y-3.9674 Z0.1333
G01 X2.6644 Y-3.9699 Z0.1333
G01 X2.8094 Y-4.0620 Z0.1333
G01 X2.8132 Y-4.0643 Z0.1333
G01 X2.9655 Y-4.1536 Z0.1333
G01 X2.9692 Y-4.1557 Z0.1333
G01 X3.1278 Y-4.2414 Z0.1333
G01 X3.1316 Y-4.2434 Z0.1333
G01 X3.2983 Y-4.3261 Z0.1333
G01 X3.3020 Y-4.3279 Z0.1333
G01 X3.4749 Y-4.4066 Z0.1333
G01 X3.4787 Y-4.4082 Z0.1333
G01 X3.6596 Y-4.4833 Z0.1333
G01 X3.6633 Y-4.4848 Z0.1333
G01 X3.8513 Y-4.5558 Z0.1333
G01 X3.8550 Y-4.5571 Z0.1333
G01 X4.0498 Y-4.6237 Z0.1333
G01 X4.0535 Y-4.6249 Z0.1333
G01 X4.2582 Y-4.6879 Z0.1333
G01 X4.2618 Y-4.6889 Z0.1333
G01 X4.4744 Y-4.7474 Z0.1333
G01 X4.4779 Y-4.7483 Z0.1333
G01 X4.6964 Y-4.8014 Z0.1333
G01 X4.6998 Y-4.8022 Z0.1333
G01 X4.9279 Y-4.8509 Z0.1333
G01 X4.9313 Y-4.8516 Z0.1333
G01 X5.1680 Y-4.8953 Z0.1333
G01 X5.1713 Y-4.8958 Z0.1333
G01 X5.4152 Y-4.9341 Z0.1333
G01 X5.4190 Y-4.9346 Z0.1333
G01 X5.5109 Y-4.9461 Z0.1333
G01 X5.5120 Y-4.9462 Z0.1333
G01 X5.6005 Y-4.9565 Z0.1333
G01 X5.6016 Y-4.9566 Z0.1333
G01 X5.6867 Y-4.9657 Z0.1333
G01 X5.6877 Y-4.9659 Z0.1333
G01 X5.7694 Y-4.9739 Z0.1333
G01 X5.7703 Y-4.9740 Z0.1333
G01 X5.8488 Y-4.9811 Z0.1333
G01 X5.8497 Y-4.9812 Z0.1333
G01 X5.9250 Y-4.9875 Z0.1333
G01 X5.9256 Y-4.9876 Z0.1333
G01 X5.9978 Y-4.9933 Z0.1333
G01 X5.9983 Y-4.9933 Z0.1333
G01 X6.0673 Y-4.9985 Z0.1333
G01 X6.0678 Y-4.9985 Z0.1333
G01 X6.1339 Y-5.0032 Z0.1333
G01 X6.1972 Y-5.0076 Z0.1333
G01 X6.2571 Y-5.0118 Z0.1333
G01 X6.3139 Y-5.0159 Z0.1333
G01 X6.3688 Y-5.0201 Z0.1333
G01 X6.4194 Y-5.0244 Z0.1333
G01 X6.4664 Y-5.0289 Z0.1333
G01 X6.5134 Y-5.0340 Z0.1333
G01 X6.5533 Y-5.0392 Z0.1333
G01 X6.5933 Y-5.0452 Z0.1333
G01 X6.6287 Y-5.0516 Z0.1333
G01 X6.6627 Y-5.0589 Z0.1333
G01 X6.6919 Y-5.0664 Z0.1333
G01 X6.7192 Y-5.0749 Z0.1333
G01 X6.7431 Y-5.0838 Z0.1333
G01 X6.7646 Y-5.0933 Z0.1333
G01 X6.7836 Y-5.1035 Z0.1333
G01 X6.8004 Y-5.1142 Z0.1333
G01 X6.8155 Y-5.1258 Z0.1333
G01 X6.8290 Y-5.1381 Z0.1333
G01 X6.8416 Y-5.1519 Z0.1333
G01 X6.8538 Y-5.1676 Z0.1333
G01 X6.8650 Y-5.1850 Z0.1333
G01 X6.8762 Y-5.2060 Z0.1333
G01 X6.8866 Y-5.2290 Z0.1333
G01 X6.8968 Y-5.2562 Z0.1333
G01 X6.9059 Y-5.2856 Z0.1333
G01 X6.9146 Y-5.3192 Z0.1333
G01 X6.9229 Y-5.3584 Z0.1333
G01 X6.9298 Y-5.3980 Z0.1333
G01 X6.9362 Y-5.4431 Z0.1333
G01 X6.9419 Y-5.4928 Z0.1333
G01 X6.9466 Y-5.5446 Z0.1333
G01 X6.9508 Y-5.6028 Z0.1333
G01 X6.9542 Y-5.6636 Z0.1333
G01 X6.9569 Y-5.7285 Z0.1333
G01 X6.9590 Y-5.7977 Z0.1333
G01 X6.9598 Y-5.8308 Z0.1333
G01 X6.9599 Y-5.8343 Z0.1333
G01 X6.9601 Y-5.8378 Z0.1333
G01 X6.9604 Y-5.8412 Z0.1333
G01 X6.9609 Y-5.8448 Z0.1333
G01 X6.9614 Y-5.8482 Z0.1333
G01 X6.9620 Y-5.8516 Z0.1333
G01 X6.9627 Y-5.8551 Z0.1333
G01 X6.9635 Y-5.8585 Z0.1333
G01 X6.9644 Y-5.8618 Z0.1333
G01 X6.9654 Y-5.8652 Z0.1333
G01 X6.9665 Y-5.8685 Z0.1333
G01 X6.9677 Y-5.8718 Z0.1333
G01 X6.9690 Y-5.8751 Z0.1333
G01 X6.9704 Y-5.8783 Z0.1333
G01 X6.9718 Y-5.8814 Z0.1333
G01 X6.9734 Y-5.8846 Z0.1333
G01 X6.9750 Y-5.8877 Z0.1333
G01 X6.9768 Y-5.8907 Z0.1333
G01 X6.9786 Y-5.8937 Z0.1333
G01 X6.9805 Y-5.8966 Z0.1333
G01 X6.9825 Y-5.8995 Z0.1333
G01 X6.9845 Y-5.9024 Z0.1333
G01 X6.9867 Y-5.9051 Z0.1333
G01 X6.9889 Y-5.9078 Z0.1333
G01 X6.9912 Y-5.9105 Z0.1333
G01 X6.9936 Y-5.9130 Z0.1333
G01 X6.9960 Y-5.9155 Z0.1333
G01 X6.9985 Y-5.9180 Z0.1333
G01 X7.0011 Y-5.9203 Z0.1333
G01 X7.0037 Y-5.9226 Z0.1333
G01 X7.0064 Y-5.9248 Z0.1333
G01 X7.0092 Y-5.9270 Z0.1333
G01 X7.0120 Y-5.9290 Z0.1333
G01 X7.0150 Y-5.9310 Z0.1333
G01 X7.0179 Y-5.9329 Z0.1333
G01 X7.0209 Y-5.9347 Z0.1333
G01 X7.0239 Y-5.9364 Z0.1333
G01 X7.0270 Y-5.9381 Z0.1333
G01 X7.0301 Y-5.9396 Z0.1333
G01 X7.0333 Y-5.9411 Z0.1333
G01 X7.0366 Y-5.9424 Z0.1333
G01 X7.0398 Y-5.9437 Z0.1333
G01 X7.0431 Y-5.9449 Z0.1333
G01 X7.0464 Y-5.9460 Z0.1333
G01 X7.0498 Y-5.9470 Z0.1333
G01 X7.0532 Y-5.9479 Z0.1333
G01 X7.0566 Y-5.9487 Z0.1333
G01 X7.0600 Y-5.9494 Z0.1333
G01 X7.0635 Y-5.9500 Z0.1333
G01 X7.0669 Y-5.9505 Z0.1333
G01 X7.0704 Y-5.9509 Z0.1333
G01 X7.0738 Y-5.9512 Z0.1333
G01 X7.0774 Y-5.9514 Z0.1333
G01 X7.0809 Y-5.9515 Z0.1333
G01 X7.0829 Y-5.9516 Z0.1333
G01 X7.0886 Y-5.9516 Z0.1333
G01 X7.0973 Y-5.9513 Z0.1333
G01 X7.1017 Y-5.9511 Z0.1333
G01 X7.6364 Y-5.9175 Z0.1333
G01 X8.1688 Y-5.8848 Z0.1333
G01 X8.1706 Y-5.8847 Z0.1333
G01 X8.7052 Y-5.8524 Z0.1333
G01 X9.2399 Y-5.8209 Z0.1333
G01 X9.7745 Y-5.7899 Z0.1333
G01 X10.3091 Y-5.7596 Z0.1333
G01 X10.8405 Y-5.7302 Z0.1333
G01 X10.8435 Y-5.7301 Z0.1333
G01 X11.3783 Y-5.7011 Z0.1333
G01 X11.9132 Y-5.6729 Z0.1333
G01 X12.4480 Y-5.6453 Z0.1333
G01 X12.9828 Y-5.6183 Z0.1333
G01 X13.5152 Y-5.5921 Z0.1333
G01 X13.5173 Y-5.5920 Z0.1333
G01 X14.0523 Y-5.5664 Z0.1333
G01 X14.5874 Y-5.5415 Z0.1333
G01 X15.1223 Y-5.5172 Z0.1333
G01 X15.6572 Y-5.4935 Z0.1333
G01 X16.1922 Y-5.4705 Z0.1333
G01 X16.7233 Y-5.4484 Z0.1333
G01 X16.7269 Y-5.4483 Z0.1333
G01 X17.2621 Y-5.4266 Z0.1333
G01 X17.7974 Y-5.4056 Z0.1333
G01 X18.3324 Y-5.3853 Z0.1333
G01 X18.5039 Y-5.3790 Z0.1333
G01 X18.8675 Y-5.3656 Z0.1333
G01 X19.2913 Y-5.3505 Z0.1333
G01 X19.4027 Y-5.3466 Z0.1333
G01 X19.9378 Y-5.3283 Z0.1333
G01 X20.0787 Y-5.3236 Z0.1333
G01 X20.4730 Y-5.3106 Z0.1333
G01 X20.8661 Y-5.2980 Z0.1333
G01 X21.0044 Y-5.2937 Z0.1333
G01 X21.0079 Y-5.2936 Z0.1333
G01 X21.5435 Y-5.2773 Z0.1333
G01 X22.0787 Y-5.2616 Z0.1333
G01 X22.6140 Y-5.2465 Z0.1333
G01 X23.1492 Y-5.2322 Z0.1333
G01 X23.6846 Y-5.2185 Z0.1333
G01 X24.2199 Y-5.2054 Z0.1333
G01 X24.7552 Y-5.1930 Z0.1333
G01 X25.2906 Y-5.1813 Z0.1333
G01 X25.8259 Y-5.1702 Z0.1333
G01 X26.3573 Y-5.1599 Z0.1333
G01 X26.3610 Y-5.1599 Z0.1333
G01 X26.8965 Y-5.1501 Z0.1333
G01 X27.4321 Y-5.1411 Z0.1333
G01 X27.9675 Y-5.1327 Z0.1333
G01 X28.5029 Y-5.1249 Z0.1333
G01 X29.0383 Y-5.1179 Z0.1333
G01 X29.5738 Y-5.1114 Z0.1333
G01 X30.1092 Y-5.1057 Z0.1333
G01 X30.6447 Y-5.1006 Z0.1333
G01 X31.1801 Y-5.0961 Z0.1333
G01 X31.7156 Y-5.0924 Z0.1333
G01 X32.2511 Y-5.0892 Z0.1333
G01 X32.7865 Y-5.0868 Z0.1333
G01 X33.3220 Y-5.0850 Z0.1333
G01 X33.8575 Y-5.0839 Z0.1333
G01 X34.3929 Y-5.0835 Z0.1333
G01 X34.9281 Y-5.0837 Z0.1333
G01 X35.4636 Y-5.0845 Z0.1333
G01 X35.9991 Y-5.0861 Z0.1333
G01 X36.5346 Y-5.0883 Z0.1333
G01 X37.0700 Y-5.0911 Z0.1333
G01 X37.6055 Y-5.0946 Z0.1333
G01 X38.1410 Y-5.0988 Z0.1333
G01 X38.6764 Y-5.1037 Z0.1333
G01 X39.2118 Y-5.1092 Z0.1333
G01 X39.7473 Y-5.1153 Z0.1333
G01 X40.2827 Y-5.1222 Z0.1333
G01 X40.8181 Y-5.1297 Z0.1333
G01 X41.3536 Y-5.1378 Z0.1333
G01 X41.8890 Y-5.1466 Z0.1333
G01 X42.4246 Y-5.1561 Z0.1333
G01 X42.4284 Y-5.1561 Z0.1333
G01 X42.9598 Y-5.1662 Z0.1333
G01 X43.4951 Y-5.1770 Z0.1333
G01 X44.0305 Y-5.1885 Z0.1333
G01 X44.5658 Y-5.2006 Z0.1333
G01 X45.1011 Y-5.2135 Z0.1333
G01 X45.2755 Y-5.2178 Z0.1333
G01 X45.6364 Y-5.2269 Z0.1333
G01 X46.0629 Y-5.2381 Z0.1333
G01 X46.1717 Y-5.2410 Z0.1333
G01 X46.7070 Y-5.2558 Z0.1333
G01 X46.8503 Y-5.2599 Z0.1333
G01 X47.2422 Y-5.2712 Z0.1333
G01 X47.6377 Y-5.2831 Z0.1333
G01 X47.7776 Y-5.2874 Z0.1333
G01 X48.3130 Y-5.3041 Z0.1333
G01 X48.3163 Y-5.3042 Z0.1333
G01 X48.8479 Y-5.3215 Z0.1333
G01 X49.3831 Y-5.3396 Z0.1333
G01 X49.9182 Y-5.3584 Z0.1333
G01 X50.4533 Y-5.3778 Z0.1333
G01 X50.9884 Y-5.3979 Z0.1333
G01 X51.5235 Y-5.4187 Z0.1333
G01 X52.0588 Y-5.4400 Z0.1333
G01 X52.0624 Y-5.4401 Z0.1333
G01 X52.5936 Y-5.4620 Z0.1333
G01 X53.1286 Y-5.4848 Z0.1333
G01 X53.6635 Y-5.5082 Z0.1333
G01 X54.1985 Y-5.5322 Z0.1333
G01 X54.7335 Y-5.5570 Z0.1333
G01 X55.2685 Y-5.5823 Z0.1333
G01 X55.2708 Y-5.5824 Z0.1333
G01 X55.8031 Y-5.6083 Z0.1333
G01 X56.3379 Y-5.6350 Z0.1333
G01 X56.8727 Y-5.6624 Z0.1333
G01 X57.4076 Y-5.6904 Z0.1333
G01 X57.9424 Y-5.7191 Z0.1333
G01 X57.9455 Y-5.7192 Z0.1333
G01 X58.4768 Y-5.7484 Z0.1333
G01 X59.0114 Y-5.7784 Z0.1333
G01 X59.5460 Y-5.8091 Z0.1333
G01 X60.0807 Y-5.8405 Z0.1333
G01 X60.6155 Y-5.8724 Z0.1333
G01 X60.6200 Y-5.8726 Z0.1333
G01 X60.6287 Y-5.8728 Z0.1333
G01 X60.6315 Y-5.8729 Z0.1333
G01 X60.6323 Y-5.8729 Z0.1333
G01 X60.6358 Y-5.8728 Z0.1333
G01 X60.6394 Y-5.8727 Z0.1333
G01 X60.6429 Y-5.8724 Z0.1333
G01 X60.6464 Y-5.8720 Z0.1333
G01 X60.6500 Y-5.8716 Z0.1333
G01 X60.6535 Y-5.8710 Z0.1333
G01 X60.6570 Y-5.8704 Z0.1333
G01 X60.6604 Y-5.8696 Z0.1333
G01 X60.6639 Y-5.8687 Z0.1333
G01 X60.6673 Y-5.8678 Z0.1333
G01 X60.6707 Y-5.8667 Z0.1333
G01 X60.6740 Y-5.8656 Z0.1333
G01 X60.6774 Y-5.8643 Z0.1333
G01 X60.6807 Y-5.8630 Z0.1333
G01 X60.6839 Y-5.8615 Z0.1333
G01 X60.6871 Y-5.8600 Z0.1333
G01 X60.6903 Y-5.8584 Z0.1333
G01 X60.6934 Y-5.8567 Z0.1333
G01 X60.6964 Y-5.8549 Z0.1333
G01 X60.6995 Y-5.8530 Z0.1333
G01 X60.7024 Y-5.8510 Z0.1333
G01 X60.7053 Y-5.8489 Z0.1333
G01 X60.7081 Y-5.8468 Z0.1333
G01 X60.7109 Y-5.8446 Z0.1333
G01 X60.7136 Y-5.8423 Z0.1333
G01 X60.7162 Y-5.8399 Z0.1333
G01 X60.7188 Y-5.8374 Z0.1333
G01 X60.7213 Y-5.8349 Z0.1333
G01 X60.7237 Y-5.8323 Z0.1333
G01 X60.7261 Y-5.8297 Z0.1333
G01 X60.7284 Y-5.8269 Z0.1333
G01 X60.7305 Y-5.8241 Z0.1333
G01 X60.7327 Y-5.8213 Z0.1333
G01 X60.7347 Y-5.8183 Z0.1333
G01 X60.7366 Y-5.8154 Z0.1333
G01 X60.7385 Y-5.8124 Z0.1333
G01 X60.7403 Y-5.8093 Z0.1333
G01 X60.7419 Y-5.8061 Z0.1333
G01 X60.7435 Y-5.8029 Z0.1333
G01 X60.7450 Y-5.7998 Z0.1333
G01 X60.7464 Y-5.7965 Z0.1333
G01 X60.7477 Y-5.7932 Z0.1333
G01 X60.7489 Y-5.7898 Z0.1333
G01 X60.7500 Y-5.7864 Z0.1333
G01 X60.7511 Y-5.7831 Z0.1333
G01 X60.7520 Y-5.7796 Z0.1333
G01 X60.7528 Y-5.7762 Z0.1333
G01 X60.7535 Y-5.7727 Z0.1333
G01 X60.7541 Y-5.7692 Z0.1333
G01 X60.7547 Y-5.7657 Z0.1333
G01 X60.7551 Y-5.7622 Z0.1333
G01 X60.7554 Y-5.7586 Z0.1333
G01 X60.7556 Y-5.7551 Z0.1333
G01 X60.7557 Y-5.7515 Z0.1333
G01 X60.7563 Y-5.7194 Z0.1333
G01 X60.7580 Y-5.6507 Z0.1333
G01 X60.7601 Y-5.5878 Z0.1333
G01 X60.7630 Y-5.5262 Z0.1333
G01 X60.7664 Y-5.4705 Z0.1333
G01 X60.7704 Y-5.4196 Z0.1333
G01 X60.7752 Y-5.3720 Z0.1333
G01 X60.7808 Y-5.3277 Z0.1333
G01 X60.7871 Y-5.2877 Z0.1333
G01 X60.7940 Y-5.2522 Z0.1333
G01 X60.8018 Y-5.2192 Z0.1333
G01 X60.8103 Y-5.1897 Z0.1333
G01 X60.8192 Y-5.1646 Z0.1333
G01 X60.8284 Y-5.1428 Z0.1333
G01 X60.8384 Y-5.1233 Z0.1333
G01 X60.8487 Y-5.1066 Z0.1333
G01 X60.8590 Y-5.0925 Z0.1333
G01 X60.8707 Y-5.0792 Z0.1333
G01 X60.8826 Y-5.0680 Z0.1333
G01 X60.8966 Y-5.0569 Z0.1333
G01 X60.9120 Y-5.0466 Z0.1333
G01 X60.9293 Y-5.0368 Z0.1333
G01 X60.9501 Y-5.0270 Z0.1333
G01 X60.9726 Y-5.0179 Z0.1333
G01 X60.9985 Y-5.0090 Z0.1333
G01 X61.0269 Y-5.0007 Z0.1333
G01 X61.0585 Y-4.9926 Z0.1333
G01 X61.0942 Y-4.9847 Z0.1333
G01 X61.1318 Y-4.9772 Z0.1333
G01 X61.1709 Y-4.9702 Z0.1333
G01 X61.2149 Y-4.9631 Z0.1333
G01 X61.2625 Y-4.9557 Z0.1333
G01 X61.3120 Y-4.9485 Z0.1333
G01 X61.3642 Y-4.9410 Z0.1333
G01 X61.4199 Y-4.9331 Z0.1333
G01 X61.4785 Y-4.9248 Z0.1333
G01 X61.5402 Y-4.9158 Z0.1333
G01 X61.5408 Y-4.9157 Z0.1333
G01 X61.6050 Y-4.9060 Z0.1333
G01 X61.6058 Y-4.9059 Z0.1333
G01 X61.6730 Y-4.8953 Z0.1333
G01 X61.6740 Y-4.8952 Z0.1333
G01 X61.7444 Y-4.8836 Z0.1333
G01 X61.7453 Y-4.8834 Z0.1333
G01 X61.8188 Y-4.8707 Z0.1333
G01 X61.8199 Y-4.8705 Z0.1333
G01 X61.8966 Y-4.8565 Z0.1333
G01 X61.8978 Y-4.8562 Z0.1333
G01 X61.9778 Y-4.8408 Z0.1333
G01 X61.9791 Y-4.8405 Z0.1333
G01 X62.0624 Y-4.8235 Z0.1333
G01 X62.0638 Y-4.8232 Z0.1333
G01 X62.1505 Y-4.8045 Z0.1333
G01 X62.1519 Y-4.8042 Z0.1333
G01 X62.2421 Y-4.7837 Z0.1333
G01 X62.2470 Y-4.7824 Z0.1333
G01 X62.4157 Y-4.7368 Z0.1333
G01 X62.4199 Y-4.7356 Z0.1333
G01 X62.5814 Y-4.6857 Z0.1333
G01 X62.5856 Y-4.6843 Z0.1333
G01 X62.7410 Y-4.6301 Z0.1333
G01 X62.7452 Y-4.6286 Z0.1333
G01 X62.8939 Y-4.5707 Z0.1333
G01 X62.8981 Y-4.5689 Z0.1333
G01 X63.0416 Y-4.5067 Z0.1333
G01 X63.0458 Y-4.5048 Z0.1333
G01 X63.1846 Y-4.4383 Z0.1333
G01 X63.1889 Y-4.4362 Z0.1333
G01 X63.3206 Y-4.3668 Z0.1333
G01 X63.3247 Y-4.3645 Z0.1333
G01 X63.4514 Y-4.2914 Z0.1333
G01 X63.4556 Y-4.2890 Z0.1333
G01 X63.5786 Y-4.2115 Z0.1333
G01 X63.5826 Y-4.2089 Z0.1333
G01 X63.6992 Y-4.1290 Z0.1333
G01 X63.7031 Y-4.1262 Z0.1333
G01 X63.8161 Y-4.0422 Z0.1333
G01 X63.8199 Y-4.0393 Z0.1333
G01 X63.9272 Y-3.9528 Z0.1333
G01 X63.9309 Y-3.9498 Z0.1333
G01 X64.0349 Y-3.8591 Z0.1333
G01 X64.0384 Y-3.8559 Z0.1333
G01 X64.1371 Y-3.7629 Z0.1333
G01 X64.1405 Y-3.7596 Z0.1333
G01 X64.2360 Y-3.6625 Z0.1333
G01 X64.2391 Y-3.6592 Z0.1333
G01 X64.3292 Y-3.5605 Z0.1333
G01 X64.3323 Y-3.5570 Z0.1333
G01 X64.4200 Y-3.4535 Z0.1333
G01 X64.4229 Y-3.4500 Z0.1333
G01 X64.5062 Y-3.3438 Z0.1333
G01 X64.5089 Y-3.3403 Z0.1333
G01 X64.5883 Y-3.2315 Z0.1333
G01 X64.5908 Y-3.2279 Z0.1333
G01 X64.6664 Y-3.1161 Z0.1333
G01 X64.6687 Y-3.1125 Z0.1333
G01 X64.7410 Y-2.9974 Z0.1333
G01 X64.7431 Y-2.9938 Z0.1333
G01 X64.8116 Y-2.8762 Z0.1333
G01 X64.8136 Y-2.8725 Z0.1333
G01 X64.8782 Y-2.7524 Z0.1333
G01 X64.8800 Y-2.7489 Z0.1333
G01 X64.9416 Y-2.6251 Z0.1333
G01 X64.9432 Y-2.6216 Z0.1333
G01 X65.0015 Y-2.4945 Z0.1333
G01 X65.0031 Y-2.4911 Z0.1333
G01 X65.0568 Y-2.3639 Z0.1333
G01 X65.0581 Y-2.3605 Z0.1333
G01 X65.1096 Y-2.2278 Z0.1333
G01 X65.1108 Y-2.2245 Z0.1333
G01 X65.1579 Y-2.0918 Z0.1333
G01 X65.1590 Y-2.0885 Z0.1333
G01 X65.2027 Y-1.9535 Z0.1333
G01 X65.2037 Y-1.9503 Z0.1333
G01 X65.2446 Y-1.8110 Z0.1333
G01 X65.2455 Y-1.8079 Z0.1333
G01 X65.2826 Y-1.6679 Z0.1333
G01 X65.2834 Y-1.6648 Z0.1333
G01 X65.3171 Y-1.5229 Z0.1333
G01 X65.3177 Y-1.5199 Z0.1333
G01 X65.3480 Y-1.3763 Z0.1333
G01 X65.3486 Y-1.3735 Z0.1333
G01 X65.3757 Y-1.2281 Z0.1333
G01 X65.3762 Y-1.2252 Z0.1333
G01 X65.4001 Y-1.0768 Z0.1333
G01 X65.4005 Y-1.0740 Z0.1333
G01 X65.4208 Y-0.9275 Z0.1333
G01 X65.4211 Y-0.9247 Z0.1333
G01 X65.4385 Y-0.7734 Z0.1333
G01 X65.4388 Y-0.7707 Z0.1333
G01 X65.4524 Y-0.6241 Z0.1333
G01 X65.4526 Y-0.6215 Z0.1333
G01 X65.4637 Y-0.4666 Z0.1333
G01 X65.4638 Y-0.4640 Z0.1333
G01 X65.4714 Y-0.3118 Z0.1333
G01 X65.4716 Y-0.3093 Z0.1333
G01 X65.4761 Y-0.1570 Z0.1333
G01 X65.4762 Y-0.1546 Z0.1333
G01 X65.4777 Y-0.0012 Z0.1333
G01 X65.4777 Y0.0012 Z0.1333
G01 X65.4762 Y0.1546 Z0.1333
G01 X65.4761 Y0.1570 Z0.1333
G01 X65.4716 Y0.3093 Z0.1333
G01 X65.4714 Y0.3118 Z0.1333
G01 X65.4638 Y0.4640 Z0.1333
G01 X65.4637 Y0.4666 Z0.1333
G01 X65.4527 Y0.6203 Z0.1333
G01 X65.4525 Y0.6230 Z0.1333
G01 X65.4388 Y0.7707 Z0.1333
G01 X65.4385 Y0.7734 Z0.1333
G01 X65.4211 Y0.9247 Z0.1333
G01 X65.4208 Y0.9275 Z0.1333
G01 X65.4005 Y1.0740 Z0.1333
G01 X65.4001 Y1.0768 Z0.1333
G01 X65.3762 Y1.2252 Z0.1333
G01 X65.3757 Y1.2281 Z0.1333
G01 X65.3486 Y1.3735 Z0.1333
G01 X65.3480 Y1.3763 Z0.1333
G01 X65.3177 Y1.5199 Z0.1333
G01 X65.3171 Y1.5229 Z0.1333
G01 X65.2834 Y1.6648 Z0.1333
G01 X65.2826 Y1.6679 Z0.1333
G01 X65.2455 Y1.8079 Z0.1333
G01 X65.2446 Y1.8110 Z0.1333
G01 X65.2037 Y1.9503 Z0.1333
G01 X65.2027 Y1.9535 Z0.1333
G01 X65.1590 Y2.0885 Z0.1333
G01 X65.1579 Y2.0918 Z0.1333
G01 X65.1108 Y2.2245 Z0.1333
G01 X65.1096 Y2.2278 Z0.1333
G01 X65.0581 Y2.3605 Z0.1333
G01 X65.0568 Y2.3639 Z0.1333
G01 X65.0031 Y2.4911 Z0.1333
G01 X65.0015 Y2.4945 Z0.1333
G01 X64.9432 Y2.6216 Z0.1333
G01 X64.9416 Y2.6251 Z0.1333
G01 X64.8800 Y2.7489 Z0.1333
G01 X64.8782 Y2.7524 Z0.1333
G01 X64.8136 Y2.8725 Z0.1333
G01 X64.8116 Y2.8762 Z0.1333
G01 X64.7431 Y2.9938 Z0.1333
G01 X64.7410 Y2.9974 Z0.1333
G01 X64.6687 Y3.1125 Z0.1333
G01 X64.6664 Y3.1161 Z0.1333
G01 X64.5908 Y3.2279 Z0.1333
G01 X64.5883 Y3.2315 Z0.1333
G01 X64.5089 Y3.3403 Z0.1333
G01 X64.5062 Y3.3438 Z0.1333
G01 X64.4229 Y3.4500 Z0.1333
G01 X64.4200 Y3.4535 Z0.1333
G01 X64.3323 Y3.5570 Z0.1333
G01 X64.3292 Y3.5605 Z0.1333
G01 X64.2391 Y3.6592 Z0.1333
G01 X64.2360 Y3.6625 Z0.1333
G01 X64.1405 Y3.7596 Z0.1333
G01 X64.1371 Y3.7629 Z0.1333
G01 X64.0384 Y3.8559 Z0.1333
G01 X64.0349 Y3.8591 Z0.1333
G01 X63.9309 Y3.9498 Z0.1333
G01 X63.9272 Y3.9528 Z0.1333
G01 X63.8199 Y4.0393 Z0.1333
G01 X63.8161 Y4.0422 Z0.1333
G01 X63.7031 Y4.1262 Z0.1333
G01 X63.6992 Y4.1290 Z0.1333
G01 X63.5826 Y4.2089 Z0.1333
G01 X63.5786 Y4.2115 Z0.1333
G01 X63.4556 Y4.2890 Z0.1333
G01 X63.4514 Y4.2914 Z0.1333
G01 X63.3247 Y4.3645 Z0.1333
G01 X63.3206 Y4.3668 Z0.1333
G01 X63.1889 Y4.4362 Z0.1333
G01 X63.1846 Y4.4383 Z0.1333
G01 X63.0458 Y4.5048 Z0.1333
G01 X63.0416 Y4.5067 Z0.1333
G01 X62.8981 Y4.5689 Z0.1333
G01 X62.8939 Y4.5707 Z0.1333
G01 X62.7452 Y4.6286 Z0.1333
G01 X62.7410 Y4.6301 Z0.1333
G01 X62.5856 Y4.6843 Z0.1333
G01 X62.5814 Y4.6857 Z0.1333
G01 X62.4199 Y4.7356 Z0.1333
G01 X62.4157 Y4.7368 Z0.1333
G01 X62.2470 Y4.7824 Z0.1333
G01 X62.2421 Y4.7837 Z0.1333
G01 X62.1519 Y4.8042 Z0.1333
G01 X62.1505 Y4.8045 Z0.1333
G01 X62.0638 Y4.8232 Z0.1333
G01 X62.0624 Y4.8235 Z0.1333
G01 X61.9791 Y4.8405 Z0.1333
G01 X61.9778 Y4.8408 Z0.1333
G01 X61.8978 Y4.8562 Z0.1333
G01 X61.8966 Y4.8565 Z0.1333
G01 X61.8199 Y4.8705 Z0.1333
G01 X61.8188 Y4.8707 Z0.1333
G01 X61.7453 Y4.8834 Z0.1333
G01 X61.7444 Y4.8836 Z0.1333
G01 X61.6740 Y4.8952 Z0.1333
G01 X61.6730 Y4.8953 Z0.1333
G01 X61.6058 Y4.9059 Z0.1333
G01 X61.6050 Y4.9060 Z0.1333
G01 X61.5408 Y4.9157 Z0.1333
G01 X61.5402 Y4.9158 Z0.1333
G01 X61.4788 Y4.9247 Z0.1333
G01 X61.4201 Y4.9331 Z0.1333
G01 X61.3642 Y4.9410 Z0.1333
G01 X61.3120 Y4.9485 Z0.1333
G01 X61.2625 Y4.9557 Z0.1333
G01 X61.2149 Y4.9631 Z0.1333
G01 X61.1709 Y4.9702 Z0.1333
G01 X61.1318 Y4.9772 Z0.1333
G01 X61.0942 Y4.9847 Z0.1333
G01 X61.0585 Y4.9926 Z0.1333
G01 X61.0269 Y5.0007 Z0.1333
G01 X60.9985 Y5.0090 Z0.1333
G01 X60.9726 Y5.0179 Z0.1333
G01 X60.9501 Y5.0270 Z0.1333
G01 X60.9293 Y5.0368 Z0.1333
G01 X60.9120 Y5.0466 Z0.1333
G01 X60.8966 Y5.0569 Z0.1333
G01 X60.8826 Y5.0680 Z0.1333
G01 X60.8707 Y5.0792 Z0.1333
G01 X60.8590 Y5.0925 Z0.1333
G01 X60.8487 Y5.1066 Z0.1333
G01 X60.8384 Y5.1233 Z0.1333
G01 X60.8284 Y5.1428 Z0.1333
G01 X60.8192 Y5.1646 Z0.1333
G01 X60.8105 Y5.1893 Z0.1333
G01 X60.8018 Y5.2192 Z0.1333
G01 X60.7940 Y5.2521 Z0.1333
G01 X60.7871 Y5.2874 Z0.1333
G01 X60.7809 Y5.3273 Z0.1333
G01 X60.7752 Y5.3720 Z0.1333
G01 X60.7705 Y5.4187 Z0.1333
G01 X60.7664 Y5.4702 Z0.1333
G01 X60.7630 Y5.5262 Z0.1333
G01 X60.7601 Y5.5878 Z0.1333
G01 X60.7580 Y5.6507 Z0.1333
G01 X60.7579 Y5.6519 Z0.1333
G01 X60.7563 Y5.7194 Z0.1333
G01 X60.7557 Y5.7515 Z0.1333
G01 X60.7556 Y5.7551 Z0.1333
G01 X60.7554 Y5.7586 Z0.1333
G01 X60.7551 Y5.7622 Z0.1333
G01 X60.7547 Y5.7657 Z0.1333
G01 X60.7541 Y5.7692 Z0.1333
G01 X60.7535 Y5.7727 Z0.1333
G01 X60.7528 Y5.7762 Z0.1333
G01 X60.7520 Y5.7796 Z0.1333
G01 X60.7511 Y5.7831 Z0.1333
G01 X60.7500 Y5.7864 Z0.1333
G01 X60.7489 Y5.7898 Z0.1333
G01 X60.7477 Y5.7932 Z0.1333
G01 X60.7464 Y5.7965 Z0.1333
G01 X60.7450 Y5.7998 Z0.1333
G01 X60.7435 Y5.8029 Z0.1333
G01 X60.7419 Y5.8061 Z0.1333
G01 X60.7403 Y5.8093 Z0.1333
G01 X60.7385 Y5.8124 Z0.1333
G01 X60.7366 Y5.8154 Z0.1333
G01 X60.7347 Y5.8183 Z0.1333
G01 X60.7327 Y5.8213 Z0.1333
G01 X60.7305 Y5.8241 Z0.1333
G01 X60.7284 Y5.8269 Z0.1333
G01 X60.7261 Y5.8297 Z0.1333
G01 X60.7237 Y5.8323 Z0.1333
G01 X60.7213 Y5.8349 Z0.1333
G01 X60.7188 Y5.8374 Z0.1333
G01 X60.7162 Y5.8399 Z0.1333
G01 X60.7136 Y5.8423 Z0.1333
G01 X60.7109 Y5.8446 Z0.1333
G01 X60.7081 Y5.8468 Z0.1333
G01 X60.7053 Y5.8489 Z0.1333
G01 X60.7024 Y5.8510 Z0.1333
G01 X60.6995 Y5.8530 Z0.1333
G01 X60.6964 Y5.8549 Z0.1333
G01 X60.6934 Y5.8567 Z0.1333
G01 X60.6903 Y5.8584 Z0.1333
G01 X60.6871 Y5.8600 Z0.1333
G01 X60.6839 Y5.8615 Z0.1333
G01 X60.6807 Y5.8630 Z0.1333
G01 X60.6774 Y5.8643 Z0.1333
G01 X60.6740 Y5.8656 Z0.1333
G01 X60.6707 Y5.8667 Z0.1333
G01 X60.6673 Y5.8678 Z0.1333
G01 X60.6639 Y5.8687 Z0.1333
G01 X60.6604 Y5.8696 Z0.1333
G01 X60.6570 Y5.8704 Z0.1333
G01 X60.6535 Y5.8710 Z0.1333
G01 X60.6500 Y5.8716 Z0.1333
G01 X60.6464 Y5.8720 Z0.1333
G01 X60.6429 Y5.8724 Z0.1333
G01 X60.6394 Y5.8727 Z0.1333
G01 X60.6358 Y5.8728 Z0.1333
G01 X60.6323 Y5.8729 Z0.1333
G01 X60.6315 Y5.8729 Z0.1333
G01 X60.6287 Y5.8728 Z0.1333
G01 X60.6200 Y5.8726 Z0.1333
G01 X60.6155 Y5.8724 Z0.1333
G01 X60.0807 Y5.8404 Z0.1333
G01 X59.5460 Y5.8091 Z0.1333
G01 X59.0114 Y5.7784 Z0.1333
G01 X58.4768 Y5.7484 Z0.1333
G01 X57.9455 Y5.7192 Z0.1333
G01 X57.9424 Y5.7191 Z0.1333
G01 X57.4076 Y5.6904 Z0.1333
G01 X56.8727 Y5.6624 Z0.1333
G01 X56.3379 Y5.6350 Z0.1333
G01 X55.8031 Y5.6083 Z0.1333
G01 X55.2708 Y5.5824 Z0.1333
G01 X55.2685 Y5.5823 Z0.1333
G01 X54.7335 Y5.5569 Z0.1333
G01 X54.1985 Y5.5322 Z0.1333
G01 X53.6635 Y5.5082 Z0.1333
G01 X53.1286 Y5.4848 Z0.1333
G01 X52.5936 Y5.4620 Z0.1333
G01 X52.0625 Y5.4401 Z0.1333
G01 X52.0588 Y5.4400 Z0.1333
G01 X51.5235 Y5.4187 Z0.1333
G01 X50.9884 Y5.3979 Z0.1333
G01 X50.4533 Y5.3778 Z0.1333
G01 X49.9182 Y5.3584 Z0.1333
G01 X49.3831 Y5.3396 Z0.1333
G01 X48.8479 Y5.3215 Z0.1333
G01 X48.3163 Y5.3042 Z0.1333
G01 X48.3130 Y5.3041 Z0.1333
G01 X47.7776 Y5.2874 Z0.1333
G01 X47.6377 Y5.2831 Z0.1333
G01 X47.2422 Y5.2712 Z0.1333
G01 X46.8503 Y5.2599 Z0.1333
G01 X46.7070 Y5.2558 Z0.1333
G01 X46.1717 Y5.2410 Z0.1333
G01 X46.0629 Y5.2381 Z0.1333
G01 X45.6364 Y5.2269 Z0.1333
G01 X45.2755 Y5.2178 Z0.1333
G01 X45.1011 Y5.2135 Z0.1333
G01 X44.5658 Y5.2006 Z0.1333
G01 X44.0305 Y5.1885 Z0.1333
G01 X43.4951 Y5.1770 Z0.1333
G01 X42.9598 Y5.1662 Z0.1333
G01 X42.4284 Y5.1561 Z0.1333
G01 X42.4246 Y5.1561 Z0.1333
G01 X41.8890 Y5.1466 Z0.1333
G01 X41.3536 Y5.1378 Z0.1333
G01 X40.8181 Y5.1297 Z0.1333
G01 X40.2827 Y5.1222 Z0.1333
G01 X39.7473 Y5.1153 Z0.1333
G01 X39.2118 Y5.1092 Z0.1333
G01 X38.6764 Y5.1037 Z0.1333
G01 X38.1410 Y5.0988 Z0.1333
G01 X37.6055 Y5.0946 Z0.1333
G01 X37.0700 Y5.0911 Z0.1333
G01 X36.5346 Y5.0883 Z0.1333
G01 X35.9991 Y5.0861 Z0.1333
G01 X35.4636 Y5.0845 Z0.1333
G01 X34.9281 Y5.0837 Z0.1333
G01 X34.3929 Y5.0835 Z0.1333
G01 X33.8575 Y5.0839 Z0.1333
G01 X33.3220 Y5.0850 Z0.1333
G01 X32.7865 Y5.0868 Z0.1333
G01 X32.2511 Y5.0892 Z0.1333
G01 X31.7156 Y5.0924 Z0.1333
G01 X31.1801 Y5.0961 Z0.1333
G01 X30.6447 Y5.1006 Z0.1333
G01 X30.1092 Y5.1057 Z0.1333
G01 X29.5738 Y5.1114 Z0.1333
G01 X29.0383 Y5.1179 Z0.1333
G01 X28.5029 Y5.1249 Z0.1333
G01 X27.9675 Y5.1327 Z0.1333
G01 X27.4321 Y5.1411 Z0.1333
G01 X26.8965 Y5.1501 Z0.1333
G01 X26.3610 Y5.1599 Z0.1333
G01 X26.3575 Y5.1599 Z0.1333
G01 X25.8259 Y5.1702 Z0.1333
G01 X25.2906 Y5.1813 Z0.1333
G01 X24.7552 Y5.1930 Z0.1333
G01 X24.2199 Y5.2054 Z0.1333
G01 X23.6846 Y5.2185 Z0.1333
G01 X23.1492 Y5.2322 Z0.1333
G01 X22.6140 Y5.2465 Z0.1333
G01 X22.0787 Y5.2616 Z0.1333
G01 X21.5435 Y5.2773 Z0.1333
G01 X21.0079 Y5.2936 Z0.1333
G01 X21.0044 Y5.2937 Z0.1333
G01 X20.8661 Y5.2980 Z0.1333
G01 X20.4730 Y5.3106 Z0.1333
G01 X20.0787 Y5.3236 Z0.1333
G01 X19.9378 Y5.3283 Z0.1333
G01 X19.4027 Y5.3466 Z0.1333
G01 X19.2913 Y5.3505 Z0.1333
G01 X18.8675 Y5.3656 Z0.1333
G01 X18.5039 Y5.3790 Z0.1333
G01 X18.3324 Y5.3853 Z0.1333
G01 X17.7974 Y5.4056 Z0.1333
G01 X17.2621 Y5.4266 Z0.1333
G01 X16.7269 Y5.4483 Z0.1333
G01 X16.7234 Y5.4484 Z0.1333
G01 X16.1922 Y5.4705 Z0.1333
G01 X15.6572 Y5.4935 Z0.1333
G01 X15.1223 Y5.5172 Z0.1333
G01 X14.5874 Y5.5415 Z0.1333
G01 X14.0523 Y5.5664 Z0.1333
G01 X13.5173 Y5.5920 Z0.1333
G01 X13.5152 Y5.5921 Z0.1333
G01 X12.9828 Y5.6183 Z0.1333
G01 X12.4480 Y5.6453 Z0.1333
G01 X11.9132 Y5.6729 Z0.1333
G01 X11.3783 Y5.7012 Z0.1333
G01 X10.8435 Y5.7301 Z0.1333
G01 X10.8405 Y5.7302 Z0.1333
G01 X10.3091 Y5.7596 Z0.1333
G01 X9.7745 Y5.7899 Z0.1333
G01 X9.2399 Y5.8209 Z0.1333
G01 X8.7052 Y5.8524 Z0.1333
G01 X8.1706 Y5.8847 Z0.1333
G01 X8.1688 Y5.8848 Z0.1333
G01 X7.6364 Y5.9175 Z0.1333
G01 X7.1017 Y5.9511 Z0.1333
G01 X7.0973 Y5.9513 Z0.1333
G01 X7.0886 Y5.9516 Z0.1333
G01 X7.0829 Y5.9516 Z0.1333
G01 X7.0809 Y5.9515 Z0.1333
G01 X7.0774 Y5.9514 Z0.1333
G01 X7.0738 Y5.9512 Z0.1333
G01 X7.0704 Y5.9509 Z0.1333
G01 X7.0669 Y5.9505 Z0.1333
G01 X7.0635 Y5.9500 Z0.1333
G01 X7.0600 Y5.9494 Z0.1333
G01 X7.0566 Y5.9487 Z0.1333
G01 X7.0532 Y5.9479 Z0.1333
G01 X7.0498 Y5.9470 Z0.1333
G01 X7.0464 Y5.9460 Z0.1333
G01 X7.0431 Y5.9449 Z0.1333
G01 X7.0398 Y5.9437 Z0.1333
G01 X7.0366 Y5.9424 Z0.1333
G01 X7.0333 Y5.9411 Z0.1333
G01 X7.0301 Y5.9396 Z0.1333
G01 X7.0270 Y5.9381 Z0.1333
G01 X7.0239 Y5.9364 Z0.1333
G01 X7.0209 Y5.9347 Z0.1333
G01 X7.0179 Y5.9329 Z0.1333
G01 X7.0150 Y5.9310 Z0.1333
G01 X7.0120 Y5.9290 Z0.1333
G01 X7.0092 Y5.9270 Z0.1333
G01 X7.0064 Y5.9248 Z0.1333
G01 X7.0037 Y5.9226 Z0.1333
G01 X7.0011 Y5.9203 Z0.1333
G01 X6.9985 Y5.9180 Z0.1333
G01 X6.9960 Y5.9155 Z0.1333
G01 X6.9936 Y5.9130 Z0.1333
G01 X6.9912 Y5.9105 Z0.1333
G01 X6.9889 Y5.9078 Z0.1333
G01 X6.9867 Y5.9051 Z0.1333
G01 X6.9845 Y5.9024 Z0.1333
G01 X6.9825 Y5.8995 Z0.1333
G01 X6.9805 Y5.8966 Z0.1333
G01 X6.9786 Y5.8937 Z0.1333
G01 X6.9768 Y5.8907 Z0.1333
G01 X6.9750 Y5.8877 Z0.1333
G01 X6.9734 Y5.8846 Z0.1333
G01 X6.9718 Y5.8814 Z0.1333
G01 X6.9704 Y5.8783 Z0.1333
G01 X6.9690 Y5.8751 Z0.1333
G01 X6.9677 Y5.8718 Z0.1333
G01 X6.9665 Y5.8685 Z0.1333
G01 X6.9654 Y5.8652 Z0.1333
G01 X6.9644 Y5.8618 Z0.1333
G01 X6.9635 Y5.8585 Z0.1333
G01 X6.9627 Y5.8551 Z0.1333
G01 X6.9620 Y5.8516 Z0.1333
G01 X6.9614 Y5.8482 Z0.1333
G01 X6.9609 Y5.8448 Z0.1333
G01 X6.9604 Y5.8412 Z0.1333
G01 X6.9601 Y5.8378 Z0.1333
G01 X6.9599 Y5.8343 Z0.1333
G01 X6.9598 Y5.8308 Z0.1333
G01 X6.9590 Y5.7965 Z0.1333
G01 X6.9568 Y5.7271 Z0.1333
G01 X6.9541 Y5.6630 Z0.1333
G01 X6.9508 Y5.6028 Z0.1333
G01 X6.9465 Y5.5438 Z0.1333
G01 X6.9420 Y5.4936 Z0.1333
G01 X6.9419 Y5.4928 Z0.1333
G01 X6.9361 Y5.4427 Z0.1333
G01 X6.9298 Y5.3979 Z0.1333
G01 X6.9228 Y5.3578 Z0.1333
G01 X6.9146 Y5.3192 Z0.1333
G01 X6.9059 Y5.2856 Z0.1333
G01 X6.8966 Y5.2558 Z0.1333
G01 X6.8866 Y5.2289 Z0.1333
G01 X6.8762 Y5.2060 Z0.1333
G01 X6.8650 Y5.1850 Z0.1333
G01 X6.8538 Y5.1676 Z0.1333
G01 X6.8416 Y5.1519 Z0.1333
G01 X6.8290 Y5.1381 Z0.1333
G01 X6.8155 Y5.1258 Z0.1333
G01 X6.8004 Y5.1142 Z0.1333
G01 X6.7835 Y5.1034 Z0.1333
G01 X6.7646 Y5.0933 Z0.1333
G01 X6.7431 Y5.0838 Z0.1333
G01 X6.7192 Y5.0749 Z0.1333
G01 X6.6919 Y5.0664 Z0.1333
G01 X6.6627 Y5.0589 Z0.1333
G01 X6.6287 Y5.0516 Z0.1333
G01 X6.5933 Y5.0452 Z0.1333
G01 X6.5533 Y5.0392 Z0.1333
G01 X6.5134 Y5.0340 Z0.1333
G01 X6.4664 Y5.0289 Z0.1333
G01 X6.4194 Y5.0244 Z0.1333
G01 X6.3688 Y5.0201 Z0.1333
G01 X6.3140 Y5.0159 Z0.1333
G01 X6.2571 Y5.0118 Z0.1333
G01 X6.1972 Y5.0076 Z0.1333
G01 X6.1340 Y5.0032 Z0.1333
G01 X6.0678 Y4.9985 Z0.1333
G01 X6.0673 Y4.9985 Z0.1333
G01 X5.9983 Y4.9933 Z0.1333
G01 X5.9978 Y4.9933 Z0.1333
G01 X5.9256 Y4.9876 Z0.1333
G01 X5.9250 Y4.9875 Z0.1333
G01 X5.8497 Y4.9812 Z0.1333
G01 X5.8488 Y4.9811 Z0.1333
G01 X5.7703 Y4.9740 Z0.1333
G01 X5.7694 Y4.9739 Z0.1333
G01 X5.6877 Y4.9659 Z0.1333
G01 X5.6867 Y4.9657 Z0.1333
G01 X5.6016 Y4.9566 Z0.1333
G01 X5.6005 Y4.9565 Z0.1333
G01 X5.5120 Y4.9462 Z0.1333
G01 X5.5109 Y4.9461 Z0.1333
G01 X5.4190 Y4.9346 Z0.1333
G01 X5.4152 Y4.9341 Z0.1333
G01 X5.1713 Y4.8958 Z0.1333
G01 X5.1680 Y4.8953 Z0.1333
G01 X4.9313 Y4.8516 Z0.1333
G01 X4.9279 Y4.8509 Z0.1333
G01 X4.6998 Y4.8022 Z0.1333
G01 X4.6964 Y4.8014 Z0.1333
G01 X4.4779 Y4.7483 Z0.1333
G01 X4.4744 Y4.7474 Z0.1333
G01 X4.2618 Y4.6889 Z0.1333
G01 X4.2582 Y4.6879 Z0.1333
G01 X4.0535 Y4.6249 Z0.1333
G01 X4.0498 Y4.6237 Z0.1333
G01 X3.8550 Y4.5571 Z0.1333
G01 X3.8513 Y4.5558 Z0.1333
G01 X3.6633 Y4.4848 Z0.1333
G01 X3.6596 Y4.4833 Z0.1333
G01 X3.4787 Y4.4082 Z0.1333
G01 X3.4749 Y4.4066 Z0.1333
G01 X3.3020 Y4.3279 Z0.1333
G01 X3.2983 Y4.3261 Z0.1333
G01 X3.1316 Y4.2434 Z0.1333
G01 X3.1278 Y4.2414 Z0.1333
G01 X2.9692 Y4.1557 Z0.1333
G01 X2.9655 Y4.1536 Z0.1333
G01 X2.8132 Y4.0643 Z0.1333
G01 X2.8094 Y4.0620 Z0.1333
G01 X2.6644 Y3.9699 Z0.1333
G01 X2.6607 Y3.9674 Z0.1333
G01 X2.5210 Y3.8714 Z0.1333
G01 X2.5174 Y3.8688 Z0.1333
G01 X2.3855 Y3.7709 Z0.1333
G01 X2.3819 Y3.7681 Z0.1333
G01 X2.2555 Y3.6668 Z0.1333
G01 X2.2519 Y3.6638 Z0.1333
G01 X2.1308 Y3.5591 Z0.1333
G01 X2.1274 Y3.5561 Z0.1333
G01 X2.0135 Y3.4500 Z0.1333
G01 X2.0102 Y3.4468 Z0.1333
G01 X1.9015 Y3.3377 Z0.1333
G01 X1.8983 Y3.3344 Z0.1333
G01 X1.7940 Y3.2216 Z0.1333
G01 X1.7910 Y3.2182 Z0.1333
G01 X1.6935 Y3.1045 Z0.1333
G01 X1.6905 Y3.1009 Z0.1333
G01 X1.5974 Y2.9838 Z0.1333
G01 X1.5946 Y2.9803 Z0.1333
G01 X1.5067 Y2.8609 Z0.1333
G01 X1.5040 Y2.8572 Z0.1333
G01 X1.4209 Y2.7353 Z0.1333
G01 X1.4185 Y2.7316 Z0.1333
G01 X1.3409 Y2.6086 Z0.1333
G01 X1.3387 Y2.6048 Z0.1333
G01 X1.2644 Y2.4772 Z0.1333
G01 X1.2622 Y2.4734 Z0.1333
G01 X1.1938 Y2.3456 Z0.1333
G01 X1.1919 Y2.3418 Z0.1333
G01 X1.1281 Y2.2122 Z0.1333
G01 X1.1263 Y2.2084 Z0.1333
G01 X1.0662 Y2.0748 Z0.1333
G01 X1.0646 Y2.0709 Z0.1333
G01 X1.0098 Y1.9372 Z0.1333
G01 X1.0083 Y1.9335 Z0.1333
G01 X0.9572 Y1.7962 Z0.1333
G01 X0.9558 Y1.7925 Z0.1333
G01 X0.9094 Y1.6544 Z0.1333
G01 X0.9083 Y1.6507 Z0.1333
G01 X0.8658 Y1.5097 Z0.1333
G01 X0.8648 Y1.5061 Z0.1333
G01 X0.8268 Y1.3646 Z0.1333
G01 X0.8259 Y1.3610 Z0.1333
G01 X0.7922 Y1.2178 Z0.1333
G01 X0.7914 Y1.2143 Z0.1333
G01 X0.7617 Y1.0695 Z0.1333
G01 X0.7611 Y1.0659 Z0.1333
G01 X0.7355 Y0.9194 Z0.1333
G01 X0.7349 Y0.9160 Z0.1333
G01 X0.7135 Y0.7690 Z0.1333
G01 X0.7130 Y0.7656 Z0.1333
G01 X0.6955 Y0.6170 Z0.1333
G01 X0.6952 Y0.6137 Z0.1333
G01 X0.6815 Y0.4626 Z0.1333
G01 X0.6812 Y0.4593 Z0.1333
G01 X0.6718 Y0.3112 Z0.1333
G01 X0.6716 Y0.3080 Z0.1333
G01 X0.6659 Y0.1551 Z0.1333
G01 X0.6658 Y0.1520 Z0.1333
G01 X0.6639 Y0.0015 Z0.1333
G01 X0.6639 Y-0.0015 Z0.1333
G01 X0.6639 Y-0.0015 Z-0.0100
G01 X0.6658 Y-0.1520 Z-0.0100
G01 X0.6659 Y-0.1551 Z-0.0100
G01 X0.6716 Y-0.3080 Z-0.0100
G01 X0.6718 Y-0.3112 Z-0.0100
G01 X0.6812 Y-0.4593 Z-0.0100
G01 X0.6815 Y-0.4626 Z-0.0100
G01 X0.6952 Y-0.6137 Z-0.0100
G01 X0.6955 Y-0.6170 Z-0.0100
G01 X0.7131 Y-0.7662 Z-0.0100
G01 X0.7136 Y-0.7696 Z-0.0100
G01 X0.7349 Y-0.9160 Z-0.0100
G01 X0.7355 Y-0.9194 Z-0.0100
G01 X0.7611 Y-1.0659 Z-0.0100
G01 X0.7617 Y-1.0695 Z-0.0100
G01 X0.7914 Y-1.2143 Z-0.0100
G01 X0.7922 Y-1.2178 Z-0.0100
G01 X0.8259 Y-1.3610 Z-0.0100
G01 X0.8268 Y-1.3646 Z-0.0100
G01 X0.8648 Y-1.5061 Z-0.0100
G01 X0.8658 Y-1.5097 Z-0.0100
G01 X0.9083 Y-1.6507 Z-0.0100
G01 X0.9094 Y-1.6544 Z-0.0100
G01 X0.9558 Y-1.7925 Z-0.0100
G01 X0.9572 Y-1.7962 Z-0.0100
G01 X1.0083 Y-1.9335 Z-0.0100
G01 X1.0098 Y-1.9372 Z-0.0100
G01 X1.0646 Y-2.0709 Z-0.0100
G01 X1.0662 Y-2.0748 Z-0.0100
G01 X1.1263 Y-2.2084 Z-0.0100
G01 X1.1281 Y-2.2122 Z-0.0100
G01 X1.1919 Y-2.3418 Z-0.0100
G01 X1.1938 Y-2.3456 Z-0.0100
G01 X1.2622 Y-2.4734 Z-0.0100
G01 X1.2644 Y-2.4772 Z-0.0100
G01 X1.3387 Y-2.6048 Z-0.0100
G01 X1.3409 Y-2.6086 Z-0.0100
G01 X1.4185 Y-2.7316 Z-0.0100
G01 X1.4209 Y-2.7353 Z-0.0100
G01 X1.5040 Y-2.8572 Z-0.0100
G01 X1.5067 Y-2.8609 Z-0.0100
G01 X1.5946 Y-2.9803 Z-0.0100
G01 X1.5974 Y-2.9838 Z-0.0100
G01 X1.6905 Y-3.1009 Z-0.0100
G01 X1.6935 Y-3.1045 Z-0.0100
G01 X1.7910 Y-3.2182 Z-0.0100
G01 X1.7940 Y-3.2216 Z-0.0100
G01 X1.8983 Y-3.3344 Z-0.0100
G01 X1.9015 Y-3.3377 Z-0.0100
G01 X2.0102 Y-3.4468 Z-0.0100
G01 X2.0135 Y-3.4500 Z-0.0100
G01 X2.1277 Y-3.5563 Z-0.0100
G01 X2.1311 Y-3.5593 Z-0.0100
G01 X2.2519 Y-3.6638 Z-0.0100
G01 X2.2555 Y-3.6668 Z-0.0100
G01 X2.3819 Y-3.7681 Z-0.0100
G01 X2.3855 Y-3.7709 Z-0.0100
G01 X2.5174 Y-3.8688 Z-0.0100
G01 X2.5210 Y-3.8714 Z-0.0100
G01 X2.6607 Y-3.9674 Z-0.0100
G01 X2.6644 Y-3.9699 Z-0.0100
G01 X2.8094 Y-4.0620 Z-0.0100
G01 X2.8132 Y-4.0643 Z-0.0100
G01 X2.9655 Y-4.1536 Z-0.0100
G01 X2.9692 Y-4.1557 Z-0.0100
G01 X3.1278 Y-4.2414 Z-0.0100
G01 X3.1316 Y-4.2434 Z-0.0100
G01 X3.2983 Y-4.3261 Z-0.0100
G01 X3.3020 Y-4.3279 Z-0.0100
G01 X3.4749 Y-4.4066 Z-0.0100
G01 X3.4787 Y-4.4082 Z-0.0100
G01 X3.6596 Y-4.4833 Z-0.0100
G01 X3.6633 Y-4.4848 Z-0.0100
G01 X3.8513 Y-4.5558 Z-0.0100
G01 X3.8550 Y-4.5571 Z-0.0100
G01 X4.0498 Y-4.6237 Z-0.0100
G01 X4.0535 Y-4.6249 Z-0.0100
G01 X4.2582 Y-4.6879 Z-0.0100
G01 X4.2618 Y-4.6889 Z-0.0100
G01 X4.4744 Y-4.7474 Z-0.0100
G01 X4.4779 Y-4.7483 Z-0.0100
G01 X4.6964 Y-4.8014 Z-0.0100
G01 X4.6998 Y-4.8022 Z-0.0100
G01 X4.9279 Y-4.8509 Z-0.0100
G01 X4.9313 Y-4.8516 Z-0.0100
G01 X5.1680 Y-4.8953 Z-0.0100
G01 X5.1713 Y-4.8958 Z-0.0100
G01 X5.4152 Y-4.9341 Z-0.0100
G01 X5.4190 Y-4.9346 Z-0.0100
G01 X5.5109 Y-4.9461 Z-0.0100
G01 X5.5120 Y-4.9462 Z-0.0100
G01 X5.6005 Y-4.9565 Z-0.0100
G01 X5.6016 Y-4.9566 Z-0.0100
G01 X5.6867 Y-4.9657 Z-0.0100
G01 X5.6877 Y-4.9659 Z-0.0100
G01 X5.7694 Y-4.9739 Z-0.0100
G01 X5.7703 Y-4.9740 Z-0.0100
G01 X5.8488 Y-4.9811 Z-0.0100
G01 X5.8497 Y-4.9812 Z-0.0100
G01 X5.9250 Y-4.9875 Z-0.0100
G01 X5.9256 Y-4.9876 Z-0.0100
G01 X5.9978 Y-4.9933 Z-0.0100
G01 X5.9983 Y-4.9933 Z-0.0100
G01 X6.0673 Y-4.9985 Z-0.0100
G01 X6.0678 Y-4.9985 Z-0.0100
G01 X6.1339 Y-5.0032 Z-0.0100
G01 X6.1972 Y-5.0076 Z-0.0100
G01 X6.2571 Y-5.0118 Z-0.0100
G01 X6.3139 Y-5.0159 Z-0.0100
G01 X6.3688 Y-5.0201 Z-0.0100
G01 X6.4194 Y-5.0244 Z-0.0100
G01 X6.4664 Y-5.0289 Z-0.0100
G01 X6.5134 Y-5.0340 Z-0.0100
G01 X6.5533 Y-5.0392 Z-0.0100
G01 X6.5933 Y-5.0452 Z-0.0100
G01 X6.6287 Y-5.0516 Z-0.0100
G01 X6.6627 Y-5.0589 Z-0.0100
G01 X6.6919 Y-5.0664 Z-0.0100
G01 X6.7192 Y-5.0749 Z-0.0100
G01 X6.7431 Y-5.0838 Z-0.0100
G01 X6.7646 Y-5.0933 Z-0.0100
G01 X6.7836 Y-5.1035 Z-0.0100
G01 X6.8004 Y-5.1142 Z-0.0100
G01 X6.8155 Y-5.1258 Z-0.0100
G01 X6.8290 Y-5.1381 Z-0.0100
G01 X6.8416 Y-5.1519 Z-0.0100
G01 X6.8538 Y-5.1676 Z-0.0100
G01 X6.8650 Y-5.1850 Z-0.0100
G01 X6.8762 Y-5.2060 Z-0.0100
G01 X6.8866 Y-5.2290 Z-0.0100
G01 X6.8968 Y-5.2562 Z-0.0100
G01 X6.9059 Y-5.2856 Z-0.0100
G01 X6.9146 Y-5.3192 Z-0.0100
G01 X6.9229 Y-5.3584 Z-0.0100
G01 X6.9298 Y-5.3980 Z-0.0100
G01 X6.9362 Y-5.4431 Z-0.0100
G01 X6.9419 Y-5.4928 Z-0.0100
G01 X6.9466 Y-5.5446 Z-0.0100
G01 X6.9508 Y-5.6028 Z-0.0100
G01 X6.9542 Y-5.6636 Z-0.0100
G01 X6.9569 Y-5.7285 Z-0.0100
G01 X6.9590 Y-5.7977 Z-0.0100
G01 X6.9598 Y-5.8308 Z-0.0100
G01 X6.9599 Y-5.8343 Z-0.0100
G01 X6.9601 Y-5.8378 Z-0.0100
G01 X6.9604 Y-5.8412 Z-0.0100
G01 X6.9609 Y-5.8448 Z-0.0100
G01 X6.9614 Y-5.8482 Z-0.0100
G01 X6.9620 Y-5.8516 Z-0.0100
G01 X6.9627 Y-5.8551 Z-0.0100
G01 X6.9635 Y-5.8585 Z-0.0100
G01 X6.9644 Y-5.8618 Z-0.0100
G01 X6.9654 Y-5.8652 Z-0.0100
G01 X6.9665 Y-5.8685 Z-0.0100
G01 X6.9677 Y-5.8718 Z-0.0100
G01 X6.9690 Y-5.8751 Z-0.0100
G01 X6.9704 Y-5.8783 Z-0.0100
G01 X6.9718 Y-5.8814 Z-0.0100
G01 X6.9734 Y-5.8846 Z-0.0100
G01 X6.9750 Y-5.8877 Z-0.0100
G01 X6.9768 Y-5.8907 Z-0.0100
G01 X6.9786 Y-5.8937 Z-0.0100
G01 X6.9805 Y-5.8966 Z-0.0100
G01 X6.9825 Y-5.8995 Z-0.0100
G01 X6.9845 Y-5.9024 Z-0.0100
G01 X6.9867 Y-5.9051 Z-0.0100
G01 X6.9889 Y-5.9078 Z-0.0100
G01 X6.9912 Y-5.9105 Z-0.0100
G01 X6.9936 Y-5.9130 Z-0.0100
G01 X6.9960 Y-5.9155 Z-0.0100
G01 X6.9985 Y-5.9180 Z-0.0100
G01 X7.0011 Y-5.9203 Z-0.0100
G01 X7.0037 Y-5.9226 Z-0.0100
G01 X7.0064 Y-5.9248 Z-0.0100
G01 X7.0092 Y-5.9270 Z-0.0100
G01 X7.0120 Y-5.9290 Z-0.0100
G01 X7.0150 Y-5.9310 Z-0.0100
G01 X7.0179 Y-5.9329 Z-0.0100
G01 X7.0209 Y-5.9347 Z-0.0100
G01 X7.0239 Y-5.9364 Z-0.0100
G01 X7.0270 Y-5.9381 Z-0.0100
G01 X7.0301 Y-5.9396 Z-0.0100
G01 X7.0333 Y-5.9411 Z-0.0100
G01 X7.0366 Y-5.9424 Z-0.0100
G01 X7.0398 Y-5.9437 Z-0.0100
G01 X7.0431 Y-5.9449 Z-0.0100
G01 X7.0464 Y-5.9460 Z-0.0100
G01 X7.0498 Y-5.9470 Z-0.0100
G01 X7.0532 Y-5.9479 Z-0.0100
G01 X7.0566 Y-5.9487 Z-0.0100
G01 X7.0600 Y-5.9494 Z-0.0100
G01 X7.0635 Y-5.9500 Z-0.0100
G01 X7.0669 Y-5.9505 Z-0.0100
G01 X7.0704 Y-5.9509 Z-0.0100
G01 X7.0738 Y-5.9512 Z-0.0100
G01 X7.0774 Y-5.9514 Z-0.0100
G01 X7.0809 Y-5.9515 Z-0.0100
G01 X7.0829 Y-5.9516 Z-0.0100
G01 X7.0886 Y-5.9516 Z-0.0100
G01 X7.0973 Y-5.9513 Z-0.0100
G01 X7.1017 Y-5.9511 Z-0.0100
G01 X7.6364 Y-5.9175 Z-0.0100
G01 X8.1688 Y-5.8848 Z-0.0100
G01 X8.1706 Y-5.8847 Z-0.0100
G01 X8.7052 Y-5.8524 Z-0.0100
G01 X9.2399 Y-5.8209 Z-0.0100
G01 X9.7745 Y-5.7899 Z-0.0100
G01 X10.3091 Y-5.7596 Z-0.0100
G01 X10.8405 Y-5.7302 Z-0.0100
G01 X10.8435 Y-5.7301 Z-0.0100
G01 X11.3783 Y-5.7011 Z-0.0100
G01 X11.9132 Y-5.6729 Z-0.0100
G01 X12.4480 Y-5.6453 Z-0.0100
G01 X12.9828 Y-5.6183 Z-0.0100
G01 X13.5152 Y-5.5921 Z-0.0100
G01 X13.5173 Y-5.5920 Z-0.0100
G01 X14.0523 Y-5.5664 Z-0.0100
G01 X14.5874 Y-5.5415 Z-0.0100
G01 X15.1223 Y-5.5172 Z-0.0100
G01 X15.6572 Y-5.4935 Z-0.0100
G01 X16.1922 Y-5.4705 Z-0.0100
G01 X16.7233 Y-5.4484 Z-0.0100
G01 X16.7269 Y-5.4483 Z-0.0100
G01 X17.2621 Y-5.4266 Z-0.0100
G01 X17.7974 Y-5.4056 Z-0.0100
G01 X18.3324 Y-5.3853 Z-0.0100
G01 X18.5039 Y-5.3790 Z-0.0100
G01 X18.8675 Y-5.3656 Z0.0315
G01 X19.2913 Y-5.3505 Z0.0800
G01 X19.4027 Y-5.3466 Z0.0800
G01 X19.9378 Y-5.3283 Z0.0800
G01 X20.0787 Y-5.3236 Z0.0799
G01 X20.4730 Y-5.3106 Z0.0349
G01 X20.8661 Y-5.2980 Z-0.0100
G01 X21.0044 Y-5.2937 Z-0.0100
G01 X21.0079 Y-5.2936 Z-0.0100
G01 X21.5435 Y-5.2773 Z-0.0100
G01 X22.0787 Y-5.2616 Z-0.0100
G01 X22.6140 Y-5.2465 Z-0.0100
G01 X23.1492 Y-5.2322 Z-0.0100
G01 X23.6846 Y-5.2185 Z-0.0100
G01 X24.2199 Y-5.2054 Z-0.0100
G01 X24.7552 Y-5.1930 Z-0.0100
G01 X25.2906 Y-5.1813 Z-0.0100
G01 X25.8259 Y-5.1702 Z-0.0100
G01 X26.3573 Y-5.1599 Z-0.0100
G01 X26.3610 Y-5.1599 Z-0.0100
G01 X26.8965 Y-5.1501 Z-0.0100
G01 X27.4321 Y-5.1411 Z-0.0100
G01 X27.9675 Y-5.1327 Z-0.0100
G01 X28.5029 Y-5.1249 Z-0.0100
G01 X29.0383 Y-5.1179 Z-0.0100
G01 X29.5738 Y-5.1114 Z-0.0100
G01 X30.1092 Y-5.1057 Z-0.0100
G01 X30.6447 Y-5.1006 Z-0.0100
G01 X31.1801 Y-5.0961 Z-0.0100
G01 X31.7156 Y-5.0924 Z-0.0100
G01 X32.2511 Y-5.0892 Z-0.0100
G01 X32.7865 Y-5.0868 Z-0.0100
G01 X33.3220 Y-5.0850 Z-0.0100
G01 X33.8575 Y-5.0839 Z-0.0100
G01 X34.3929 Y-5.0835 Z-0.0100
G01 X34.9281 Y-5.0837 Z-0.0100
G01 X35.4636 Y-5.0845 Z-0.0100
G01 X35.9991 Y-5.0861 Z-0.0100
G01 X36.5346 Y-5.0883 Z-0.0100
G01 X37.0700 Y-5.0911 Z-0.0100
G01 X37.6055 Y-5.0946 Z-0.0100
G01 X38.1410 Y-5.0988 Z-0.0100
G01 X38.6764 Y-5.1037 Z-0.0100
G01 X39.2118 Y-5.1092 Z-0.0100
G01 X39.7473 Y-5.1153 Z-0.0100
G01 X40.2827 Y-5.1222 Z-0.0100
G01 X40.8181 Y-5.1297 Z-0.0100
G01 X41.3536 Y-5.1378 Z-0.0100
G01 X41.8890 Y-5.1466 Z-0.0100
G01 X42.4246 Y-5.1561 Z-0.0100
G01 X42.4284 Y-5.1561 Z-0.0100
G01 X42.9598 Y-5.1662 Z-0.0100
G01 X43.4951 Y-5.1770 Z-0.0100
G01 X44.0305 Y-5.1885 Z-0.0100
G01 X44.5658 Y-5.2006 Z-0.0100
G01 X45.1011 Y-5.2135 Z-0.0100
G01 X45.2755 Y-5.2178 Z-0.0099
G01 X45.6364 Y-5.2269 Z0.0312
G01 X46.0629 Y-5.2381 Z0.0800
G01 X46.1717 Y-5.2410 Z0.0800
G01 X46.7070 Y-5.2558 Z0.0800
G01 X46.8503 Y-5.2599 Z0.0800
G01 X47.2422 Y-5.2712 Z0.0351
G01 X47.6377 Y-5.2831 Z-0.0100
G01 X47.7776 Y-5.2874 Z-0.0100
G01 X48.3130 Y-5.3041 Z-0.0100
G01 X48.3163 Y-5.3042 Z-0.0100
G01 X48.8479 Y-5.3215 Z-0.0100
G01 X49.3831 Y-5.3396 Z-0.0100
G01 X49.9182 Y-5.3584 Z-0.0100
G01 X50.4533 Y-5.3778 Z-0.0100
G01 X50.9884 Y-5.3979 Z-0.0100
G01 X51.5235 Y-5.4187 Z-0.0100
G01 X52.0588 Y-5.4400 Z-0.0100
G01 X52.0624 Y-5.4401 Z-0.0100
G01 X52.5936 Y-5.4620 Z-0.0100
G01 X53.1286 Y-5.4848 Z-0.0100
G01 X53.6635 Y-5.5082 Z-0.0100
G01 X54.1985 Y-5.5322 Z-0.0100
G01 X54.7335 Y-5.5570 Z-0.0100
G01 X55.2685 Y-5.5823 Z-0.0100
G01 X55.2708 Y-5.5824 Z-0.0100
G01 X55.8031 Y-5.6083 Z-0.0100
G01 X56.3379 Y-5.6350 Z-0.0100
G01 X56.8727 Y-5.6624 Z-0.0100
G01 X57.4076 Y-5.6904 Z-0.0100
G01 X57.9424 Y-5.7191 Z-0.0100
G01 X57.9455 Y-5.7192 Z-0.0100
G01 X58.4768 Y-5.7484 Z-0.0100
G01 X59.0114 Y-5.7784 Z-0.0100
G01 X59.5460 Y-5.8091 Z-0.0100
G01 X60.0807 Y-5.8405 Z-0.0100
G01 X60.6155 Y-5.8724 Z-0.0100
G01 X60.6200 Y-5.8726 Z-0.0100
G01 X60.6287 Y-5.8728 Z-0.0100
G01 X60.6315 Y-5.8729 Z-0.0100
G01 X60.6323 Y-5.8729 Z-0.0100
G01 X60.6358 Y-5.8728 Z-0.0100
G01 X60.6394 Y-5.8727 Z-0.0100
G01 X60.6429 Y-5.8724 Z-0.0100
G01 X60.6464 Y-5.8720 Z-0.0100
G01 X60.6500 Y-5.8716 Z-0.0100
G01 X60.6535 Y-5.8710 Z-0.0100
G01 X60.6570 Y-5.8704 Z-0.0100
G01 X60.6604 Y-5.8696 Z-0.0100
G01 X60.6639 Y-5.8687 Z-0.0100
G01 X60.6673 Y-5.8678 Z-0.0100
G01 X60.6707 Y-5.8667 Z-0.0100
G01 X60.6740 Y-5.8656 Z-0.0100
G01 X60.6774 Y-5.8643 Z-0.0100
G01 X60.6807 Y-5.8630 Z-0.0100
G01 X60.6839 Y-5.8615 Z-0.0100
G01 X60.6871 Y-5.8600 Z-0.0100
G01 X60.6903 Y-5.8584 Z-0.0100
G01 X60.6934 Y-5.8567 Z-0.0100
G01 X60.6964 Y-5.8549 Z-0.0100
G01 X60.6995 Y-5.8530 Z-0.0100
G01 X60.7024 Y-5.8510 Z-0.0100
G01 X60.7053 Y-5.8489 Z-0.0100
G01 X60.7081 Y-5.8468 Z-0.0100
G01 X60.7109 Y-5.8446 Z-0.0100
G01 X60.7136 Y-5.8423 Z-0.0100
G01 X60.7162 Y-5.8399 Z-0.0100
G01 X60.7188 Y-5.8374 Z-0.0100
G01 X60.7213 Y-5.8349 Z-0.0100
G01 X60.7237 Y-5.8323 Z-0.0100
G01 X60.7261 Y-5.8297 Z-0.0100
G01 X60.7284 Y-5.8269 Z-0.0100
G01 X60.7305 Y-5.8241 Z-0.0100
G01 X60.7327 Y-5.8213 Z-0.0100
G01 X60.7347 Y-5.8183 Z-0.0100
G01 X60.7366 Y-5.8154 Z-0.0100
G01 X60.7385 Y-5.8124 Z-0.0100
G01 X60.7403 Y-5.8093 Z-0.0100
G01 X60.7419 Y-5.8061 Z-0.0100
G01 X60.7435 Y-5.8029 Z-0.0100
G01 X60.7450 Y-5.7998 Z-0.0100
G01 X60.7464 Y-5.7965 Z-0.0100
G01 X60.7477 Y-5.7932 Z-0.0100
G01 X60.7489 Y-5.7898 Z-0.0100
G01 X60.7500 Y-5.7864 Z-0.0100
G01 X60.7511 Y-5.7831 Z-0.0100
G01 X60.7520 Y-5.7796 Z-0.0100
G01 X60.7528 Y-5.7762 Z-0.0100
G01 X60.7535 Y-5.7727 Z-0.0100
G01 X60.7541 Y-5.7692 Z-0.0100
G01 X60.7547 Y-5.7657 Z-0.0100
G01 X60.7551 Y-5.7622 Z-0.0100
G01 X60.7554 Y-5.7586 Z-0.0100
G01 X60.7556 Y-5.7551 Z-0.0100
G01 X60.7557 Y-5.7515 Z-0.0100
G01 X60.7563 Y-5.7194 Z-0.0100
G01 X60.7580 Y-5.6507 Z-0.0100
G01 X60.7601 Y-5.5878 Z-0.0100
G01 X60.7630 Y-5.5262 Z-0.0100
G01 X60.7664 Y-5.4705 Z-0.0100
G01 X60.7704 Y-5.4196 Z-0.0100
G01 X60.7752 Y-5.3720 Z-0.0100
G01 X60.7808 Y-5.3277 Z-0.0100
G01 X60.7871 Y-5.2877 Z-0.0100
G01 X60.7940 Y-5.2522 Z-0.0100
G01 X60.8018 Y-5.2192 Z-0.0100
G01 X60.8103 Y-5.1897 Z-0.0100
G01 X60.8192 Y-5.1646 Z-0.0100
G01 X60.8284 Y-5.1428 Z-0.0100
G01 X60.8384 Y-5.1233 Z-0.0100
G01 X60.8487 Y-5.1066 Z-0.0100
G01 X60.8590 Y-5.0925 Z-0.0100
G01 X60.8707 Y-5.0792 Z-0.0100
G01 X60.8826 Y-5.0680 Z-0.0100
G01 X60.8966 Y-5.0569 Z-0.0100
G01 X60.9120 Y-5.0466 Z-0.0100
G01 X60.9293 Y-5.0368 Z-0.0100
G01 X60.9501 Y-5.0270 Z-0.0100
G01 X60.9726 Y-5.0179 Z-0.0100
G01 X60.9985 Y-5.0090 Z-0.0100
G01 X61.0269 Y-5.0007 Z-0.0100
G01 X61.0585 Y-4.9926 Z-0.0100
G01 X61.0942 Y-4.9847 Z-0.0100
G01 X61.1318 Y-4.9772 Z-0.0100
G01 X61.1709 Y-4.9702 Z-0.0100
G01 X61.2149 Y-4.9631 Z-0.0100
G01 X61.2625 Y-4.9557 Z-0.0100
G01 X61.3120 Y-4.9485 Z-0.0100
G01 X61.3642 Y-4.9410 Z-0.0100
G01 X61.4199 Y-4.9331 Z-0.0100
G01 X61.4785 Y-4.9248 Z-0.0100
G01 X61.5402 Y-4.9158 Z-0.0100
G01 X61.5408 Y-4.9157 Z-0.0100
G01 X61.6050 Y-4.9060 Z-0.0100
G01 X61.6058 Y-4.9059 Z-0.0100
G01 X61.6730 Y-4.8953 Z-0.0100
G01 X61.6740 Y-4.8952 Z-0.0100
G01 X61.7444 Y-4.8836 Z-0.0100
G01 X61.7453 Y-4.8834 Z-0.0100
G01 X61.8188 Y-4.8707 Z-0.0100
G01 X61.8199 Y-4.8705 Z-0.0100
G01 X61.8966 Y-4.8565 Z-0.0100
G01 X61.8978 Y-4.8562 Z-0.0100
G01 X61.9778 Y-4.8408 Z-0.0100
G01 X61.9791 Y-4.8405 Z-0.0100
G01 X62.0624 Y-4.8235 Z-0.0100
G01 X62.0638 Y-4.8232 Z-0.0100
G01 X62.1505 Y-4.8045 Z-0.0100
G01 X62.1519 Y-4.8042 Z-0.0100
G01 X62.2421 Y-4.7837 Z-0.0100
G01 X62.2470 Y-4.7824 Z-0.0100
G01 X62.4157 Y-4.7368 Z-0.0100
G01 X62.4199 Y-4.7356 Z-0.0100
G01 X62.5814 Y-4.6857 Z-0.0100
G01 X62.5856 Y-4.6843 Z-0.0100
G01 X62.7410 Y-4.6301 Z-0.0100
G01 X62.7452 Y-4.6286 Z-0.0100
G01 X62.8939 Y-4.5707 Z-0.0100
G01 X62.8981 Y-4.5689 Z-0.0100
G01 X63.0416 Y-4.5067 Z-0.0100
G01 X63.0458 Y-4.5048 Z-0.0100
G01 X63.1846 Y-4.4383 Z-0.0100
G01 X63.1889 Y-4.4362 Z-0.0100
G01 X63.3206 Y-4.3668 Z-0.0100
G01 X63.3247 Y-4.3645 Z-0.0100
G01 X63.4514 Y-4.2914 Z-0.0100
G01 X63.4556 Y-4.2890 Z-0.0100
G01 X63.5786 Y-4.2115 Z-0.0100
G01 X63.5826 Y-4.2089 Z-0.0100
G01 X63.6992 Y-4.1290 Z-0.0100
G01 X63.7031 Y-4.1262 Z-0.0100
G01 X63.8161 Y-4.0422 Z-0.0100
G01 X63.8199 Y-4.0393 Z-0.0100
G01 X63.9272 Y-3.9528 Z-0.0100
G01 X63.9309 Y-3.9498 Z-0.0100
G01 X64.0349 Y-3.8591 Z-0.0100
G01 X64.0384 Y-3.8559 Z-0.0100
G01 X64.1371 Y-3.7629 Z-0.0100
G01 X64.1405 Y-3.7596 Z-0.0100
G01 X64.2360 Y-3.6625 Z-0.0100
G01 X64.2391 Y-3.6592 Z-0.0100
G01 X64.3292 Y-3.5605 Z-0.0100
G01 X64.3323 Y-3.5570 Z-0.0100
G01 X64.4200 Y-3.4535 Z-0.0100
G01 X64.4229 Y-3.4500 Z-0.0100
G01 X64.5062 Y-3.3438 Z-0.0100
G01 X64.5089 Y-3.3403 Z-0.0100
G01 X64.5883 Y-3.2315 Z-0.0100
G01 X64.5908 Y-3.2279 Z-0.0100
G01 X64.6664 Y-3.1161 Z-0.0100
G01 X64.6687 Y-3.1125 Z-0.0100
G01 X64.7410 Y-2.9974 Z-0.0100
G01 X64.7431 Y-2.9938 Z-0.0100
G01 X64.8116 Y-2.8762 Z-0.0100
G01 X64.8136 Y-2.8725 Z-0.0100
G01 X64.8782 Y-2.7524 Z-0.0100
G01 X64.8800 Y-2.7489 Z-0.0100
G01 X64.9416 Y-2.6251 Z-0.0100
G01 X64.9432 Y-2.6216 Z-0.0100
G01 X65.0015 Y-2.4945 Z-0.0100
G01 X65.0031 Y-2.4911 Z-0.0100
G01 X65.0568 Y-2.3639 Z-0.0100
G01 X65.0581 Y-2.3605 Z-0.0100
G01 X65.1096 Y-2.2278 Z-0.0100
G01 X65.1108 Y-2.2245 Z-0.0100
G01 X65.1579 Y-2.0918 Z-0.0100
G01 X65.1590 Y-2.0885 Z-0.0100
G01 X65.2027 Y-1.9535 Z-0.0100
G01 X65.2037 Y-1.9503 Z-0.0100
G01 X65.2446 Y-1.8110 Z-0.0100
G01 X65.2455 Y-1.8079 Z-0.0100
G01 X65.2826 Y-1.6679 Z-0.0100
G01 X65.2834 Y-1.6648 Z-0.0100
G01 X65.3171 Y-1.5229 Z-0.0100
G01 X65.3177 Y-1.5199 Z-0.0100
G01 X65.3480 Y-1.3763 Z-0.0100
G01 X65.3486 Y-1.3735 Z-0.0100
G01 X65.3757 Y-1.2281 Z-0.0100
G01 X65.3762 Y-1.2252 Z-0.0100
G01 X65.4001 Y-1.0768 Z-0.0100
G01 X65.4005 Y-1.0740 Z-0.0100
G01 X65.4208 Y-0.9275 Z-0.0100
G01 X65.4211 Y-0.9247 Z-0.0100
G01 X65.4385 Y-0.7734 Z-0.0100
G01 X65.4388 Y-0.7707 Z-0.0100
G01 X65.4524 Y-0.6241 Z-0.0100
G01 X65.4526 Y-0.6215 Z-0.0100
G01 X65.4637 Y-0.4666 Z-0.0100
G01 X65.4638 Y-0.4640 Z-0.0100
G01 X65.4714 Y-0.3118 Z-0.0100
G01 X65.4716 Y-0.3093 Z-0.0100
G01 X65.4761 Y-0.1570 Z-0.0100
G01 X65.4762 Y-0.1546 Z-0.0100
G01 X65.4777 Y-0.0012 Z-0.0100
G01 X65.4777 Y0.0012 Z-0.0100
G01 X65.4762 Y0.1546 Z-0.0100
G01 X65.4761 Y0.1570 Z-0.0100
G01 X65.4716 Y0.3093 Z-0.0100
G01 X65.4714 Y0.3118 Z-0.0100
G01 X65.4638 Y0.4640 Z-0.0100
G01 X65.4637 Y0.4666 Z-0.0100
G01 X65.4527 Y0.6203 Z-0.0100
G01 X65.4525 Y0.6230 Z-0.0100
G01 X65.4388 Y0.7707 Z-0.0100
G01 X65.4385 Y0.7734 Z-0.0100
G01 X65.4211 Y0.9247 Z-0.0100
G01 X65.4208 Y0.9275 Z-0.0100
G01 X65.4005 Y1.0740 Z-0.0100
G01 X65.4001 Y1.0768 Z-0.0100
G01 X65.3762 Y1.2252 Z-0.0100
G01 X65.3757 Y1.2281 Z-0.0100
G01 X65.3486 Y1.3735 Z-0.0100
G01 X65.3480 Y1.3763 Z-0.0100
G01 X65.3177 Y1.5199 Z-0.0100
G01 X65.3171 Y1.5229 Z-0.0100
G01 X65.2834 Y1.6648 Z-0.0100
G01 X65.2826 Y1.6679 Z-0.0100
G01 X65.2455 Y1.8079 Z-0.0100
G01 X65.2446 Y1.8110 Z-0.0100
G01 X65.2037 Y1.9503 Z-0.0100
G01 X65.2027 Y1.9535 Z-0.0100
G01 X65.1590 Y2.0885 Z-0.0100
G01 X65.1579 Y2.0918 Z-0.0100
G01 X65.1108 Y2.2245 Z-0.0100
G01 X65.1096 Y2.2278 Z-0.0100
G01 X65.0581 Y2.3605 Z-0.0100
G01 X65.0568 Y2.3639 Z-0.0100
G01 X65.0031 Y2.4911 Z-0.0100
G01 X65.0015 Y2.4945 Z-0.0100
G01 X64.9432 Y2.6216 Z-0.0100
G01 X64.9416 Y2.6251 Z-0.0100
G01 X64.8800 Y2.7489 Z-0.0100
G01 X64.8782 Y2.7524 Z-0.0100
G01 X64.8136 Y2.8725 Z-0.0100
G01 X64.8116 Y2.8762 Z-0.0100
G01 X64.7431 Y2.9938 Z-0.0100
G01 X64.7410 Y2.9974 Z-0.0100
G01 X64.6687 Y3.1125 Z-0.0100
G01 X64.6664 Y3.1161 Z-0.0100
G01 X64.5908 Y3.2279 Z-0.0100
G01 X64.5883 Y3.2315 Z-0.0100
G01 X64.5089 Y3.3403 Z-0.0100
G01 X64.5062 Y3.3438 Z-0.0100
G01 X64.4229 Y3.4500 Z-0.0100
G01 X64.4200 Y3.4535 Z-0.0100
G01 X64.3323 Y3.5570 Z-0.0100
G01 X64.3292 Y3.5605 Z-0.0100
G01 X64.2391 Y3.6592 Z-0.0100
G01 X64.2360 Y3.6625 Z-0.0100
G01 X64.1405 Y3.7596 Z-0.0100
G01 X64.1371 Y3.7629 Z-0.0100
G01 X64.0384 Y3.8559 Z-0.0100
G01 X64.0349 Y3.8591 Z-0.0100
G01 X63.9309 Y3.9498 Z-0.0100
G01 X63.9272 Y3.9528 Z-0.0100
G01 X63.8199 Y4.0393 Z-0.0100
G01 X63.8161 Y4.0422 Z-0.0100
G01 X63.7031 Y4.1262 Z-0.0100
G01 X63.6992 Y4.1290 Z-0.0100
G01 X63.5826 Y4.2089 Z-0.0100
G01 X63.5786 Y4.2115 Z-0.0100
G01 X63.4556 Y4.2890 Z-0.0100
G01 X63.4514 Y4.2914 Z-0.0100
G01 X63.3247 Y4.3645 Z-0.0100
G01 X63.3206 Y4.3668 Z-0.0100
G01 X63.1889 Y4.4362 Z-0.0100
G01 X63.1846 Y4.4383 Z-0.0100
G01 X63.0458 Y4.5048 Z-0.0100
G01 X63.0416 Y4.5067 Z-0.0100
G01 X62.8981 Y4.5689 Z-0.0100
G01 X62.8939 Y4.5707 Z-0.0100
G01 X62.7452 Y4.6286 Z-0.0100
G01 X62.7410 Y4.6301 Z-0.0100
G01 X62.5856 Y4.6843 Z-0.0100
G01 X62.5814 Y4.6857 Z-0.0100
G01 X62.4199 Y4.7356 Z-0.0100
G01 X62.4157 Y4.7368 Z-0.0100
G01 X62.2470 Y4.7824 Z-0.0100
G01 X62.2421 Y4.7837 Z-0.0100
G01 X62.1519 Y4.8042 Z-0.0100
G01 X62.1505 Y4.8045 Z-0.0100
G01 X62.0638 Y4.8232 Z-0.0100
G01 X62.0624 Y4.8235 Z-0.0100
G01 X61.9791 Y4.8405 Z-0.0100
G01 X61.9778 Y4.8408 Z-0.0100
G01 X61.8978 Y4.8562 Z-0.0100
G01 X61.8966 Y4.8565 Z-0.0100
G01 X61.8199 Y4.8705 Z-0.0100
G01 X61.8188 Y4.8707 Z-0.0100
G01 X61.7453 Y4.8834 Z-0.0100
G01 X61.7444 Y4.8836 Z-0.0100
G01 X61.6740 Y4.8952 Z-0.0100
G01 X61.6730 Y4.8953 Z-0.0100
G01 X61.6058 Y4.9059 Z-0.0100
G01 X61.6050 Y4.9060 Z-0.0100
G01 X61.5408 Y4.9157 Z-0.0100
G01 X61.5402 Y4.9158 Z-0.0100
G01 X61.4788 Y4.9247 Z-0.0100
G01 X61.4201 Y4.9331 Z-0.0100
G01 X61.3642 Y4.9410 Z-0.0100
G01 X61.3120 Y4.9485 Z-0.0100
G01 X61.2625 Y4.9557 Z-0.0100
G01 X61.2149 Y4.9631 Z-0.0100
G01 X61.1709 Y4.9702 Z-0.0100
G01 X61.1318 Y4.9772 Z-0.0100
G01 X61.0942 Y4.9847 Z-0.0100
G01 X61.0585 Y4.9926 Z-0.0100
G01 X61.0269 Y5.0007 Z-0.0100
G01 X60.9985 Y5.0090 Z-0.0100
G01 X60.9726 Y5.0179 Z-0.0100
G01 X60.9501 Y5.0270 Z-0.0100
G01 X60.9293 Y5.0368 Z-0.0100
G01 X60.9120 Y5.0466 Z-0.0100
G01 X60.8966 Y5.0569 Z-0.0100
G01 X60.8826 Y5.0680 Z-0.0100
G01 X60.8707 Y5.0792 Z-0.0100
G01 X60.8590 Y5.0925 Z-0.0100
G01 X60.8487 Y5.1066 Z-0.0100
G01 X60.8384 Y5.1233 Z-0.0100
G01 X60.8284 Y5.1428 Z-0.0100
G01 X60.8192 Y5.1646 Z-0.0100
G01 X60.8105 Y5.1893 Z-0.0100
G01 X60.8018 Y5.2192 Z-0.0100
G01 X60.7940 Y5.2521 Z-0.0100
G01 X60.7871 Y5.2874 Z-0.0100
G01 X60.7809 Y5.3273 Z-0.0100
G01 X60.7752 Y5.3720 Z-0.0100
G01 X60.7705 Y5.4187 Z-0.0100
G01 X60.7664 Y5.4702 Z-0.0100
G01 X60.7630 Y5.5262 Z-0.0100
G01 X60.7601 Y5.5878 Z-0.0100
G01 X60.7580 Y5.6507 Z-0.0100
G01 X60.7579 Y5.6519 Z-0.0100
G01 X60.7563 Y5.7194 Z-0.0100
G01 X60.7557 Y5.7515 Z-0.0100
G01 X60.7556 Y5.7551 Z-0.0100
G01 X60.7554 Y5.7586 Z-0.0100
G01 X60.7551 Y5.7622 Z-0.0100
G01 X60.7547 Y5.7657 Z-0.0100
G01 X60.7541 Y5.7692 Z-0.0100
G01 X60.7535 Y5.7727 Z-0.0100
G01 X60.7528 Y5.7762 Z-0.0100
G01 X60.7520 Y5.7796 Z-0.0100
G01 X60.7511 Y5.7831 Z-0.0100
G01 X60.7500 Y5.7864 Z-0.0100
G01 X60.7489 Y5.7898 Z-0.0100
G01 X60.7477 Y5.7932 Z-0.0100
G01 X60.7464 Y5.7965 Z-0.0100
G01 X60.7450 Y5.7998 Z-0.0100
G01 X60.7435 Y5.8029 Z-0.0100
G01 X60.7419 Y5.8061 Z-0.0100
G01 X60.7403 Y5.8093 Z-0.0100
G01 X60.7385 Y5.8124 Z-0.0100
G01 X60.7366 Y5.8154 Z-0.0100
G01 X60.7347 Y5.8183 Z-0.0100
G01 X60.7327 Y5.8213 Z-0.0100
G01 X60.7305 Y5.8241 Z-0.0100
G01 X60.7284 Y5.8269 Z-0.0100
G01 X60.7261 Y5.8297 Z-0.0100
G01 X60.7237 Y5.8323 Z-0.0100
G01 X60.7213 Y5.8349 Z-0.0100
G01 X60.7188 Y5.8374 Z-0.0100
G01 X60.7162 Y5.8399 Z-0.0100
G01 X60.7136 Y5.8423 Z-0.0100
G01 X60.7109 Y5.8446 Z-0.0100
G01 X60.7081 Y5.8468 Z-0.0100
G01 X60.7053 Y5.8489 Z-0.0100
G01 X60.7024 Y5.8510 Z-0.0100
G01 X60.6995 Y5.8530 Z-0.0100
G01 X60.6964 Y5.8549 Z-0.0100
G01 X60.6934 Y5.8567 Z-0.0100
G01 X60.6903 Y5.8584 Z-0.0100
G01 X60.6871 Y5.8600 Z-0.0100
G01 X60.6839 Y5.8615 Z-0.0100
G01 X60.6807 Y5.8630 Z-0.0100
G01 X60.6774 Y5.8643 Z-0.0100
G01 X60.6740 Y5.8656 Z-0.0100
G01 X60.6707 Y5.8667 Z-0.0100
G01 X60.6673 Y5.8678 Z-0.0100
G01 X60.6639 Y5.8687 Z-0.0100
G01 X60.6604 Y5.8696 Z-0.0100
G01 X60.6570 Y5.8704 Z-0.0100
G01 X60.6535 Y5.8710 Z-0.0100
G01 X60.6500 Y5.8716 Z-0.0100
G01 X60.6464 Y5.8720 Z-0.0100
G01 X60.6429 Y5.8724 Z-0.0100
G01 X60.6394 Y5.8727 Z-0.0100
G01 X60.6358 Y5.8728 Z-0.0100
G01 X60.6323 Y5.8729 Z-0.0100
G01 X60.6315 Y5.8729 Z-0.0100
G01 X60.6287 Y5.8728 Z-0.0100
G01 X60.6200 Y5.8726 Z-0.0100
G01 X60.6155 Y5.8724 Z-0.0100
G01 X60.0807 Y5.8404 Z-0.0100
G01 X59.5460 Y5.8091 Z-0.0100
G01 X59.0114 Y5.7784 Z-0.0100
G01 X58.4768 Y5.7484 Z-0.0100
G01 X57.9455 Y5.7192 Z-0.0100
G01 X57.9424 Y5.7191 Z-0.0100
G01 X57.4076 Y5.6904 Z-0.0100
G01 X56.8727 Y5.6624 Z-0.0100
G01 X56.3379 Y5.6350 Z-0.0100
G01 X55.8031 Y5.6083 Z-0.0100
G01 X55.2708 Y5.5824 Z-0.0100
G01 X55.2685 Y5.5823 Z-0.0100
G01 X54.7335 Y5.5569 Z-0.0100
G01 X54.1985 Y5.5322 Z-0.0100
G01 X53.6635 Y5.5082 Z-0.0100
G01 X53.1286 Y5.4848 Z-0.0100
G01 X52.5936 Y5.4620 Z-0.0100
G01 X52.0625 Y5.4401 Z-0.0100
G01 X52.0588 Y5.4400 Z-0.0100
G01 X51.5235 Y5.4187 Z-0.0100
G01 X50.9884 Y5.3979 Z-0.0100
G01 X50.4533 Y5.3778 Z-0.0100
G01 X49.9182 Y5.3584 Z-0.0100
G01 X49.3831 Y5.3396 Z-0.0100
G01 X48.8479 Y5.3215 Z-0.0100
G01 X48.3163 Y5.3042 Z-0.0100
G01 X48.3130 Y5.3041 Z-0.0100
G01 X47.7776 Y5.2874 Z-0.0100
G01 X47.6377 Y5.2831 Z-0.0100
G01 X47.2422 Y5.2712 Z0.0351
G01 X46.8503 Y5.2599 Z0.0800
G01 X46.7070 Y5.2558 Z0.0800
G01 X46.1717 Y5.2410 Z0.0800
G01 X46.0629 Y5.2381 Z0.0800
G01 X45.6364 Y5.2269 Z0.0312
G01 X45.2755 Y5.2178 Z-0.0099
G01 X45.1011 Y5.2135 Z-0.0100
G01 X44.5658 Y5.2006 Z-0.0100
G01 X44.0305 Y5.1885 Z-0.0100
G01 X43.4951 Y5.1770 Z-0.0100
G01 X42.9598 Y5.1662 Z-0.0100
G01 X42.4284 Y5.1561 Z-0.0100
G01 X42.4246 Y5.1561 Z-0.0100
G01 X41.8890 Y5.1466 Z-0.0100
G01 X41.3536 Y5.1378 Z-0.0100
G01 X40.8181 Y5.1297 Z-0.0100
G01 X40.2827 Y5.1222 Z-0.0100
G01 X39.7473 Y5.1153 Z-0.0100
G01 X39.2118 Y5.1092 Z-0.0100
G01 X38.6764 Y5.1037 Z-0.0100
G01 X38.1410 Y5.0988 Z-0.0100
G01 X37.6055 Y5.0946 Z-0.0100
G01 X37.0700 Y5.0911 Z-0.0100
G01 X36.5346 Y5.0883 Z-0.0100
G01 X35.9991 Y5.0861 Z-0.0100
G01 X35.4636 Y5.0845 Z-0.0100
G01 X34.9281 Y5.0837 Z-0.0100
G01 X34.3929 Y5.0835 Z-0.0100
G01 X33.8575 Y5.0839 Z-0.0100
G01 X33.3220 Y5.0850 Z-0.0100
G01 X32.7865 Y5.0868 Z-0.0100
G01 X32.2511 Y5.0892 Z-0.0100
G01 X31.7156 Y5.0924 Z-0.0100
G01 X31.1801 Y5.0961 Z-0.0100
G01 X30.6447 Y5.1006 Z-0.0100
G01 X30.1092 Y5.1057 Z-0.0100
G01 X29.5738 Y5.1114 Z-0.0100
G01 X29.0383 Y5.1179 Z-0.0100
G01 X28.5029 Y5.1249 Z-0.0100
G01 X27.9675 Y5.1327 Z-0.0100
G01 X27.4321 Y5.1411 Z-0.0100
G01 X26.8965 Y5.1501 Z-0.0100
G01 X26.3610 Y5.1599 Z-0.0100
G01 X26.3575 Y5.1599 Z-0.0100
G01 X25.8259 Y5.1702 Z-0.0100
G01 X25.2906 Y5.1813 Z-0.0100
G01 X24.7552 Y5.1930 Z-0.0100
G01 X24.2199 Y5.2054 Z-0.0100
G01 X23.6846 Y5.2185 Z-0.0100
G01 X23.1492 Y5.2322 Z-0.0100
G01 X22.6140 Y5.2465 Z-0.0100
G01 X22.0787 Y5.2616 Z-0.0100
G01 X21.5435 Y5.2773 Z-0.0100
G01 X21.0079 Y5.2936 Z-0.0100
G01 X21.0044 Y5.2937 Z-0.0100
G01 X20.8661 Y5.2980 Z-0.0100
G01 X20.4730 Y5.3106 Z0.0349
G01 X20.0787 Y5.3236 Z0.0799
G01 X19.9378 Y5.3283 Z0.0800
G01 X19.4027 Y5.3466 Z0.0800
G01 X19.2913 Y5.3505 Z0.0800
G01 X18.8675 Y5.3656 Z0.0315
G01 X18.5039 Y5.3790 Z-0.0100
G01 X18.3324 Y5.3853 Z-0.0100
G01 X17.7974 Y5.4056 Z-0.0100
G01 X17.2621 Y5.4266 Z-0.0100
G01 X16.7269 Y5.4483 Z-0.0100
G01 X16.7234 Y5.4484 Z-0.0100
G01 X16.1922 Y5.4705 Z-0.0100
G01 X15.6572 Y5.4935 Z-0.0100
G01 X15.1223 Y5.5172 Z-0.0100
G01 X14.5874 Y5.5415 Z-0.0100
G01 X14.0523 Y5.5664 Z-0.0100
G01 X13.5173 Y5.5920 Z-0.0100
G01 X13.5152 Y5.5921 Z-0.0100
G01 X12.9828 Y5.6183 Z-0.0100
G01 X12.4480 Y5.6453 Z-0.0100
G01 X11.9132 Y5.6729 Z-0.0100
G01 X11.3783 Y5.7012 Z-0.0100
G01 X10.8435 Y5.7301 Z-0.0100
G01 X10.8405 Y5.7302 Z-0.0100
G01 X10.3091 Y5.7596 Z-0.0100
G01 X9.7745 Y5.7899 Z-0.0100
G01 X9.2399 Y5.8209 Z-0.0100
G01 X8.7052 Y5.8524 Z-0.0100
G01 X8.1706 Y5.8847 Z-0.0100
G01 X8.1688 Y5.8848 Z-0.0100
G01 X7.6364 Y5.9175 Z-0.0100
G01 X7.1017 Y5.9511 Z-0.0100
G01 X7.0973 Y5.9513 Z-0.0100
G01 X7.0886 Y5.9516 Z-0.0100
G01 X7.0829 Y5.9516 Z-0.0100
G01 X7.0809 Y5.9515 Z-0.0100
G01 X7.0774 Y5.9514 Z-0.0100
G01 X7.0738 Y5.9512 Z-0.0100
G01 X7.0704 Y5.9509 Z-0.0100
G01 X7.0669 Y5.9505 Z-0.0100
G01 X7.0635 Y5.9500 Z-0.0100
G01 X7.0600 Y5.9494 Z-0.0100
G01 X7.0566 Y5.9487 Z-0.0100
G01 X7.0532 Y5.9479 Z-0.0100
G01 X7.0498 Y5.9470 Z-0.0100
G01 X7.0464 Y5.9460 Z-0.0100
G01 X7.0431 Y5.9449 Z-0.0100
G01 X7.0398 Y5.9437 Z-0.0100
G01 X7.0366 Y5.9424 Z-0.0100
G01 X7.0333 Y5.9411 Z-0.0100
G01 X7.0301 Y5.9396 Z-0.0100
G01 X7.0270 Y5.9381 Z-0.0100
G01 X7.0239 Y5.9364 Z-0.0100
G01 X7.0209 Y5.9347 Z-0.0100
G01 X7.0179 Y5.9329 Z-0.0100
G01 X7.0150 Y5.9310 Z-0.0100
G01 X7.0120 Y5.9290 Z-0.0100
G01 X7.0092 Y5.9270 Z-0.0100
G01 X7.0064 Y5.9248 Z-0.0100
G01 X7.0037 Y5.9226 Z-0.0100
G01 X7.0011 Y5.9203 Z-0.0100
G01 X6.9985 Y5.9180 Z-0.0100
G01 X6.9960 Y5.9155 Z-0.0100
G01 X6.9936 Y5.9130 Z-0.0100
G01 X6.9912 Y5.9105 Z-0.0100
G01 X6.9889 Y5.9078 Z-0.0100
G01 X6.9867 Y5.9051 Z-0.0100
G01 X6.9845 Y5.9024 Z-0.0100
G01 X6.9825 Y5.8995 Z-0.0100
G01 X6.9805 Y5.8966 Z-0.0100
G01 X6.9786 Y5.8937 Z-0.0100
G01 X6.9768 Y5.8907 Z-0.0100
G01 X6.9750 Y5.8877 Z-0.0100
G01 X6.9734 Y5.8846 Z-0.0100
G01 X6.9718 Y5.8814 Z-0.0100
G01 X6.9704 Y5.8783 Z-0.0100
G01 X6.9690 Y5.8751 Z-0.0100
G01 X6.9677 Y5.8718 Z-0.0100
G01 X6.9665 Y5.8685 Z-0.0100
G01 X6.9654 Y5.8652 Z-0.0100
G01 X6.9644 Y5.8618 Z-0.0100
G01 X6.9635 Y5.8585 Z-0.0100
G01 X6.9627 Y5.8551 Z-0.0100
G01 X6.9620 Y5.8516 Z-0.0100
G01 X6.9614 Y5.8482 Z-0.0100
G01 X6.9609 Y5.8448 Z-0.0100
G01 X6.9604 Y5.8412 Z-0.0100
G01 X6.9601 Y5.8378 Z-0.0100
G01 X6.9599 Y5.8343 Z-0.0100
G01 X6.9598 Y5.8308 Z-0.0100
G01 X6.9590 Y5.7965 Z-0.0100
G01 X6.9568 Y5.7271 Z-0.0100
G01 X6.9541 Y5.6630 Z-0.0100
G01 X6.9508 Y5.6028 Z-0.0100
G01 X6.9465 Y5.5438 Z-0.0100
G01 X6.9420 Y5.4936 Z-0.0100
G01 X6.9419 Y5.4928 Z-0.0100
G01 X6.9361 Y5.4427 Z-0.0100
G01 X6.9298 Y5.3979 Z-0.0100
G01 X6.9228 Y5.3578 Z-0.0100
G01 X6.9146 Y5.3192 Z-0.0100
G01 X6.9059 Y5.2856 Z-0.0100
G01 X6.8966 Y5.2558 Z-0.0100
G01 X6.8866 Y5.2289 Z-0.0100
G01 X6.8762 Y5.2060 Z-0.0100
G01 X6.8650 Y5.1850 Z-0.0100
G01 X6.8538 Y5.1676 Z-0.0100
G01 X6.8416 Y5.1519 Z-0.0100
G01 X6.8290 Y5.1381 Z-0.0100
G01 X6.8155 Y5.1258 Z-0.0100
G01 X6.8004 Y5.1142 Z-0.0100
G01 X6.7835 Y5.1034 Z-0.0100
G01 X6.7646 Y5.0933 Z-0.0100
G01 X6.7431 Y5.0838 Z-0.0100
G01 X6.7192 Y5.0749 Z-0.0100
G01 X6.6919 Y5.0664 Z-0.0100
G01 X6.6627 Y5.0589 Z-0.0100
G01 X6.6287 Y5.0516 Z-0.0100
G01 X6.5933 Y5.0452 Z-0.0100
G01 X6.5533 Y5.0392 Z-0.0100
G01 X6.5134 Y5.0340 Z-0.0100
G01 X6.4664 Y5.0289 Z-0.0100
G01 X6.4194 Y5.0244 Z-0.0100
G01 X6.3688 Y5.0201 Z-0.0100
G01 X6.3140 Y5.0159 Z-0.0100
G01 X6.2571 Y5.0118 Z-0.0100
G01 X6.1972 Y5.0076 Z-0.0100
G01 X6.1340 Y5.0032 Z-0.0100
G01 X6.0678 Y4.9985 Z-0.0100
G01 X6.0673 Y4.9985 Z-0.0100
G01 X5.9983 Y4.9933 Z-0.0100
G01 X5.9978 Y4.9933 Z-0.0100
G01 X5.9256 Y4.9876 Z-0.0100
G01 X5.9250 Y4.9875 Z-0.0100
G01 X5.8497 Y4.9812 Z-0.0100
G01 X5.8488 Y4.9811 Z-0.0100
G01 X5.7703 Y4.9740 Z-0.0100
G01 X5.7694 Y4.9739 Z-0.0100
G01 X5.6877 Y4.9659 Z-0.0100
G01 X5.6867 Y4.9657 Z-0.0100
G01 X5.6016 Y4.9566 Z-0.0100
G01 X5.6005 Y4.9565 Z-0.0100
G01 X5.5120 Y4.9462 Z-0.0100
G01 X5.5109 Y4.9461 Z-0.0100
G01 X5.4190 Y4.9346 Z-0.0100
G01 X5.4152 Y4.9341 Z-0.0100
G01 X5.1713 Y4.8958 Z-0.0100
G01 X5.1680 Y4.8953 Z-0.0100
G01 X4.9313 Y4.8516 Z-0.0100
G01 X4.9279 Y4.8509 Z-0.0100
G01 X4.6998 Y4.8022 Z-0.0100
G01 X4.6964 Y4.8014 Z-0.0100
G01 X4.4779 Y4.7483 Z-0.0100
G01 X4.4744 Y4.7474 Z-0.0100
G01 X4.2618 Y4.6889 Z-0.0100
G01 X4.2582 Y4.6879 Z-0.0100
G01 X4.0535 Y4.6249 Z-0.0100
G01 X4.0498 Y4.6237 Z-0.0100
G01 X3.8550 Y4.5571 Z-0.0100
G01 X3.8513 Y4.5558 Z-0.0100
G01 X3.6633 Y4.4848 Z-0.0100
G01 X3.6596 Y4.4833 Z-0.0100
G01 X3.4787 Y4.4082 Z-0.0100
G01 X3.4749 Y4.4066 Z-0.0100
G01 X3.3020 Y4.3279 Z-0.0100
G01 X3.2983 Y4.3261 Z-0.0100
G01 X3.1316 Y4.2434 Z-0.0100
G01 X3.1278 Y4.2414 Z-0.0100
G01 X2.9692 Y4.1557 Z-0.0100
G01 X2.9655 Y4.1536 Z-0.0100
G01 X2.8132 Y4.0643 Z-0.0100
G01 X2.8094 Y4.0620 Z-0.0100
G01 X2.6644 Y3.9699 Z-0.0100
G01 X2.6607 Y3.9674 Z-0.0100
G01 X2.5210 Y3.8714 Z-0.0100
G01 X2.5174 Y3.8688 Z-0.0100
G01 X2.3855 Y3.7709 Z-0.0100
G01 X2.3819 Y3.7681 Z-0.0100
G01 X2.2555 Y3.6668 Z-0.0100
G01 X2.2519 Y3.6638 Z-0.0100
G01 X2.1308 Y3.5591 Z-0.0100
G01 X2.1274 Y3.5561 Z-0.0100
G01 X2.0135 Y3.4500 Z-0.0100
G01 X2.0102 Y3.4468 Z-0.0100
G01 X1.9015 Y3.3377 Z-0.0100
G01 X1.8983 Y3.3344 Z-0.0100
G01 X1.7940 Y3.2216 Z-0.0100
G01 X1.7910 Y3.2182 Z-0.0100
G01 X1.6935 Y3.1045 Z-0.0100
G01 X1.6905 Y3.1009 Z-0.0100
G01 X1.5974 Y2.9838 Z-0.0100
G01 X1.5946 Y2.9803 Z-0.0100
G01 X1.5067 Y2.8609 Z-0.0100
G01 X1.5040 Y2.8572 Z-0.0100
G01 X1.4209 Y2.7353 Z-0.0100
G01 X1.4185 Y2.7316 Z-0.0100
G01 X1.3409 Y2.6086 Z-0.0100
G01 X1.3387 Y2.6048 Z-0.0100
G01 X1.2644 Y2.4772 Z-0.0100
G01 X1.2622 Y2.4734 Z-0.0100
G01 X1.1938 Y2.3456 Z-0.0100
G01 X1.1919 Y2.3418 Z-0.0100
G01 X1.1281 Y2.2122 Z-0.0100
G01 X1.1263 Y2.2084 Z-0.0100
G01 X1.0662 Y2.0748 Z-0.0100
G01 X1.0646 Y2.0709 Z-0.0100
G01 X1.0098 Y1.9372 Z-0.0100
G01 X1.0083 Y1.9335 Z-0.0100
G01 X0.9572 Y1.7962 Z-0.0100
G01 X0.9558 Y1.7925 Z-0.0100
G01 X0.9094 Y1.6544 Z-0.0100
G01 X0.9083 Y1.6507 Z-0.0100
G01 X0.8658 Y1.5097 Z-0.0100
G01 X0.8648 Y1.5061 Z-0.0100
G01 X0.8268 Y1.3646 Z-0.0100
G01 X0.8259 Y1.3610 Z-0.0100
G01 X0.7922 Y1.2178 Z-0.0100
G01 X0.7914 Y1.2143 Z-0.0100
G01 X0.7617 Y1.0695 Z-0.0100
G01 X0.7611 Y1.0659 Z-0.0100
G01 X0.7355 Y0.9194 Z-0.0100
G01 X0.7349 Y0.9160 Z-0.0100
G01 X0.7135 Y0.7690 Z-0.0100
G01 X0.7130 Y0.7656 Z-0.0100
G01 X0.6955 Y0.6170 Z-0.0100
G01 X0.6952 Y0.6137 Z-0.0100
G01 X0.6815 Y0.4626 Z-0.0100
G01 X0.6812 Y0.4593 Z-0.0100
G01 X0.6718 Y0.3112 Z-0.0100
G01 X0.6716 Y0.3080 Z-0.0100
G01 X0.6659 Y0.1551 Z-0.0100
G01 X0.6658 Y0.1520 Z-0.0100
G01 X0.6639 Y0.0015 Z-0.0100
G01 X0.6639 Y-0.0015 Z-0.0100
G00 X0.6639 Y-0.0015 Z0.6000
M05
G00 X0.0000 Y0.0000 Z0.6000
G49
G01 G55 Z0 F20
G00 G55 X0 Y0 Z0
M30
