( Sample-snowboard-base-cutout.nc                                              )
( Generated by MonkeyCAM v4.0 at 2013-09-22 15:55:05                           )
(                                                                              )
( This GCode program is provided on an 'AS IS' BASIS WITHOUT WARRANTIES OR     )
( CONDITIONS OF ANY KIND, either express or implied. You should inspect this   )
( program very carefully to confirm you understand its operation. YOU ARE      )
( RESPONSIBLE FOR ENSURING THIS PROGRAM WILL NOT DAMAGE YOUR MACHINE OR        )
( MATERIALS.                                                                   )
(                                                                              )
( See http://www.github.com/MonkeyCAM for License and documentation.           )
(                                                                              )
( * Rapid height: 0.1000" [0.2540cm]                                           )
( * Tool: T1, Quarter Inch Straight, diameter 0.2500" [0.6350cm]               )
( * Height basline [Z=0.0] is the top of the table.                            )
( * XY origin is the left side of the table, Y is center of the part.          )
( * Requires G54 to be the part work coordinate offsets [WCO]. [0, 0] is the   )
(   center of the nose, with the board extending to positive X. The cutter may )
(   move to negative values of X.                                              )
( * Requires G55 to be the machine WCO, with Z above the rapid height.         )
( * Units are inches                                                           )
( * Cutter bounding box in G54:                                                )
(     X-0.0462 Y-5.7564 Z-0.0100 to X66.1879 Y5.7564 Z0.1000                   )

G90 G20 G17 G40 G49
G00 G55 X0 Y0 Z0
G43 H1 T1
G00 G54 X0.0000 Y0.0000 Z0.1000

G00 G54 X-0.0462 Y-0.0015 Z0.1000
M03
G04 P5
G01 G54 X-0.0462 Y-0.0015 Z-0.0100 F70
G01 G54 X-0.0441 Y-0.1698 Z-0.0100
G01 G54 X-0.0440 Y-0.1730 Z-0.0100
G01 G54 X-0.0376 Y-0.3441 Z-0.0100
G01 G54 X-0.0374 Y-0.3474 Z-0.0100
G01 G54 X-0.0267 Y-0.5150 Z-0.0100
G01 G54 X-0.0264 Y-0.5183 Z-0.0100
G01 G54 X-0.0111 Y-0.6879 Z-0.0100
G01 G54 X-0.0107 Y-0.6912 Z-0.0100
G01 G54 X0.0088 Y-0.8578 Z-0.0100
G01 G54 X0.0092 Y-0.8612 Z-0.0100
G01 G54 X0.0336 Y-1.0285 Z-0.0100
G01 G54 X0.0341 Y-1.0320 Z-0.0100
G01 G54 X0.0632 Y-1.1984 Z-0.0100
G01 G54 X0.0639 Y-1.2019 Z-0.0100
G01 G54 X0.0975 Y-1.3657 Z-0.0100
G01 G54 X0.0983 Y-1.3693 Z-0.0100
G01 G54 X0.1372 Y-1.5346 Z-0.0100
G01 G54 X0.1381 Y-1.5383 Z-0.0100
G01 G54 X0.1818 Y-1.7012 Z-0.0100
G01 G54 X0.1829 Y-1.7049 Z-0.0100
G01 G54 X0.2314 Y-1.8659 Z-0.0100
G01 G54 X0.2325 Y-1.8697 Z-0.0100
G01 G54 X0.2864 Y-2.0301 Z-0.0100
G01 G54 X0.2878 Y-2.0339 Z-0.0100
G01 G54 X0.3466 Y-2.1918 Z-0.0100
G01 G54 X0.3481 Y-2.1956 Z-0.0100
G01 G54 X0.4119 Y-2.3512 Z-0.0100
G01 G54 X0.4136 Y-2.3551 Z-0.0100
G01 G54 X0.4833 Y-2.5100 Z-0.0100
G01 G54 X0.4851 Y-2.5138 Z-0.0100
G01 G54 X0.5605 Y-2.6671 Z-0.0100
G01 G54 X0.5624 Y-2.6709 Z-0.0100
G01 G54 X0.6422 Y-2.8200 Z-0.0100
G01 G54 X0.6444 Y-2.8238 Z-0.0100
G01 G54 X0.7308 Y-2.9724 Z-0.0100
G01 G54 X0.7331 Y-2.9762 Z-0.0100
G01 G54 X0.8251 Y-3.1220 Z-0.0100
G01 G54 X0.8275 Y-3.1258 Z-0.0100
G01 G54 X0.9248 Y-3.2683 Z-0.0100
G01 G54 X0.9274 Y-3.2720 Z-0.0100
G01 G54 X1.0305 Y-3.4120 Z-0.0100
G01 G54 X1.0334 Y-3.4157 Z-0.0100
G01 G54 X1.1427 Y-3.5531 Z-0.0100
G01 G54 X1.1456 Y-3.5566 Z-0.0100
G01 G54 X1.2605 Y-3.6905 Z-0.0100
G01 G54 X1.2636 Y-3.6940 Z-0.0100
G01 G54 X1.3856 Y-3.8259 Z-0.0100
G01 G54 X1.3888 Y-3.8293 Z-0.0100
G01 G54 X1.5164 Y-3.9574 Z-0.0100
G01 G54 X1.5198 Y-3.9606 Z-0.0100
G01 G54 X1.6538 Y-4.0855 Z-0.0100
G01 G54 X1.6573 Y-4.0886 Z-0.0100
G01 G54 X1.7970 Y-4.2094 Z-0.0100
G01 G54 X1.8006 Y-4.2124 Z-0.0100
G01 G54 X1.9481 Y-4.3306 Z-0.0100
G01 G54 X1.9518 Y-4.3334 Z-0.0100
G01 G54 X2.1050 Y-4.4471 Z-0.0100
G01 G54 X2.1087 Y-4.4498 Z-0.0100
G01 G54 X2.2683 Y-4.5595 Z-0.0100
G01 G54 X2.2721 Y-4.5620 Z-0.0100
G01 G54 X2.4394 Y-4.6684 Z-0.0100
G01 G54 X2.4433 Y-4.6707 Z-0.0100
G01 G54 X2.6162 Y-4.7722 Z-0.0100
G01 G54 X2.6201 Y-4.7743 Z-0.0100
G01 G54 X2.8025 Y-4.8729 Z-0.0100
G01 G54 X2.8063 Y-4.8749 Z-0.0100
G01 G54 X2.9919 Y-4.9670 Z-0.0100
G01 G54 X2.9958 Y-4.9688 Z-0.0100
G01 G54 X3.1922 Y-5.0581 Z-0.0100
G01 G54 X3.1959 Y-5.0598 Z-0.0100
G01 G54 X3.3973 Y-5.1434 Z-0.0100
G01 G54 X3.4011 Y-5.1449 Z-0.0100
G01 G54 X3.6114 Y-5.2244 Z-0.0100
G01 G54 X3.6152 Y-5.2257 Z-0.0100
G01 G54 X3.8305 Y-5.2993 Z-0.0100
G01 G54 X3.8342 Y-5.3005 Z-0.0100
G01 G54 X4.0594 Y-5.3698 Z-0.0100
G01 G54 X4.0630 Y-5.3709 Z-0.0100
G01 G54 X4.2962 Y-5.4349 Z-0.0100
G01 G54 X4.2998 Y-5.4358 Z-0.0100
G01 G54 X4.5379 Y-5.4938 Z-0.0100
G01 G54 X4.5414 Y-5.4946 Z-0.0100
G01 G54 X4.7894 Y-5.5475 Z-0.0100
G01 G54 X4.7929 Y-5.5482 Z-0.0100
G01 G54 X5.0484 Y-5.5953 Z-0.0100
G01 G54 X5.0516 Y-5.5959 Z-0.0100
G01 G54 X5.3156 Y-5.6374 Z-0.0100
G01 G54 X5.3189 Y-5.6378 Z-0.0100
G01 G54 X5.5894 Y-5.6730 Z-0.0100
G01 G54 X5.5926 Y-5.6734 Z-0.0100
G01 G54 X5.8715 Y-5.7026 Z-0.0100
G01 G54 X5.8746 Y-5.7029 Z-0.0100
G01 G54 X6.1635 Y-5.7260 Z-0.0100
G01 G54 X6.1664 Y-5.7262 Z-0.0100
G01 G54 X6.4622 Y-5.7427 Z-0.0100
G01 G54 X6.4651 Y-5.7429 Z-0.0100
G01 G54 X6.7694 Y-5.7529 Z-0.0100
G01 G54 X6.7722 Y-5.7530 Z-0.0100
G01 G54 X7.0833 Y-5.7564 Z-0.0100
G01 G54 X7.0925 Y-5.7561 Z-0.0100
G01 G54 X7.6242 Y-5.7227 Z-0.0100
G01 G54 X8.1588 Y-5.6898 Z-0.0100
G01 G54 X8.6936 Y-5.6575 Z-0.0100
G01 G54 X8.6960 Y-5.6574 Z-0.0100
G01 G54 X9.2272 Y-5.6260 Z-0.0100
G01 G54 X9.2283 Y-5.6260 Z-0.0100
G01 G54 X9.7632 Y-5.5950 Z-0.0100
G01 G54 X10.2981 Y-5.5648 Z-0.0100
G01 G54 X10.8329 Y-5.5351 Z-0.0100
G01 G54 X11.3666 Y-5.5063 Z-0.0100
G01 G54 X11.3679 Y-5.5062 Z-0.0100
G01 G54 X11.9029 Y-5.4780 Z-0.0100
G01 G54 X12.4379 Y-5.4503 Z-0.0100
G01 G54 X12.9729 Y-5.4234 Z-0.0100
G01 G54 X12.9759 Y-5.4232 Z-0.0100
G01 G54 X13.5080 Y-5.3970 Z-0.0100
G01 G54 X14.0417 Y-5.3715 Z-0.0100
G01 G54 X14.0431 Y-5.3714 Z-0.0100
G01 G54 X14.5783 Y-5.3465 Z-0.0100
G01 G54 X15.1134 Y-5.3222 Z-0.0100
G01 G54 X15.6486 Y-5.2985 Z-0.0100
G01 G54 X16.1838 Y-5.2755 Z-0.0100
G01 G54 X16.7191 Y-5.2532 Z-0.0100
G01 G54 X17.2527 Y-5.2316 Z-0.0100
G01 G54 X17.2544 Y-5.2316 Z-0.0100
G01 G54 X17.7897 Y-5.2106 Z-0.0100
G01 G54 X17.7915 Y-5.2105 Z-0.0100
G01 G54 X18.3250 Y-5.1902 Z-0.0100
G01 G54 X18.8604 Y-5.1705 Z-0.0100
G01 G54 X19.3958 Y-5.1515 Z-0.0100
G01 G54 X19.9312 Y-5.1332 Z-0.0100
G01 G54 X20.4666 Y-5.1155 Z-0.0100
G01 G54 X21.0002 Y-5.0985 Z-0.0100
G01 G54 X21.0020 Y-5.0985 Z-0.0100
G01 G54 X21.5375 Y-5.0822 Z-0.0100
G01 G54 X22.0730 Y-5.0664 Z-0.0100
G01 G54 X22.6085 Y-5.0514 Z-0.0100
G01 G54 X23.1440 Y-5.0370 Z-0.0100
G01 G54 X23.6796 Y-5.0233 Z-0.0100
G01 G54 X24.2151 Y-5.0103 Z-0.0100
G01 G54 X24.7507 Y-4.9979 Z-0.0100
G01 G54 X24.7544 Y-4.9978 Z-0.0100
G01 G54 X25.2863 Y-4.9861 Z-0.0100
G01 G54 X25.8219 Y-4.9751 Z-0.0100
G01 G54 X26.3575 Y-4.9647 Z-0.0100
G01 G54 X26.8910 Y-4.9550 Z-0.0100
G01 G54 X26.8931 Y-4.9550 Z-0.0100
G01 G54 X27.4288 Y-4.9459 Z-0.0100
G01 G54 X27.9644 Y-4.9375 Z-0.0100
G01 G54 X28.5001 Y-4.9297 Z-0.0100
G01 G54 X29.0358 Y-4.9227 Z-0.0100
G01 G54 X29.5714 Y-4.9162 Z-0.0100
G01 G54 X30.1072 Y-4.9105 Z-0.0100
G01 G54 X30.6428 Y-4.9054 Z-0.0100
G01 G54 X31.1785 Y-4.9009 Z-0.0100
G01 G54 X31.7142 Y-4.8972 Z-0.0100
G01 G54 X32.2499 Y-4.8940 Z-0.0100
G01 G54 X32.7856 Y-4.8916 Z-0.0100
G01 G54 X33.3213 Y-4.8898 Z-0.0100
G01 G54 X33.8571 Y-4.8887 Z-0.0100
G01 G54 X34.3928 Y-4.8883 Z-0.0100
G01 G54 X34.9285 Y-4.8885 Z-0.0100
G01 G54 X35.4642 Y-4.8893 Z-0.0100
G01 G54 X35.9999 Y-4.8909 Z-0.0100
G01 G54 X36.5356 Y-4.8931 Z-0.0100
G01 G54 X37.0713 Y-4.8959 Z-0.0100
G01 G54 X37.6070 Y-4.8994 Z-0.0100
G01 G54 X38.1427 Y-4.9036 Z-0.0100
G01 G54 X38.6784 Y-4.9085 Z-0.0100
G01 G54 X39.2141 Y-4.9140 Z-0.0100
G01 G54 X39.7498 Y-4.9201 Z-0.0100
G01 G54 X40.2855 Y-4.9270 Z-0.0100
G01 G54 X40.8211 Y-4.9345 Z-0.0100
G01 G54 X41.3568 Y-4.9426 Z-0.0100
G01 G54 X41.8924 Y-4.9514 Z-0.0100
G01 G54 X42.4281 Y-4.9609 Z-0.0100
G01 G54 X42.4301 Y-4.9609 Z-0.0100
G01 G54 X42.9637 Y-4.9711 Z-0.0100
G01 G54 X43.4993 Y-4.9819 Z-0.0100
G01 G54 X44.0312 Y-4.9933 Z-0.0100
G01 G54 X44.0349 Y-4.9934 Z-0.0100
G01 G54 X44.5705 Y-5.0055 Z-0.0100
G01 G54 X45.1060 Y-5.0183 Z-0.0100
G01 G54 X45.6416 Y-5.0318 Z-0.0100
G01 G54 X46.1771 Y-5.0459 Z-0.0100
G01 G54 X46.7127 Y-5.0607 Z-0.0100
G01 G54 X47.2481 Y-5.0761 Z-0.0100
G01 G54 X47.7837 Y-5.0923 Z-0.0100
G01 G54 X47.7855 Y-5.0923 Z-0.0100
G01 G54 X48.3191 Y-5.1090 Z-0.0100
G01 G54 X48.8545 Y-5.1264 Z-0.0100
G01 G54 X49.3899 Y-5.1445 Z-0.0100
G01 G54 X49.9253 Y-5.1633 Z-0.0100
G01 G54 X50.4607 Y-5.1827 Z-0.0100
G01 G54 X50.9942 Y-5.2027 Z-0.0100
G01 G54 X50.9960 Y-5.2028 Z-0.0100
G01 G54 X51.5314 Y-5.2236 Z-0.0100
G01 G54 X51.5329 Y-5.2237 Z-0.0100
G01 G54 X52.0666 Y-5.2450 Z-0.0100
G01 G54 X52.6019 Y-5.2670 Z-0.0100
G01 G54 X53.1371 Y-5.2898 Z-0.0100
G01 G54 X53.6723 Y-5.3132 Z-0.0100
G01 G54 X54.2075 Y-5.3372 Z-0.0100
G01 G54 X54.7427 Y-5.3620 Z-0.0100
G01 G54 X54.7441 Y-5.3620 Z-0.0100
G01 G54 X55.2777 Y-5.3873 Z-0.0100
G01 G54 X55.8129 Y-5.4133 Z-0.0100
G01 G54 X56.3448 Y-5.4399 Z-0.0100
G01 G54 X56.3479 Y-5.4401 Z-0.0100
G01 G54 X56.8829 Y-5.4675 Z-0.0100
G01 G54 X57.4180 Y-5.4955 Z-0.0100
G01 G54 X57.4192 Y-5.4955 Z-0.0100
G01 G54 X57.9529 Y-5.5242 Z-0.0100
G01 G54 X58.4877 Y-5.5535 Z-0.0100
G01 G54 X59.0226 Y-5.5835 Z-0.0100
G01 G54 X59.5575 Y-5.6142 Z-0.0100
G01 G54 X60.0916 Y-5.6455 Z-0.0100
G01 G54 X60.0922 Y-5.6456 Z-0.0100
G01 G54 X60.6238 Y-5.6774 Z-0.0100
G01 G54 X60.6331 Y-5.6776 Z-0.0100
G01 G54 X60.8748 Y-5.6743 Z-0.0100
G01 G54 X60.8782 Y-5.6742 Z-0.0100
G01 G54 X61.1132 Y-5.6644 Z-0.0100
G01 G54 X61.1168 Y-5.6642 Z-0.0100
G01 G54 X61.3463 Y-5.6479 Z-0.0100
G01 G54 X61.3501 Y-5.6475 Z-0.0100
G01 G54 X61.5730 Y-5.6250 Z-0.0100
G01 G54 X61.5769 Y-5.6245 Z-0.0100
G01 G54 X61.7944 Y-5.5956 Z-0.0100
G01 G54 X61.7983 Y-5.5950 Z-0.0100
G01 G54 X62.0069 Y-5.5605 Z-0.0100
G01 G54 X62.0109 Y-5.5598 Z-0.0100
G01 G54 X62.2163 Y-5.5190 Z-0.0100
G01 G54 X62.2204 Y-5.5181 Z-0.0100
G01 G54 X62.4166 Y-5.4722 Z-0.0100
G01 G54 X62.4208 Y-5.4712 Z-0.0100
G01 G54 X62.6134 Y-5.4190 Z-0.0100
G01 G54 X62.6176 Y-5.4178 Z-0.0100
G01 G54 X62.8025 Y-5.3607 Z-0.0100
G01 G54 X62.8067 Y-5.3593 Z-0.0100
G01 G54 X62.9875 Y-5.2963 Z-0.0100
G01 G54 X62.9917 Y-5.2948 Z-0.0100
G01 G54 X63.1637 Y-5.2277 Z-0.0100
G01 G54 X63.1681 Y-5.2259 Z-0.0100
G01 G54 X63.3366 Y-5.1529 Z-0.0100
G01 G54 X63.3409 Y-5.1509 Z-0.0100
G01 G54 X63.5029 Y-5.0733 Z-0.0100
G01 G54 X63.5071 Y-5.0712 Z-0.0100
G01 G54 X63.6637 Y-4.9887 Z-0.0100
G01 G54 X63.6679 Y-4.9864 Z-0.0100
G01 G54 X63.8188 Y-4.8994 Z-0.0100
G01 G54 X63.8230 Y-4.8969 Z-0.0100
G01 G54 X63.9684 Y-4.8053 Z-0.0100
G01 G54 X63.9724 Y-4.8027 Z-0.0100
G01 G54 X64.1121 Y-4.7070 Z-0.0100
G01 G54 X64.1161 Y-4.7042 Z-0.0100
G01 G54 X64.2506 Y-4.6042 Z-0.0100
G01 G54 X64.2544 Y-4.6012 Z-0.0100
G01 G54 X64.3834 Y-4.4972 Z-0.0100
G01 G54 X64.3871 Y-4.4941 Z-0.0100
G01 G54 X64.5116 Y-4.3856 Z-0.0100
G01 G54 X64.5152 Y-4.3824 Z-0.0100
G01 G54 X64.6335 Y-4.2710 Z-0.0100
G01 G54 X64.6369 Y-4.2677 Z-0.0100
G01 G54 X64.7518 Y-4.1509 Z-0.0100
G01 G54 X64.7550 Y-4.1475 Z-0.0100
G01 G54 X64.8629 Y-4.0292 Z-0.0100
G01 G54 X64.8660 Y-4.0257 Z-0.0100
G01 G54 X64.9701 Y-3.9029 Z-0.0100
G01 G54 X64.9730 Y-3.8993 Z-0.0100
G01 G54 X65.0728 Y-3.7722 Z-0.0100
G01 G54 X65.0755 Y-3.7687 Z-0.0100
G01 G54 X65.1688 Y-3.6407 Z-0.0100
G01 G54 X65.1714 Y-3.6370 Z-0.0100
G01 G54 X65.2619 Y-3.5033 Z-0.0100
G01 G54 X65.2642 Y-3.4996 Z-0.0100
G01 G54 X65.3488 Y-3.3648 Z-0.0100
G01 G54 X65.3511 Y-3.3612 Z-0.0100
G01 G54 X65.4316 Y-3.2225 Z-0.0100
G01 G54 X65.4337 Y-3.2190 Z-0.0100
G01 G54 X65.5087 Y-3.0795 Z-0.0100
G01 G54 X65.5105 Y-3.0759 Z-0.0100
G01 G54 X65.5826 Y-2.9310 Z-0.0100
G01 G54 X65.5843 Y-2.9274 Z-0.0100
G01 G54 X65.6517 Y-2.7805 Z-0.0100
G01 G54 X65.6532 Y-2.7771 Z-0.0100
G01 G54 X65.7150 Y-2.6309 Z-0.0100
G01 G54 X65.7163 Y-2.6275 Z-0.0100
G01 G54 X65.7751 Y-2.4758 Z-0.0100
G01 G54 X65.7764 Y-2.4724 Z-0.0100
G01 G54 X65.8305 Y-2.3198 Z-0.0100
G01 G54 X65.8316 Y-2.3165 Z-0.0100
G01 G54 X65.8817 Y-2.1618 Z-0.0100
G01 G54 X65.8827 Y-2.1586 Z-0.0100
G01 G54 X65.9289 Y-2.0014 Z-0.0100
G01 G54 X65.9298 Y-1.9981 Z-0.0100
G01 G54 X65.9711 Y-1.8422 Z-0.0100
G01 G54 X65.9719 Y-1.8390 Z-0.0100
G01 G54 X66.0101 Y-1.6785 Z-0.0100
G01 G54 X66.0108 Y-1.6755 Z-0.0100
G01 G54 X66.0450 Y-1.5136 Z-0.0100
G01 G54 X66.0455 Y-1.5106 Z-0.0100
G01 G54 X66.0757 Y-1.3484 Z-0.0100
G01 G54 X66.0762 Y-1.3455 Z-0.0100
G01 G54 X66.1022 Y-1.1840 Z-0.0100
G01 G54 X66.1027 Y-1.1811 Z-0.0100
G01 G54 X66.1253 Y-1.0168 Z-0.0100
G01 G54 X66.1257 Y-1.0140 Z-0.0100
G01 G54 X66.1449 Y-0.8471 Z-0.0100
G01 G54 X66.1452 Y-0.8444 Z-0.0100
G01 G54 X66.1604 Y-0.6802 Z-0.0100
G01 G54 X66.1607 Y-0.6775 Z-0.0100
G01 G54 X66.1726 Y-0.5094 Z-0.0100
G01 G54 X66.1728 Y-0.5068 Z-0.0100
G01 G54 X66.1811 Y-0.3415 Z-0.0100
G01 G54 X66.1812 Y-0.3390 Z-0.0100
G01 G54 X66.1862 Y-0.1718 Z-0.0100
G01 G54 X66.1862 Y-0.1693 Z-0.0100
G01 G54 X66.1879 Y-0.0020 Z-0.0100
G01 G54 X66.1879 Y0.0004 Z-0.0100
G01 G54 X66.1862 Y0.1689 Z-0.0100
G01 G54 X66.1862 Y0.1714 Z-0.0100
G01 G54 X66.1812 Y0.3390 Z-0.0100
G01 G54 X66.1811 Y0.3415 Z-0.0100
G01 G54 X66.1728 Y0.5068 Z-0.0100
G01 G54 X66.1726 Y0.5094 Z-0.0100
G01 G54 X66.1607 Y0.6775 Z-0.0100
G01 G54 X66.1604 Y0.6802 Z-0.0100
G01 G54 X66.1452 Y0.8444 Z-0.0100
G01 G54 X66.1449 Y0.8471 Z-0.0100
G01 G54 X66.1257 Y1.0139 Z-0.0100
G01 G54 X66.1253 Y1.0167 Z-0.0100
G01 G54 X66.1027 Y1.1804 Z-0.0100
G01 G54 X66.1024 Y1.1832 Z-0.0100
G01 G54 X66.0762 Y1.3454 Z-0.0100
G01 G54 X66.0757 Y1.3484 Z-0.0100
G01 G54 X66.0455 Y1.5106 Z-0.0100
G01 G54 X66.0450 Y1.5136 Z-0.0100
G01 G54 X66.0108 Y1.6755 Z-0.0100
G01 G54 X66.0101 Y1.6785 Z-0.0100
G01 G54 X65.9720 Y1.8387 Z-0.0100
G01 G54 X65.9712 Y1.8418 Z-0.0100
G01 G54 X65.9298 Y1.9981 Z-0.0100
G01 G54 X65.9289 Y2.0014 Z-0.0100
G01 G54 X65.8827 Y2.1586 Z-0.0100
G01 G54 X65.8817 Y2.1618 Z-0.0100
G01 G54 X65.8316 Y2.3165 Z-0.0100
G01 G54 X65.8305 Y2.3198 Z-0.0100
G01 G54 X65.7764 Y2.4724 Z-0.0100
G01 G54 X65.7751 Y2.4758 Z-0.0100
G01 G54 X65.7164 Y2.6272 Z-0.0100
G01 G54 X65.7151 Y2.6306 Z-0.0100
G01 G54 X65.6532 Y2.7771 Z-0.0100
G01 G54 X65.6517 Y2.7805 Z-0.0100
G01 G54 X65.5843 Y2.9274 Z-0.0100
G01 G54 X65.5826 Y2.9310 Z-0.0100
G01 G54 X65.5106 Y3.0758 Z-0.0100
G01 G54 X65.5088 Y3.0794 Z-0.0100
G01 G54 X65.4337 Y3.2190 Z-0.0100
G01 G54 X65.4316 Y3.2225 Z-0.0100
G01 G54 X65.3511 Y3.3612 Z-0.0100
G01 G54 X65.3488 Y3.3648 Z-0.0100
G01 G54 X65.2642 Y3.4996 Z-0.0100
G01 G54 X65.2619 Y3.5033 Z-0.0100
G01 G54 X65.1714 Y3.6370 Z-0.0100
G01 G54 X65.1688 Y3.6407 Z-0.0100
G01 G54 X65.0755 Y3.7687 Z-0.0100
G01 G54 X65.0728 Y3.7722 Z-0.0100
G01 G54 X64.9730 Y3.8993 Z-0.0100
G01 G54 X64.9701 Y3.9029 Z-0.0100
G01 G54 X64.8660 Y4.0257 Z-0.0100
G01 G54 X64.8629 Y4.0292 Z-0.0100
G01 G54 X64.7550 Y4.1475 Z-0.0100
G01 G54 X64.7518 Y4.1509 Z-0.0100
G01 G54 X64.6369 Y4.2677 Z-0.0100
G01 G54 X64.6335 Y4.2710 Z-0.0100
G01 G54 X64.5152 Y4.3824 Z-0.0100
G01 G54 X64.5116 Y4.3856 Z-0.0100
G01 G54 X64.3871 Y4.4941 Z-0.0100
G01 G54 X64.3834 Y4.4972 Z-0.0100
G01 G54 X64.2544 Y4.6012 Z-0.0100
G01 G54 X64.2506 Y4.6042 Z-0.0100
G01 G54 X64.1161 Y4.7042 Z-0.0100
G01 G54 X64.1121 Y4.7070 Z-0.0100
G01 G54 X63.9724 Y4.8027 Z-0.0100
G01 G54 X63.9684 Y4.8053 Z-0.0100
G01 G54 X63.8230 Y4.8969 Z-0.0100
G01 G54 X63.8188 Y4.8994 Z-0.0100
G01 G54 X63.6679 Y4.9864 Z-0.0100
G01 G54 X63.6637 Y4.9887 Z-0.0100
G01 G54 X63.5071 Y5.0712 Z-0.0100
G01 G54 X63.5029 Y5.0733 Z-0.0100
G01 G54 X63.3409 Y5.1509 Z-0.0100
G01 G54 X63.3366 Y5.1529 Z-0.0100
G01 G54 X63.1681 Y5.2259 Z-0.0100
G01 G54 X63.1637 Y5.2277 Z-0.0100
G01 G54 X62.9917 Y5.2948 Z-0.0100
G01 G54 X62.9875 Y5.2963 Z-0.0100
G01 G54 X62.8067 Y5.3593 Z-0.0100
G01 G54 X62.8025 Y5.3607 Z-0.0100
G01 G54 X62.6176 Y5.4178 Z-0.0100
G01 G54 X62.6134 Y5.4190 Z-0.0100
G01 G54 X62.4208 Y5.4712 Z-0.0100
G01 G54 X62.4166 Y5.4722 Z-0.0100
G01 G54 X62.2204 Y5.5181 Z-0.0100
G01 G54 X62.2163 Y5.5190 Z-0.0100
G01 G54 X62.0109 Y5.5598 Z-0.0100
G01 G54 X62.0069 Y5.5605 Z-0.0100
G01 G54 X61.7983 Y5.5950 Z-0.0100
G01 G54 X61.7944 Y5.5956 Z-0.0100
G01 G54 X61.5769 Y5.6245 Z-0.0100
G01 G54 X61.5730 Y5.6250 Z-0.0100
G01 G54 X61.3501 Y5.6475 Z-0.0100
G01 G54 X61.3463 Y5.6479 Z-0.0100
G01 G54 X61.1168 Y5.6642 Z-0.0100
G01 G54 X61.1132 Y5.6644 Z-0.0100
G01 G54 X60.8782 Y5.6742 Z-0.0100
G01 G54 X60.8748 Y5.6743 Z-0.0100
G01 G54 X60.6331 Y5.6776 Z-0.0100
G01 G54 X60.6238 Y5.6774 Z-0.0100
G01 G54 X60.0922 Y5.6456 Z-0.0100
G01 G54 X60.0916 Y5.6455 Z-0.0100
G01 G54 X59.5575 Y5.6142 Z-0.0100
G01 G54 X59.0226 Y5.5835 Z-0.0100
G01 G54 X58.4877 Y5.5535 Z-0.0100
G01 G54 X57.9529 Y5.5242 Z-0.0100
G01 G54 X57.4192 Y5.4955 Z-0.0100
G01 G54 X57.4180 Y5.4955 Z-0.0100
G01 G54 X56.8829 Y5.4675 Z-0.0100
G01 G54 X56.3479 Y5.4401 Z-0.0100
G01 G54 X56.3448 Y5.4399 Z-0.0100
G01 G54 X55.8129 Y5.4133 Z-0.0100
G01 G54 X55.2777 Y5.3873 Z-0.0100
G01 G54 X54.7441 Y5.3620 Z-0.0100
G01 G54 X54.7427 Y5.3620 Z-0.0100
G01 G54 X54.2075 Y5.3372 Z-0.0100
G01 G54 X53.6723 Y5.3132 Z-0.0100
G01 G54 X53.1371 Y5.2898 Z-0.0100
G01 G54 X52.6019 Y5.2670 Z-0.0100
G01 G54 X52.0666 Y5.2450 Z-0.0100
G01 G54 X51.5329 Y5.2237 Z-0.0100
G01 G54 X51.5314 Y5.2236 Z-0.0100
G01 G54 X50.9960 Y5.2028 Z-0.0100
G01 G54 X50.9942 Y5.2027 Z-0.0100
G01 G54 X50.4607 Y5.1827 Z-0.0100
G01 G54 X49.9253 Y5.1633 Z-0.0100
G01 G54 X49.3899 Y5.1445 Z-0.0100
G01 G54 X48.8545 Y5.1264 Z-0.0100
G01 G54 X48.3191 Y5.1090 Z-0.0100
G01 G54 X47.7855 Y5.0923 Z-0.0100
G01 G54 X47.7837 Y5.0923 Z-0.0100
G01 G54 X47.2481 Y5.0761 Z-0.0100
G01 G54 X46.7127 Y5.0607 Z-0.0100
G01 G54 X46.1771 Y5.0459 Z-0.0100
G01 G54 X45.6416 Y5.0318 Z-0.0100
G01 G54 X45.1060 Y5.0183 Z-0.0100
G01 G54 X44.5705 Y5.0055 Z-0.0100
G01 G54 X44.0349 Y4.9934 Z-0.0100
G01 G54 X44.0312 Y4.9933 Z-0.0100
G01 G54 X43.4993 Y4.9819 Z-0.0100
G01 G54 X42.9637 Y4.9711 Z-0.0100
G01 G54 X42.4301 Y4.9609 Z-0.0100
G01 G54 X42.4281 Y4.9609 Z-0.0100
G01 G54 X41.8924 Y4.9514 Z-0.0100
G01 G54 X41.3568 Y4.9426 Z-0.0100
G01 G54 X40.8211 Y4.9345 Z-0.0100
G01 G54 X40.2855 Y4.9270 Z-0.0100
G01 G54 X39.7498 Y4.9201 Z-0.0100
G01 G54 X39.2141 Y4.9140 Z-0.0100
G01 G54 X38.6784 Y4.9085 Z-0.0100
G01 G54 X38.1427 Y4.9036 Z-0.0100
G01 G54 X37.6070 Y4.8994 Z-0.0100
G01 G54 X37.0713 Y4.8959 Z-0.0100
G01 G54 X36.5356 Y4.8931 Z-0.0100
G01 G54 X35.9999 Y4.8909 Z-0.0100
G01 G54 X35.4642 Y4.8893 Z-0.0100
G01 G54 X34.9285 Y4.8885 Z-0.0100
G01 G54 X34.3928 Y4.8883 Z-0.0100
G01 G54 X33.8571 Y4.8887 Z-0.0100
G01 G54 X33.3213 Y4.8898 Z-0.0100
G01 G54 X32.7856 Y4.8916 Z-0.0100
G01 G54 X32.2499 Y4.8940 Z-0.0100
G01 G54 X31.7142 Y4.8972 Z-0.0100
G01 G54 X31.1785 Y4.9009 Z-0.0100
G01 G54 X30.6428 Y4.9054 Z-0.0100
G01 G54 X30.1072 Y4.9105 Z-0.0100
G01 G54 X29.5714 Y4.9162 Z-0.0100
G01 G54 X29.0358 Y4.9227 Z-0.0100
G01 G54 X28.5001 Y4.9297 Z-0.0100
G01 G54 X27.9644 Y4.9375 Z-0.0100
G01 G54 X27.4288 Y4.9459 Z-0.0100
G01 G54 X26.8931 Y4.9550 Z-0.0100
G01 G54 X26.8910 Y4.9550 Z-0.0100
G01 G54 X26.3575 Y4.9647 Z-0.0100
G01 G54 X25.8219 Y4.9751 Z-0.0100
G01 G54 X25.2863 Y4.9861 Z-0.0100
G01 G54 X24.7544 Y4.9978 Z-0.0100
G01 G54 X24.7507 Y4.9979 Z-0.0100
G01 G54 X24.2151 Y5.0103 Z-0.0100
G01 G54 X23.6796 Y5.0233 Z-0.0100
G01 G54 X23.1440 Y5.0370 Z-0.0100
G01 G54 X22.6085 Y5.0514 Z-0.0100
G01 G54 X22.0730 Y5.0664 Z-0.0100
G01 G54 X21.5375 Y5.0822 Z-0.0100
G01 G54 X21.0020 Y5.0985 Z-0.0100
G01 G54 X21.0002 Y5.0985 Z-0.0100
G01 G54 X20.4666 Y5.1155 Z-0.0100
G01 G54 X19.9312 Y5.1332 Z-0.0100
G01 G54 X19.3958 Y5.1515 Z-0.0100
G01 G54 X18.8604 Y5.1705 Z-0.0100
G01 G54 X18.3250 Y5.1902 Z-0.0100
G01 G54 X17.7915 Y5.2105 Z-0.0100
G01 G54 X17.7897 Y5.2106 Z-0.0100
G01 G54 X17.2544 Y5.2316 Z-0.0100
G01 G54 X17.2527 Y5.2316 Z-0.0100
G01 G54 X16.7191 Y5.2532 Z-0.0100
G01 G54 X16.1838 Y5.2755 Z-0.0100
G01 G54 X15.6486 Y5.2985 Z-0.0100
G01 G54 X15.1134 Y5.3222 Z-0.0100
G01 G54 X14.5783 Y5.3465 Z-0.0100
G01 G54 X14.0431 Y5.3714 Z-0.0100
G01 G54 X14.0417 Y5.3715 Z-0.0100
G01 G54 X13.5080 Y5.3970 Z-0.0100
G01 G54 X12.9759 Y5.4232 Z-0.0100
G01 G54 X12.9729 Y5.4234 Z-0.0100
G01 G54 X12.4379 Y5.4503 Z-0.0100
G01 G54 X11.9029 Y5.4780 Z-0.0100
G01 G54 X11.3679 Y5.5062 Z-0.0100
G01 G54 X11.3666 Y5.5063 Z-0.0100
G01 G54 X10.8329 Y5.5351 Z-0.0100
G01 G54 X10.2981 Y5.5648 Z-0.0100
G01 G54 X9.7632 Y5.5950 Z-0.0100
G01 G54 X9.2283 Y5.6260 Z-0.0100
G01 G54 X9.2272 Y5.6260 Z-0.0100
G01 G54 X8.6960 Y5.6574 Z-0.0100
G01 G54 X8.6936 Y5.6575 Z-0.0100
G01 G54 X8.1588 Y5.6898 Z-0.0100
G01 G54 X7.6242 Y5.7227 Z-0.0100
G01 G54 X7.0925 Y5.7561 Z-0.0100
G01 G54 X7.0833 Y5.7564 Z-0.0100
G01 G54 X6.7722 Y5.7530 Z-0.0100
G01 G54 X6.7694 Y5.7529 Z-0.0100
G01 G54 X6.4651 Y5.7429 Z-0.0100
G01 G54 X6.4622 Y5.7427 Z-0.0100
G01 G54 X6.1664 Y5.7262 Z-0.0100
G01 G54 X6.1635 Y5.7260 Z-0.0100
G01 G54 X5.8746 Y5.7029 Z-0.0100
G01 G54 X5.8715 Y5.7026 Z-0.0100
G01 G54 X5.5926 Y5.6734 Z-0.0100
G01 G54 X5.5894 Y5.6730 Z-0.0100
G01 G54 X5.3189 Y5.6378 Z-0.0100
G01 G54 X5.3156 Y5.6374 Z-0.0100
G01 G54 X5.0516 Y5.5959 Z-0.0100
G01 G54 X5.0484 Y5.5953 Z-0.0100
G01 G54 X4.7929 Y5.5482 Z-0.0100
G01 G54 X4.7894 Y5.5475 Z-0.0100
G01 G54 X4.5414 Y5.4946 Z-0.0100
G01 G54 X4.5379 Y5.4938 Z-0.0100
G01 G54 X4.2998 Y5.4358 Z-0.0100
G01 G54 X4.2962 Y5.4349 Z-0.0100
G01 G54 X4.0630 Y5.3709 Z-0.0100
G01 G54 X4.0594 Y5.3698 Z-0.0100
G01 G54 X3.8342 Y5.3005 Z-0.0100
G01 G54 X3.8305 Y5.2993 Z-0.0100
G01 G54 X3.6152 Y5.2257 Z-0.0100
G01 G54 X3.6114 Y5.2244 Z-0.0100
G01 G54 X3.4011 Y5.1449 Z-0.0100
G01 G54 X3.3973 Y5.1434 Z-0.0100
G01 G54 X3.1959 Y5.0598 Z-0.0100
G01 G54 X3.1922 Y5.0581 Z-0.0100
G01 G54 X2.9958 Y4.9688 Z-0.0100
G01 G54 X2.9919 Y4.9670 Z-0.0100
G01 G54 X2.8061 Y4.8748 Z-0.0100
G01 G54 X2.8023 Y4.8727 Z-0.0100
G01 G54 X2.6201 Y4.7743 Z-0.0100
G01 G54 X2.6162 Y4.7722 Z-0.0100
G01 G54 X2.4433 Y4.6707 Z-0.0100
G01 G54 X2.4394 Y4.6684 Z-0.0100
G01 G54 X2.2721 Y4.5620 Z-0.0100
G01 G54 X2.2683 Y4.5595 Z-0.0100
G01 G54 X2.1087 Y4.4498 Z-0.0100
G01 G54 X2.1050 Y4.4471 Z-0.0100
G01 G54 X1.9518 Y4.3334 Z-0.0100
G01 G54 X1.9481 Y4.3306 Z-0.0100
G01 G54 X1.8006 Y4.2124 Z-0.0100
G01 G54 X1.7970 Y4.2094 Z-0.0100
G01 G54 X1.6573 Y4.0886 Z-0.0100
G01 G54 X1.6538 Y4.0855 Z-0.0100
G01 G54 X1.5198 Y3.9606 Z-0.0100
G01 G54 X1.5164 Y3.9574 Z-0.0100
G01 G54 X1.3888 Y3.8293 Z-0.0100
G01 G54 X1.3856 Y3.8259 Z-0.0100
G01 G54 X1.2636 Y3.6940 Z-0.0100
G01 G54 X1.2605 Y3.6905 Z-0.0100
G01 G54 X1.1456 Y3.5566 Z-0.0100
G01 G54 X1.1427 Y3.5531 Z-0.0100
G01 G54 X1.0334 Y3.4157 Z-0.0100
G01 G54 X1.0305 Y3.4120 Z-0.0100
G01 G54 X0.9274 Y3.2720 Z-0.0100
G01 G54 X0.9248 Y3.2683 Z-0.0100
G01 G54 X0.8275 Y3.1258 Z-0.0100
G01 G54 X0.8251 Y3.1220 Z-0.0100
G01 G54 X0.7331 Y2.9761 Z-0.0100
G01 G54 X0.7308 Y2.9723 Z-0.0100
G01 G54 X0.6444 Y2.8238 Z-0.0100
G01 G54 X0.6422 Y2.8200 Z-0.0100
G01 G54 X0.5624 Y2.6709 Z-0.0100
G01 G54 X0.5605 Y2.6671 Z-0.0100
G01 G54 X0.4851 Y2.5138 Z-0.0100
G01 G54 X0.4833 Y2.5100 Z-0.0100
G01 G54 X0.4136 Y2.3551 Z-0.0100
G01 G54 X0.4119 Y2.3512 Z-0.0100
G01 G54 X0.3481 Y2.1956 Z-0.0100
G01 G54 X0.3466 Y2.1918 Z-0.0100
G01 G54 X0.2878 Y2.0339 Z-0.0100
G01 G54 X0.2864 Y2.0301 Z-0.0100
G01 G54 X0.2325 Y1.8697 Z-0.0100
G01 G54 X0.2314 Y1.8659 Z-0.0100
G01 G54 X0.1829 Y1.7049 Z-0.0100
G01 G54 X0.1818 Y1.7012 Z-0.0100
G01 G54 X0.1381 Y1.5383 Z-0.0100
G01 G54 X0.1372 Y1.5346 Z-0.0100
G01 G54 X0.0983 Y1.3693 Z-0.0100
G01 G54 X0.0975 Y1.3657 Z-0.0100
G01 G54 X0.0639 Y1.2019 Z-0.0100
G01 G54 X0.0632 Y1.1984 Z-0.0100
G01 G54 X0.0341 Y1.0320 Z-0.0100
G01 G54 X0.0336 Y1.0285 Z-0.0100
G01 G54 X0.0092 Y0.8612 Z-0.0100
G01 G54 X0.0088 Y0.8578 Z-0.0100
G01 G54 X-0.0108 Y0.6907 Z-0.0100
G01 G54 X-0.0111 Y0.6874 Z-0.0100
G01 G54 X-0.0264 Y0.5183 Z-0.0100
G01 G54 X-0.0267 Y0.5150 Z-0.0100
G01 G54 X-0.0374 Y0.3469 Z-0.0100
G01 G54 X-0.0376 Y0.3437 Z-0.0100
G01 G54 X-0.0440 Y0.1730 Z-0.0100
G01 G54 X-0.0441 Y0.1698 Z-0.0100
G01 G54 X-0.0462 Y0.0015 Z-0.0100
G01 G54 X-0.0462 Y-0.0015 Z-0.0100
G00 G54 X-0.0462 Y-0.0015 Z0.1000
M05
G00 G54 X0.0000 Y0.0000 Z0.1000
G49
G01 G55 Z0 F20
G00 G55 X0 Y0 Z0
M30
