( Sample-ski-base-cutout.nc                                                    )
( Generated by MonkeyCAM v4.0.4 at 2016-07-26 22:44:28 New Zealand Standard Time
(                                                                              )
( This GCode program is provided on an "AS IS" BASIS WITHOUT WARRANTIES OR     )
( CONDITIONS OF ANY KIND, either express or implied. You should inspect this   )
( program very carefully to confirm you understand its operation. YOU ARE      )
( RESPONSIBLE FOR ENSURING THIS PROGRAM WILL NOT DAMAGE YOUR MACHINE OR        )
( MATERIALS.                                                                   )
(                                                                              )
( See http://www.github.com/mikemag/MonkeyCAM for License and documentation.   )
(                                                                              )
( * Rapid height: 0.2500" [0.6350cm]                                           )
( * Tool: T1, Quarter Inch Straight, diameter 0.2500" [0.6350cm]               )
( * Height baseline [Z=0.0] is the top of the table.                           )
( * XY origin is the left side of the table, Y is center of the part.          )
( * Requires G54 to be the part work coordinate offsets [WCO]. [0, 0] is the   )
(   center of the nose, with the board extending to positive X. The cutter may )
(   move to negative values of X.                                              )
( * Requires G55 to be the machine WCO, with Z above the rapid height.         )
( * Units are inches                                                           )
( * Center of the board in G54:                                                )
(     X=36.0236 Y=0.0000 Z=0.0000                                              )
( * Cutter bounding box in G54:                                                )
(     X-0.0462 Y-2.5818 Z-0.0100 to X70.3218 Y2.5818 Z0.2500                   )

G90 G20 G17 G40 G49
G43 H1 T1
G00 G54 X0 Y0 Z0.2500

G00 X-0.0462 Y-0.3921 Z0.2500
M03
G04 P5
G01 X-0.0462 Y-0.3921 Z-0.0100 F80
G01 X-0.0462 Y-0.3946 Z-0.0100
G01 X-0.0449 Y-0.4578 Z-0.0100
G01 X-0.0447 Y-0.4630 Z-0.0100
G01 X-0.0410 Y-0.5233 Z-0.0100
G01 X-0.0406 Y-0.5285 Z-0.0100
G01 X-0.0343 Y-0.5887 Z-0.0100
G01 X-0.0337 Y-0.5940 Z-0.0100
G01 X-0.0245 Y-0.6559 Z-0.0100
G01 X-0.0236 Y-0.6612 Z-0.0100
G01 X-0.0122 Y-0.7205 Z-0.0100
G01 X-0.0111 Y-0.7258 Z-0.0100
G01 X0.0031 Y-0.7859 Z-0.0100
G01 X0.0045 Y-0.7913 Z-0.0100
G01 X0.0218 Y-0.8521 Z-0.0100
G01 X0.0234 Y-0.8574 Z-0.0100
G01 X0.0430 Y-0.9162 Z-0.0100
G01 X0.0450 Y-0.9215 Z-0.0100
G01 X0.0677 Y-0.9807 Z-0.0100
G01 X0.0698 Y-0.9858 Z-0.0100
G01 X0.0953 Y-1.0441 Z-0.0100
G01 X0.0976 Y-1.0491 Z-0.0100
G01 X0.1265 Y-1.1081 Z-0.0100
G01 X0.1291 Y-1.1132 Z-0.0100
G01 X0.1607 Y-1.1707 Z-0.0100
G01 X0.1634 Y-1.1755 Z-0.0100
G01 X0.1981 Y-1.2326 Z-0.0100
G01 X0.2010 Y-1.2372 Z-0.0100
G01 X0.2390 Y-1.2942 Z-0.0100
G01 X0.2422 Y-1.2986 Z-0.0100
G01 X0.2828 Y-1.3540 Z-0.0100
G01 X0.2861 Y-1.3583 Z-0.0100
G01 X0.3311 Y-1.4145 Z-0.0100
G01 X0.3344 Y-1.4185 Z-0.0100
G01 X0.3823 Y-1.4734 Z-0.0100
G01 X0.3858 Y-1.4773 Z-0.0100
G01 X0.4366 Y-1.5309 Z-0.0100
G01 X0.4401 Y-1.5344 Z-0.0100
G01 X0.4951 Y-1.5879 Z-0.0100
G01 X0.4987 Y-1.5913 Z-0.0100
G01 X0.5565 Y-1.6433 Z-0.0100
G01 X0.5600 Y-1.6464 Z-0.0100
G01 X0.6220 Y-1.6980 Z-0.0100
G01 X0.6257 Y-1.7010 Z-0.0100
G01 X0.6924 Y-1.7524 Z-0.0100
G01 X0.6960 Y-1.7551 Z-0.0100
G01 X0.7645 Y-1.8041 Z-0.0100
G01 X0.7681 Y-1.8066 Z-0.0100
G01 X0.8409 Y-1.8549 Z-0.0100
G01 X0.8445 Y-1.8572 Z-0.0100
G01 X0.9226 Y-1.9053 Z-0.0100
G01 X0.9262 Y-1.9075 Z-0.0100
G01 X1.0057 Y-1.9529 Z-0.0100
G01 X1.0092 Y-1.9548 Z-0.0100
G01 X1.0944 Y-2.0000 Z-0.0100
G01 X1.0978 Y-2.0018 Z-0.0100
G01 X1.1873 Y-2.0458 Z-0.0100
G01 X1.1907 Y-2.0474 Z-0.0100
G01 X1.2834 Y-2.0897 Z-0.0100
G01 X1.2867 Y-2.0911 Z-0.0100
G01 X1.3851 Y-2.1326 Z-0.0100
G01 X1.3883 Y-2.1339 Z-0.0100
G01 X1.4878 Y-2.1727 Z-0.0100
G01 X1.4909 Y-2.1739 Z-0.0100
G01 X1.5985 Y-2.2126 Z-0.0100
G01 X1.6014 Y-2.2137 Z-0.0100
G01 X1.7105 Y-2.2498 Z-0.0100
G01 X1.7135 Y-2.2508 Z-0.0100
G01 X1.8281 Y-2.2857 Z-0.0100
G01 X1.8309 Y-2.2865 Z-0.0100
G01 X1.9492 Y-2.3195 Z-0.0100
G01 X1.9518 Y-2.3202 Z-0.0100
G01 X2.0759 Y-2.3519 Z-0.0100
G01 X2.0786 Y-2.3525 Z-0.0100
G01 X2.2061 Y-2.3821 Z-0.0100
G01 X2.2087 Y-2.3827 Z-0.0100
G01 X2.3410 Y-2.4104 Z-0.0100
G01 X2.3434 Y-2.4109 Z-0.0100
G01 X2.4801 Y-2.4367 Z-0.0100
G01 X2.4824 Y-2.4371 Z-0.0100
G01 X2.6244 Y-2.4611 Z-0.0100
G01 X2.6267 Y-2.4614 Z-0.0100
G01 X2.7735 Y-2.4834 Z-0.0100
G01 X2.7757 Y-2.4837 Z-0.0100
G01 X2.9275 Y-2.5036 Z-0.0100
G01 X2.9296 Y-2.5038 Z-0.0100
G01 X3.0843 Y-2.5214 Z-0.0100
G01 X3.0864 Y-2.5216 Z-0.0100
G01 X3.2474 Y-2.5370 Z-0.0100
G01 X3.2493 Y-2.5372 Z-0.0100
G01 X3.4164 Y-2.5506 Z-0.0100
G01 X3.4184 Y-2.5508 Z-0.0100
G01 X3.5880 Y-2.5616 Z-0.0100
G01 X3.5898 Y-2.5617 Z-0.0100
G01 X3.7669 Y-2.5704 Z-0.0100
G01 X3.7687 Y-2.5705 Z-0.0100
G01 X3.9485 Y-2.5767 Z-0.0100
G01 X3.9503 Y-2.5767 Z-0.0100
G01 X4.1374 Y-2.5805 Z-0.0100
G01 X4.1390 Y-2.5805 Z-0.0100
G01 X4.3289 Y-2.5818 Z-0.0100
G01 X4.3347 Y-2.5817 Z-0.0100
G01 X4.9643 Y-2.5566 Z-0.0100
G01 X4.9659 Y-2.5566 Z-0.0100
G01 X5.5995 Y-2.5318 Z-0.0100
G01 X5.6020 Y-2.5317 Z-0.0100
G01 X6.2329 Y-2.5075 Z-0.0100
G01 X6.8665 Y-2.4837 Z-0.0100
G01 X7.5000 Y-2.4603 Z-0.0100
G01 X8.1336 Y-2.4373 Z-0.0100
G01 X8.7672 Y-2.4148 Z-0.0100
G01 X9.4007 Y-2.3928 Z-0.0100
G01 X10.0343 Y-2.3712 Z-0.0100
G01 X10.6679 Y-2.3501 Z-0.0100
G01 X11.3016 Y-2.3294 Z-0.0100
G01 X11.9352 Y-2.3092 Z-0.0100
G01 X12.5670 Y-2.2894 Z-0.0100
G01 X12.5688 Y-2.2894 Z-0.0100
G01 X13.2025 Y-2.2701 Z-0.0100
G01 X13.8362 Y-2.2513 Z-0.0100
G01 X14.4699 Y-2.2329 Z-0.0100
G01 X15.1036 Y-2.2149 Z-0.0100
G01 X15.7374 Y-2.1974 Z-0.0100
G01 X16.3711 Y-2.1803 Z-0.0100
G01 X17.0048 Y-2.1638 Z-0.0100
G01 X17.6386 Y-2.1476 Z-0.0100
G01 X18.2724 Y-2.1320 Z-0.0100
G01 X18.9061 Y-2.1167 Z-0.0100
G01 X19.5400 Y-2.1019 Z-0.0100
G01 X20.1738 Y-2.0876 Z-0.0100
G01 X20.1774 Y-2.0875 Z-0.0100
G01 X20.8075 Y-2.0737 Z-0.0100
G01 X21.4414 Y-2.0603 Z-0.0100
G01 X22.0752 Y-2.0473 Z-0.0100
G01 X22.7091 Y-2.0348 Z-0.0100
G01 X23.3429 Y-2.0227 Z-0.0100
G01 X23.9746 Y-2.0112 Z-0.0100
G01 X23.9768 Y-2.0112 Z-0.0100
G01 X24.6107 Y-2.0000 Z-0.0100
G01 X25.2445 Y-1.9893 Z-0.0100
G01 X25.8784 Y-1.9791 Z-0.0100
G01 X26.5123 Y-1.9693 Z-0.0100
G01 X27.1462 Y-1.9600 Z-0.0100
G01 X27.7801 Y-1.9511 Z-0.0100
G01 X28.4140 Y-1.9427 Z-0.0100
G01 X29.0479 Y-1.9347 Z-0.0100
G01 X29.6818 Y-1.9272 Z-0.0100
G01 X30.3158 Y-1.9201 Z-0.0100
G01 X30.9497 Y-1.9135 Z-0.0100
G01 X31.5837 Y-1.9073 Z-0.0100
G01 X32.2176 Y-1.9016 Z-0.0100
G01 X32.8515 Y-1.8964 Z-0.0100
G01 X33.4855 Y-1.8916 Z-0.0100
G01 X34.1194 Y-1.8872 Z-0.0100
G01 X34.7534 Y-1.8833 Z-0.0100
G01 X35.3873 Y-1.8799 Z-0.0100
G01 X36.0213 Y-1.8769 Z-0.0100
G01 X36.6553 Y-1.8744 Z-0.0100
G01 X37.2892 Y-1.8723 Z-0.0100
G01 X37.9232 Y-1.8707 Z-0.0100
G01 X38.5572 Y-1.8695 Z-0.0100
G01 X39.1912 Y-1.8688 Z-0.0100
G01 X39.8251 Y-1.8685 Z-0.0100
G01 X40.4590 Y-1.8687 Z-0.0100
G01 X41.0929 Y-1.8694 Z-0.0100
G01 X41.7270 Y-1.8705 Z-0.0100
G01 X42.3609 Y-1.8720 Z-0.0100
G01 X42.9949 Y-1.8740 Z-0.0100
G01 X43.6288 Y-1.8765 Z-0.0100
G01 X44.2628 Y-1.8794 Z-0.0100
G01 X44.8968 Y-1.8828 Z-0.0100
G01 X45.5307 Y-1.8866 Z-0.0100
G01 X46.1647 Y-1.8909 Z-0.0100
G01 X46.7986 Y-1.8956 Z-0.0100
G01 X47.4326 Y-1.9008 Z-0.0100
G01 X48.0665 Y-1.9064 Z-0.0100
G01 X48.7005 Y-1.9125 Z-0.0100
G01 X49.3344 Y-1.9191 Z-0.0100
G01 X49.9683 Y-1.9261 Z-0.0100
G01 X50.6022 Y-1.9335 Z-0.0100
G01 X51.2361 Y-1.9414 Z-0.0100
G01 X51.8701 Y-1.9498 Z-0.0100
G01 X52.5039 Y-1.9586 Z-0.0100
G01 X53.1379 Y-1.9679 Z-0.0100
G01 X53.7718 Y-1.9776 Z-0.0100
G01 X54.4057 Y-1.9878 Z-0.0100
G01 X55.0395 Y-1.9984 Z-0.0100
G01 X55.6734 Y-2.0095 Z-0.0100
G01 X55.6755 Y-2.0095 Z-0.0100
G01 X56.3072 Y-2.0210 Z-0.0100
G01 X56.9411 Y-2.0330 Z-0.0100
G01 X57.5750 Y-2.0454 Z-0.0100
G01 X58.2088 Y-2.0583 Z-0.0100
G01 X58.8426 Y-2.0717 Z-0.0100
G01 X59.4727 Y-2.0854 Z-0.0100
G01 X59.4764 Y-2.0855 Z-0.0100
G01 X60.1102 Y-2.0998 Z-0.0100
G01 X60.7440 Y-2.1145 Z-0.0100
G01 X61.3778 Y-2.1297 Z-0.0100
G01 X62.0116 Y-2.1453 Z-0.0100
G01 X62.6453 Y-2.1614 Z-0.0100
G01 X63.2791 Y-2.1779 Z-0.0100
G01 X63.9128 Y-2.1949 Z-0.0100
G01 X64.5465 Y-2.2123 Z-0.0100
G01 X65.1803 Y-2.2302 Z-0.0100
G01 X65.8140 Y-2.2485 Z-0.0100
G01 X66.4477 Y-2.2673 Z-0.0100
G01 X67.0814 Y-2.2866 Z-0.0100
G01 X67.0832 Y-2.2866 Z-0.0100
G01 X67.7136 Y-2.3062 Z-0.0100
G01 X67.7180 Y-2.3063 Z-0.0100
G01 X67.8297 Y-2.3059 Z-0.0100
G01 X67.8306 Y-2.3059 Z-0.0100
G01 X67.9406 Y-2.3046 Z-0.0100
G01 X67.9416 Y-2.3046 Z-0.0100
G01 X68.0455 Y-2.3027 Z-0.0100
G01 X68.0466 Y-2.3027 Z-0.0100
G01 X68.0501 Y-2.3026 Z-0.0100
G01 X68.1535 Y-2.2999 Z-0.0100
G01 X68.1545 Y-2.2998 Z-0.0100
G01 X68.2561 Y-2.2963 Z-0.0100
G01 X68.2571 Y-2.2962 Z-0.0100
G01 X68.3552 Y-2.2920 Z-0.0100
G01 X68.3564 Y-2.2920 Z-0.0100
G01 X68.4507 Y-2.2871 Z-0.0100
G01 X68.4519 Y-2.2870 Z-0.0100
G01 X68.5442 Y-2.2813 Z-0.0100
G01 X68.5454 Y-2.2812 Z-0.0100
G01 X68.6348 Y-2.2749 Z-0.0100
G01 X68.6359 Y-2.2748 Z-0.0100
G01 X68.7233 Y-2.2677 Z-0.0100
G01 X68.7247 Y-2.2676 Z-0.0100
G01 X68.8085 Y-2.2600 Z-0.0100
G01 X68.8097 Y-2.2598 Z-0.0100
G01 X68.8908 Y-2.2516 Z-0.0100
G01 X68.8922 Y-2.2514 Z-0.0100
G01 X68.9696 Y-2.2426 Z-0.0100
G01 X68.9710 Y-2.2424 Z-0.0100
G01 X69.0475 Y-2.2328 Z-0.0100
G01 X69.0491 Y-2.2326 Z-0.0100
G01 X69.1219 Y-2.2226 Z-0.0100
G01 X69.1235 Y-2.2224 Z-0.0100
G01 X69.1927 Y-2.2119 Z-0.0100
G01 X69.1944 Y-2.2116 Z-0.0100
G01 X69.2620 Y-2.2004 Z-0.0100
G01 X69.2637 Y-2.2001 Z-0.0100
G01 X69.3298 Y-2.1883 Z-0.0100
G01 X69.3317 Y-2.1879 Z-0.0100
G01 X69.3933 Y-2.1759 Z-0.0100
G01 X69.3952 Y-2.1756 Z-0.0100
G01 X69.4553 Y-2.1629 Z-0.0100
G01 X69.4573 Y-2.1624 Z-0.0100
G01 X69.5140 Y-2.1495 Z-0.0100
G01 X69.5161 Y-2.1490 Z-0.0100
G01 X69.5717 Y-2.1352 Z-0.0100
G01 X69.5739 Y-2.1347 Z-0.0100
G01 X69.6270 Y-2.1205 Z-0.0100
G01 X69.6294 Y-2.1199 Z-0.0100
G01 X69.6779 Y-2.1060 Z-0.0100
G01 X69.6803 Y-2.1052 Z-0.0100
G01 X69.7294 Y-2.0900 Z-0.0100
G01 X69.7321 Y-2.0892 Z-0.0100
G01 X69.7756 Y-2.0747 Z-0.0100
G01 X69.7781 Y-2.0738 Z-0.0100
G01 X69.8219 Y-2.0581 Z-0.0100
G01 X69.8250 Y-2.0570 Z-0.0100
G01 X69.8662 Y-2.0409 Z-0.0100
G01 X69.8692 Y-2.0398 Z-0.0100
G01 X69.9062 Y-2.0243 Z-0.0100
G01 X69.9094 Y-2.0229 Z-0.0100
G01 X69.9451 Y-2.0068 Z-0.0100
G01 X69.9484 Y-2.0052 Z-0.0100
G01 X69.9825 Y-1.9886 Z-0.0100
G01 X69.9861 Y-1.9868 Z-0.0100
G01 X70.0172 Y-1.9704 Z-0.0100
G01 X70.0211 Y-1.9683 Z-0.0100
G01 X70.0500 Y-1.9518 Z-0.0100
G01 X70.0538 Y-1.9495 Z-0.0100
G01 X70.0813 Y-1.9324 Z-0.0100
G01 X70.0853 Y-1.9298 Z-0.0100
G01 X70.1105 Y-1.9128 Z-0.0100
G01 X70.1148 Y-1.9098 Z-0.0100
G01 X70.1363 Y-1.8939 Z-0.0100
G01 X70.1407 Y-1.8904 Z-0.0100
G01 X70.1624 Y-1.8729 Z-0.0100
G01 X70.1669 Y-1.8691 Z-0.0100
G01 X70.1852 Y-1.8527 Z-0.0100
G01 X70.1899 Y-1.8483 Z-0.0100
G01 X70.2071 Y-1.8313 Z-0.0100
G01 X70.2116 Y-1.8266 Z-0.0100
G01 X70.2261 Y-1.8107 Z-0.0100
G01 X70.2312 Y-1.8048 Z-0.0100
G01 X70.2442 Y-1.7886 Z-0.0100
G01 X70.2487 Y-1.7826 Z-0.0100
G01 X70.2601 Y-1.7665 Z-0.0100
G01 X70.2646 Y-1.7598 Z-0.0100
G01 X70.2742 Y-1.7441 Z-0.0100
G01 X70.2784 Y-1.7368 Z-0.0100
G01 X70.2864 Y-1.7216 Z-0.0100
G01 X70.2901 Y-1.7138 Z-0.0100
G01 X70.2968 Y-1.6986 Z-0.0100
G01 X70.3002 Y-1.6900 Z-0.0100
G01 X70.3056 Y-1.6749 Z-0.0100
G01 X70.3085 Y-1.6657 Z-0.0100
G01 X70.3124 Y-1.6513 Z-0.0100
G01 X70.3145 Y-1.6421 Z-0.0100
G01 X70.3173 Y-1.6275 Z-0.0100
G01 X70.3187 Y-1.6185 Z-0.0100
G01 X70.3203 Y-1.6038 Z-0.0100
G01 X70.3211 Y-1.5942 Z-0.0100
G01 X70.3217 Y-1.5775 Z-0.0100
G01 X70.3218 Y-1.5727 Z-0.0100
G01 X70.3218 Y1.5727 Z-0.0100
G01 X70.3217 Y1.5775 Z-0.0100
G01 X70.3211 Y1.5942 Z-0.0100
G01 X70.3203 Y1.6038 Z-0.0100
G01 X70.3187 Y1.6185 Z-0.0100
G01 X70.3173 Y1.6275 Z-0.0100
G01 X70.3145 Y1.6421 Z-0.0100
G01 X70.3124 Y1.6513 Z-0.0100
G01 X70.3085 Y1.6657 Z-0.0100
G01 X70.3056 Y1.6749 Z-0.0100
G01 X70.3002 Y1.6900 Z-0.0100
G01 X70.2968 Y1.6986 Z-0.0100
G01 X70.2901 Y1.7138 Z-0.0100
G01 X70.2864 Y1.7216 Z-0.0100
G01 X70.2784 Y1.7368 Z-0.0100
G01 X70.2742 Y1.7441 Z-0.0100
G01 X70.2646 Y1.7598 Z-0.0100
G01 X70.2601 Y1.7665 Z-0.0100
G01 X70.2487 Y1.7826 Z-0.0100
G01 X70.2442 Y1.7886 Z-0.0100
G01 X70.2312 Y1.8048 Z-0.0100
G01 X70.2261 Y1.8107 Z-0.0100
G01 X70.2116 Y1.8266 Z-0.0100
G01 X70.2071 Y1.8313 Z-0.0100
G01 X70.1899 Y1.8483 Z-0.0100
G01 X70.1852 Y1.8527 Z-0.0100
G01 X70.1670 Y1.8690 Z-0.0100
G01 X70.1626 Y1.8727 Z-0.0100
G01 X70.1408 Y1.8904 Z-0.0100
G01 X70.1363 Y1.8939 Z-0.0100
G01 X70.1148 Y1.9098 Z-0.0100
G01 X70.1105 Y1.9128 Z-0.0100
G01 X70.0853 Y1.9298 Z-0.0100
G01 X70.0813 Y1.9324 Z-0.0100
G01 X70.0538 Y1.9495 Z-0.0100
G01 X70.0500 Y1.9518 Z-0.0100
G01 X70.0211 Y1.9683 Z-0.0100
G01 X70.0172 Y1.9704 Z-0.0100
G01 X69.9861 Y1.9868 Z-0.0100
G01 X69.9825 Y1.9886 Z-0.0100
G01 X69.9484 Y2.0052 Z-0.0100
G01 X69.9451 Y2.0068 Z-0.0100
G01 X69.9094 Y2.0229 Z-0.0100
G01 X69.9062 Y2.0243 Z-0.0100
G01 X69.8692 Y2.0398 Z-0.0100
G01 X69.8662 Y2.0409 Z-0.0100
G01 X69.8250 Y2.0570 Z-0.0100
G01 X69.8218 Y2.0581 Z-0.0100
G01 X69.7781 Y2.0738 Z-0.0100
G01 X69.7755 Y2.0746 Z-0.0100
G01 X69.7321 Y2.0892 Z-0.0100
G01 X69.7294 Y2.0900 Z-0.0100
G01 X69.6805 Y2.1052 Z-0.0100
G01 X69.6780 Y2.1059 Z-0.0100
G01 X69.6293 Y2.1199 Z-0.0100
G01 X69.6270 Y2.1205 Z-0.0100
G01 X69.5739 Y2.1347 Z-0.0100
G01 X69.5717 Y2.1352 Z-0.0100
G01 X69.5161 Y2.1490 Z-0.0100
G01 X69.5140 Y2.1495 Z-0.0100
G01 X69.4573 Y2.1624 Z-0.0100
G01 X69.4553 Y2.1629 Z-0.0100
G01 X69.3952 Y2.1756 Z-0.0100
G01 X69.3933 Y2.1759 Z-0.0100
G01 X69.3317 Y2.1879 Z-0.0100
G01 X69.3298 Y2.1883 Z-0.0100
G01 X69.2637 Y2.2001 Z-0.0100
G01 X69.2620 Y2.2004 Z-0.0100
G01 X69.1944 Y2.2116 Z-0.0100
G01 X69.1927 Y2.2119 Z-0.0100
G01 X69.1235 Y2.2224 Z-0.0100
G01 X69.1219 Y2.2226 Z-0.0100
G01 X69.0491 Y2.2326 Z-0.0100
G01 X69.0475 Y2.2328 Z-0.0100
G01 X68.9710 Y2.2424 Z-0.0100
G01 X68.9696 Y2.2426 Z-0.0100
G01 X68.8922 Y2.2514 Z-0.0100
G01 X68.8908 Y2.2516 Z-0.0100
G01 X68.8097 Y2.2598 Z-0.0100
G01 X68.8085 Y2.2600 Z-0.0100
G01 X68.7247 Y2.2676 Z-0.0100
G01 X68.7233 Y2.2677 Z-0.0100
G01 X68.6359 Y2.2748 Z-0.0100
G01 X68.6348 Y2.2749 Z-0.0100
G01 X68.5454 Y2.2812 Z-0.0100
G01 X68.5442 Y2.2813 Z-0.0100
G01 X68.4520 Y2.2870 Z-0.0100
G01 X68.4508 Y2.2871 Z-0.0100
G01 X68.3564 Y2.2920 Z-0.0100
G01 X68.3552 Y2.2920 Z-0.0100
G01 X68.2571 Y2.2962 Z-0.0100
G01 X68.2561 Y2.2963 Z-0.0100
G01 X68.1545 Y2.2998 Z-0.0100
G01 X68.1535 Y2.2999 Z-0.0100
G01 X68.0501 Y2.3026 Z-0.0100
G01 X68.0466 Y2.3027 Z-0.0100
G01 X68.0455 Y2.3027 Z-0.0100
G01 X67.9416 Y2.3046 Z-0.0100
G01 X67.9406 Y2.3046 Z-0.0100
G01 X67.8306 Y2.3059 Z-0.0100
G01 X67.8297 Y2.3059 Z-0.0100
G01 X67.7180 Y2.3063 Z-0.0100
G01 X67.7136 Y2.3062 Z-0.0100
G01 X67.0832 Y2.2866 Z-0.0100
G01 X67.0814 Y2.2866 Z-0.0100
G01 X66.4477 Y2.2673 Z-0.0100
G01 X65.8140 Y2.2485 Z-0.0100
G01 X65.1803 Y2.2302 Z-0.0100
G01 X64.5465 Y2.2123 Z-0.0100
G01 X63.9128 Y2.1949 Z-0.0100
G01 X63.2791 Y2.1779 Z-0.0100
G01 X62.6453 Y2.1614 Z-0.0100
G01 X62.0116 Y2.1453 Z-0.0100
G01 X61.3778 Y2.1297 Z-0.0100
G01 X60.7440 Y2.1145 Z-0.0100
G01 X60.1102 Y2.0998 Z-0.0100
G01 X59.4764 Y2.0855 Z-0.0100
G01 X59.4728 Y2.0854 Z-0.0100
G01 X58.8426 Y2.0717 Z-0.0100
G01 X58.2088 Y2.0583 Z-0.0100
G01 X57.5750 Y2.0454 Z-0.0100
G01 X56.9411 Y2.0330 Z-0.0100
G01 X56.3072 Y2.0210 Z-0.0100
G01 X55.6755 Y2.0095 Z-0.0100
G01 X55.6734 Y2.0095 Z-0.0100
G01 X55.0395 Y1.9984 Z-0.0100
G01 X54.4057 Y1.9878 Z-0.0100
G01 X53.7718 Y1.9776 Z-0.0100
G01 X53.1379 Y1.9679 Z-0.0100
G01 X52.5039 Y1.9586 Z-0.0100
G01 X51.8701 Y1.9498 Z-0.0100
G01 X51.2361 Y1.9414 Z-0.0100
G01 X50.6022 Y1.9335 Z-0.0100
G01 X49.9683 Y1.9261 Z-0.0100
G01 X49.3344 Y1.9191 Z-0.0100
G01 X48.7005 Y1.9125 Z-0.0100
G01 X48.0665 Y1.9064 Z-0.0100
G01 X47.4326 Y1.9008 Z-0.0100
G01 X46.7986 Y1.8956 Z-0.0100
G01 X46.1647 Y1.8909 Z-0.0100
G01 X45.5307 Y1.8866 Z-0.0100
G01 X44.8968 Y1.8828 Z-0.0100
G01 X44.2628 Y1.8794 Z-0.0100
G01 X43.6288 Y1.8765 Z-0.0100
G01 X42.9949 Y1.8740 Z-0.0100
G01 X42.3609 Y1.8720 Z-0.0100
G01 X41.7270 Y1.8705 Z-0.0100
G01 X41.0929 Y1.8694 Z-0.0100
G01 X40.4590 Y1.8687 Z-0.0100
G01 X39.8251 Y1.8685 Z-0.0100
G01 X39.1912 Y1.8688 Z-0.0100
G01 X38.5572 Y1.8695 Z-0.0100
G01 X37.9232 Y1.8707 Z-0.0100
G01 X37.2892 Y1.8723 Z-0.0100
G01 X36.6553 Y1.8744 Z-0.0100
G01 X36.0213 Y1.8769 Z-0.0100
G01 X35.3873 Y1.8799 Z-0.0100
G01 X34.7534 Y1.8833 Z-0.0100
G01 X34.1194 Y1.8872 Z-0.0100
G01 X33.4855 Y1.8916 Z-0.0100
G01 X32.8515 Y1.8964 Z-0.0100
G01 X32.2176 Y1.9016 Z-0.0100
G01 X31.5837 Y1.9073 Z-0.0100
G01 X30.9497 Y1.9135 Z-0.0100
G01 X30.3158 Y1.9201 Z-0.0100
G01 X29.6818 Y1.9272 Z-0.0100
G01 X29.0479 Y1.9347 Z-0.0100
G01 X28.4140 Y1.9427 Z-0.0100
G01 X27.7801 Y1.9511 Z-0.0100
G01 X27.1462 Y1.9600 Z-0.0100
G01 X26.5123 Y1.9693 Z-0.0100
G01 X25.8784 Y1.9791 Z-0.0100
G01 X25.2445 Y1.9893 Z-0.0100
G01 X24.6107 Y2.0000 Z-0.0100
G01 X23.9768 Y2.0112 Z-0.0100
G01 X23.9746 Y2.0112 Z-0.0100
G01 X23.3429 Y2.0227 Z-0.0100
G01 X22.7091 Y2.0348 Z-0.0100
G01 X22.0752 Y2.0473 Z-0.0100
G01 X21.4414 Y2.0603 Z-0.0100
G01 X20.8075 Y2.0737 Z-0.0100
G01 X20.1775 Y2.0875 Z-0.0100
G01 X20.1738 Y2.0876 Z-0.0100
G01 X19.5400 Y2.1019 Z-0.0100
G01 X18.9061 Y2.1167 Z-0.0100
G01 X18.2724 Y2.1320 Z-0.0100
G01 X17.6386 Y2.1476 Z-0.0100
G01 X17.0048 Y2.1638 Z-0.0100
G01 X16.3711 Y2.1803 Z-0.0100
G01 X15.7374 Y2.1974 Z-0.0100
G01 X15.1036 Y2.2149 Z-0.0100
G01 X14.4699 Y2.2329 Z-0.0100
G01 X13.8362 Y2.2513 Z-0.0100
G01 X13.2025 Y2.2701 Z-0.0100
G01 X12.5688 Y2.2894 Z-0.0100
G01 X12.5670 Y2.2894 Z-0.0100
G01 X11.9352 Y2.3092 Z-0.0100
G01 X11.3016 Y2.3294 Z-0.0100
G01 X10.6679 Y2.3501 Z-0.0100
G01 X10.0343 Y2.3712 Z-0.0100
G01 X9.4007 Y2.3928 Z-0.0100
G01 X8.7672 Y2.4148 Z-0.0100
G01 X8.1336 Y2.4373 Z-0.0100
G01 X7.5000 Y2.4603 Z-0.0100
G01 X6.8665 Y2.4837 Z-0.0100
G01 X6.2329 Y2.5075 Z-0.0100
G01 X5.6020 Y2.5317 Z-0.0100
G01 X5.5995 Y2.5318 Z-0.0100
G01 X4.9659 Y2.5566 Z-0.0100
G01 X4.9643 Y2.5566 Z-0.0100
G01 X4.3347 Y2.5817 Z-0.0100
G01 X4.3289 Y2.5818 Z-0.0100
G01 X4.1390 Y2.5805 Z-0.0100
G01 X4.1374 Y2.5805 Z-0.0100
G01 X3.9503 Y2.5767 Z-0.0100
G01 X3.9485 Y2.5767 Z-0.0100
G01 X3.7687 Y2.5705 Z-0.0100
G01 X3.7669 Y2.5704 Z-0.0100
G01 X3.5898 Y2.5617 Z-0.0100
G01 X3.5880 Y2.5616 Z-0.0100
G01 X3.4184 Y2.5508 Z-0.0100
G01 X3.4164 Y2.5506 Z-0.0100
G01 X3.2493 Y2.5372 Z-0.0100
G01 X3.2474 Y2.5370 Z-0.0100
G01 X3.0864 Y2.5216 Z-0.0100
G01 X3.0843 Y2.5214 Z-0.0100
G01 X2.9296 Y2.5038 Z-0.0100
G01 X2.9274 Y2.5036 Z-0.0100
G01 X2.7757 Y2.4837 Z-0.0100
G01 X2.7735 Y2.4834 Z-0.0100
G01 X2.6267 Y2.4614 Z-0.0100
G01 X2.6244 Y2.4611 Z-0.0100
G01 X2.4824 Y2.4371 Z-0.0100
G01 X2.4801 Y2.4367 Z-0.0100
G01 X2.3434 Y2.4109 Z-0.0100
G01 X2.3410 Y2.4104 Z-0.0100
G01 X2.2087 Y2.3827 Z-0.0100
G01 X2.2061 Y2.3821 Z-0.0100
G01 X2.0786 Y2.3525 Z-0.0100
G01 X2.0759 Y2.3519 Z-0.0100
G01 X1.9518 Y2.3202 Z-0.0100
G01 X1.9492 Y2.3195 Z-0.0100
G01 X1.8309 Y2.2865 Z-0.0100
G01 X1.8281 Y2.2857 Z-0.0100
G01 X1.7135 Y2.2508 Z-0.0100
G01 X1.7105 Y2.2498 Z-0.0100
G01 X1.6013 Y2.2136 Z-0.0100
G01 X1.5983 Y2.2126 Z-0.0100
G01 X1.4909 Y2.1739 Z-0.0100
G01 X1.4878 Y2.1727 Z-0.0100
G01 X1.3881 Y2.1339 Z-0.0100
G01 X1.3850 Y2.1326 Z-0.0100
G01 X1.2866 Y2.0911 Z-0.0100
G01 X1.2834 Y2.0897 Z-0.0100
G01 X1.1907 Y2.0474 Z-0.0100
G01 X1.1873 Y2.0458 Z-0.0100
G01 X1.0978 Y2.0018 Z-0.0100
G01 X1.0944 Y2.0000 Z-0.0100
G01 X1.0090 Y1.9547 Z-0.0100
G01 X1.0055 Y1.9528 Z-0.0100
G01 X0.9262 Y1.9075 Z-0.0100
G01 X0.9226 Y1.9053 Z-0.0100
G01 X0.8445 Y1.8572 Z-0.0100
G01 X0.8409 Y1.8549 Z-0.0100
G01 X0.7681 Y1.8066 Z-0.0100
G01 X0.7645 Y1.8041 Z-0.0100
G01 X0.6960 Y1.7551 Z-0.0100
G01 X0.6924 Y1.7524 Z-0.0100
G01 X0.6257 Y1.7010 Z-0.0100
G01 X0.6220 Y1.6980 Z-0.0100
G01 X0.5600 Y1.6464 Z-0.0100
G01 X0.5565 Y1.6433 Z-0.0100
G01 X0.4987 Y1.5913 Z-0.0100
G01 X0.4951 Y1.5879 Z-0.0100
G01 X0.4401 Y1.5344 Z-0.0100
G01 X0.4366 Y1.5309 Z-0.0100
G01 X0.3858 Y1.4773 Z-0.0100
G01 X0.3823 Y1.4734 Z-0.0100
G01 X0.3344 Y1.4185 Z-0.0100
G01 X0.3311 Y1.4145 Z-0.0100
G01 X0.2861 Y1.3583 Z-0.0100
G01 X0.2828 Y1.3540 Z-0.0100
G01 X0.2422 Y1.2986 Z-0.0100
G01 X0.2390 Y1.2942 Z-0.0100
G01 X0.2010 Y1.2372 Z-0.0100
G01 X0.1981 Y1.2326 Z-0.0100
G01 X0.1634 Y1.1755 Z-0.0100
G01 X0.1607 Y1.1707 Z-0.0100
G01 X0.1291 Y1.1132 Z-0.0100
G01 X0.1265 Y1.1081 Z-0.0100
G01 X0.0976 Y1.0491 Z-0.0100
G01 X0.0953 Y1.0441 Z-0.0100
G01 X0.0698 Y0.9858 Z-0.0100
G01 X0.0677 Y0.9807 Z-0.0100
G01 X0.0450 Y0.9215 Z-0.0100
G01 X0.0430 Y0.9162 Z-0.0100
G01 X0.0234 Y0.8574 Z-0.0100
G01 X0.0218 Y0.8521 Z-0.0100
G01 X0.0045 Y0.7913 Z-0.0100
G01 X0.0031 Y0.7859 Z-0.0100
G01 X-0.0111 Y0.7258 Z-0.0100
G01 X-0.0122 Y0.7205 Z-0.0100
G01 X-0.0236 Y0.6612 Z-0.0100
G01 X-0.0245 Y0.6559 Z-0.0100
G01 X-0.0337 Y0.5940 Z-0.0100
G01 X-0.0343 Y0.5887 Z-0.0100
G01 X-0.0406 Y0.5285 Z-0.0100
G01 X-0.0410 Y0.5233 Z-0.0100
G01 X-0.0447 Y0.4630 Z-0.0100
G01 X-0.0449 Y0.4578 Z-0.0100
G01 X-0.0462 Y0.3946 Z-0.0100
G01 X-0.0462 Y0.3921 Z-0.0100
G01 X-0.0462 Y-0.3921 Z-0.0100
G00 X-0.0462 Y-0.3921 Z0.2500
M05
G00 X0.0000 Y0.0000 Z0.2500
G49
G01 G55 Z0 F20
G00 G55 X0 Y0 Z0
M30
