( Sample-ski-top-cutout.nc                                                     )
( Generated by MonkeyCAM v4.0.4 at 2016-07-26 21:19:31 New Zealand Standard Time
(                                                                              )
( This GCode program is provided on an "AS IS" BASIS WITHOUT WARRANTIES OR     )
( CONDITIONS OF ANY KIND, either express or implied. You should inspect this   )
( program very carefully to confirm you understand its operation. YOU ARE      )
( RESPONSIBLE FOR ENSURING THIS PROGRAM WILL NOT DAMAGE YOUR MACHINE OR        )
( MATERIALS.                                                                   )
(                                                                              )
( See http://www.github.com/mikemag/MonkeyCAM for License and documentation.   )
(                                                                              )
( * Rapid height: 0.6000" [1.5240cm]                                           )
( * Tool: T1, Quarter Inch Upcut Spiral, diameter 0.2469" [0.6273cm]           )
( * Height baseline [Z=0.0] is the top of the table.                           )
( * XY origin is the left side of the table, Y is center of the part.          )
( * Requires G54 to be the part work coordinate offsets [WCO]. [0, 0] is the   )
(   center of the nose, with the board extending to positive X. The cutter may )
(   move to negative values of X.                                              )
( * Requires G55 to be the machine WCO, with Z above the rapid height.         )
( * Units are inches                                                           )
( * Center of the board in G54:                                                )
(     X=36.0236 Y=0.0000 Z=0.0000                                              )
( * Cutter bounding box in G54:                                                )
(     X0.0000 Y-2.7770 Z-0.0100 to X69.5966 Y2.7770 Z0.6000                    )

G90 G20 G17 G40 G49
G43 H1 T1
G00 G54 X0 Y0 Z0.6000

G00 X0.6864 Y0.0000 Z0.6000
M03
G04 P5
G01 X0.6864 Y0.0000 Z0.2050 F80
G01 X0.6864 Y-0.0036 Z0.2050
G01 X0.6866 Y-0.0073 Z0.2050
G01 X0.6868 Y-0.0109 Z0.2050
G01 X0.6872 Y-0.0146 Z0.2050
G01 X0.6916 Y-0.0516 Z0.2050
G01 X0.6921 Y-0.0552 Z0.2050
G01 X0.7033 Y-0.1303 Z0.2050
G01 X0.7040 Y-0.1342 Z0.2050
G01 X0.7174 Y-0.2075 Z0.2050
G01 X0.7181 Y-0.2116 Z0.2050
G01 X0.7338 Y-0.2838 Z0.2050
G01 X0.7347 Y-0.2878 Z0.2050
G01 X0.7516 Y-0.3547 Z0.2050
G01 X0.7527 Y-0.3590 Z0.2050
G01 X0.7720 Y-0.4253 Z0.2050
G01 X0.7734 Y-0.4296 Z0.2050
G01 X0.7940 Y-0.4919 Z0.2050
G01 X0.7956 Y-0.4964 Z0.2050
G01 X0.8182 Y-0.5566 Z0.2050
G01 X0.8200 Y-0.5611 Z0.2050
G01 X0.8445 Y-0.6192 Z0.2050
G01 X0.8465 Y-0.6239 Z0.2050
G01 X0.8724 Y-0.6789 Z0.2050
G01 X0.8746 Y-0.6834 Z0.2050
G01 X0.9021 Y-0.7361 Z0.2050
G01 X0.9047 Y-0.7409 Z0.2050
G01 X0.9347 Y-0.7927 Z0.2050
G01 X0.9374 Y-0.7971 Z0.2050
G01 X0.9689 Y-0.8467 Z0.2050
G01 X0.9720 Y-0.8512 Z0.2050
G01 X1.0053 Y-0.8988 Z0.2050
G01 X1.0085 Y-0.9032 Z0.2050
G01 X1.0442 Y-0.9498 Z0.2050
G01 X1.0477 Y-0.9541 Z0.2050
G01 X1.0861 Y-0.9998 Z0.2050
G01 X1.0896 Y-1.0038 Z0.2050
G01 X1.1305 Y-1.0483 Z0.2050
G01 X1.1343 Y-1.0522 Z0.2050
G01 X1.1782 Y-1.0960 Z0.2050
G01 X1.1820 Y-1.0996 Z0.2050
G01 X1.2285 Y-1.1422 Z0.2050
G01 X1.2324 Y-1.1457 Z0.2050
G01 X1.2824 Y-1.1877 Z0.2050
G01 X1.2864 Y-1.1909 Z0.2050
G01 X1.3402 Y-1.2324 Z0.2050
G01 X1.3443 Y-1.2354 Z0.2050
G01 X1.4011 Y-1.2755 Z0.2050
G01 X1.4050 Y-1.2782 Z0.2050
G01 X1.4668 Y-1.3185 Z0.2050
G01 X1.4709 Y-1.3210 Z0.2050
G01 X1.5365 Y-1.3601 Z0.2050
G01 X1.5405 Y-1.3624 Z0.2050
G01 X1.6107 Y-1.4009 Z0.2050
G01 X1.6146 Y-1.4029 Z0.2050
G01 X1.6886 Y-1.4401 Z0.2050
G01 X1.6924 Y-1.4419 Z0.2050
G01 X1.7720 Y-1.4785 Z0.2050
G01 X1.7757 Y-1.4801 Z0.2050
G01 X1.8593 Y-1.5152 Z0.2050
G01 X1.8629 Y-1.5167 Z0.2050
G01 X1.9529 Y-1.5512 Z0.2050
G01 X1.9565 Y-1.5525 Z0.2050
G01 X2.0503 Y-1.5852 Z0.2050
G01 X2.0537 Y-1.5864 Z0.2050
G01 X2.1532 Y-1.6179 Z0.2050
G01 X2.1564 Y-1.6188 Z0.2050
G01 X2.2613 Y-1.6489 Z0.2050
G01 X2.2644 Y-1.6498 Z0.2050
G01 X2.3737 Y-1.6780 Z0.2050
G01 X2.3767 Y-1.6788 Z0.2050
G01 X2.4907 Y-1.7052 Z0.2050
G01 X2.4937 Y-1.7059 Z0.2050
G01 X2.6163 Y-1.7312 Z0.2050
G01 X2.6198 Y-1.7319 Z0.2050
G01 X2.7110 Y-1.7481 Z0.2050
G01 X2.7123 Y-1.7483 Z0.2050
G01 X2.8003 Y-1.7629 Z0.2050
G01 X2.8016 Y-1.7631 Z0.2050
G01 X2.8862 Y-1.7762 Z0.2050
G01 X2.8875 Y-1.7764 Z0.2050
G01 X2.9690 Y-1.7883 Z0.2050
G01 X2.9701 Y-1.7884 Z0.2050
G01 X3.0485 Y-1.7990 Z0.2050
G01 X3.0494 Y-1.7991 Z0.2050
G01 X3.1247 Y-1.8087 Z0.2050
G01 X3.1257 Y-1.8088 Z0.2050
G01 X3.1979 Y-1.8174 Z0.2050
G01 X3.1987 Y-1.8175 Z0.2050
G01 X3.2680 Y-1.8253 Z0.2050
G01 X3.2687 Y-1.8254 Z0.2050
G01 X3.3350 Y-1.8325 Z0.2050
G01 X3.3990 Y-1.8392 Z0.2050
G01 X3.4601 Y-1.8453 Z0.2050
G01 X3.5182 Y-1.8512 Z0.2050
G01 X3.5729 Y-1.8569 Z0.2050
G01 X3.6257 Y-1.8626 Z0.2050
G01 X3.6740 Y-1.8682 Z0.2050
G01 X3.7199 Y-1.8740 Z0.2050
G01 X3.7649 Y-1.8804 Z0.2050
G01 X3.8043 Y-1.8868 Z0.2050
G01 X3.8423 Y-1.8938 Z0.2050
G01 X3.8770 Y-1.9013 Z0.2050
G01 X3.9088 Y-1.9094 Z0.2050
G01 X3.9368 Y-1.9178 Z0.2050
G01 X3.9639 Y-1.9274 Z0.2050
G01 X3.9871 Y-1.9371 Z0.2050
G01 X4.0078 Y-1.9474 Z0.2050
G01 X4.0266 Y-1.9585 Z0.2050
G01 X4.0430 Y-1.9700 Z0.2050
G01 X4.0579 Y-1.9824 Z0.2050
G01 X4.0717 Y-1.9961 Z0.2050
G01 X4.0848 Y-2.0114 Z0.2050
G01 X4.0969 Y-2.0285 Z0.2050
G01 X4.1087 Y-2.0481 Z0.2050
G01 X4.1199 Y-2.0702 Z0.2050
G01 X4.1309 Y-2.0963 Z0.2050
G01 X4.1411 Y-2.1254 Z0.2050
G01 X4.1505 Y-2.1572 Z0.2050
G01 X4.1595 Y-2.1942 Z0.2050
G01 X4.1674 Y-2.2331 Z0.2050
G01 X4.1747 Y-2.2773 Z0.2050
G01 X4.1810 Y-2.3244 Z0.2050
G01 X4.1868 Y-2.3778 Z0.2050
G01 X4.1916 Y-2.4323 Z0.2050
G01 X4.1957 Y-2.4924 Z0.2050
G01 X4.1991 Y-2.5572 Z0.2050
G01 X4.2018 Y-2.6255 Z0.2050
G01 X4.2027 Y-2.6571 Z0.2050
G01 X4.2028 Y-2.6606 Z0.2050
G01 X4.2031 Y-2.6641 Z0.2050
G01 X4.2034 Y-2.6675 Z0.2050
G01 X4.2039 Y-2.6710 Z0.2050
G01 X4.2044 Y-2.6745 Z0.2050
G01 X4.2051 Y-2.6779 Z0.2050
G01 X4.2058 Y-2.6814 Z0.2050
G01 X4.2066 Y-2.6848 Z0.2050
G01 X4.2076 Y-2.6881 Z0.2050
G01 X4.2086 Y-2.6915 Z0.2050
G01 X4.2097 Y-2.6948 Z0.2050
G01 X4.2109 Y-2.6981 Z0.2050
G01 X4.2122 Y-2.7013 Z0.2050
G01 X4.2137 Y-2.7045 Z0.2050
G01 X4.2151 Y-2.7077 Z0.2050
G01 X4.2167 Y-2.7108 Z0.2050
G01 X4.2184 Y-2.7139 Z0.2050
G01 X4.2201 Y-2.7169 Z0.2050
G01 X4.2220 Y-2.7199 Z0.2050
G01 X4.2239 Y-2.7228 Z0.2050
G01 X4.2259 Y-2.7257 Z0.2050
G01 X4.2280 Y-2.7285 Z0.2050
G01 X4.2302 Y-2.7313 Z0.2050
G01 X4.2324 Y-2.7340 Z0.2050
G01 X4.2348 Y-2.7366 Z0.2050
G01 X4.2371 Y-2.7391 Z0.2050
G01 X4.2396 Y-2.7416 Z0.2050
G01 X4.2421 Y-2.7440 Z0.2050
G01 X4.2447 Y-2.7464 Z0.2050
G01 X4.2474 Y-2.7487 Z0.2050
G01 X4.2501 Y-2.7509 Z0.2050
G01 X4.2529 Y-2.7530 Z0.2050
G01 X4.2558 Y-2.7550 Z0.2050
G01 X4.2587 Y-2.7570 Z0.2050
G01 X4.2616 Y-2.7588 Z0.2050
G01 X4.2646 Y-2.7606 Z0.2050
G01 X4.2677 Y-2.7623 Z0.2050
G01 X4.2708 Y-2.7639 Z0.2050
G01 X4.2740 Y-2.7655 Z0.2050
G01 X4.2772 Y-2.7669 Z0.2050
G01 X4.2804 Y-2.7682 Z0.2050
G01 X4.2837 Y-2.7695 Z0.2050
G01 X4.2870 Y-2.7706 Z0.2050
G01 X4.2903 Y-2.7717 Z0.2050
G01 X4.2937 Y-2.7727 Z0.2050
G01 X4.2971 Y-2.7735 Z0.2050
G01 X4.3005 Y-2.7743 Z0.2050
G01 X4.3039 Y-2.7750 Z0.2050
G01 X4.3074 Y-2.7756 Z0.2050
G01 X4.3109 Y-2.7761 Z0.2050
G01 X4.3143 Y-2.7764 Z0.2050
G01 X4.3178 Y-2.7767 Z0.2050
G01 X4.3213 Y-2.7769 Z0.2050
G01 X4.3248 Y-2.7770 Z0.2050
G01 X4.3286 Y-2.7770 Z0.2050
G01 X4.3316 Y-2.7770 Z0.2050
G01 X4.3371 Y-2.7770 Z0.2050
G01 X4.3403 Y-2.7769 Z0.2050
G01 X4.9737 Y-2.7516 Z0.2050
G01 X5.6071 Y-2.7269 Z0.2050
G01 X6.2404 Y-2.7026 Z0.2050
G01 X6.8738 Y-2.6787 Z0.2050
G01 X7.5072 Y-2.6553 Z0.2050
G01 X8.1407 Y-2.6324 Z0.2050
G01 X8.7740 Y-2.6099 Z0.2050
G01 X9.4075 Y-2.5879 Z0.2050
G01 X10.0410 Y-2.5663 Z0.2050
G01 X10.6744 Y-2.5451 Z0.2050
G01 X11.3079 Y-2.5245 Z0.2050
G01 X11.9377 Y-2.5044 Z0.2050
G01 X11.9412 Y-2.5043 Z0.2050
G01 X12.5748 Y-2.4845 Z0.2050
G01 X13.2085 Y-2.4653 Z0.2050
G01 X13.8420 Y-2.4464 Z0.2050
G01 X14.4756 Y-2.4280 Z0.2050
G01 X15.1092 Y-2.4100 Z0.2050
G01 X15.7428 Y-2.3925 Z0.2050
G01 X16.3763 Y-2.3755 Z0.2050
G01 X17.0099 Y-2.3589 Z0.2050
G01 X17.6436 Y-2.3427 Z0.2050
G01 X18.1102 Y-2.3312 Z0.2050
G01 X18.2772 Y-2.3271 Z0.2050
G01 X18.8976 Y-2.3122 Z0.2050
G01 X18.9108 Y-2.3118 Z0.2050
G01 X19.5445 Y-2.2970 Z0.2050
G01 X19.6850 Y-2.2938 Z0.2050
G01 X20.1782 Y-2.2827 Z0.2050
G01 X20.4724 Y-2.2762 Z0.2050
G01 X20.8119 Y-2.2688 Z0.2050
G01 X21.4455 Y-2.2554 Z0.2050
G01 X22.0792 Y-2.2425 Z0.2050
G01 X22.7129 Y-2.2300 Z0.2050
G01 X23.3466 Y-2.2179 Z0.2050
G01 X23.9764 Y-2.2064 Z0.2050
G01 X23.9802 Y-2.2064 Z0.2050
G01 X24.6141 Y-2.1952 Z0.2050
G01 X25.2478 Y-2.1845 Z0.2050
G01 X25.8816 Y-2.1743 Z0.2050
G01 X26.5153 Y-2.1645 Z0.2050
G01 X27.1490 Y-2.1551 Z0.2050
G01 X27.7828 Y-2.1463 Z0.2050
G01 X28.4166 Y-2.1379 Z0.2050
G01 X29.0504 Y-2.1299 Z0.2050
G01 X29.6842 Y-2.1224 Z0.2050
G01 X30.3179 Y-2.1153 Z0.2050
G01 X30.9518 Y-2.1087 Z0.2050
G01 X31.5856 Y-2.1025 Z0.2050
G01 X32.2193 Y-2.0968 Z0.2050
G01 X32.8531 Y-2.0916 Z0.2050
G01 X33.4870 Y-2.0868 Z0.2050
G01 X34.1207 Y-2.0824 Z0.2050
G01 X34.7546 Y-2.0785 Z0.2050
G01 X35.3884 Y-2.0751 Z0.2050
G01 X36.0222 Y-2.0721 Z0.2050
G01 X36.6560 Y-2.0696 Z0.2050
G01 X37.2899 Y-2.0675 Z0.2050
G01 X37.9237 Y-2.0659 Z0.2050
G01 X38.5575 Y-2.0647 Z0.2050
G01 X39.1914 Y-2.0640 Z0.2050
G01 X39.8251 Y-2.0637 Z0.2050
G01 X40.4588 Y-2.0639 Z0.2050
G01 X41.0927 Y-2.0646 Z0.2050
G01 X41.7265 Y-2.0657 Z0.2050
G01 X42.3603 Y-2.0672 Z0.2050
G01 X42.9941 Y-2.0692 Z0.2050
G01 X43.6279 Y-2.0717 Z0.2050
G01 X44.2618 Y-2.0746 Z0.2050
G01 X44.8956 Y-2.0780 Z0.2050
G01 X45.5294 Y-2.0818 Z0.2050
G01 X46.1633 Y-2.0861 Z0.2050
G01 X46.7970 Y-2.0908 Z0.2050
G01 X47.4308 Y-2.0960 Z0.2050
G01 X48.0646 Y-2.1016 Z0.2050
G01 X48.6985 Y-2.1077 Z0.2050
G01 X49.3322 Y-2.1143 Z0.2050
G01 X49.8031 Y-2.1195 Z0.2050
G01 X49.9660 Y-2.1213 Z0.2050
G01 X50.5905 Y-2.1286 Z0.2050
G01 X50.5998 Y-2.1287 Z0.2050
G01 X51.2336 Y-2.1366 Z0.2050
G01 X51.3779 Y-2.1385 Z0.2050
G01 X51.8673 Y-2.1450 Z0.2050
G01 X52.1653 Y-2.1491 Z0.2050
G01 X52.5011 Y-2.1538 Z0.2050
G01 X53.1349 Y-2.1631 Z0.2050
G01 X53.7687 Y-2.1728 Z0.2050
G01 X54.4024 Y-2.1830 Z0.2050
G01 X55.0361 Y-2.1936 Z0.2050
G01 X55.6699 Y-2.2047 Z0.2050
G01 X56.3037 Y-2.2162 Z0.2050
G01 X56.3072 Y-2.2162 Z0.2050
G01 X56.9372 Y-2.2281 Z0.2050
G01 X57.5710 Y-2.2406 Z0.2050
G01 X58.2047 Y-2.2535 Z0.2050
G01 X58.8384 Y-2.2668 Z0.2050
G01 X59.4720 Y-2.2807 Z0.2050
G01 X60.1057 Y-2.2949 Z0.2050
G01 X60.7393 Y-2.3096 Z0.2050
G01 X61.3730 Y-2.3248 Z0.2050
G01 X62.0066 Y-2.3404 Z0.2050
G01 X62.6403 Y-2.3565 Z0.2050
G01 X63.2739 Y-2.3730 Z0.2050
G01 X63.9075 Y-2.3900 Z0.2050
G01 X64.5411 Y-2.4074 Z0.2050
G01 X65.1746 Y-2.4253 Z0.2050
G01 X65.8082 Y-2.4437 Z0.2050
G01 X66.4418 Y-2.4624 Z0.2050
G01 X67.0754 Y-2.4817 Z0.2050
G01 X67.7090 Y-2.5014 Z0.2050
G01 X67.7118 Y-2.5014 Z0.2050
G01 X67.7167 Y-2.5015 Z0.2050
G01 X67.7189 Y-2.5015 Z0.2050
G01 X67.7421 Y-2.5012 Z0.2050
G01 X67.7456 Y-2.5012 Z0.2050
G01 X67.7491 Y-2.5010 Z0.2050
G01 X67.7526 Y-2.5007 Z0.2050
G01 X67.7561 Y-2.5003 Z0.2050
G01 X67.7596 Y-2.4998 Z0.2050
G01 X67.7631 Y-2.4992 Z0.2050
G01 X67.7665 Y-2.4986 Z0.2050
G01 X67.7700 Y-2.4978 Z0.2050
G01 X67.7733 Y-2.4969 Z0.2050
G01 X67.7767 Y-2.4959 Z0.2050
G01 X67.7801 Y-2.4949 Z0.2050
G01 X67.7834 Y-2.4937 Z0.2050
G01 X67.7866 Y-2.4924 Z0.2050
G01 X67.7899 Y-2.4911 Z0.2050
G01 X67.7931 Y-2.4896 Z0.2050
G01 X67.7962 Y-2.4881 Z0.2050
G01 X67.7994 Y-2.4865 Z0.2050
G01 X67.8024 Y-2.4848 Z0.2050
G01 X67.8055 Y-2.4830 Z0.2050
G01 X67.8084 Y-2.4811 Z0.2050
G01 X67.8113 Y-2.4792 Z0.2050
G01 X67.8142 Y-2.4771 Z0.2050
G01 X67.8170 Y-2.4750 Z0.2050
G01 X67.8197 Y-2.4728 Z0.2050
G01 X67.8224 Y-2.4705 Z0.2050
G01 X67.8250 Y-2.4681 Z0.2050
G01 X67.8275 Y-2.4657 Z0.2050
G01 X67.8300 Y-2.4632 Z0.2050
G01 X67.8324 Y-2.4606 Z0.2050
G01 X67.8347 Y-2.4580 Z0.2050
G01 X67.8370 Y-2.4553 Z0.2050
G01 X67.8391 Y-2.4525 Z0.2050
G01 X67.8412 Y-2.4497 Z0.2050
G01 X67.8432 Y-2.4468 Z0.2050
G01 X67.8451 Y-2.4439 Z0.2050
G01 X67.8470 Y-2.4409 Z0.2050
G01 X67.8487 Y-2.4378 Z0.2050
G01 X67.8504 Y-2.4348 Z0.2050
G01 X67.8520 Y-2.4316 Z0.2050
G01 X67.8535 Y-2.4284 Z0.2050
G01 X67.8549 Y-2.4252 Z0.2050
G01 X67.8562 Y-2.4220 Z0.2050
G01 X67.8574 Y-2.4187 Z0.2050
G01 X67.8585 Y-2.4153 Z0.2050
G01 X67.8595 Y-2.4120 Z0.2050
G01 X67.8604 Y-2.4086 Z0.2050
G01 X67.8612 Y-2.4051 Z0.2050
G01 X67.8620 Y-2.4017 Z0.2050
G01 X67.8626 Y-2.3983 Z0.2050
G01 X67.8631 Y-2.3948 Z0.2050
G01 X67.8652 Y-2.3799 Z0.2050
G01 X67.8759 Y-2.3205 Z0.2050
G01 X67.8878 Y-2.2673 Z0.2050
G01 X67.9013 Y-2.2186 Z0.2050
G01 X67.9161 Y-2.1746 Z0.2050
G01 X67.9320 Y-2.1353 Z0.2050
G01 X67.9487 Y-2.1003 Z0.2050
G01 X67.9670 Y-2.0678 Z0.2050
G01 X67.9853 Y-2.0400 Z0.2050
G01 X68.0052 Y-2.0140 Z0.2050
G01 X68.0253 Y-1.9912 Z0.2050
G01 X68.0473 Y-1.9697 Z0.2050
G01 X68.0699 Y-1.9503 Z0.2050
G01 X68.0944 Y-1.9320 Z0.2050
G01 X68.1206 Y-1.9146 Z0.2050
G01 X68.1476 Y-1.8987 Z0.2050
G01 X68.1769 Y-1.8831 Z0.2050
G01 X68.2074 Y-1.8684 Z0.2050
G01 X68.2410 Y-1.8535 Z0.2050
G01 X68.2734 Y-1.8401 Z0.2050
G01 X68.3103 Y-1.8255 Z0.2050
G01 X68.3475 Y-1.8114 Z0.2050
G01 X68.3864 Y-1.7967 Z0.2050
G01 X68.4262 Y-1.7816 Z0.2050
G01 X68.4271 Y-1.7813 Z0.2050
G01 X68.4673 Y-1.7657 Z0.2050
G01 X68.4688 Y-1.7652 Z0.2050
G01 X68.5096 Y-1.7488 Z0.2050
G01 X68.5114 Y-1.7480 Z0.2050
G01 X68.5527 Y-1.7307 Z0.2050
G01 X68.5553 Y-1.7296 Z0.2050
G01 X68.5970 Y-1.7109 Z0.2050
G01 X68.6001 Y-1.7095 Z0.2050
G01 X68.6422 Y-1.6893 Z0.2050
G01 X68.6455 Y-1.6877 Z0.2050
G01 X68.6879 Y-1.6657 Z0.2050
G01 X68.6916 Y-1.6638 Z0.2050
G01 X68.7343 Y-1.6398 Z0.2050
G01 X68.7383 Y-1.6375 Z0.2050
G01 X68.7812 Y-1.6112 Z0.2050
G01 X68.7853 Y-1.6087 Z0.2050
G01 X68.8283 Y-1.5800 Z0.2050
G01 X68.8326 Y-1.5770 Z0.2050
G01 X68.8757 Y-1.5456 Z0.2050
G01 X68.8800 Y-1.5424 Z0.2050
G01 X68.9231 Y-1.5081 Z0.2050
G01 X68.9274 Y-1.5045 Z0.2050
G01 X68.9705 Y-1.4669 Z0.2050
G01 X68.9746 Y-1.4632 Z0.2050
G01 X69.0177 Y-1.4221 Z0.2050
G01 X69.0216 Y-1.4182 Z0.2050
G01 X69.0645 Y-1.3735 Z0.2050
G01 X69.0681 Y-1.3695 Z0.2050
G01 X69.1109 Y-1.3208 Z0.2050
G01 X69.1144 Y-1.3166 Z0.2050
G01 X69.1568 Y-1.2638 Z0.2050
G01 X69.1600 Y-1.2596 Z0.2050
G01 X69.2021 Y-1.2024 Z0.2050
G01 X69.2050 Y-1.1983 Z0.2050
G01 X69.2468 Y-1.1363 Z0.2050
G01 X69.2494 Y-1.1322 Z0.2050
G01 X69.2907 Y-1.0653 Z0.2050
G01 X69.2931 Y-1.0613 Z0.2050
G01 X69.3339 Y-0.9893 Z0.2050
G01 X69.3361 Y-0.9853 Z0.2050
G01 X69.3763 Y-0.9079 Z0.2050
G01 X69.3781 Y-0.9043 Z0.2050
G01 X69.4178 Y-0.8213 Z0.2050
G01 X69.4205 Y-0.8154 Z0.2050
G01 X69.4400 Y-0.7684 Z0.2050
G01 X69.4416 Y-0.7644 Z0.2050
G01 X69.4594 Y-0.7171 Z0.2050
G01 X69.4607 Y-0.7133 Z0.2050
G01 X69.4784 Y-0.6612 Z0.2050
G01 X69.4796 Y-0.6576 Z0.2050
G01 X69.4961 Y-0.6033 Z0.2050
G01 X69.4971 Y-0.5998 Z0.2050
G01 X69.5127 Y-0.5429 Z0.2050
G01 X69.5136 Y-0.5394 Z0.2050
G01 X69.5282 Y-0.4793 Z0.2050
G01 X69.5289 Y-0.4762 Z0.2050
G01 X69.5424 Y-0.4132 Z0.2050
G01 X69.5431 Y-0.4100 Z0.2050
G01 X69.5555 Y-0.3438 Z0.2050
G01 X69.5560 Y-0.3409 Z0.2050
G01 X69.5670 Y-0.2737 Z0.2050
G01 X69.5674 Y-0.2708 Z0.2050
G01 X69.5774 Y-0.1988 Z0.2050
G01 X69.5777 Y-0.1961 Z0.2050
G01 X69.5862 Y-0.1235 Z0.2050
G01 X69.5865 Y-0.1210 Z0.2050
G01 X69.5942 Y-0.0416 Z0.2050
G01 X69.5944 Y-0.0390 Z0.2050
G01 X69.5966 Y-0.0092 Z0.2050
G01 X69.5966 Y0.0092 Z0.2050
G01 X69.5944 Y0.0390 Z0.2050
G01 X69.5942 Y0.0416 Z0.2050
G01 X69.5865 Y0.1210 Z0.2050
G01 X69.5862 Y0.1235 Z0.2050
G01 X69.5777 Y0.1961 Z0.2050
G01 X69.5774 Y0.1988 Z0.2050
G01 X69.5674 Y0.2708 Z0.2050
G01 X69.5670 Y0.2737 Z0.2050
G01 X69.5560 Y0.3409 Z0.2050
G01 X69.5555 Y0.3438 Z0.2050
G01 X69.5431 Y0.4100 Z0.2050
G01 X69.5424 Y0.4132 Z0.2050
G01 X69.5289 Y0.4762 Z0.2050
G01 X69.5282 Y0.4793 Z0.2050
G01 X69.5136 Y0.5394 Z0.2050
G01 X69.5127 Y0.5429 Z0.2050
G01 X69.4971 Y0.5998 Z0.2050
G01 X69.4961 Y0.6033 Z0.2050
G01 X69.4796 Y0.6576 Z0.2050
G01 X69.4784 Y0.6612 Z0.2050
G01 X69.4607 Y0.7133 Z0.2050
G01 X69.4594 Y0.7171 Z0.2050
G01 X69.4416 Y0.7644 Z0.2050
G01 X69.4400 Y0.7684 Z0.2050
G01 X69.4205 Y0.8152 Z0.2050
G01 X69.4179 Y0.8209 Z0.2050
G01 X69.3783 Y0.9040 Z0.2050
G01 X69.3764 Y0.9077 Z0.2050
G01 X69.3362 Y0.9851 Z0.2050
G01 X69.3341 Y0.9891 Z0.2050
G01 X69.2933 Y1.0611 Z0.2050
G01 X69.2910 Y1.0650 Z0.2050
G01 X69.2497 Y1.1319 Z0.2050
G01 X69.2470 Y1.1361 Z0.2050
G01 X69.2053 Y1.1981 Z0.2050
G01 X69.2024 Y1.2022 Z0.2050
G01 X69.1603 Y1.2595 Z0.2050
G01 X69.1571 Y1.2637 Z0.2050
G01 X69.1147 Y1.3165 Z0.2050
G01 X69.1112 Y1.3206 Z0.2050
G01 X69.0686 Y1.3693 Z0.2050
G01 X69.0648 Y1.3734 Z0.2050
G01 X69.0219 Y1.4181 Z0.2050
G01 X69.0180 Y1.4220 Z0.2050
G01 X68.9750 Y1.4631 Z0.2050
G01 X68.9709 Y1.4668 Z0.2050
G01 X68.9278 Y1.5044 Z0.2050
G01 X68.9236 Y1.5079 Z0.2050
G01 X68.8804 Y1.5424 Z0.2050
G01 X68.8761 Y1.5456 Z0.2050
G01 X68.8330 Y1.5770 Z0.2050
G01 X68.8288 Y1.5799 Z0.2050
G01 X68.7858 Y1.6086 Z0.2050
G01 X68.7816 Y1.6113 Z0.2050
G01 X68.7387 Y1.6375 Z0.2050
G01 X68.7348 Y1.6398 Z0.2050
G01 X68.6921 Y1.6637 Z0.2050
G01 X68.6883 Y1.6657 Z0.2050
G01 X68.6459 Y1.6877 Z0.2050
G01 X68.6426 Y1.6893 Z0.2050
G01 X68.6005 Y1.7095 Z0.2050
G01 X68.5974 Y1.7109 Z0.2050
G01 X68.5557 Y1.7296 Z0.2050
G01 X68.5533 Y1.7306 Z0.2050
G01 X68.5120 Y1.7480 Z0.2050
G01 X68.5099 Y1.7489 Z0.2050
G01 X68.4690 Y1.7652 Z0.2050
G01 X68.4677 Y1.7657 Z0.2050
G01 X68.4274 Y1.7813 Z0.2050
G01 X68.4266 Y1.7816 Z0.2050
G01 X68.3870 Y1.7966 Z0.2050
G01 X68.3477 Y1.8114 Z0.2050
G01 X68.3114 Y1.8252 Z0.2050
G01 X68.2745 Y1.8398 Z0.2050
G01 X68.2399 Y1.8542 Z0.2050
G01 X68.2087 Y1.8680 Z0.2050
G01 X68.1772 Y1.8832 Z0.2050
G01 X68.1477 Y1.8988 Z0.2050
G01 X68.1205 Y1.9148 Z0.2050
G01 X68.0944 Y1.9322 Z0.2050
G01 X68.0703 Y1.9503 Z0.2050
G01 X68.0475 Y1.9697 Z0.2050
G01 X68.0254 Y1.9913 Z0.2050
G01 X68.0055 Y2.0138 Z0.2050
G01 X67.9856 Y2.0398 Z0.2050
G01 X67.9668 Y2.0684 Z0.2050
G01 X67.9488 Y2.1003 Z0.2050
G01 X67.9320 Y2.1353 Z0.2050
G01 X67.9162 Y2.1746 Z0.2050
G01 X67.9013 Y2.2189 Z0.2050
G01 X67.8880 Y2.2668 Z0.2050
G01 X67.8759 Y2.3202 Z0.2050
G01 X67.8652 Y2.3800 Z0.2050
G01 X67.8632 Y2.3945 Z0.2050
G01 X67.8627 Y2.3980 Z0.2050
G01 X67.8621 Y2.4014 Z0.2050
G01 X67.8613 Y2.4049 Z0.2050
G01 X67.8605 Y2.4083 Z0.2050
G01 X67.8596 Y2.4117 Z0.2050
G01 X67.8586 Y2.4151 Z0.2050
G01 X67.8575 Y2.4184 Z0.2050
G01 X67.8563 Y2.4217 Z0.2050
G01 X67.8550 Y2.4250 Z0.2050
G01 X67.8536 Y2.4282 Z0.2050
G01 X67.8521 Y2.4314 Z0.2050
G01 X67.8505 Y2.4346 Z0.2050
G01 X67.8488 Y2.4377 Z0.2050
G01 X67.8471 Y2.4407 Z0.2050
G01 X67.8453 Y2.4437 Z0.2050
G01 X67.8434 Y2.4467 Z0.2050
G01 X67.8414 Y2.4496 Z0.2050
G01 X67.8393 Y2.4524 Z0.2050
G01 X67.8371 Y2.4551 Z0.2050
G01 X67.8349 Y2.4579 Z0.2050
G01 X67.8325 Y2.4605 Z0.2050
G01 X67.8301 Y2.4631 Z0.2050
G01 X67.8277 Y2.4656 Z0.2050
G01 X67.8251 Y2.4680 Z0.2050
G01 X67.8225 Y2.4704 Z0.2050
G01 X67.8199 Y2.4727 Z0.2050
G01 X67.8171 Y2.4749 Z0.2050
G01 X67.8143 Y2.4770 Z0.2050
G01 X67.8115 Y2.4791 Z0.2050
G01 X67.8086 Y2.4811 Z0.2050
G01 X67.8056 Y2.4829 Z0.2050
G01 X67.8026 Y2.4848 Z0.2050
G01 X67.7995 Y2.4864 Z0.2050
G01 X67.7964 Y2.4881 Z0.2050
G01 X67.7932 Y2.4896 Z0.2050
G01 X67.7900 Y2.4911 Z0.2050
G01 X67.7868 Y2.4924 Z0.2050
G01 X67.7835 Y2.4937 Z0.2050
G01 X67.7801 Y2.4948 Z0.2050
G01 X67.7768 Y2.4959 Z0.2050
G01 X67.7734 Y2.4969 Z0.2050
G01 X67.7700 Y2.4978 Z0.2050
G01 X67.7666 Y2.4985 Z0.2050
G01 X67.7631 Y2.4992 Z0.2050
G01 X67.7597 Y2.4998 Z0.2050
G01 X67.7562 Y2.5003 Z0.2050
G01 X67.7527 Y2.5007 Z0.2050
G01 X67.7492 Y2.5010 Z0.2050
G01 X67.7457 Y2.5012 Z0.2050
G01 X67.7422 Y2.5012 Z0.2050
G01 X67.7189 Y2.5015 Z0.2050
G01 X67.7167 Y2.5015 Z0.2050
G01 X67.7118 Y2.5014 Z0.2050
G01 X67.7090 Y2.5014 Z0.2050
G01 X67.0754 Y2.4816 Z0.2050
G01 X66.4418 Y2.4624 Z0.2050
G01 X65.8082 Y2.4437 Z0.2050
G01 X65.1746 Y2.4253 Z0.2050
G01 X64.5411 Y2.4074 Z0.2050
G01 X63.9075 Y2.3900 Z0.2050
G01 X63.2739 Y2.3730 Z0.2050
G01 X62.6403 Y2.3565 Z0.2050
G01 X62.0066 Y2.3404 Z0.2050
G01 X61.3730 Y2.3248 Z0.2050
G01 X60.7393 Y2.3096 Z0.2050
G01 X60.1057 Y2.2949 Z0.2050
G01 X59.4720 Y2.2807 Z0.2050
G01 X58.8384 Y2.2668 Z0.2050
G01 X58.2047 Y2.2535 Z0.2050
G01 X57.5710 Y2.2406 Z0.2050
G01 X56.9372 Y2.2281 Z0.2050
G01 X56.3075 Y2.2162 Z0.2050
G01 X56.3037 Y2.2162 Z0.2050
G01 X55.6699 Y2.2047 Z0.2050
G01 X55.0361 Y2.1936 Z0.2050
G01 X54.4024 Y2.1830 Z0.2050
G01 X53.7687 Y2.1728 Z0.2050
G01 X53.1349 Y2.1631 Z0.2050
G01 X52.5011 Y2.1538 Z0.2050
G01 X52.1653 Y2.1491 Z0.2050
G01 X51.8673 Y2.1450 Z0.2050
G01 X51.3779 Y2.1385 Z0.2050
G01 X51.2336 Y2.1366 Z0.2050
G01 X50.5998 Y2.1287 Z0.2050
G01 X50.5905 Y2.1286 Z0.2050
G01 X49.9660 Y2.1213 Z0.2050
G01 X49.8031 Y2.1195 Z0.2050
G01 X49.3322 Y2.1143 Z0.2050
G01 X48.6985 Y2.1077 Z0.2050
G01 X48.0646 Y2.1016 Z0.2050
G01 X47.4308 Y2.0960 Z0.2050
G01 X46.7970 Y2.0908 Z0.2050
G01 X46.1633 Y2.0861 Z0.2050
G01 X45.5294 Y2.0818 Z0.2050
G01 X44.8956 Y2.0780 Z0.2050
G01 X44.2618 Y2.0746 Z0.2050
G01 X43.6279 Y2.0717 Z0.2050
G01 X42.9941 Y2.0692 Z0.2050
G01 X42.3603 Y2.0672 Z0.2050
G01 X41.7265 Y2.0657 Z0.2050
G01 X41.0927 Y2.0646 Z0.2050
G01 X40.4588 Y2.0639 Z0.2050
G01 X39.8251 Y2.0637 Z0.2050
G01 X39.1914 Y2.0640 Z0.2050
G01 X38.5575 Y2.0647 Z0.2050
G01 X37.9237 Y2.0659 Z0.2050
G01 X37.2899 Y2.0675 Z0.2050
G01 X36.6560 Y2.0696 Z0.2050
G01 X36.0222 Y2.0721 Z0.2050
G01 X35.3884 Y2.0751 Z0.2050
G01 X34.7546 Y2.0785 Z0.2050
G01 X34.1207 Y2.0824 Z0.2050
G01 X33.4870 Y2.0868 Z0.2050
G01 X32.8531 Y2.0916 Z0.2050
G01 X32.2193 Y2.0968 Z0.2050
G01 X31.5856 Y2.1025 Z0.2050
G01 X30.9518 Y2.1087 Z0.2050
G01 X30.3179 Y2.1153 Z0.2050
G01 X29.6842 Y2.1224 Z0.2050
G01 X29.0504 Y2.1299 Z0.2050
G01 X28.4166 Y2.1379 Z0.2050
G01 X27.7828 Y2.1463 Z0.2050
G01 X27.1490 Y2.1551 Z0.2050
G01 X26.5153 Y2.1645 Z0.2050
G01 X25.8816 Y2.1743 Z0.2050
G01 X25.2478 Y2.1845 Z0.2050
G01 X24.6141 Y2.1952 Z0.2050
G01 X23.9802 Y2.2064 Z0.2050
G01 X23.9764 Y2.2064 Z0.2050
G01 X23.3466 Y2.2179 Z0.2050
G01 X22.7129 Y2.2300 Z0.2050
G01 X22.0792 Y2.2425 Z0.2050
G01 X21.4455 Y2.2554 Z0.2050
G01 X20.8119 Y2.2688 Z0.2050
G01 X20.4724 Y2.2762 Z0.2050
G01 X20.1782 Y2.2827 Z0.2050
G01 X19.6850 Y2.2938 Z0.2050
G01 X19.5445 Y2.2970 Z0.2050
G01 X18.9108 Y2.3118 Z0.2050
G01 X18.8976 Y2.3122 Z0.2050
G01 X18.2772 Y2.3271 Z0.2050
G01 X18.1102 Y2.3312 Z0.2050
G01 X17.6436 Y2.3427 Z0.2050
G01 X17.0099 Y2.3589 Z0.2050
G01 X16.3763 Y2.3755 Z0.2050
G01 X15.7428 Y2.3925 Z0.2050
G01 X15.1092 Y2.4100 Z0.2050
G01 X14.4756 Y2.4280 Z0.2050
G01 X13.8420 Y2.4464 Z0.2050
G01 X13.2085 Y2.4653 Z0.2050
G01 X12.5748 Y2.4846 Z0.2050
G01 X11.9412 Y2.5043 Z0.2050
G01 X11.9377 Y2.5044 Z0.2050
G01 X11.3079 Y2.5245 Z0.2050
G01 X10.6744 Y2.5451 Z0.2050
G01 X10.0410 Y2.5663 Z0.2050
G01 X9.4075 Y2.5879 Z0.2050
G01 X8.7740 Y2.6099 Z0.2050
G01 X8.1407 Y2.6324 Z0.2050
G01 X7.5072 Y2.6553 Z0.2050
G01 X6.8738 Y2.6787 Z0.2050
G01 X6.2404 Y2.7026 Z0.2050
G01 X5.6071 Y2.7269 Z0.2050
G01 X4.9737 Y2.7516 Z0.2050
G01 X4.3403 Y2.7769 Z0.2050
G01 X4.3371 Y2.7770 Z0.2050
G01 X4.3316 Y2.7770 Z0.2050
G01 X4.3286 Y2.7770 Z0.2050
G01 X4.3248 Y2.7770 Z0.2050
G01 X4.3213 Y2.7769 Z0.2050
G01 X4.3178 Y2.7767 Z0.2050
G01 X4.3143 Y2.7764 Z0.2050
G01 X4.3109 Y2.7761 Z0.2050
G01 X4.3074 Y2.7756 Z0.2050
G01 X4.3039 Y2.7750 Z0.2050
G01 X4.3005 Y2.7743 Z0.2050
G01 X4.2971 Y2.7735 Z0.2050
G01 X4.2937 Y2.7727 Z0.2050
G01 X4.2903 Y2.7717 Z0.2050
G01 X4.2870 Y2.7706 Z0.2050
G01 X4.2837 Y2.7695 Z0.2050
G01 X4.2804 Y2.7682 Z0.2050
G01 X4.2772 Y2.7669 Z0.2050
G01 X4.2740 Y2.7655 Z0.2050
G01 X4.2708 Y2.7639 Z0.2050
G01 X4.2677 Y2.7623 Z0.2050
G01 X4.2646 Y2.7606 Z0.2050
G01 X4.2616 Y2.7588 Z0.2050
G01 X4.2587 Y2.7570 Z0.2050
G01 X4.2558 Y2.7550 Z0.2050
G01 X4.2529 Y2.7530 Z0.2050
G01 X4.2501 Y2.7509 Z0.2050
G01 X4.2474 Y2.7487 Z0.2050
G01 X4.2447 Y2.7464 Z0.2050
G01 X4.2421 Y2.7440 Z0.2050
G01 X4.2396 Y2.7416 Z0.2050
G01 X4.2371 Y2.7391 Z0.2050
G01 X4.2348 Y2.7366 Z0.2050
G01 X4.2324 Y2.7340 Z0.2050
G01 X4.2302 Y2.7313 Z0.2050
G01 X4.2280 Y2.7285 Z0.2050
G01 X4.2259 Y2.7257 Z0.2050
G01 X4.2239 Y2.7228 Z0.2050
G01 X4.2220 Y2.7199 Z0.2050
G01 X4.2201 Y2.7169 Z0.2050
G01 X4.2184 Y2.7139 Z0.2050
G01 X4.2167 Y2.7108 Z0.2050
G01 X4.2151 Y2.7077 Z0.2050
G01 X4.2137 Y2.7045 Z0.2050
G01 X4.2122 Y2.7013 Z0.2050
G01 X4.2109 Y2.6981 Z0.2050
G01 X4.2097 Y2.6948 Z0.2050
G01 X4.2086 Y2.6915 Z0.2050
G01 X4.2076 Y2.6881 Z0.2050
G01 X4.2066 Y2.6848 Z0.2050
G01 X4.2058 Y2.6814 Z0.2050
G01 X4.2051 Y2.6779 Z0.2050
G01 X4.2044 Y2.6745 Z0.2050
G01 X4.2039 Y2.6710 Z0.2050
G01 X4.2034 Y2.6675 Z0.2050
G01 X4.2031 Y2.6641 Z0.2050
G01 X4.2028 Y2.6606 Z0.2050
G01 X4.2027 Y2.6571 Z0.2050
G01 X4.2017 Y2.6242 Z0.2050
G01 X4.1990 Y2.5555 Z0.2050
G01 X4.1956 Y2.4913 Z0.2050
G01 X4.1915 Y2.4311 Z0.2050
G01 X4.1868 Y2.3778 Z0.2050
G01 X4.1810 Y2.3244 Z0.2050
G01 X4.1747 Y2.2773 Z0.2050
G01 X4.1673 Y2.2330 Z0.2050
G01 X4.1594 Y2.1938 Z0.2050
G01 X4.1502 Y2.1562 Z0.2050
G01 X4.1411 Y2.1252 Z0.2050
G01 X4.1307 Y2.0959 Z0.2050
G01 X4.1199 Y2.0702 Z0.2050
G01 X4.1087 Y2.0481 Z0.2050
G01 X4.0969 Y2.0285 Z0.2050
G01 X4.0848 Y2.0114 Z0.2050
G01 X4.0717 Y1.9961 Z0.2050
G01 X4.0579 Y1.9824 Z0.2050
G01 X4.0430 Y1.9700 Z0.2050
G01 X4.0266 Y1.9585 Z0.2050
G01 X4.0078 Y1.9474 Z0.2050
G01 X3.9871 Y1.9371 Z0.2050
G01 X3.9639 Y1.9274 Z0.2050
G01 X3.9368 Y1.9178 Z0.2050
G01 X3.9088 Y1.9094 Z0.2050
G01 X3.8770 Y1.9013 Z0.2050
G01 X3.8423 Y1.8938 Z0.2050
G01 X3.8043 Y1.8868 Z0.2050
G01 X3.7649 Y1.8804 Z0.2050
G01 X3.7198 Y1.8740 Z0.2050
G01 X3.6740 Y1.8682 Z0.2050
G01 X3.6257 Y1.8626 Z0.2050
G01 X3.5729 Y1.8569 Z0.2050
G01 X3.5182 Y1.8512 Z0.2050
G01 X3.4601 Y1.8453 Z0.2050
G01 X3.3994 Y1.8392 Z0.2050
G01 X3.3355 Y1.8325 Z0.2050
G01 X3.2687 Y1.8254 Z0.2050
G01 X3.2680 Y1.8253 Z0.2050
G01 X3.1987 Y1.8175 Z0.2050
G01 X3.1979 Y1.8174 Z0.2050
G01 X3.1257 Y1.8088 Z0.2050
G01 X3.1247 Y1.8087 Z0.2050
G01 X3.0494 Y1.7991 Z0.2050
G01 X3.0485 Y1.7990 Z0.2050
G01 X2.9701 Y1.7884 Z0.2050
G01 X2.9690 Y1.7883 Z0.2050
G01 X2.8875 Y1.7764 Z0.2050
G01 X2.8862 Y1.7762 Z0.2050
G01 X2.8016 Y1.7631 Z0.2050
G01 X2.8003 Y1.7629 Z0.2050
G01 X2.7123 Y1.7483 Z0.2050
G01 X2.7110 Y1.7481 Z0.2050
G01 X2.6198 Y1.7319 Z0.2050
G01 X2.6163 Y1.7312 Z0.2050
G01 X2.4937 Y1.7059 Z0.2050
G01 X2.4907 Y1.7052 Z0.2050
G01 X2.3767 Y1.6788 Z0.2050
G01 X2.3737 Y1.6780 Z0.2050
G01 X2.2644 Y1.6498 Z0.2050
G01 X2.2613 Y1.6489 Z0.2050
G01 X2.1564 Y1.6188 Z0.2050
G01 X2.1532 Y1.6179 Z0.2050
G01 X2.0537 Y1.5864 Z0.2050
G01 X2.0503 Y1.5852 Z0.2050
G01 X1.9565 Y1.5525 Z0.2050
G01 X1.9529 Y1.5512 Z0.2050
G01 X1.8629 Y1.5167 Z0.2050
G01 X1.8593 Y1.5152 Z0.2050
G01 X1.7757 Y1.4801 Z0.2050
G01 X1.7720 Y1.4785 Z0.2050
G01 X1.6924 Y1.4419 Z0.2050
G01 X1.6886 Y1.4401 Z0.2050
G01 X1.6146 Y1.4029 Z0.2050
G01 X1.6107 Y1.4009 Z0.2050
G01 X1.5404 Y1.3624 Z0.2050
G01 X1.5364 Y1.3601 Z0.2050
G01 X1.4709 Y1.3210 Z0.2050
G01 X1.4668 Y1.3185 Z0.2050
G01 X1.4050 Y1.2782 Z0.2050
G01 X1.4011 Y1.2755 Z0.2050
G01 X1.3443 Y1.2354 Z0.2050
G01 X1.3401 Y1.2324 Z0.2050
G01 X1.2861 Y1.1906 Z0.2050
G01 X1.2821 Y1.1874 Z0.2050
G01 X1.2324 Y1.1457 Z0.2050
G01 X1.2285 Y1.1422 Z0.2050
G01 X1.1820 Y1.0996 Z0.2050
G01 X1.1782 Y1.0960 Z0.2050
G01 X1.1343 Y1.0522 Z0.2050
G01 X1.1305 Y1.0483 Z0.2050
G01 X1.0896 Y1.0038 Z0.2050
G01 X1.0861 Y0.9998 Z0.2050
G01 X1.0477 Y0.9541 Z0.2050
G01 X1.0442 Y0.9498 Z0.2050
G01 X1.0085 Y0.9032 Z0.2050
G01 X1.0053 Y0.8988 Z0.2050
G01 X0.9717 Y0.8508 Z0.2050
G01 X0.9686 Y0.8462 Z0.2050
G01 X0.9374 Y0.7971 Z0.2050
G01 X0.9347 Y0.7926 Z0.2050
G01 X0.9045 Y0.7404 Z0.2050
G01 X0.9019 Y0.7357 Z0.2050
G01 X0.8744 Y0.6830 Z0.2050
G01 X0.8722 Y0.6785 Z0.2050
G01 X0.8463 Y0.6233 Z0.2050
G01 X0.8442 Y0.6187 Z0.2050
G01 X0.8200 Y0.5611 Z0.2050
G01 X0.8182 Y0.5566 Z0.2050
G01 X0.7956 Y0.4964 Z0.2050
G01 X0.7940 Y0.4919 Z0.2050
G01 X0.7734 Y0.4296 Z0.2050
G01 X0.7720 Y0.4253 Z0.2050
G01 X0.7527 Y0.3590 Z0.2050
G01 X0.7516 Y0.3547 Z0.2050
G01 X0.7347 Y0.2878 Z0.2050
G01 X0.7338 Y0.2838 Z0.2050
G01 X0.7181 Y0.2116 Z0.2050
G01 X0.7174 Y0.2075 Z0.2050
G01 X0.7040 Y0.1342 Z0.2050
G01 X0.7033 Y0.1303 Z0.2050
G01 X0.6920 Y0.0542 Z0.2050
G01 X0.6915 Y0.0506 Z0.2050
G01 X0.6872 Y0.0146 Z0.2050
G01 X0.6868 Y0.0109 Z0.2050
G01 X0.6866 Y0.0072 Z0.2050
G01 X0.6864 Y0.0036 Z0.2050
G01 X0.6864 Y0.0000 Z0.2050
G01 X0.6864 Y0.0000 Z-0.0100
G01 X0.6864 Y-0.0036 Z-0.0100
G01 X0.6866 Y-0.0073 Z-0.0100
G01 X0.6868 Y-0.0109 Z-0.0100
G01 X0.6872 Y-0.0146 Z-0.0100
G01 X0.6916 Y-0.0516 Z-0.0100
G01 X0.6921 Y-0.0552 Z-0.0100
G01 X0.7033 Y-0.1303 Z-0.0100
G01 X0.7040 Y-0.1342 Z-0.0100
G01 X0.7174 Y-0.2075 Z-0.0100
G01 X0.7181 Y-0.2116 Z-0.0100
G01 X0.7338 Y-0.2838 Z-0.0100
G01 X0.7347 Y-0.2878 Z-0.0100
G01 X0.7516 Y-0.3547 Z-0.0100
G01 X0.7527 Y-0.3590 Z-0.0100
G01 X0.7720 Y-0.4253 Z-0.0100
G01 X0.7734 Y-0.4296 Z-0.0100
G01 X0.7940 Y-0.4919 Z-0.0100
G01 X0.7956 Y-0.4964 Z-0.0100
G01 X0.8182 Y-0.5566 Z-0.0100
G01 X0.8200 Y-0.5611 Z-0.0100
G01 X0.8445 Y-0.6192 Z-0.0100
G01 X0.8465 Y-0.6239 Z-0.0100
G01 X0.8724 Y-0.6789 Z-0.0100
G01 X0.8746 Y-0.6834 Z-0.0100
G01 X0.9021 Y-0.7361 Z-0.0100
G01 X0.9047 Y-0.7409 Z-0.0100
G01 X0.9347 Y-0.7927 Z-0.0100
G01 X0.9374 Y-0.7971 Z-0.0100
G01 X0.9689 Y-0.8467 Z-0.0100
G01 X0.9720 Y-0.8512 Z-0.0100
G01 X1.0053 Y-0.8988 Z-0.0100
G01 X1.0085 Y-0.9032 Z-0.0100
G01 X1.0442 Y-0.9498 Z-0.0100
G01 X1.0477 Y-0.9541 Z-0.0100
G01 X1.0861 Y-0.9998 Z-0.0100
G01 X1.0896 Y-1.0038 Z-0.0100
G01 X1.1305 Y-1.0483 Z-0.0100
G01 X1.1343 Y-1.0522 Z-0.0100
G01 X1.1782 Y-1.0960 Z-0.0100
G01 X1.1820 Y-1.0996 Z-0.0100
G01 X1.2285 Y-1.1422 Z-0.0100
G01 X1.2324 Y-1.1457 Z-0.0100
G01 X1.2824 Y-1.1877 Z-0.0100
G01 X1.2864 Y-1.1909 Z-0.0100
G01 X1.3402 Y-1.2324 Z-0.0100
G01 X1.3443 Y-1.2354 Z-0.0100
G01 X1.4011 Y-1.2755 Z-0.0100
G01 X1.4050 Y-1.2782 Z-0.0100
G01 X1.4668 Y-1.3185 Z-0.0100
G01 X1.4709 Y-1.3210 Z-0.0100
G01 X1.5365 Y-1.3601 Z-0.0100
G01 X1.5405 Y-1.3624 Z-0.0100
G01 X1.6107 Y-1.4009 Z-0.0100
G01 X1.6146 Y-1.4029 Z-0.0100
G01 X1.6886 Y-1.4401 Z-0.0100
G01 X1.6924 Y-1.4419 Z-0.0100
G01 X1.7720 Y-1.4785 Z-0.0100
G01 X1.7757 Y-1.4801 Z-0.0100
G01 X1.8593 Y-1.5152 Z-0.0100
G01 X1.8629 Y-1.5167 Z-0.0100
G01 X1.9529 Y-1.5512 Z-0.0100
G01 X1.9565 Y-1.5525 Z-0.0100
G01 X2.0503 Y-1.5852 Z-0.0100
G01 X2.0537 Y-1.5864 Z-0.0100
G01 X2.1532 Y-1.6179 Z-0.0100
G01 X2.1564 Y-1.6188 Z-0.0100
G01 X2.2613 Y-1.6489 Z-0.0100
G01 X2.2644 Y-1.6498 Z-0.0100
G01 X2.3737 Y-1.6780 Z-0.0100
G01 X2.3767 Y-1.6788 Z-0.0100
G01 X2.4907 Y-1.7052 Z-0.0100
G01 X2.4937 Y-1.7059 Z-0.0100
G01 X2.6163 Y-1.7312 Z-0.0100
G01 X2.6198 Y-1.7319 Z-0.0100
G01 X2.7110 Y-1.7481 Z-0.0100
G01 X2.7123 Y-1.7483 Z-0.0100
G01 X2.8003 Y-1.7629 Z-0.0100
G01 X2.8016 Y-1.7631 Z-0.0100
G01 X2.8862 Y-1.7762 Z-0.0100
G01 X2.8875 Y-1.7764 Z-0.0100
G01 X2.9690 Y-1.7883 Z-0.0100
G01 X2.9701 Y-1.7884 Z-0.0100
G01 X3.0485 Y-1.7990 Z-0.0100
G01 X3.0494 Y-1.7991 Z-0.0100
G01 X3.1247 Y-1.8087 Z-0.0100
G01 X3.1257 Y-1.8088 Z-0.0100
G01 X3.1979 Y-1.8174 Z-0.0100
G01 X3.1987 Y-1.8175 Z-0.0100
G01 X3.2680 Y-1.8253 Z-0.0100
G01 X3.2687 Y-1.8254 Z-0.0100
G01 X3.3350 Y-1.8325 Z-0.0100
G01 X3.3990 Y-1.8392 Z-0.0100
G01 X3.4601 Y-1.8453 Z-0.0100
G01 X3.5182 Y-1.8512 Z-0.0100
G01 X3.5729 Y-1.8569 Z-0.0100
G01 X3.6257 Y-1.8626 Z-0.0100
G01 X3.6740 Y-1.8682 Z-0.0100
G01 X3.7199 Y-1.8740 Z-0.0100
G01 X3.7649 Y-1.8804 Z-0.0100
G01 X3.8043 Y-1.8868 Z-0.0100
G01 X3.8423 Y-1.8938 Z-0.0100
G01 X3.8770 Y-1.9013 Z-0.0100
G01 X3.9088 Y-1.9094 Z-0.0100
G01 X3.9368 Y-1.9178 Z-0.0100
G01 X3.9639 Y-1.9274 Z-0.0100
G01 X3.9871 Y-1.9371 Z-0.0100
G01 X4.0078 Y-1.9474 Z-0.0100
G01 X4.0266 Y-1.9585 Z-0.0100
G01 X4.0430 Y-1.9700 Z-0.0100
G01 X4.0579 Y-1.9824 Z-0.0100
G01 X4.0717 Y-1.9961 Z-0.0100
G01 X4.0848 Y-2.0114 Z-0.0100
G01 X4.0969 Y-2.0285 Z-0.0100
G01 X4.1087 Y-2.0481 Z-0.0100
G01 X4.1199 Y-2.0702 Z-0.0100
G01 X4.1309 Y-2.0963 Z-0.0100
G01 X4.1411 Y-2.1254 Z-0.0100
G01 X4.1505 Y-2.1572 Z-0.0100
G01 X4.1595 Y-2.1942 Z-0.0100
G01 X4.1674 Y-2.2331 Z-0.0100
G01 X4.1747 Y-2.2773 Z-0.0100
G01 X4.1810 Y-2.3244 Z-0.0100
G01 X4.1868 Y-2.3778 Z-0.0100
G01 X4.1916 Y-2.4323 Z-0.0100
G01 X4.1957 Y-2.4924 Z-0.0100
G01 X4.1991 Y-2.5572 Z-0.0100
G01 X4.2018 Y-2.6255 Z-0.0100
G01 X4.2027 Y-2.6571 Z-0.0100
G01 X4.2028 Y-2.6606 Z-0.0100
G01 X4.2031 Y-2.6641 Z-0.0100
G01 X4.2034 Y-2.6675 Z-0.0100
G01 X4.2039 Y-2.6710 Z-0.0100
G01 X4.2044 Y-2.6745 Z-0.0100
G01 X4.2051 Y-2.6779 Z-0.0100
G01 X4.2058 Y-2.6814 Z-0.0100
G01 X4.2066 Y-2.6848 Z-0.0100
G01 X4.2076 Y-2.6881 Z-0.0100
G01 X4.2086 Y-2.6915 Z-0.0100
G01 X4.2097 Y-2.6948 Z-0.0100
G01 X4.2109 Y-2.6981 Z-0.0100
G01 X4.2122 Y-2.7013 Z-0.0100
G01 X4.2137 Y-2.7045 Z-0.0100
G01 X4.2151 Y-2.7077 Z-0.0100
G01 X4.2167 Y-2.7108 Z-0.0100
G01 X4.2184 Y-2.7139 Z-0.0100
G01 X4.2201 Y-2.7169 Z-0.0100
G01 X4.2220 Y-2.7199 Z-0.0100
G01 X4.2239 Y-2.7228 Z-0.0100
G01 X4.2259 Y-2.7257 Z-0.0100
G01 X4.2280 Y-2.7285 Z-0.0100
G01 X4.2302 Y-2.7313 Z-0.0100
G01 X4.2324 Y-2.7340 Z-0.0100
G01 X4.2348 Y-2.7366 Z-0.0100
G01 X4.2371 Y-2.7391 Z-0.0100
G01 X4.2396 Y-2.7416 Z-0.0100
G01 X4.2421 Y-2.7440 Z-0.0100
G01 X4.2447 Y-2.7464 Z-0.0100
G01 X4.2474 Y-2.7487 Z-0.0100
G01 X4.2501 Y-2.7509 Z-0.0100
G01 X4.2529 Y-2.7530 Z-0.0100
G01 X4.2558 Y-2.7550 Z-0.0100
G01 X4.2587 Y-2.7570 Z-0.0100
G01 X4.2616 Y-2.7588 Z-0.0100
G01 X4.2646 Y-2.7606 Z-0.0100
G01 X4.2677 Y-2.7623 Z-0.0100
G01 X4.2708 Y-2.7639 Z-0.0100
G01 X4.2740 Y-2.7655 Z-0.0100
G01 X4.2772 Y-2.7669 Z-0.0100
G01 X4.2804 Y-2.7682 Z-0.0100
G01 X4.2837 Y-2.7695 Z-0.0100
G01 X4.2870 Y-2.7706 Z-0.0100
G01 X4.2903 Y-2.7717 Z-0.0100
G01 X4.2937 Y-2.7727 Z-0.0100
G01 X4.2971 Y-2.7735 Z-0.0100
G01 X4.3005 Y-2.7743 Z-0.0100
G01 X4.3039 Y-2.7750 Z-0.0100
G01 X4.3074 Y-2.7756 Z-0.0100
G01 X4.3109 Y-2.7761 Z-0.0100
G01 X4.3143 Y-2.7764 Z-0.0100
G01 X4.3178 Y-2.7767 Z-0.0100
G01 X4.3213 Y-2.7769 Z-0.0100
G01 X4.3248 Y-2.7770 Z-0.0100
G01 X4.3286 Y-2.7770 Z-0.0100
G01 X4.3316 Y-2.7770 Z-0.0100
G01 X4.3371 Y-2.7770 Z-0.0100
G01 X4.3403 Y-2.7769 Z-0.0100
G01 X4.9737 Y-2.7516 Z-0.0100
G01 X5.6071 Y-2.7269 Z-0.0100
G01 X6.2404 Y-2.7026 Z-0.0100
G01 X6.8738 Y-2.6787 Z-0.0100
G01 X7.5072 Y-2.6553 Z-0.0100
G01 X8.1407 Y-2.6324 Z-0.0100
G01 X8.7740 Y-2.6099 Z-0.0100
G01 X9.4075 Y-2.5879 Z-0.0100
G01 X10.0410 Y-2.5663 Z-0.0100
G01 X10.6744 Y-2.5451 Z-0.0100
G01 X11.3079 Y-2.5245 Z-0.0100
G01 X11.9377 Y-2.5044 Z-0.0100
G01 X11.9412 Y-2.5043 Z-0.0100
G01 X12.5748 Y-2.4845 Z-0.0100
G01 X13.2085 Y-2.4653 Z-0.0100
G01 X13.8420 Y-2.4464 Z-0.0100
G01 X14.4756 Y-2.4280 Z-0.0100
G01 X15.1092 Y-2.4100 Z-0.0100
G01 X15.7428 Y-2.3925 Z-0.0100
G01 X16.3763 Y-2.3755 Z-0.0100
G01 X17.0099 Y-2.3589 Z-0.0100
G01 X17.6436 Y-2.3427 Z-0.0100
G01 X18.1102 Y-2.3312 Z-0.0099
G01 X18.2772 Y-2.3271 Z0.0090
G01 X18.8976 Y-2.3122 Z0.0800
G01 X18.9108 Y-2.3118 Z0.0800
G01 X19.5445 Y-2.2970 Z0.0800
G01 X19.6850 Y-2.2938 Z0.0799
G01 X20.1782 Y-2.2827 Z0.0236
G01 X20.4724 Y-2.2762 Z-0.0100
G01 X20.8119 Y-2.2688 Z-0.0100
G01 X21.4455 Y-2.2554 Z-0.0100
G01 X22.0792 Y-2.2425 Z-0.0100
G01 X22.7129 Y-2.2300 Z-0.0100
G01 X23.3466 Y-2.2179 Z-0.0100
G01 X23.9764 Y-2.2064 Z-0.0100
G01 X23.9802 Y-2.2064 Z-0.0100
G01 X24.6141 Y-2.1952 Z-0.0100
G01 X25.2478 Y-2.1845 Z-0.0100
G01 X25.8816 Y-2.1743 Z-0.0100
G01 X26.5153 Y-2.1645 Z-0.0100
G01 X27.1490 Y-2.1551 Z-0.0100
G01 X27.7828 Y-2.1463 Z-0.0100
G01 X28.4166 Y-2.1379 Z-0.0100
G01 X29.0504 Y-2.1299 Z-0.0100
G01 X29.6842 Y-2.1224 Z-0.0100
G01 X30.3179 Y-2.1153 Z-0.0100
G01 X30.9518 Y-2.1087 Z-0.0100
G01 X31.5856 Y-2.1025 Z-0.0100
G01 X32.2193 Y-2.0968 Z-0.0100
G01 X32.8531 Y-2.0916 Z-0.0100
G01 X33.4870 Y-2.0868 Z-0.0100
G01 X34.1207 Y-2.0824 Z-0.0100
G01 X34.7546 Y-2.0785 Z-0.0100
G01 X35.3884 Y-2.0751 Z-0.0100
G01 X36.0222 Y-2.0721 Z-0.0100
G01 X36.6560 Y-2.0696 Z-0.0100
G01 X37.2899 Y-2.0675 Z-0.0100
G01 X37.9237 Y-2.0659 Z-0.0100
G01 X38.5575 Y-2.0647 Z-0.0100
G01 X39.1914 Y-2.0640 Z-0.0100
G01 X39.8251 Y-2.0637 Z-0.0100
G01 X40.4588 Y-2.0639 Z-0.0100
G01 X41.0927 Y-2.0646 Z-0.0100
G01 X41.7265 Y-2.0657 Z-0.0100
G01 X42.3603 Y-2.0672 Z-0.0100
G01 X42.9941 Y-2.0692 Z-0.0100
G01 X43.6279 Y-2.0717 Z-0.0100
G01 X44.2618 Y-2.0746 Z-0.0100
G01 X44.8956 Y-2.0780 Z-0.0100
G01 X45.5294 Y-2.0818 Z-0.0100
G01 X46.1633 Y-2.0861 Z-0.0100
G01 X46.7970 Y-2.0908 Z-0.0100
G01 X47.4308 Y-2.0960 Z-0.0100
G01 X48.0646 Y-2.1016 Z-0.0100
G01 X48.6985 Y-2.1077 Z-0.0100
G01 X49.3322 Y-2.1143 Z-0.0100
G01 X49.8031 Y-2.1195 Z-0.0099
G01 X49.9660 Y-2.1213 Z0.0085
G01 X50.5905 Y-2.1286 Z0.0800
G01 X50.5998 Y-2.1287 Z0.0800
G01 X51.2336 Y-2.1366 Z0.0800
G01 X51.3779 Y-2.1385 Z0.0799
G01 X51.8673 Y-2.1450 Z0.0240
G01 X52.1653 Y-2.1491 Z-0.0100
G01 X52.5011 Y-2.1538 Z-0.0100
G01 X53.1349 Y-2.1631 Z-0.0100
G01 X53.7687 Y-2.1728 Z-0.0100
G01 X54.4024 Y-2.1830 Z-0.0100
G01 X55.0361 Y-2.1936 Z-0.0100
G01 X55.6699 Y-2.2047 Z-0.0100
G01 X56.3037 Y-2.2162 Z-0.0100
G01 X56.3072 Y-2.2162 Z-0.0100
G01 X56.9372 Y-2.2281 Z-0.0100
G01 X57.5710 Y-2.2406 Z-0.0100
G01 X58.2047 Y-2.2535 Z-0.0100
G01 X58.8384 Y-2.2668 Z-0.0100
G01 X59.4720 Y-2.2807 Z-0.0100
G01 X60.1057 Y-2.2949 Z-0.0100
G01 X60.7393 Y-2.3096 Z-0.0100
G01 X61.3730 Y-2.3248 Z-0.0100
G01 X62.0066 Y-2.3404 Z-0.0100
G01 X62.6403 Y-2.3565 Z-0.0100
G01 X63.2739 Y-2.3730 Z-0.0100
G01 X63.9075 Y-2.3900 Z-0.0100
G01 X64.5411 Y-2.4074 Z-0.0100
G01 X65.1746 Y-2.4253 Z-0.0100
G01 X65.8082 Y-2.4437 Z-0.0100
G01 X66.4418 Y-2.4624 Z-0.0100
G01 X67.0754 Y-2.4817 Z-0.0100
G01 X67.7090 Y-2.5014 Z-0.0100
G01 X67.7118 Y-2.5014 Z-0.0100
G01 X67.7167 Y-2.5015 Z-0.0100
G01 X67.7189 Y-2.5015 Z-0.0100
G01 X67.7421 Y-2.5012 Z-0.0100
G01 X67.7456 Y-2.5012 Z-0.0100
G01 X67.7491 Y-2.5010 Z-0.0100
G01 X67.7526 Y-2.5007 Z-0.0100
G01 X67.7561 Y-2.5003 Z-0.0100
G01 X67.7596 Y-2.4998 Z-0.0100
G01 X67.7631 Y-2.4992 Z-0.0100
G01 X67.7665 Y-2.4986 Z-0.0100
G01 X67.7700 Y-2.4978 Z-0.0100
G01 X67.7733 Y-2.4969 Z-0.0100
G01 X67.7767 Y-2.4959 Z-0.0100
G01 X67.7801 Y-2.4949 Z-0.0100
G01 X67.7834 Y-2.4937 Z-0.0100
G01 X67.7866 Y-2.4924 Z-0.0100
G01 X67.7899 Y-2.4911 Z-0.0100
G01 X67.7931 Y-2.4896 Z-0.0100
G01 X67.7962 Y-2.4881 Z-0.0100
G01 X67.7994 Y-2.4865 Z-0.0100
G01 X67.8024 Y-2.4848 Z-0.0100
G01 X67.8055 Y-2.4830 Z-0.0100
G01 X67.8084 Y-2.4811 Z-0.0100
G01 X67.8113 Y-2.4792 Z-0.0100
G01 X67.8142 Y-2.4771 Z-0.0100
G01 X67.8170 Y-2.4750 Z-0.0100
G01 X67.8197 Y-2.4728 Z-0.0100
G01 X67.8224 Y-2.4705 Z-0.0100
G01 X67.8250 Y-2.4681 Z-0.0100
G01 X67.8275 Y-2.4657 Z-0.0100
G01 X67.8300 Y-2.4632 Z-0.0100
G01 X67.8324 Y-2.4606 Z-0.0100
G01 X67.8347 Y-2.4580 Z-0.0100
G01 X67.8370 Y-2.4553 Z-0.0100
G01 X67.8391 Y-2.4525 Z-0.0100
G01 X67.8412 Y-2.4497 Z-0.0100
G01 X67.8432 Y-2.4468 Z-0.0100
G01 X67.8451 Y-2.4439 Z-0.0100
G01 X67.8470 Y-2.4409 Z-0.0100
G01 X67.8487 Y-2.4378 Z-0.0100
G01 X67.8504 Y-2.4348 Z-0.0100
G01 X67.8520 Y-2.4316 Z-0.0100
G01 X67.8535 Y-2.4284 Z-0.0100
G01 X67.8549 Y-2.4252 Z-0.0100
G01 X67.8562 Y-2.4220 Z-0.0100
G01 X67.8574 Y-2.4187 Z-0.0100
G01 X67.8585 Y-2.4153 Z-0.0100
G01 X67.8595 Y-2.4120 Z-0.0100
G01 X67.8604 Y-2.4086 Z-0.0100
G01 X67.8612 Y-2.4051 Z-0.0100
G01 X67.8620 Y-2.4017 Z-0.0100
G01 X67.8626 Y-2.3983 Z-0.0100
G01 X67.8631 Y-2.3948 Z-0.0100
G01 X67.8652 Y-2.3799 Z-0.0100
G01 X67.8759 Y-2.3205 Z-0.0100
G01 X67.8878 Y-2.2673 Z-0.0100
G01 X67.9013 Y-2.2186 Z-0.0100
G01 X67.9161 Y-2.1746 Z-0.0100
G01 X67.9320 Y-2.1353 Z-0.0100
G01 X67.9487 Y-2.1003 Z-0.0100
G01 X67.9670 Y-2.0678 Z-0.0100
G01 X67.9853 Y-2.0400 Z-0.0100
G01 X68.0052 Y-2.0140 Z-0.0100
G01 X68.0253 Y-1.9912 Z-0.0100
G01 X68.0473 Y-1.9697 Z-0.0100
G01 X68.0699 Y-1.9503 Z-0.0100
G01 X68.0944 Y-1.9320 Z-0.0100
G01 X68.1206 Y-1.9146 Z-0.0100
G01 X68.1476 Y-1.8987 Z-0.0100
G01 X68.1769 Y-1.8831 Z-0.0100
G01 X68.2074 Y-1.8684 Z-0.0100
G01 X68.2410 Y-1.8535 Z-0.0100
G01 X68.2734 Y-1.8401 Z-0.0100
G01 X68.3103 Y-1.8255 Z-0.0100
G01 X68.3475 Y-1.8114 Z-0.0100
G01 X68.3864 Y-1.7967 Z-0.0100
G01 X68.4262 Y-1.7816 Z-0.0100
G01 X68.4271 Y-1.7813 Z-0.0100
G01 X68.4673 Y-1.7657 Z-0.0100
G01 X68.4688 Y-1.7652 Z-0.0100
G01 X68.5096 Y-1.7488 Z-0.0100
G01 X68.5114 Y-1.7480 Z-0.0100
G01 X68.5527 Y-1.7307 Z-0.0100
G01 X68.5553 Y-1.7296 Z-0.0100
G01 X68.5970 Y-1.7109 Z-0.0100
G01 X68.6001 Y-1.7095 Z-0.0100
G01 X68.6422 Y-1.6893 Z-0.0100
G01 X68.6455 Y-1.6877 Z-0.0100
G01 X68.6879 Y-1.6657 Z-0.0100
G01 X68.6916 Y-1.6638 Z-0.0100
G01 X68.7343 Y-1.6398 Z-0.0100
G01 X68.7383 Y-1.6375 Z-0.0100
G01 X68.7812 Y-1.6112 Z-0.0100
G01 X68.7853 Y-1.6087 Z-0.0100
G01 X68.8283 Y-1.5800 Z-0.0100
G01 X68.8326 Y-1.5770 Z-0.0100
G01 X68.8757 Y-1.5456 Z-0.0100
G01 X68.8800 Y-1.5424 Z-0.0100
G01 X68.9231 Y-1.5081 Z-0.0100
G01 X68.9274 Y-1.5045 Z-0.0100
G01 X68.9705 Y-1.4669 Z-0.0100
G01 X68.9746 Y-1.4632 Z-0.0100
G01 X69.0177 Y-1.4221 Z-0.0100
G01 X69.0216 Y-1.4182 Z-0.0100
G01 X69.0645 Y-1.3735 Z-0.0100
G01 X69.0681 Y-1.3695 Z-0.0100
G01 X69.1109 Y-1.3208 Z-0.0100
G01 X69.1144 Y-1.3166 Z-0.0100
G01 X69.1568 Y-1.2638 Z-0.0100
G01 X69.1600 Y-1.2596 Z-0.0100
G01 X69.2021 Y-1.2024 Z-0.0100
G01 X69.2050 Y-1.1983 Z-0.0100
G01 X69.2468 Y-1.1363 Z-0.0100
G01 X69.2494 Y-1.1322 Z-0.0100
G01 X69.2907 Y-1.0653 Z-0.0100
G01 X69.2931 Y-1.0613 Z-0.0100
G01 X69.3339 Y-0.9893 Z-0.0100
G01 X69.3361 Y-0.9853 Z-0.0100
G01 X69.3763 Y-0.9079 Z-0.0100
G01 X69.3781 Y-0.9043 Z-0.0100
G01 X69.4178 Y-0.8213 Z-0.0100
G01 X69.4205 Y-0.8154 Z-0.0100
G01 X69.4400 Y-0.7684 Z-0.0100
G01 X69.4416 Y-0.7644 Z-0.0100
G01 X69.4594 Y-0.7171 Z-0.0100
G01 X69.4607 Y-0.7133 Z-0.0100
G01 X69.4784 Y-0.6612 Z-0.0100
G01 X69.4796 Y-0.6576 Z-0.0100
G01 X69.4961 Y-0.6033 Z-0.0100
G01 X69.4971 Y-0.5998 Z-0.0100
G01 X69.5127 Y-0.5429 Z-0.0100
G01 X69.5136 Y-0.5394 Z-0.0100
G01 X69.5282 Y-0.4793 Z-0.0100
G01 X69.5289 Y-0.4762 Z-0.0100
G01 X69.5424 Y-0.4132 Z-0.0100
G01 X69.5431 Y-0.4100 Z-0.0100
G01 X69.5555 Y-0.3438 Z-0.0100
G01 X69.5560 Y-0.3409 Z-0.0100
G01 X69.5670 Y-0.2737 Z-0.0100
G01 X69.5674 Y-0.2708 Z-0.0100
G01 X69.5774 Y-0.1988 Z-0.0100
G01 X69.5777 Y-0.1961 Z-0.0100
G01 X69.5862 Y-0.1235 Z-0.0100
G01 X69.5865 Y-0.1210 Z-0.0100
G01 X69.5942 Y-0.0416 Z-0.0100
G01 X69.5944 Y-0.0390 Z-0.0100
G01 X69.5966 Y-0.0092 Z-0.0100
G01 X69.5966 Y0.0092 Z-0.0100
G01 X69.5944 Y0.0390 Z-0.0100
G01 X69.5942 Y0.0416 Z-0.0100
G01 X69.5865 Y0.1210 Z-0.0100
G01 X69.5862 Y0.1235 Z-0.0100
G01 X69.5777 Y0.1961 Z-0.0100
G01 X69.5774 Y0.1988 Z-0.0100
G01 X69.5674 Y0.2708 Z-0.0100
G01 X69.5670 Y0.2737 Z-0.0100
G01 X69.5560 Y0.3409 Z-0.0100
G01 X69.5555 Y0.3438 Z-0.0100
G01 X69.5431 Y0.4100 Z-0.0100
G01 X69.5424 Y0.4132 Z-0.0100
G01 X69.5289 Y0.4762 Z-0.0100
G01 X69.5282 Y0.4793 Z-0.0100
G01 X69.5136 Y0.5394 Z-0.0100
G01 X69.5127 Y0.5429 Z-0.0100
G01 X69.4971 Y0.5998 Z-0.0100
G01 X69.4961 Y0.6033 Z-0.0100
G01 X69.4796 Y0.6576 Z-0.0100
G01 X69.4784 Y0.6612 Z-0.0100
G01 X69.4607 Y0.7133 Z-0.0100
G01 X69.4594 Y0.7171 Z-0.0100
G01 X69.4416 Y0.7644 Z-0.0100
G01 X69.4400 Y0.7684 Z-0.0100
G01 X69.4205 Y0.8152 Z-0.0100
G01 X69.4179 Y0.8209 Z-0.0100
G01 X69.3783 Y0.9040 Z-0.0100
G01 X69.3764 Y0.9077 Z-0.0100
G01 X69.3362 Y0.9851 Z-0.0100
G01 X69.3341 Y0.9891 Z-0.0100
G01 X69.2933 Y1.0611 Z-0.0100
G01 X69.2910 Y1.0650 Z-0.0100
G01 X69.2497 Y1.1319 Z-0.0100
G01 X69.2470 Y1.1361 Z-0.0100
G01 X69.2053 Y1.1981 Z-0.0100
G01 X69.2024 Y1.2022 Z-0.0100
G01 X69.1603 Y1.2595 Z-0.0100
G01 X69.1571 Y1.2637 Z-0.0100
G01 X69.1147 Y1.3165 Z-0.0100
G01 X69.1112 Y1.3206 Z-0.0100
G01 X69.0686 Y1.3693 Z-0.0100
G01 X69.0648 Y1.3734 Z-0.0100
G01 X69.0219 Y1.4181 Z-0.0100
G01 X69.0180 Y1.4220 Z-0.0100
G01 X68.9750 Y1.4631 Z-0.0100
G01 X68.9709 Y1.4668 Z-0.0100
G01 X68.9278 Y1.5044 Z-0.0100
G01 X68.9236 Y1.5079 Z-0.0100
G01 X68.8804 Y1.5424 Z-0.0100
G01 X68.8761 Y1.5456 Z-0.0100
G01 X68.8330 Y1.5770 Z-0.0100
G01 X68.8288 Y1.5799 Z-0.0100
G01 X68.7858 Y1.6086 Z-0.0100
G01 X68.7816 Y1.6113 Z-0.0100
G01 X68.7387 Y1.6375 Z-0.0100
G01 X68.7348 Y1.6398 Z-0.0100
G01 X68.6921 Y1.6637 Z-0.0100
G01 X68.6883 Y1.6657 Z-0.0100
G01 X68.6459 Y1.6877 Z-0.0100
G01 X68.6426 Y1.6893 Z-0.0100
G01 X68.6005 Y1.7095 Z-0.0100
G01 X68.5974 Y1.7109 Z-0.0100
G01 X68.5557 Y1.7296 Z-0.0100
G01 X68.5533 Y1.7306 Z-0.0100
G01 X68.5120 Y1.7480 Z-0.0100
G01 X68.5099 Y1.7489 Z-0.0100
G01 X68.4690 Y1.7652 Z-0.0100
G01 X68.4677 Y1.7657 Z-0.0100
G01 X68.4274 Y1.7813 Z-0.0100
G01 X68.4266 Y1.7816 Z-0.0100
G01 X68.3870 Y1.7966 Z-0.0100
G01 X68.3477 Y1.8114 Z-0.0100
G01 X68.3114 Y1.8252 Z-0.0100
G01 X68.2745 Y1.8398 Z-0.0100
G01 X68.2399 Y1.8542 Z-0.0100
G01 X68.2087 Y1.8680 Z-0.0100
G01 X68.1772 Y1.8832 Z-0.0100
G01 X68.1477 Y1.8988 Z-0.0100
G01 X68.1205 Y1.9148 Z-0.0100
G01 X68.0944 Y1.9322 Z-0.0100
G01 X68.0703 Y1.9503 Z-0.0100
G01 X68.0475 Y1.9697 Z-0.0100
G01 X68.0254 Y1.9913 Z-0.0100
G01 X68.0055 Y2.0138 Z-0.0100
G01 X67.9856 Y2.0398 Z-0.0100
G01 X67.9668 Y2.0684 Z-0.0100
G01 X67.9488 Y2.1003 Z-0.0100
G01 X67.9320 Y2.1353 Z-0.0100
G01 X67.9162 Y2.1746 Z-0.0100
G01 X67.9013 Y2.2189 Z-0.0100
G01 X67.8880 Y2.2668 Z-0.0100
G01 X67.8759 Y2.3202 Z-0.0100
G01 X67.8652 Y2.3800 Z-0.0100
G01 X67.8632 Y2.3945 Z-0.0100
G01 X67.8627 Y2.3980 Z-0.0100
G01 X67.8621 Y2.4014 Z-0.0100
G01 X67.8613 Y2.4049 Z-0.0100
G01 X67.8605 Y2.4083 Z-0.0100
G01 X67.8596 Y2.4117 Z-0.0100
G01 X67.8586 Y2.4151 Z-0.0100
G01 X67.8575 Y2.4184 Z-0.0100
G01 X67.8563 Y2.4217 Z-0.0100
G01 X67.8550 Y2.4250 Z-0.0100
G01 X67.8536 Y2.4282 Z-0.0100
G01 X67.8521 Y2.4314 Z-0.0100
G01 X67.8505 Y2.4346 Z-0.0100
G01 X67.8488 Y2.4377 Z-0.0100
G01 X67.8471 Y2.4407 Z-0.0100
G01 X67.8453 Y2.4437 Z-0.0100
G01 X67.8434 Y2.4467 Z-0.0100
G01 X67.8414 Y2.4496 Z-0.0100
G01 X67.8393 Y2.4524 Z-0.0100
G01 X67.8371 Y2.4551 Z-0.0100
G01 X67.8349 Y2.4579 Z-0.0100
G01 X67.8325 Y2.4605 Z-0.0100
G01 X67.8301 Y2.4631 Z-0.0100
G01 X67.8277 Y2.4656 Z-0.0100
G01 X67.8251 Y2.4680 Z-0.0100
G01 X67.8225 Y2.4704 Z-0.0100
G01 X67.8199 Y2.4727 Z-0.0100
G01 X67.8171 Y2.4749 Z-0.0100
G01 X67.8143 Y2.4770 Z-0.0100
G01 X67.8115 Y2.4791 Z-0.0100
G01 X67.8086 Y2.4811 Z-0.0100
G01 X67.8056 Y2.4829 Z-0.0100
G01 X67.8026 Y2.4848 Z-0.0100
G01 X67.7995 Y2.4864 Z-0.0100
G01 X67.7964 Y2.4881 Z-0.0100
G01 X67.7932 Y2.4896 Z-0.0100
G01 X67.7900 Y2.4911 Z-0.0100
G01 X67.7868 Y2.4924 Z-0.0100
G01 X67.7835 Y2.4937 Z-0.0100
G01 X67.7801 Y2.4948 Z-0.0100
G01 X67.7768 Y2.4959 Z-0.0100
G01 X67.7734 Y2.4969 Z-0.0100
G01 X67.7700 Y2.4978 Z-0.0100
G01 X67.7666 Y2.4985 Z-0.0100
G01 X67.7631 Y2.4992 Z-0.0100
G01 X67.7597 Y2.4998 Z-0.0100
G01 X67.7562 Y2.5003 Z-0.0100
G01 X67.7527 Y2.5007 Z-0.0100
G01 X67.7492 Y2.5010 Z-0.0100
G01 X67.7457 Y2.5012 Z-0.0100
G01 X67.7422 Y2.5012 Z-0.0100
G01 X67.7189 Y2.5015 Z-0.0100
G01 X67.7167 Y2.5015 Z-0.0100
G01 X67.7118 Y2.5014 Z-0.0100
G01 X67.7090 Y2.5014 Z-0.0100
G01 X67.0754 Y2.4816 Z-0.0100
G01 X66.4418 Y2.4624 Z-0.0100
G01 X65.8082 Y2.4437 Z-0.0100
G01 X65.1746 Y2.4253 Z-0.0100
G01 X64.5411 Y2.4074 Z-0.0100
G01 X63.9075 Y2.3900 Z-0.0100
G01 X63.2739 Y2.3730 Z-0.0100
G01 X62.6403 Y2.3565 Z-0.0100
G01 X62.0066 Y2.3404 Z-0.0100
G01 X61.3730 Y2.3248 Z-0.0100
G01 X60.7393 Y2.3096 Z-0.0100
G01 X60.1057 Y2.2949 Z-0.0100
G01 X59.4720 Y2.2807 Z-0.0100
G01 X58.8384 Y2.2668 Z-0.0100
G01 X58.2047 Y2.2535 Z-0.0100
G01 X57.5710 Y2.2406 Z-0.0100
G01 X56.9372 Y2.2281 Z-0.0100
G01 X56.3075 Y2.2162 Z-0.0100
G01 X56.3037 Y2.2162 Z-0.0100
G01 X55.6699 Y2.2047 Z-0.0100
G01 X55.0361 Y2.1936 Z-0.0100
G01 X54.4024 Y2.1830 Z-0.0100
G01 X53.7687 Y2.1728 Z-0.0100
G01 X53.1349 Y2.1631 Z-0.0100
G01 X52.5011 Y2.1538 Z-0.0100
G01 X52.1653 Y2.1491 Z-0.0100
G01 X51.8673 Y2.1450 Z0.0240
G01 X51.3779 Y2.1385 Z0.0799
G01 X51.2336 Y2.1366 Z0.0800
G01 X50.5998 Y2.1287 Z0.0800
G01 X50.5905 Y2.1286 Z0.0800
G01 X49.9660 Y2.1213 Z0.0085
G01 X49.8031 Y2.1195 Z-0.0099
G01 X49.3322 Y2.1143 Z-0.0100
G01 X48.6985 Y2.1077 Z-0.0100
G01 X48.0646 Y2.1016 Z-0.0100
G01 X47.4308 Y2.0960 Z-0.0100
G01 X46.7970 Y2.0908 Z-0.0100
G01 X46.1633 Y2.0861 Z-0.0100
G01 X45.5294 Y2.0818 Z-0.0100
G01 X44.8956 Y2.0780 Z-0.0100
G01 X44.2618 Y2.0746 Z-0.0100
G01 X43.6279 Y2.0717 Z-0.0100
G01 X42.9941 Y2.0692 Z-0.0100
G01 X42.3603 Y2.0672 Z-0.0100
G01 X41.7265 Y2.0657 Z-0.0100
G01 X41.0927 Y2.0646 Z-0.0100
G01 X40.4588 Y2.0639 Z-0.0100
G01 X39.8251 Y2.0637 Z-0.0100
G01 X39.1914 Y2.0640 Z-0.0100
G01 X38.5575 Y2.0647 Z-0.0100
G01 X37.9237 Y2.0659 Z-0.0100
G01 X37.2899 Y2.0675 Z-0.0100
G01 X36.6560 Y2.0696 Z-0.0100
G01 X36.0222 Y2.0721 Z-0.0100
G01 X35.3884 Y2.0751 Z-0.0100
G01 X34.7546 Y2.0785 Z-0.0100
G01 X34.1207 Y2.0824 Z-0.0100
G01 X33.4870 Y2.0868 Z-0.0100
G01 X32.8531 Y2.0916 Z-0.0100
G01 X32.2193 Y2.0968 Z-0.0100
G01 X31.5856 Y2.1025 Z-0.0100
G01 X30.9518 Y2.1087 Z-0.0100
G01 X30.3179 Y2.1153 Z-0.0100
G01 X29.6842 Y2.1224 Z-0.0100
G01 X29.0504 Y2.1299 Z-0.0100
G01 X28.4166 Y2.1379 Z-0.0100
G01 X27.7828 Y2.1463 Z-0.0100
G01 X27.1490 Y2.1551 Z-0.0100
G01 X26.5153 Y2.1645 Z-0.0100
G01 X25.8816 Y2.1743 Z-0.0100
G01 X25.2478 Y2.1845 Z-0.0100
G01 X24.6141 Y2.1952 Z-0.0100
G01 X23.9802 Y2.2064 Z-0.0100
G01 X23.9764 Y2.2064 Z-0.0100
G01 X23.3466 Y2.2179 Z-0.0100
G01 X22.7129 Y2.2300 Z-0.0100
G01 X22.0792 Y2.2425 Z-0.0100
G01 X21.4455 Y2.2554 Z-0.0100
G01 X20.8119 Y2.2688 Z-0.0100
G01 X20.4724 Y2.2762 Z-0.0100
G01 X20.1782 Y2.2827 Z0.0236
G01 X19.6850 Y2.2938 Z0.0799
G01 X19.5445 Y2.2970 Z0.0800
G01 X18.9108 Y2.3118 Z0.0800
G01 X18.8976 Y2.3122 Z0.0800
G01 X18.2772 Y2.3271 Z0.0090
G01 X18.1102 Y2.3312 Z-0.0099
G01 X17.6436 Y2.3427 Z-0.0100
G01 X17.0099 Y2.3589 Z-0.0100
G01 X16.3763 Y2.3755 Z-0.0100
G01 X15.7428 Y2.3925 Z-0.0100
G01 X15.1092 Y2.4100 Z-0.0100
G01 X14.4756 Y2.4280 Z-0.0100
G01 X13.8420 Y2.4464 Z-0.0100
G01 X13.2085 Y2.4653 Z-0.0100
G01 X12.5748 Y2.4846 Z-0.0100
G01 X11.9412 Y2.5043 Z-0.0100
G01 X11.9377 Y2.5044 Z-0.0100
G01 X11.3079 Y2.5245 Z-0.0100
G01 X10.6744 Y2.5451 Z-0.0100
G01 X10.0410 Y2.5663 Z-0.0100
G01 X9.4075 Y2.5879 Z-0.0100
G01 X8.7740 Y2.6099 Z-0.0100
G01 X8.1407 Y2.6324 Z-0.0100
G01 X7.5072 Y2.6553 Z-0.0100
G01 X6.8738 Y2.6787 Z-0.0100
G01 X6.2404 Y2.7026 Z-0.0100
G01 X5.6071 Y2.7269 Z-0.0100
G01 X4.9737 Y2.7516 Z-0.0100
G01 X4.3403 Y2.7769 Z-0.0100
G01 X4.3371 Y2.7770 Z-0.0100
G01 X4.3316 Y2.7770 Z-0.0100
G01 X4.3286 Y2.7770 Z-0.0100
G01 X4.3248 Y2.7770 Z-0.0100
G01 X4.3213 Y2.7769 Z-0.0100
G01 X4.3178 Y2.7767 Z-0.0100
G01 X4.3143 Y2.7764 Z-0.0100
G01 X4.3109 Y2.7761 Z-0.0100
G01 X4.3074 Y2.7756 Z-0.0100
G01 X4.3039 Y2.7750 Z-0.0100
G01 X4.3005 Y2.7743 Z-0.0100
G01 X4.2971 Y2.7735 Z-0.0100
G01 X4.2937 Y2.7727 Z-0.0100
G01 X4.2903 Y2.7717 Z-0.0100
G01 X4.2870 Y2.7706 Z-0.0100
G01 X4.2837 Y2.7695 Z-0.0100
G01 X4.2804 Y2.7682 Z-0.0100
G01 X4.2772 Y2.7669 Z-0.0100
G01 X4.2740 Y2.7655 Z-0.0100
G01 X4.2708 Y2.7639 Z-0.0100
G01 X4.2677 Y2.7623 Z-0.0100
G01 X4.2646 Y2.7606 Z-0.0100
G01 X4.2616 Y2.7588 Z-0.0100
G01 X4.2587 Y2.7570 Z-0.0100
G01 X4.2558 Y2.7550 Z-0.0100
G01 X4.2529 Y2.7530 Z-0.0100
G01 X4.2501 Y2.7509 Z-0.0100
G01 X4.2474 Y2.7487 Z-0.0100
G01 X4.2447 Y2.7464 Z-0.0100
G01 X4.2421 Y2.7440 Z-0.0100
G01 X4.2396 Y2.7416 Z-0.0100
G01 X4.2371 Y2.7391 Z-0.0100
G01 X4.2348 Y2.7366 Z-0.0100
G01 X4.2324 Y2.7340 Z-0.0100
G01 X4.2302 Y2.7313 Z-0.0100
G01 X4.2280 Y2.7285 Z-0.0100
G01 X4.2259 Y2.7257 Z-0.0100
G01 X4.2239 Y2.7228 Z-0.0100
G01 X4.2220 Y2.7199 Z-0.0100
G01 X4.2201 Y2.7169 Z-0.0100
G01 X4.2184 Y2.7139 Z-0.0100
G01 X4.2167 Y2.7108 Z-0.0100
G01 X4.2151 Y2.7077 Z-0.0100
G01 X4.2137 Y2.7045 Z-0.0100
G01 X4.2122 Y2.7013 Z-0.0100
G01 X4.2109 Y2.6981 Z-0.0100
G01 X4.2097 Y2.6948 Z-0.0100
G01 X4.2086 Y2.6915 Z-0.0100
G01 X4.2076 Y2.6881 Z-0.0100
G01 X4.2066 Y2.6848 Z-0.0100
G01 X4.2058 Y2.6814 Z-0.0100
G01 X4.2051 Y2.6779 Z-0.0100
G01 X4.2044 Y2.6745 Z-0.0100
G01 X4.2039 Y2.6710 Z-0.0100
G01 X4.2034 Y2.6675 Z-0.0100
G01 X4.2031 Y2.6641 Z-0.0100
G01 X4.2028 Y2.6606 Z-0.0100
G01 X4.2027 Y2.6571 Z-0.0100
G01 X4.2017 Y2.6242 Z-0.0100
G01 X4.1990 Y2.5555 Z-0.0100
G01 X4.1956 Y2.4913 Z-0.0100
G01 X4.1915 Y2.4311 Z-0.0100
G01 X4.1868 Y2.3778 Z-0.0100
G01 X4.1810 Y2.3244 Z-0.0100
G01 X4.1747 Y2.2773 Z-0.0100
G01 X4.1673 Y2.2330 Z-0.0100
G01 X4.1594 Y2.1938 Z-0.0100
G01 X4.1502 Y2.1562 Z-0.0100
G01 X4.1411 Y2.1252 Z-0.0100
G01 X4.1307 Y2.0959 Z-0.0100
G01 X4.1199 Y2.0702 Z-0.0100
G01 X4.1087 Y2.0481 Z-0.0100
G01 X4.0969 Y2.0285 Z-0.0100
G01 X4.0848 Y2.0114 Z-0.0100
G01 X4.0717 Y1.9961 Z-0.0100
G01 X4.0579 Y1.9824 Z-0.0100
G01 X4.0430 Y1.9700 Z-0.0100
G01 X4.0266 Y1.9585 Z-0.0100
G01 X4.0078 Y1.9474 Z-0.0100
G01 X3.9871 Y1.9371 Z-0.0100
G01 X3.9639 Y1.9274 Z-0.0100
G01 X3.9368 Y1.9178 Z-0.0100
G01 X3.9088 Y1.9094 Z-0.0100
G01 X3.8770 Y1.9013 Z-0.0100
G01 X3.8423 Y1.8938 Z-0.0100
G01 X3.8043 Y1.8868 Z-0.0100
G01 X3.7649 Y1.8804 Z-0.0100
G01 X3.7198 Y1.8740 Z-0.0100
G01 X3.6740 Y1.8682 Z-0.0100
G01 X3.6257 Y1.8626 Z-0.0100
G01 X3.5729 Y1.8569 Z-0.0100
G01 X3.5182 Y1.8512 Z-0.0100
G01 X3.4601 Y1.8453 Z-0.0100
G01 X3.3994 Y1.8392 Z-0.0100
G01 X3.3355 Y1.8325 Z-0.0100
G01 X3.2687 Y1.8254 Z-0.0100
G01 X3.2680 Y1.8253 Z-0.0100
G01 X3.1987 Y1.8175 Z-0.0100
G01 X3.1979 Y1.8174 Z-0.0100
G01 X3.1257 Y1.8088 Z-0.0100
G01 X3.1247 Y1.8087 Z-0.0100
G01 X3.0494 Y1.7991 Z-0.0100
G01 X3.0485 Y1.7990 Z-0.0100
G01 X2.9701 Y1.7884 Z-0.0100
G01 X2.9690 Y1.7883 Z-0.0100
G01 X2.8875 Y1.7764 Z-0.0100
G01 X2.8862 Y1.7762 Z-0.0100
G01 X2.8016 Y1.7631 Z-0.0100
G01 X2.8003 Y1.7629 Z-0.0100
G01 X2.7123 Y1.7483 Z-0.0100
G01 X2.7110 Y1.7481 Z-0.0100
G01 X2.6198 Y1.7319 Z-0.0100
G01 X2.6163 Y1.7312 Z-0.0100
G01 X2.4937 Y1.7059 Z-0.0100
G01 X2.4907 Y1.7052 Z-0.0100
G01 X2.3767 Y1.6788 Z-0.0100
G01 X2.3737 Y1.6780 Z-0.0100
G01 X2.2644 Y1.6498 Z-0.0100
G01 X2.2613 Y1.6489 Z-0.0100
G01 X2.1564 Y1.6188 Z-0.0100
G01 X2.1532 Y1.6179 Z-0.0100
G01 X2.0537 Y1.5864 Z-0.0100
G01 X2.0503 Y1.5852 Z-0.0100
G01 X1.9565 Y1.5525 Z-0.0100
G01 X1.9529 Y1.5512 Z-0.0100
G01 X1.8629 Y1.5167 Z-0.0100
G01 X1.8593 Y1.5152 Z-0.0100
G01 X1.7757 Y1.4801 Z-0.0100
G01 X1.7720 Y1.4785 Z-0.0100
G01 X1.6924 Y1.4419 Z-0.0100
G01 X1.6886 Y1.4401 Z-0.0100
G01 X1.6146 Y1.4029 Z-0.0100
G01 X1.6107 Y1.4009 Z-0.0100
G01 X1.5404 Y1.3624 Z-0.0100
G01 X1.5364 Y1.3601 Z-0.0100
G01 X1.4709 Y1.3210 Z-0.0100
G01 X1.4668 Y1.3185 Z-0.0100
G01 X1.4050 Y1.2782 Z-0.0100
G01 X1.4011 Y1.2755 Z-0.0100
G01 X1.3443 Y1.2354 Z-0.0100
G01 X1.3401 Y1.2324 Z-0.0100
G01 X1.2861 Y1.1906 Z-0.0100
G01 X1.2821 Y1.1874 Z-0.0100
G01 X1.2324 Y1.1457 Z-0.0100
G01 X1.2285 Y1.1422 Z-0.0100
G01 X1.1820 Y1.0996 Z-0.0100
G01 X1.1782 Y1.0960 Z-0.0100
G01 X1.1343 Y1.0522 Z-0.0100
G01 X1.1305 Y1.0483 Z-0.0100
G01 X1.0896 Y1.0038 Z-0.0100
G01 X1.0861 Y0.9998 Z-0.0100
G01 X1.0477 Y0.9541 Z-0.0100
G01 X1.0442 Y0.9498 Z-0.0100
G01 X1.0085 Y0.9032 Z-0.0100
G01 X1.0053 Y0.8988 Z-0.0100
G01 X0.9717 Y0.8508 Z-0.0100
G01 X0.9686 Y0.8462 Z-0.0100
G01 X0.9374 Y0.7971 Z-0.0100
G01 X0.9347 Y0.7926 Z-0.0100
G01 X0.9045 Y0.7404 Z-0.0100
G01 X0.9019 Y0.7357 Z-0.0100
G01 X0.8744 Y0.6830 Z-0.0100
G01 X0.8722 Y0.6785 Z-0.0100
G01 X0.8463 Y0.6233 Z-0.0100
G01 X0.8442 Y0.6187 Z-0.0100
G01 X0.8200 Y0.5611 Z-0.0100
G01 X0.8182 Y0.5566 Z-0.0100
G01 X0.7956 Y0.4964 Z-0.0100
G01 X0.7940 Y0.4919 Z-0.0100
G01 X0.7734 Y0.4296 Z-0.0100
G01 X0.7720 Y0.4253 Z-0.0100
G01 X0.7527 Y0.3590 Z-0.0100
G01 X0.7516 Y0.3547 Z-0.0100
G01 X0.7347 Y0.2878 Z-0.0100
G01 X0.7338 Y0.2838 Z-0.0100
G01 X0.7181 Y0.2116 Z-0.0100
G01 X0.7174 Y0.2075 Z-0.0100
G01 X0.7040 Y0.1342 Z-0.0100
G01 X0.7033 Y0.1303 Z-0.0100
G01 X0.6920 Y0.0542 Z-0.0100
G01 X0.6915 Y0.0506 Z-0.0100
G01 X0.6872 Y0.0146 Z-0.0100
G01 X0.6868 Y0.0109 Z-0.0100
G01 X0.6866 Y0.0072 Z-0.0100
G01 X0.6864 Y0.0036 Z-0.0100
G01 X0.6864 Y0.0000 Z-0.0100
G00 X0.6864 Y0.0000 Z0.6000
M05
G00 X0.0000 Y0.0000 Z0.6000
G49
G01 G55 Z0 F20
G00 G55 X0 Y0 Z0
M30
