( Sample-ski-core-edge-groove.nc                                               )
( Generated by MonkeyCAM v4.0.6 master@6e00d93                                 )
(   at 2018-03-07 14:47:31 PST                                                 )
(                                                                              )
( This GCode program is provided on an "AS IS" BASIS WITHOUT WARRANTIES OR     )
( CONDITIONS OF ANY KIND, either express or implied. You should inspect this   )
( program very carefully to confirm you understand its operation. YOU ARE      )
( RESPONSIBLE FOR ENSURING THIS PROGRAM WILL NOT DAMAGE YOUR MACHINE OR        )
( MATERIALS.                                                                   )
(                                                                              )
( See http://www.github.com/mikemag/MonkeyCAM for License and documentation.   )
(                                                                              )
( * Rapid height: 0.2000" [0.5080cm]                                           )
( * Tool: T1, Quarter Inch Upcut Spiral, diameter 0.2469" [0.6273cm]           )
( * Height baseline [Z=0.0] is the top of the material.                        )
( * XY origin is the left side of the table, Y is center of the part.          )
( * Requires G54 to be the part work coordinate offsets [WCO]. [0, 0] is the   )
(   center of the nose, with the board extending to positive X. The cutter may )
(   move to negative values of X.                                              )
( * Requires G55 to be the machine WCO, with Z above the rapid height.         )
( * Units are inches                                                           )
( * Center of the board in G54:                                                )
(     X=36.0236 Y=0.0000 Z=0.0000                                              )
( * Cutter bounding box in G54:                                                )
(     X0.0000 Y-2.5301 Z-0.0300 to X70.2701 Y2.5301 Z0.2000                    )

G90 G20 G17 G40 G49
G43 H1 T1
G00 G54 X0 Y0 Z0.2000

M03
G04 P5
G00 X0.2305 Y0.0000 Z0.2000
G01 X0.2305 Y0.0000 Z-0.0300 F80
G01 X0.2305 Y0.0000 Z-0.0300
G01 X0.2316 Y-0.0681 Z-0.0300
G01 X0.2351 Y-0.1353 Z-0.0300
G01 X0.2412 Y-0.2039 Z-0.0300
G01 X0.2495 Y-0.2708 Z-0.0300
G01 X0.2603 Y-0.3376 Z-0.0300
G01 X0.2739 Y-0.4054 Z-0.0300
G01 X0.2895 Y-0.4701 Z-0.0300
G01 X0.3082 Y-0.5365 Z-0.0300
G01 X0.3295 Y-0.6021 Z-0.0300
G01 X0.3533 Y-0.6667 Z-0.0300
G01 X0.3796 Y-0.7303 Z-0.0300
G01 X0.4093 Y-0.7943 Z-0.0300
G01 X0.4414 Y-0.8570 Z-0.0300
G01 X0.4769 Y-0.9200 Z-0.0300
G01 X0.5152 Y-0.9818 Z-0.0300
G01 X0.5558 Y-1.0417 Z-0.0300
G01 X0.6011 Y-1.1033 Z-0.0300
G01 X0.6485 Y-1.1624 Z-0.0300
G01 X0.6995 Y-1.2212 Z-0.0300
G01 X0.7538 Y-1.2790 Z-0.0300
G01 X0.8117 Y-1.3361 Z-0.0300
G01 X0.8735 Y-1.3925 Z-0.0300
G01 X0.9384 Y-1.4475 Z-0.0300
G01 X1.0070 Y-1.5014 Z-0.0300
G01 X1.0802 Y-1.5548 Z-0.0300
G01 X1.1566 Y-1.6066 Z-0.0300
G01 X1.2368 Y-1.6569 Z-0.0300
G01 X1.3214 Y-1.7061 Z-0.0300
G01 X1.4103 Y-1.7542 Z-0.0300
G01 X1.5027 Y-1.8003 Z-0.0300
G01 X1.6002 Y-1.8453 Z-0.0300
G01 X1.7018 Y-1.8886 Z-0.0300
G01 X1.8072 Y-1.9300 Z-0.0300
G01 X1.9178 Y-1.9699 Z-0.0300
G01 X2.0325 Y-2.0078 Z-0.0300
G01 X2.1507 Y-2.0435 Z-0.0300
G01 X2.2765 Y-2.0780 Z-0.0300
G01 X2.4032 Y-2.1094 Z-0.0300
G01 X2.5374 Y-2.1395 Z-0.0300
G01 X2.6752 Y-2.1670 Z-0.0300
G01 X2.8193 Y-2.1924 Z-0.0300
G01 X2.9668 Y-2.2153 Z-0.0300
G01 X3.1195 Y-2.2358 Z-0.0300
G01 X3.2763 Y-2.2537 Z-0.0300
G01 X3.4402 Y-2.2692 Z-0.0300
G01 X3.6076 Y-2.2819 Z-0.0300
G01 X3.7805 Y-2.2920 Z-0.0300
G01 X3.9590 Y-2.2992 Z-0.0300
G01 X4.1407 Y-2.3036 Z-0.0300
G01 X4.3274 Y-2.3051 Z-0.0300
G01 X4.9550 Y-2.2801 Z-0.0300
G01 X5.5887 Y-2.2553 Z-0.0300
G01 X6.2224 Y-2.2310 Z-0.0300
G01 X6.8561 Y-2.2071 Z-0.0300
G01 X7.4898 Y-2.1837 Z-0.0300
G01 X8.1235 Y-2.1608 Z-0.0300
G01 X8.7573 Y-2.1383 Z-0.0300
G01 X9.3911 Y-2.1162 Z-0.0300
G01 X10.0249 Y-2.0946 Z-0.0300
G01 X10.6587 Y-2.0735 Z-0.0300
G01 X11.2925 Y-2.0528 Z-0.0300
G01 X11.9264 Y-2.0326 Z-0.0300
G01 X12.5602 Y-2.0128 Z-0.0300
G01 X13.1941 Y-1.9935 Z-0.0300
G01 X13.8280 Y-1.9746 Z-0.0300
G01 X14.4619 Y-1.9562 Z-0.0300
G01 X15.0958 Y-1.9383 Z-0.0300
G01 X15.7297 Y-1.9207 Z-0.0300
G01 X16.3637 Y-1.9037 Z-0.0300
G01 X16.9976 Y-1.8871 Z-0.0300
G01 X17.6316 Y-1.8709 Z-0.0300
G01 X18.2655 Y-1.8553 Z-0.0300
G01 X18.8995 Y-1.8400 Z-0.0300
G01 X19.5335 Y-1.8253 Z-0.0300
G01 X20.1675 Y-1.8109 Z-0.0300
G01 X20.8015 Y-1.7970 Z-0.0300
G01 X21.4355 Y-1.7836 Z-0.0300
G01 X22.0696 Y-1.7706 Z-0.0300
G01 X22.7036 Y-1.7581 Z-0.0300
G01 X23.3377 Y-1.7461 Z-0.0300
G01 X23.9717 Y-1.7344 Z-0.0300
G01 X24.6058 Y-1.7233 Z-0.0300
G01 X25.2398 Y-1.7126 Z-0.0300
G01 X25.8739 Y-1.7024 Z-0.0300
G01 X26.5081 Y-1.6926 Z-0.0300
G01 X27.1421 Y-1.6832 Z-0.0300
G01 X27.7762 Y-1.6744 Z-0.0300
G01 X28.4103 Y-1.6659 Z-0.0300
G01 X29.0444 Y-1.6579 Z-0.0300
G01 X29.6786 Y-1.6504 Z-0.0300
G01 X30.3127 Y-1.6433 Z-0.0300
G01 X30.9468 Y-1.6367 Z-0.0300
G01 X31.5810 Y-1.6305 Z-0.0300
G01 X32.2151 Y-1.6248 Z-0.0300
G01 X32.8492 Y-1.6196 Z-0.0300
G01 X33.4834 Y-1.6148 Z-0.0300
G01 X34.1175 Y-1.6105 Z-0.0300
G01 X34.7517 Y-1.6066 Z-0.0300
G01 X35.3858 Y-1.6031 Z-0.0300
G01 X36.0200 Y-1.6001 Z-0.0300
G01 X36.6542 Y-1.5976 Z-0.0300
G01 X37.2883 Y-1.5955 Z-0.0300
G01 X37.9225 Y-1.5939 Z-0.0300
G01 X38.5566 Y-1.5927 Z-0.0300
G01 X39.1908 Y-1.5920 Z-0.0300
G01 X39.8250 Y-1.5918 Z-0.0300
G01 X40.4592 Y-1.5920 Z-0.0300
G01 X41.0933 Y-1.5926 Z-0.0300
G01 X41.7275 Y-1.5937 Z-0.0300
G01 X42.3616 Y-1.5953 Z-0.0300
G01 X42.9958 Y-1.5973 Z-0.0300
G01 X43.6300 Y-1.5997 Z-0.0300
G01 X44.2641 Y-1.6027 Z-0.0300
G01 X44.8983 Y-1.6060 Z-0.0300
G01 X45.5324 Y-1.6098 Z-0.0300
G01 X46.1666 Y-1.6141 Z-0.0300
G01 X46.8007 Y-1.6188 Z-0.0300
G01 X47.4349 Y-1.6240 Z-0.0300
G01 X48.0690 Y-1.6297 Z-0.0300
G01 X48.7031 Y-1.6358 Z-0.0300
G01 X49.3372 Y-1.6423 Z-0.0300
G01 X49.9714 Y-1.6493 Z-0.0300
G01 X50.6055 Y-1.6568 Z-0.0300
G01 X51.2396 Y-1.6647 Z-0.0300
G01 X51.8737 Y-1.6731 Z-0.0300
G01 X52.5078 Y-1.6819 Z-0.0300
G01 X53.1420 Y-1.6912 Z-0.0300
G01 X53.7760 Y-1.7009 Z-0.0300
G01 X54.4101 Y-1.7111 Z-0.0300
G01 X55.0442 Y-1.7217 Z-0.0300
G01 X55.6783 Y-1.7327 Z-0.0300
G01 X56.3123 Y-1.7443 Z-0.0300
G01 X56.9464 Y-1.7563 Z-0.0300
G01 X57.5804 Y-1.7687 Z-0.0300
G01 X58.2144 Y-1.7816 Z-0.0300
G01 X58.8485 Y-1.7950 Z-0.0300
G01 X59.4825 Y-1.8088 Z-0.0300
G01 X60.1165 Y-1.8231 Z-0.0300
G01 X60.7505 Y-1.8378 Z-0.0300
G01 X61.3844 Y-1.8530 Z-0.0300
G01 X62.0184 Y-1.8686 Z-0.0300
G01 X62.6524 Y-1.8847 Z-0.0300
G01 X63.2863 Y-1.9012 Z-0.0300
G01 X63.9203 Y-1.9182 Z-0.0300
G01 X64.5542 Y-1.9356 Z-0.0300
G01 X65.1881 Y-1.9535 Z-0.0300
G01 X65.8220 Y-1.9718 Z-0.0300
G01 X66.4559 Y-1.9907 Z-0.0300
G01 X67.0898 Y-2.0099 Z-0.0300
G01 X67.7194 Y-2.0295 Z-0.0300
G01 X67.8275 Y-2.0291 Z-0.0300
G01 X67.9381 Y-2.0279 Z-0.0300
G01 X68.0430 Y-2.0259 Z-0.0300
G01 X68.1468 Y-2.0232 Z-0.0300
G01 X68.2446 Y-2.0198 Z-0.0300
G01 X68.3433 Y-2.0155 Z-0.0300
G01 X68.4357 Y-2.0107 Z-0.0300
G01 X68.5277 Y-2.0050 Z-0.0300
G01 X68.6140 Y-1.9989 Z-0.0300
G01 X68.6986 Y-1.9921 Z-0.0300
G01 X68.7828 Y-1.9844 Z-0.0300
G01 X68.8627 Y-1.9762 Z-0.0300
G01 X68.9366 Y-1.9678 Z-0.0300
G01 X69.0125 Y-1.9583 Z-0.0300
G01 X69.0830 Y-1.9486 Z-0.0300
G01 X69.1499 Y-1.9385 Z-0.0300
G01 X69.2175 Y-1.9273 Z-0.0300
G01 X69.2781 Y-1.9164 Z-0.0300
G01 X69.3392 Y-1.9045 Z-0.0300
G01 X69.3982 Y-1.8920 Z-0.0300
G01 X69.4517 Y-1.8798 Z-0.0300
G01 X69.5031 Y-1.8671 Z-0.0300
G01 X69.5541 Y-1.8535 Z-0.0300
G01 X69.6000 Y-1.8404 Z-0.0300
G01 X69.6454 Y-1.8263 Z-0.0300
G01 X69.6878 Y-1.8122 Z-0.0300
G01 X69.7262 Y-1.7984 Z-0.0300
G01 X69.7635 Y-1.7839 Z-0.0300
G01 X69.7973 Y-1.7698 Z-0.0300
G01 X69.8302 Y-1.7550 Z-0.0300
G01 X69.8589 Y-1.7410 Z-0.0300
G01 X69.8856 Y-1.7269 Z-0.0300
G01 X69.9109 Y-1.7124 Z-0.0300
G01 X69.9325 Y-1.6991 Z-0.0300
G01 X69.9522 Y-1.6857 Z-0.0300
G01 X69.9703 Y-1.6723 Z-0.0300
G01 X69.9849 Y-1.6605 Z-0.0300
G01 X69.9983 Y-1.6485 Z-0.0300
G01 X70.0095 Y-1.6375 Z-0.0300
G01 X70.0180 Y-1.6281 Z-0.0300
G01 X70.0257 Y-1.6187 Z-0.0300
G01 X70.0314 Y-1.6106 Z-0.0300
G01 X70.0359 Y-1.6032 Z-0.0300
G01 X70.0390 Y-1.5973 Z-0.0300
G01 X70.0411 Y-1.5926 Z-0.0300
G01 X70.0427 Y-1.5880 Z-0.0300
G01 X70.0437 Y-1.5844 Z-0.0300
G01 X70.0443 Y-1.5811 Z-0.0300
G01 X70.0448 Y-1.5776 Z-0.0300
G01 X70.0450 Y-1.5700 Z-0.0300
G01 X70.0450 Y1.5700 Z-0.0300
G01 X70.0448 Y1.5776 Z-0.0300
G01 X70.0443 Y1.5811 Z-0.0300
G01 X70.0437 Y1.5844 Z-0.0300
G01 X70.0427 Y1.5880 Z-0.0300
G01 X70.0411 Y1.5925 Z-0.0300
G01 X70.0390 Y1.5973 Z-0.0300
G01 X70.0359 Y1.6031 Z-0.0300
G01 X70.0315 Y1.6103 Z-0.0300
G01 X70.0257 Y1.6187 Z-0.0300
G01 X70.0180 Y1.6281 Z-0.0300
G01 X70.0095 Y1.6375 Z-0.0300
G01 X69.9983 Y1.6485 Z-0.0300
G01 X69.9849 Y1.6605 Z-0.0300
G01 X69.9703 Y1.6723 Z-0.0300
G01 X69.9522 Y1.6857 Z-0.0300
G01 X69.9325 Y1.6991 Z-0.0300
G01 X69.9109 Y1.7124 Z-0.0300
G01 X69.8856 Y1.7269 Z-0.0300
G01 X69.8589 Y1.7410 Z-0.0300
G01 X69.8302 Y1.7550 Z-0.0300
G01 X69.7973 Y1.7698 Z-0.0300
G01 X69.7635 Y1.7839 Z-0.0300
G01 X69.7262 Y1.7984 Z-0.0300
G01 X69.6878 Y1.8122 Z-0.0300
G01 X69.6454 Y1.8263 Z-0.0300
G01 X69.6000 Y1.8404 Z-0.0300
G01 X69.5541 Y1.8535 Z-0.0300
G01 X69.5031 Y1.8671 Z-0.0300
G01 X69.4517 Y1.8798 Z-0.0300
G01 X69.3982 Y1.8920 Z-0.0300
G01 X69.3392 Y1.9045 Z-0.0300
G01 X69.2781 Y1.9164 Z-0.0300
G01 X69.2175 Y1.9273 Z-0.0300
G01 X69.1499 Y1.9385 Z-0.0300
G01 X69.0830 Y1.9486 Z-0.0300
G01 X69.0125 Y1.9583 Z-0.0300
G01 X68.9366 Y1.9678 Z-0.0300
G01 X68.8627 Y1.9762 Z-0.0300
G01 X68.7828 Y1.9844 Z-0.0300
G01 X68.6986 Y1.9921 Z-0.0300
G01 X68.6140 Y1.9989 Z-0.0300
G01 X68.5277 Y2.0050 Z-0.0300
G01 X68.4357 Y2.0107 Z-0.0300
G01 X68.3433 Y2.0155 Z-0.0300
G01 X68.2446 Y2.0198 Z-0.0300
G01 X68.1468 Y2.0232 Z-0.0300
G01 X68.0430 Y2.0259 Z-0.0300
G01 X67.9381 Y2.0279 Z-0.0300
G01 X67.8275 Y2.0291 Z-0.0300
G01 X67.7194 Y2.0295 Z-0.0300
G01 X67.0900 Y2.0099 Z-0.0300
G01 X66.4561 Y1.9907 Z-0.0300
G01 X65.8222 Y1.9719 Z-0.0300
G01 X65.1883 Y1.9535 Z-0.0300
G01 X64.5544 Y1.9356 Z-0.0300
G01 X63.9204 Y1.9182 Z-0.0300
G01 X63.2865 Y1.9012 Z-0.0300
G01 X62.6525 Y1.8847 Z-0.0300
G01 X62.0186 Y1.8686 Z-0.0300
G01 X61.3846 Y1.8530 Z-0.0300
G01 X60.7506 Y1.8378 Z-0.0300
G01 X60.1166 Y1.8231 Z-0.0300
G01 X59.4827 Y1.8088 Z-0.0300
G01 X58.8486 Y1.7950 Z-0.0300
G01 X58.2146 Y1.7816 Z-0.0300
G01 X57.5806 Y1.7687 Z-0.0300
G01 X56.9465 Y1.7563 Z-0.0300
G01 X56.3125 Y1.7443 Z-0.0300
G01 X55.6785 Y1.7327 Z-0.0300
G01 X55.0443 Y1.7217 Z-0.0300
G01 X54.4103 Y1.7111 Z-0.0300
G01 X53.7762 Y1.7009 Z-0.0300
G01 X53.1421 Y1.6912 Z-0.0300
G01 X52.5080 Y1.6819 Z-0.0300
G01 X51.8739 Y1.6731 Z-0.0300
G01 X51.2398 Y1.6647 Z-0.0300
G01 X50.6057 Y1.6568 Z-0.0300
G01 X49.9716 Y1.6493 Z-0.0300
G01 X49.3374 Y1.6423 Z-0.0300
G01 X48.7033 Y1.6358 Z-0.0300
G01 X48.0692 Y1.6297 Z-0.0300
G01 X47.4350 Y1.6240 Z-0.0300
G01 X46.8009 Y1.6188 Z-0.0300
G01 X46.1668 Y1.6141 Z-0.0300
G01 X45.5326 Y1.6098 Z-0.0300
G01 X44.8984 Y1.6060 Z-0.0300
G01 X44.2643 Y1.6027 Z-0.0300
G01 X43.6301 Y1.5997 Z-0.0300
G01 X42.9960 Y1.5973 Z-0.0300
G01 X42.3618 Y1.5953 Z-0.0300
G01 X41.7277 Y1.5937 Z-0.0300
G01 X41.0935 Y1.5926 Z-0.0300
G01 X40.4593 Y1.5920 Z-0.0300
G01 X39.8251 Y1.5918 Z-0.0300
G01 X39.1910 Y1.5920 Z-0.0300
G01 X38.5568 Y1.5927 Z-0.0300
G01 X37.9226 Y1.5939 Z-0.0300
G01 X37.2885 Y1.5955 Z-0.0300
G01 X36.6543 Y1.5976 Z-0.0300
G01 X36.0202 Y1.6001 Z-0.0300
G01 X35.3860 Y1.6031 Z-0.0300
G01 X34.7518 Y1.6066 Z-0.0300
G01 X34.1177 Y1.6105 Z-0.0300
G01 X33.4836 Y1.6148 Z-0.0300
G01 X32.8494 Y1.6196 Z-0.0300
G01 X32.2153 Y1.6248 Z-0.0300
G01 X31.5811 Y1.6305 Z-0.0300
G01 X30.9470 Y1.6367 Z-0.0300
G01 X30.3129 Y1.6433 Z-0.0300
G01 X29.6787 Y1.6504 Z-0.0300
G01 X29.0446 Y1.6579 Z-0.0300
G01 X28.4105 Y1.6659 Z-0.0300
G01 X27.7764 Y1.6744 Z-0.0300
G01 X27.1423 Y1.6832 Z-0.0300
G01 X26.5082 Y1.6926 Z-0.0300
G01 X25.8741 Y1.7024 Z-0.0300
G01 X25.2400 Y1.7126 Z-0.0300
G01 X24.6059 Y1.7233 Z-0.0300
G01 X23.9719 Y1.7344 Z-0.0300
G01 X23.3378 Y1.7461 Z-0.0300
G01 X22.7038 Y1.7581 Z-0.0300
G01 X22.0697 Y1.7706 Z-0.0300
G01 X21.4357 Y1.7836 Z-0.0300
G01 X20.8017 Y1.7970 Z-0.0300
G01 X20.1677 Y1.8109 Z-0.0300
G01 X19.5337 Y1.8252 Z-0.0300
G01 X18.8997 Y1.8400 Z-0.0300
G01 X18.2657 Y1.8553 Z-0.0300
G01 X17.6317 Y1.8709 Z-0.0300
G01 X16.9977 Y1.8871 Z-0.0300
G01 X16.3638 Y1.9037 Z-0.0300
G01 X15.7299 Y1.9207 Z-0.0300
G01 X15.0959 Y1.9383 Z-0.0300
G01 X14.4620 Y1.9562 Z-0.0300
G01 X13.8281 Y1.9746 Z-0.0300
G01 X13.1943 Y1.9935 Z-0.0300
G01 X12.5604 Y2.0128 Z-0.0300
G01 X11.9265 Y2.0326 Z-0.0300
G01 X11.2927 Y2.0528 Z-0.0300
G01 X10.6588 Y2.0735 Z-0.0300
G01 X10.0251 Y2.0946 Z-0.0300
G01 X9.3913 Y2.1162 Z-0.0300
G01 X8.7575 Y2.1383 Z-0.0300
G01 X8.1237 Y2.1608 Z-0.0300
G01 X7.4900 Y2.1837 Z-0.0300
G01 X6.8562 Y2.2071 Z-0.0300
G01 X6.2225 Y2.2310 Z-0.0300
G01 X5.5888 Y2.2553 Z-0.0300
G01 X4.9551 Y2.2800 Z-0.0300
G01 X4.3274 Y2.3051 Z-0.0300
G01 X4.1407 Y2.3036 Z-0.0300
G01 X3.9590 Y2.2992 Z-0.0300
G01 X3.7805 Y2.2920 Z-0.0300
G01 X3.6076 Y2.2819 Z-0.0300
G01 X3.4402 Y2.2692 Z-0.0300
G01 X3.2763 Y2.2537 Z-0.0300
G01 X3.1195 Y2.2358 Z-0.0300
G01 X2.9668 Y2.2153 Z-0.0300
G01 X2.8193 Y2.1924 Z-0.0300
G01 X2.6752 Y2.1670 Z-0.0300
G01 X2.5374 Y2.1395 Z-0.0300
G01 X2.4032 Y2.1094 Z-0.0300
G01 X2.2765 Y2.0780 Z-0.0300
G01 X2.1507 Y2.0435 Z-0.0300
G01 X2.0325 Y2.0078 Z-0.0300
G01 X1.9178 Y1.9699 Z-0.0300
G01 X1.8072 Y1.9300 Z-0.0300
G01 X1.7018 Y1.8886 Z-0.0300
G01 X1.6002 Y1.8453 Z-0.0300
G01 X1.5027 Y1.8003 Z-0.0300
G01 X1.4103 Y1.7542 Z-0.0300
G01 X1.3214 Y1.7061 Z-0.0300
G01 X1.2366 Y1.6568 Z-0.0300
G01 X1.1562 Y1.6063 Z-0.0300
G01 X1.0802 Y1.5548 Z-0.0300
G01 X1.0070 Y1.5014 Z-0.0300
G01 X0.9384 Y1.4475 Z-0.0300
G01 X0.8735 Y1.3925 Z-0.0300
G01 X0.8117 Y1.3361 Z-0.0300
G01 X0.7538 Y1.2790 Z-0.0300
G01 X0.6995 Y1.2212 Z-0.0300
G01 X0.6485 Y1.1624 Z-0.0300
G01 X0.6011 Y1.1033 Z-0.0300
G01 X0.5558 Y1.0417 Z-0.0300
G01 X0.5152 Y0.9818 Z-0.0300
G01 X0.4769 Y0.9200 Z-0.0300
G01 X0.4414 Y0.8570 Z-0.0300
G01 X0.4093 Y0.7943 Z-0.0300
G01 X0.3796 Y0.7303 Z-0.0300
G01 X0.3533 Y0.6667 Z-0.0300
G01 X0.3295 Y0.6021 Z-0.0300
G01 X0.3082 Y0.5365 Z-0.0300
G01 X0.2895 Y0.4701 Z-0.0300
G01 X0.2739 Y0.4054 Z-0.0300
G01 X0.2603 Y0.3376 Z-0.0300
G01 X0.2495 Y0.2708 Z-0.0300
G01 X0.2412 Y0.2039 Z-0.0300
G01 X0.2351 Y0.1353 Z-0.0300
G01 X0.2316 Y0.0681 Z-0.0300
G01 X0.2305 Y0.0000 Z-0.0300
G01 X0.0054 Y0.0000 Z-0.0300
G01 X0.0054 Y0.0000 Z-0.0300
G01 X0.0067 Y-0.0757 Z-0.0300
G01 X0.0107 Y-0.1517 Z-0.0300
G01 X0.0173 Y-0.2272 Z-0.0300
G01 X0.0267 Y-0.3027 Z-0.0300
G01 X0.0388 Y-0.3779 Z-0.0300
G01 X0.0539 Y-0.4529 Z-0.0300
G01 X0.0718 Y-0.5274 Z-0.0300
G01 X0.0928 Y-0.6018 Z-0.0300
G01 X0.1166 Y-0.6753 Z-0.0300
G01 X0.1436 Y-0.7484 Z-0.0300
G01 X0.1736 Y-0.8209 Z-0.0300
G01 X0.2069 Y-0.8927 Z-0.0300
G01 X0.2433 Y-0.9639 Z-0.0300
G01 X0.2830 Y-1.0342 Z-0.0300
G01 X0.3260 Y-1.1037 Z-0.0300
G01 X0.3724 Y-1.1723 Z-0.0300
G01 X0.4222 Y-1.2399 Z-0.0300
G01 X0.4755 Y-1.3064 Z-0.0300
G01 X0.5325 Y-1.3721 Z-0.0300
G01 X0.5928 Y-1.4363 Z-0.0300
G01 X0.6568 Y-1.4994 Z-0.0300
G01 X0.7247 Y-1.5614 Z-0.0300
G01 X0.7960 Y-1.6218 Z-0.0300
G01 X0.8712 Y-1.6810 Z-0.0300
G01 X0.9503 Y-1.7387 Z-0.0300
G01 X1.0333 Y-1.7948 Z-0.0300
G01 X1.1205 Y-1.8496 Z-0.0300
G01 X1.2114 Y-1.9025 Z-0.0300
G01 X1.3062 Y-1.9537 Z-0.0300
G01 X1.4053 Y-2.0032 Z-0.0300
G01 X1.5087 Y-2.0509 Z-0.0300
G01 X1.6163 Y-2.0968 Z-0.0300
G01 X1.7279 Y-2.1406 Z-0.0300
G01 X1.8440 Y-2.1825 Z-0.0300
G01 X1.9646 Y-2.2223 Z-0.0300
G01 X2.0893 Y-2.2600 Z-0.0300
G01 X2.2186 Y-2.2955 Z-0.0300
G01 X2.3524 Y-2.3287 Z-0.0300
G01 X2.4910 Y-2.3597 Z-0.0300
G01 X2.6340 Y-2.3882 Z-0.0300
G01 X2.7818 Y-2.4144 Z-0.0300
G01 X2.9342 Y-2.4380 Z-0.0300
G01 X3.0915 Y-2.4591 Z-0.0300
G01 X3.2537 Y-2.4776 Z-0.0300
G01 X3.4205 Y-2.4934 Z-0.0300
G01 X3.5925 Y-2.5064 Z-0.0300
G01 X3.7695 Y-2.5167 Z-0.0300
G01 X3.9514 Y-2.5241 Z-0.0300
G01 X4.1385 Y-2.5286 Z-0.0300
G01 X4.3305 Y-2.5301 Z-0.0300
G01 X4.9639 Y-2.5049 Z-0.0300
G01 X5.5975 Y-2.4801 Z-0.0300
G01 X6.2310 Y-2.4559 Z-0.0300
G01 X6.8646 Y-2.4320 Z-0.0300
G01 X7.4981 Y-2.4086 Z-0.0300
G01 X8.1317 Y-2.3857 Z-0.0300
G01 X8.7653 Y-2.3632 Z-0.0300
G01 X9.3989 Y-2.3411 Z-0.0300
G01 X10.0325 Y-2.3196 Z-0.0300
G01 X10.6662 Y-2.2984 Z-0.0300
G01 X11.2998 Y-2.2777 Z-0.0300
G01 X11.9336 Y-2.2575 Z-0.0300
G01 X12.5673 Y-2.2377 Z-0.0300
G01 X13.2010 Y-2.2184 Z-0.0300
G01 X13.8347 Y-2.1996 Z-0.0300
G01 X14.4684 Y-2.1812 Z-0.0300
G01 X15.1022 Y-2.1632 Z-0.0300
G01 X15.7359 Y-2.1457 Z-0.0300
G01 X16.3697 Y-2.1287 Z-0.0300
G01 X17.0035 Y-2.1120 Z-0.0300
G01 X17.6373 Y-2.0959 Z-0.0300
G01 X18.2711 Y-2.0802 Z-0.0300
G01 X18.9049 Y-2.0650 Z-0.0300
G01 X19.5388 Y-2.0502 Z-0.0300
G01 X20.1726 Y-2.0359 Z-0.0300
G01 X20.8064 Y-2.0220 Z-0.0300
G01 X21.4403 Y-2.0086 Z-0.0300
G01 X22.0742 Y-1.9956 Z-0.0300
G01 X22.7080 Y-1.9831 Z-0.0300
G01 X23.3419 Y-1.9711 Z-0.0300
G01 X23.9758 Y-1.9594 Z-0.0300
G01 X24.6098 Y-1.9483 Z-0.0300
G01 X25.2437 Y-1.9376 Z-0.0300
G01 X25.8776 Y-1.9274 Z-0.0300
G01 X26.5115 Y-1.9176 Z-0.0300
G01 X27.1454 Y-1.9082 Z-0.0300
G01 X27.7794 Y-1.8994 Z-0.0300
G01 X28.4133 Y-1.8909 Z-0.0300
G01 X29.0473 Y-1.8829 Z-0.0300
G01 X29.6812 Y-1.8754 Z-0.0300
G01 X30.3152 Y-1.8684 Z-0.0300
G01 X30.9492 Y-1.8618 Z-0.0300
G01 X31.5832 Y-1.8556 Z-0.0300
G01 X32.2171 Y-1.8499 Z-0.0300
G01 X32.8511 Y-1.8446 Z-0.0300
G01 X33.4851 Y-1.8398 Z-0.0300
G01 X34.1191 Y-1.8355 Z-0.0300
G01 X34.7531 Y-1.8316 Z-0.0300
G01 X35.3870 Y-1.8282 Z-0.0300
G01 X36.0211 Y-1.8252 Z-0.0300
G01 X36.6550 Y-1.8227 Z-0.0300
G01 X37.2891 Y-1.8206 Z-0.0300
G01 X37.9231 Y-1.8190 Z-0.0300
G01 X38.5571 Y-1.8178 Z-0.0300
G01 X39.1911 Y-1.8171 Z-0.0300
G01 X39.8251 Y-1.8168 Z-0.0300
G01 X40.4591 Y-1.8170 Z-0.0300
G01 X41.0931 Y-1.8176 Z-0.0300
G01 X41.7271 Y-1.8187 Z-0.0300
G01 X42.3611 Y-1.8203 Z-0.0300
G01 X42.9951 Y-1.8223 Z-0.0300
G01 X43.6291 Y-1.8248 Z-0.0300
G01 X44.2631 Y-1.8277 Z-0.0300
G01 X44.8971 Y-1.8311 Z-0.0300
G01 X45.5311 Y-1.8349 Z-0.0300
G01 X46.1651 Y-1.8392 Z-0.0300
G01 X46.7990 Y-1.8439 Z-0.0300
G01 X47.4330 Y-1.8491 Z-0.0300
G01 X48.0670 Y-1.8547 Z-0.0300
G01 X48.7010 Y-1.8608 Z-0.0300
G01 X49.3349 Y-1.8674 Z-0.0300
G01 X49.9689 Y-1.8744 Z-0.0300
G01 X50.6029 Y-1.8818 Z-0.0300
G01 X51.2368 Y-1.8897 Z-0.0300
G01 X51.8708 Y-1.8981 Z-0.0300
G01 X52.5047 Y-1.9069 Z-0.0300
G01 X53.1387 Y-1.9162 Z-0.0300
G01 X53.7726 Y-1.9259 Z-0.0300
G01 X54.4065 Y-1.9361 Z-0.0300
G01 X55.0404 Y-1.9467 Z-0.0300
G01 X55.6743 Y-1.9577 Z-0.0300
G01 X56.3082 Y-1.9693 Z-0.0300
G01 X56.9421 Y-1.9813 Z-0.0300
G01 X57.5760 Y-1.9937 Z-0.0300
G01 X58.2099 Y-2.0066 Z-0.0300
G01 X58.8437 Y-2.0200 Z-0.0300
G01 X59.4776 Y-2.0338 Z-0.0300
G01 X60.1114 Y-2.0481 Z-0.0300
G01 X60.7452 Y-2.0627 Z-0.0300
G01 X61.3790 Y-2.0779 Z-0.0300
G01 X62.0129 Y-2.0935 Z-0.0300
G01 X62.6467 Y-2.1096 Z-0.0300
G01 X63.2805 Y-2.1261 Z-0.0300
G01 X63.9142 Y-2.1431 Z-0.0300
G01 X64.5480 Y-2.1606 Z-0.0300
G01 X65.1818 Y-2.1785 Z-0.0300
G01 X65.8155 Y-2.1968 Z-0.0300
G01 X66.4492 Y-2.2156 Z-0.0300
G01 X67.0829 Y-2.2348 Z-0.0300
G01 X67.7166 Y-2.2546 Z-0.0300
G01 X67.8300 Y-2.2541 Z-0.0300
G01 X67.9406 Y-2.2529 Z-0.0300
G01 X68.0481 Y-2.2509 Z-0.0300
G01 X68.1527 Y-2.2481 Z-0.0300
G01 X68.2543 Y-2.2446 Z-0.0300
G01 X68.3530 Y-2.2403 Z-0.0300
G01 X68.4487 Y-2.2353 Z-0.0300
G01 X68.5417 Y-2.2296 Z-0.0300
G01 X68.6318 Y-2.2232 Z-0.0300
G01 X68.7192 Y-2.2162 Z-0.0300
G01 X68.8037 Y-2.2085 Z-0.0300
G01 X68.8855 Y-2.2001 Z-0.0300
G01 X68.9646 Y-2.1911 Z-0.0300
G01 X69.0410 Y-2.1815 Z-0.0300
G01 X69.1149 Y-2.1713 Z-0.0300
G01 X69.1860 Y-2.1606 Z-0.0300
G01 X69.2546 Y-2.1492 Z-0.0300
G01 X69.3207 Y-2.1374 Z-0.0300
G01 X69.3841 Y-2.1250 Z-0.0300
G01 X69.4452 Y-2.1121 Z-0.0300
G01 X69.5038 Y-2.0987 Z-0.0300
G01 X69.5600 Y-2.0849 Z-0.0300
G01 X69.6136 Y-2.0706 Z-0.0300
G01 X69.6650 Y-2.0558 Z-0.0300
G01 X69.7140 Y-2.0407 Z-0.0300
G01 X69.7607 Y-2.0251 Z-0.0300
G01 X69.8051 Y-2.0091 Z-0.0300
G01 X69.8475 Y-1.9927 Z-0.0300
G01 X69.8873 Y-1.9761 Z-0.0300
G01 X69.9251 Y-1.9590 Z-0.0300
G01 X69.9607 Y-1.9417 Z-0.0300
G01 X69.9942 Y-1.9240 Z-0.0300
G01 X70.0258 Y-1.9060 Z-0.0300
G01 X70.0550 Y-1.8879 Z-0.0300
G01 X70.0822 Y-1.8694 Z-0.0300
G01 X70.1075 Y-1.8508 Z-0.0300
G01 X70.1309 Y-1.8319 Z-0.0300
G01 X70.1525 Y-1.8126 Z-0.0300
G01 X70.1720 Y-1.7933 Z-0.0300
G01 X70.1894 Y-1.7742 Z-0.0300
G01 X70.2053 Y-1.7543 Z-0.0300
G01 X70.2191 Y-1.7349 Z-0.0300
G01 X70.2313 Y-1.7151 Z-0.0300
G01 X70.2419 Y-1.6950 Z-0.0300
G01 X70.2505 Y-1.6754 Z-0.0300
G01 X70.2577 Y-1.6550 Z-0.0300
G01 X70.2631 Y-1.6353 Z-0.0300
G01 X70.2670 Y-1.6148 Z-0.0300
G01 X70.2693 Y-1.5951 Z-0.0300
G01 X70.2701 Y-1.5748 Z-0.0300
G01 X70.2701 Y1.5746 Z-0.0300
G01 X70.2693 Y1.5950 Z-0.0300
G01 X70.2670 Y1.6148 Z-0.0300
G01 X70.2631 Y1.6353 Z-0.0300
G01 X70.2577 Y1.6550 Z-0.0300
G01 X70.2507 Y1.6750 Z-0.0300
G01 X70.2419 Y1.6950 Z-0.0300
G01 X70.2313 Y1.7151 Z-0.0300
G01 X70.2191 Y1.7349 Z-0.0300
G01 X70.2053 Y1.7543 Z-0.0300
G01 X70.1896 Y1.7739 Z-0.0300
G01 X70.1720 Y1.7933 Z-0.0300
G01 X70.1525 Y1.8126 Z-0.0300
G01 X70.1309 Y1.8319 Z-0.0300
G01 X70.1077 Y1.8506 Z-0.0300
G01 X70.0822 Y1.8694 Z-0.0300
G01 X70.0550 Y1.8879 Z-0.0300
G01 X70.0258 Y1.9060 Z-0.0300
G01 X69.9942 Y1.9240 Z-0.0300
G01 X69.9609 Y1.9416 Z-0.0300
G01 X69.9253 Y1.9590 Z-0.0300
G01 X69.8873 Y1.9761 Z-0.0300
G01 X69.8475 Y1.9927 Z-0.0300
G01 X69.8053 Y2.0091 Z-0.0300
G01 X69.7608 Y2.0250 Z-0.0300
G01 X69.7141 Y2.0406 Z-0.0300
G01 X69.6651 Y2.0558 Z-0.0300
G01 X69.6136 Y2.0706 Z-0.0300
G01 X69.5600 Y2.0849 Z-0.0300
G01 X69.5038 Y2.0987 Z-0.0300
G01 X69.4452 Y2.1121 Z-0.0300
G01 X69.3841 Y2.1250 Z-0.0300
G01 X69.3207 Y2.1374 Z-0.0300
G01 X69.2546 Y2.1492 Z-0.0300
G01 X69.1860 Y2.1606 Z-0.0300
G01 X69.1149 Y2.1714 Z-0.0300
G01 X69.0410 Y2.1815 Z-0.0300
G01 X68.9646 Y2.1911 Z-0.0300
G01 X68.8855 Y2.2001 Z-0.0300
G01 X68.8037 Y2.2085 Z-0.0300
G01 X68.7192 Y2.2162 Z-0.0300
G01 X68.6318 Y2.2232 Z-0.0300
G01 X68.5417 Y2.2296 Z-0.0300
G01 X68.4487 Y2.2353 Z-0.0300
G01 X68.3530 Y2.2403 Z-0.0300
G01 X68.2543 Y2.2446 Z-0.0300
G01 X68.1527 Y2.2481 Z-0.0300
G01 X68.0481 Y2.2509 Z-0.0300
G01 X67.9406 Y2.2529 Z-0.0300
G01 X67.8300 Y2.2541 Z-0.0300
G01 X67.7166 Y2.2546 Z-0.0300
G01 X67.0829 Y2.2348 Z-0.0300
G01 X66.4492 Y2.2156 Z-0.0300
G01 X65.8155 Y2.1968 Z-0.0300
G01 X65.1818 Y2.1785 Z-0.0300
G01 X64.5480 Y2.1606 Z-0.0300
G01 X63.9142 Y2.1431 Z-0.0300
G01 X63.2805 Y2.1261 Z-0.0300
G01 X62.6467 Y2.1096 Z-0.0300
G01 X62.0129 Y2.0935 Z-0.0300
G01 X61.3790 Y2.0779 Z-0.0300
G01 X60.7452 Y2.0627 Z-0.0300
G01 X60.1114 Y2.0481 Z-0.0300
G01 X59.4776 Y2.0338 Z-0.0300
G01 X58.8437 Y2.0200 Z-0.0300
G01 X58.2099 Y2.0066 Z-0.0300
G01 X57.5760 Y1.9937 Z-0.0300
G01 X56.9421 Y1.9813 Z-0.0300
G01 X56.3082 Y1.9693 Z-0.0300
G01 X55.6744 Y1.9577 Z-0.0300
G01 X55.0404 Y1.9467 Z-0.0300
G01 X54.4065 Y1.9361 Z-0.0300
G01 X53.7726 Y1.9259 Z-0.0300
G01 X53.1387 Y1.9162 Z-0.0300
G01 X52.5047 Y1.9069 Z-0.0300
G01 X51.8708 Y1.8981 Z-0.0300
G01 X51.2368 Y1.8897 Z-0.0300
G01 X50.6029 Y1.8818 Z-0.0300
G01 X49.9689 Y1.8744 Z-0.0300
G01 X49.3350 Y1.8674 Z-0.0300
G01 X48.7010 Y1.8608 Z-0.0300
G01 X48.0670 Y1.8547 Z-0.0300
G01 X47.4330 Y1.8491 Z-0.0300
G01 X46.7990 Y1.8439 Z-0.0300
G01 X46.1651 Y1.8392 Z-0.0300
G01 X45.5311 Y1.8349 Z-0.0300
G01 X44.8971 Y1.8311 Z-0.0300
G01 X44.2631 Y1.8277 Z-0.0300
G01 X43.6291 Y1.8248 Z-0.0300
G01 X42.9951 Y1.8223 Z-0.0300
G01 X42.3611 Y1.8203 Z-0.0300
G01 X41.7271 Y1.8187 Z-0.0300
G01 X41.0931 Y1.8176 Z-0.0300
G01 X40.4591 Y1.8170 Z-0.0300
G01 X39.8251 Y1.8168 Z-0.0300
G01 X39.1911 Y1.8171 Z-0.0300
G01 X38.5571 Y1.8178 Z-0.0300
G01 X37.9231 Y1.8190 Z-0.0300
G01 X37.2891 Y1.8206 Z-0.0300
G01 X36.6551 Y1.8227 Z-0.0300
G01 X36.0211 Y1.8252 Z-0.0300
G01 X35.3870 Y1.8282 Z-0.0300
G01 X34.7531 Y1.8316 Z-0.0300
G01 X34.1191 Y1.8355 Z-0.0300
G01 X33.4851 Y1.8398 Z-0.0300
G01 X32.8511 Y1.8446 Z-0.0300
G01 X32.2171 Y1.8499 Z-0.0300
G01 X31.5832 Y1.8556 Z-0.0300
G01 X30.9492 Y1.8618 Z-0.0300
G01 X30.3152 Y1.8684 Z-0.0300
G01 X29.6812 Y1.8754 Z-0.0300
G01 X29.0473 Y1.8829 Z-0.0300
G01 X28.4133 Y1.8909 Z-0.0300
G01 X27.7794 Y1.8994 Z-0.0300
G01 X27.1454 Y1.9082 Z-0.0300
G01 X26.5115 Y1.9176 Z-0.0300
G01 X25.8776 Y1.9274 Z-0.0300
G01 X25.2437 Y1.9376 Z-0.0300
G01 X24.6098 Y1.9483 Z-0.0300
G01 X23.9759 Y1.9594 Z-0.0300
G01 X23.3419 Y1.9711 Z-0.0300
G01 X22.7080 Y1.9831 Z-0.0300
G01 X22.0742 Y1.9956 Z-0.0300
G01 X21.4403 Y2.0086 Z-0.0300
G01 X20.8064 Y2.0220 Z-0.0300
G01 X20.1726 Y2.0359 Z-0.0300
G01 X19.5388 Y2.0502 Z-0.0300
G01 X18.9049 Y2.0650 Z-0.0300
G01 X18.2711 Y2.0802 Z-0.0300
G01 X17.6373 Y2.0959 Z-0.0300
G01 X17.0035 Y2.1120 Z-0.0300
G01 X16.3697 Y2.1287 Z-0.0300
G01 X15.7359 Y2.1457 Z-0.0300
G01 X15.1022 Y2.1632 Z-0.0300
G01 X14.4684 Y2.1812 Z-0.0300
G01 X13.8347 Y2.1996 Z-0.0300
G01 X13.2010 Y2.2184 Z-0.0300
G01 X12.5673 Y2.2377 Z-0.0300
G01 X11.9336 Y2.2575 Z-0.0300
G01 X11.2999 Y2.2777 Z-0.0300
G01 X10.6662 Y2.2984 Z-0.0300
G01 X10.0325 Y2.3196 Z-0.0300
G01 X9.3989 Y2.3411 Z-0.0300
G01 X8.7653 Y2.3632 Z-0.0300
G01 X8.1317 Y2.3857 Z-0.0300
G01 X7.4981 Y2.4086 Z-0.0300
G01 X6.8646 Y2.4320 Z-0.0300
G01 X6.2310 Y2.4559 Z-0.0300
G01 X5.5975 Y2.4801 Z-0.0300
G01 X4.9639 Y2.5049 Z-0.0300
G01 X4.3305 Y2.5301 Z-0.0300
G01 X4.1385 Y2.5286 Z-0.0300
G01 X3.9514 Y2.5241 Z-0.0300
G01 X3.7695 Y2.5167 Z-0.0300
G01 X3.5925 Y2.5064 Z-0.0300
G01 X3.4205 Y2.4934 Z-0.0300
G01 X3.2537 Y2.4776 Z-0.0300
G01 X3.0915 Y2.4591 Z-0.0300
G01 X2.9342 Y2.4380 Z-0.0300
G01 X2.7818 Y2.4144 Z-0.0300
G01 X2.6340 Y2.3882 Z-0.0300
G01 X2.4910 Y2.3597 Z-0.0300
G01 X2.3524 Y2.3287 Z-0.0300
G01 X2.2186 Y2.2955 Z-0.0300
G01 X2.0893 Y2.2600 Z-0.0300
G01 X1.9646 Y2.2223 Z-0.0300
G01 X1.8440 Y2.1825 Z-0.0300
G01 X1.7279 Y2.1406 Z-0.0300
G01 X1.6163 Y2.0968 Z-0.0300
G01 X1.5087 Y2.0509 Z-0.0300
G01 X1.4053 Y2.0032 Z-0.0300
G01 X1.3062 Y1.9537 Z-0.0300
G01 X1.2114 Y1.9025 Z-0.0300
G01 X1.1205 Y1.8496 Z-0.0300
G01 X1.0333 Y1.7948 Z-0.0300
G01 X0.9503 Y1.7387 Z-0.0300
G01 X0.8712 Y1.6810 Z-0.0300
G01 X0.7960 Y1.6218 Z-0.0300
G01 X0.7247 Y1.5614 Z-0.0300
G01 X0.6568 Y1.4994 Z-0.0300
G01 X0.5928 Y1.4363 Z-0.0300
G01 X0.5325 Y1.3721 Z-0.0300
G01 X0.4755 Y1.3064 Z-0.0300
G01 X0.4222 Y1.2399 Z-0.0300
G01 X0.3724 Y1.1723 Z-0.0300
G01 X0.3260 Y1.1037 Z-0.0300
G01 X0.2830 Y1.0342 Z-0.0300
G01 X0.2433 Y0.9639 Z-0.0300
G01 X0.2069 Y0.8927 Z-0.0300
G01 X0.1736 Y0.8209 Z-0.0300
G01 X0.1436 Y0.7484 Z-0.0300
G01 X0.1166 Y0.6753 Z-0.0300
G01 X0.0928 Y0.6018 Z-0.0300
G01 X0.0718 Y0.5274 Z-0.0300
G01 X0.0539 Y0.4529 Z-0.0300
G01 X0.0388 Y0.3779 Z-0.0300
G01 X0.0267 Y0.3027 Z-0.0300
G01 X0.0173 Y0.2272 Z-0.0300
G01 X0.0106 Y0.1517 Z-0.0300
G01 X0.0067 Y0.0757 Z-0.0300
G01 X0.0054 Y0.0000 Z-0.0300
M05
G00 X0.0054 Y0.0000 Z0.2000
G00 X0.0000 Y0.0000 Z0.2000
G49
G01 G55 Z0 F20
G00 G55 X0 Y0 Z0
M30
